deepaktalwardt/rage-cage-arm-hackstorm/ros2/ws/sysid/runs/sysid_20260524_011113/raw/joint2_phaseB.csv
t_ns,phase,tau_cmd,q1,q2,q3,q4,q5,q6,qd1,qd2,qd3,qd4,qd5,qd6,tau1,tau2,tau3,tau4,tau5,tau6
1779585096954014778,B,0.0,0.0,-0.03944444109507185,-1.998873232431546,0.0,-0.012950343049797926,0.0,0.0,0.0,0.0,0.0,0.0,0.0,-0.3591,0.070875,3.482325,-0.05463108,0.6028587599999999,0.00575064
1779585096954014778,B,0.0,0.0,-0.03944444109507185,-1.998873232431546,0.0,-0.012950343049797926,0.0,0.0,0.0,0.0,0.0,0.0,0.0,-0.3591,0.070875,3.482325,-0.05463108,0.6028587599999999,0.00575064
1779585096954014778,B,0.0,0.0,-0.03944444109507185,-1.998873232431546,0.0,-0.012950343049797926,0.0,0.0,0.0,0.0,0.0,0.0,0.0,-0.3591,0.070875,3.482325,-0.05463108,0.6028587599999999,0.00575064
1779585096969002723,B,0.0,0.0,-0.03944444109507185,-1.998873232431546,0.0,-0.012950343049797926,0.0,0.0,0.0,0.0,0.0,0.0,0.0,-0.3402,0.108675,3.4681499999999996,-0.06038172,0.6019003199999999,0.01533504
1779585096969002723,B,0.0,0.0,-0.03944444109507185,-1.998873232431546,0.0,-0.012950343049797926,0.0,0.0,0.0,0.0,0.0,0.0,0.0,-0.3402,0.108675,3.4681499999999996,-0.06038172,0.6019003199999999,0.01533504
1779585096969002723,B,0.0,0.0,-0.03944444109507185,-1.998873232431546,0.0,-0.012950343049797926,0.0,0.0,0.0,0.0,0.0,0.0,0.0,-0.3402,0.108675,3.4681499999999996,-0.06038172,0.6019003199999999,0.01533504
1779585096989045143,B,0.0,0.0,-0.03944444109507185,-1.998873232431546,0.0,-0.012950343049797926,0.0,0.0,0.0,0.0,0.0,0.0,0.0,-0.36855,0.099225,3.4776,-0.04696356,0.6019003199999999,0.00287532
1779585096989045143,B,0.0,0.0,-0.03944444109507185,-1.998873232431546,0.0,-0.012950343049797926,0.0,0.0,0.0,0.0,0.0,0.0,0.0,-0.36855,0.099225,3.4776,-0.04696356,0.6019003199999999,0.00287532
1779585096989045143,B,0.0,0.0,-0.03944444109507185,-1.998873232431546,0.0,-0.012950343049797926,0.0,0.0,0.0,0.0,0.0,0.0,0.0,-0.36855,0.099225,3.4776,-0.04696356,0.6019003199999999,0.00287532
1779585097004016399,B,0.0,0.0,-0.03944444109507185,-1.998873232431546,0.0,-0.012950343049797926,0.0,0.0,0.0,0.0,0.0,0.0,0.0,-0.37327499999999997,0.070875,3.4445249999999996,-0.05654796,0.6019003199999999,0.00575064
1779585097004016399,B,9.359081926240286e-09,0.0,-0.03944444109507185,-1.998873232431546,0.0,-0.012950343049797926,0.0,0.0,0.0,0.0,0.0,0.0,0.0,-0.37327499999999997,0.070875,3.4445249999999996,-0.05654796,0.6019003199999999,0.00575064
1779585097004016399,B,1.7814039632704024e-08,0.0,-0.03944444109507185,-1.998873232431546,0.0,-0.012950343049797926,0.0,0.0,0.0,0.0,0.0,0.0,0.0,-0.37327499999999997,0.070875,3.4445249999999996,-0.05654796,0.6019003199999999,0.00575064
1779585097024011611,B,2.634594290024822e-08,0.0,-0.03944444109507185,-1.998873232431546,0.0,-0.012950343049797926,0.0,0.0,0.0,0.0,0.0,0.0,0.0,-0.3591,0.0756,3.5153999999999996,-0.047922,0.59519124,0.00191688
1779585097024011611,B,3.633247682231115e-08,0.0,-0.03944444109507185,-1.998873232431546,0.0,-0.012950343049797926,0.0,0.0,0.0,0.0,0.0,0.0,0.0,-0.3591,0.0756,3.5153999999999996,-0.047922,0.59519124,0.00191688
1779585097024011611,B,4.504792923567389e-08,0.0,-0.03944444109507185,-1.998873232431546,0.0,-0.012950343049797926,0.0,0.0,0.0,0.0,0.0,0.0,0.0,-0.3591,0.0756,3.5153999999999996,-0.047922,0.59519124,0.00191688
1779585097039012670,B,5.3763575153282885e-08,0.0,-0.03944444109507185,-1.998873232431546,0.0,-0.012950343049797926,0.0,0.0,0.0,0.0,0.0,0.0,0.0,-0.35437499999999994,0.155925,3.4870499999999995,-0.059423279999999995,0.59806656,0.00766752
1779585097039012670,B,6.372692505657086e-08,0.0,-0.03944444109507185,-1.998873232431546,0.0,-0.012950343049797926,0.0,0.0,0.0,0.0,0.0,0.0,0.0,-0.35437499999999994,0.155925,3.4870499999999995,-0.059423279999999995,0.59806656,0.00766752
1779585097039012670,B,7.234647489374916e-08,0.0,-0.03944444109507185,-1.998873232431546,0.0,-0.012950343049797926,0.0,0.0,0.0,0.0,0.0,0.0,0.0,-0.35437499999999994,0.155925,3.4870499999999995,-0.059423279999999995,0.59806656,0.00766752
1779585097059001922,B,8.085812214661817e-08,0.0,-0.03944444109507185,-1.998873232431546,0.0,-0.012950343049797926,0.0,0.0,0.0,0.0,0.0,0.0,0.0,-0.34964999999999996,0.11339999999999999,3.4634249999999995,-0.05367264,0.59710812,0.0095844
1779585097059001922,B,8.98978133145357e-08,0.0,-0.03944444109507185,-1.998873232431546,0.0,-0.012950343049797926,0.0,0.0,0.0,0.0,0.0,0.0,0.0,-0.34964999999999996,0.11339999999999999,3.4634249999999995,-0.05367264,0.59710812,0.0095844
1779585097059001922,B,9.827770046476964e-08,0.0,-0.03944444109507185,-1.998873232431546,0.0,-0.012950343049797926,0.0,0.0,0.0,0.0,0.0,0.0,0.0,-0.34964999999999996,0.11339999999999999,3.4634249999999995,-0.05367264,0.59710812,0.0095844
1779585097074284791,B,1.0644355693925841e-07,0.0,-0.03944444109507185,-1.998873232431546,0.0,-0.012950343049797926,0.0,0.0,0.0,0.0,0.0,0.0,0.0,-0.3449249999999999,0.08505,3.4776,-0.05367264,0.6028587599999999,0.00383376
1779585097074284791,B,1.1870311766836127e-07,0.0,-0.03944444109507185,-1.998873232431546,0.0,-0.012950343049797926,0.0,0.0,0.0,0.0,0.0,0.0,0.0,-0.3449249999999999,0.08505,3.4776,-0.05367264,0.6028587599999999,0.00383376
1779585097074284791,B,1.200000951939728e-07,0.0,-0.03944444109507185,-1.998873232431546,0.0,-0.012950343049797926,0.0,0.0,0.0,0.0,0.0,0.0,0.0,-0.3449249999999999,0.08505,3.4776,-0.05367264,0.6028587599999999,0.00383376
1779585097094000101,B,1.200000951939728e-07,0.0,-0.03944444109507185,-1.998873232431546,0.0,-0.012950343049797926,0.0,0.0,0.0,0.0,0.0,0.0,0.0,-0.35437499999999994,0.080325,3.4964999999999997,-0.059423279999999995,0.60573408,0.00287532
1779585097094000101,B,1.200000951939728e-07,0.0,-0.03944444109507185,-1.998873232431546,0.0,-0.012950343049797926,0.0,0.0,0.0,0.0,0.0,0.0,0.0,-0.35437499999999994,0.080325,3.4964999999999997,-0.059423279999999995,0.60573408,0.00287532
1779585097094000101,B,1.200000951939728e-07,0.0,-0.03944444109507185,-1.998873232431546,0.0,-0.012950343049797926,0.0,0.0,0.0,0.0,0.0,0.0,0.0,-0.35437499999999994,0.080325,3.4964999999999997,-0.059423279999999995,0.60573408,0.00287532
1779585097114013910,B,1.200000951939728e-07,0.0,-0.03944444109507185,-1.998873232431546,0.0,-0.012950343049797926,0.0,0.0,0.0,0.0,0.0,0.0,0.0,-0.35437499999999994,0.118125,3.4681499999999996,-0.05367264,0.6028587599999999,0.00575064
1779585097114013910,B,1.200000951939728e-07,0.0,-0.03944444109507185,-1.998873232431546,0.0,-0.012950343049797926,0.0,0.0,0.0,0.0,0.0,0.0,0.0,-0.35437499999999994,0.118125,3.4681499999999996,-0.05367264,0.6028587599999999,0.00575064
1779585097114013910,B,1.200000951939728e-07,0.0,-0.03944444109507185,-1.998873232431546,0.0,-0.012950343049797926,0.0,0.0,0.0,0.0,0.0,0.0,0.0,-0.35437499999999994,0.118125,3.4681499999999996,-0.05367264,0.6028587599999999,0.00575064
1779585097129008531,B,1.200000951939728e-07,0.0,-0.03944444109507185,-1.998873232431546,0.0,-0.012950343049797926,0.0,0.0,0.0,0.0,0.0,0.0,0.0,-0.34964999999999996,0.099225,3.4587,-0.048880440000000004,0.59710812,-0.00575064
1779585097129008531,B,1.200000951939728e-07,0.0,-0.03944444109507185,-1.998873232431546,0.0,-0.012950343049797926,0.0,0.0,0.0,0.0,0.0,0.0,0.0,-0.34964999999999996,0.099225,3.4587,-0.048880440000000004,0.59710812,-0.00575064
1779585097129008531,B,1.200000951939728e-07,0.0,-0.03944444109507185,-1.998873232431546,0.0,-0.012950343049797926,0.0,0.0,0.0,0.0,0.0,0.0,0.0,-0.34964999999999996,0.099225,3.4587,-0.048880440000000004,0.59710812,-0.00575064
1779585097144008874,B,1.200000951939728e-07,0.0,-0.03944444109507185,-1.998873232431546,0.0,-0.012950343049797926,0.0,0.0,0.0,0.0,0.0,0.0,0.0,-0.3402,0.0756,3.501225,-0.06038172,0.5990249999999999,0.0095844
1779585097144008874,B,1.200000951939728e-07,0.0,-0.03944444109507185,-1.998873232431546,0.0,-0.012950343049797926,0.0,0.0,0.0,0.0,0.0,0.0,0.0,-0.3402,0.0756,3.501225,-0.06038172,0.5990249999999999,0.0095844
1779585097144008874,B,1.200000951939728e-07,0.0,-0.03944444109507185,-1.998873232431546,0.0,-0.012950343049797926,0.0,0.0,0.0,0.0,0.0,0.0,0.0,-0.3402,0.0756,3.501225,-0.06038172,0.5990249999999999,0.0095844
1779585097164003610,B,1.200000951939728e-07,0.0,-0.03944444109507185,-1.998873232431546,0.0,-0.012950343049797926,0.0,0.0,0.0,0.0,0.0,0.0,0.0,-0.34964999999999996,0.108675,3.4776,-0.06134016,0.60573408,0.00862596
1779585097164003610,B,1.200000951939728e-07,0.0,-0.03944444109507185,-1.998873232431546,0.0,-0.012950343049797926,0.0,0.0,0.0,0.0,0.0,0.0,0.0,-0.34964999999999996,0.108675,3.4776,-0.06134016,0.60573408,0.00862596
1779585097164003610,B,1.200000951939728e-07,0.0,-0.03944444109507185,-1.998873232431546,0.0,-0.012950343049797926,0.0,0.0,0.0,0.0,0.0,0.0,0.0,-0.34964999999999996,0.108675,3.4776,-0.06134016,0.60573408,0.00862596
1779585097179008722,B,1.200000951939728e-07,0.0,-0.03944444109507185,-1.998873232431546,0.0,-0.012950343049797926,0.0,0.0,0.0,0.0,0.0,0.0,0.0,-0.36855,0.070875,3.4681499999999996,-0.05079731999999999,0.6019003199999999,0.00191688
1779585097179008722,B,1.200000951939728e-07,0.0,-0.03944444109507185,-1.998873232431546,0.0,-0.012950343049797926,0.0,0.0,0.0,0.0,0.0,0.0,0.0,-0.36855,0.070875,3.4681499999999996,-0.05079731999999999,0.6019003199999999,0.00191688
1779585097179008722,B,1.200000951939728e-07,0.0,-0.03944444109507185,-1.998873232431546,0.0,-0.012950343049797926,0.0,0.0,0.0,0.0,0.0,0.0,0.0,-0.36855,0.070875,3.4681499999999996,-0.05079731999999999,0.6019003199999999,0.00191688
1779585097199000120,B,1.200000951939728e-07,0.0,-0.03944444109507185,-1.998873232431546,0.0,-0.012950343049797926,0.0,0.0,0.0,0.0,0.0,0.0,0.0,-0.37327499999999997,0.08505,3.4870499999999995,-0.04983888,0.60477564,0.00383376
1779585097199000120,B,1.200000951939728e-07,0.0,-0.03944444109507185,-1.998873232431546,0.0,-0.012950343049797926,0.0,0.0,0.0,0.0,0.0,0.0,0.0,-0.37327499999999997,0.08505,3.4870499999999995,-0.04983888,0.60477564,0.00383376
1779585097199000120,B,1.200000951939728e-07,0.0,-0.03944444109507185,-1.998873232431546,0.0,-0.012950343049797926,0.0,0.0,0.0,0.0,0.0,0.0,0.0,-0.37327499999999997,0.08505,3.4870499999999995,-0.04983888,0.60477564,0.00383376
1779585097214091539,B,1.200000951939728e-07,0.0,-0.03944444109507185,-1.998873232431546,0.0,-0.012950343049797926,0.0,0.0,0.0,0.0,0.0,0.0,0.0,-0.35437499999999994,0.0945,3.4728749999999997,-0.059423279999999995,0.6038171999999999,0.00670908
1779585097214091539,B,1.200000951939728e-07,0.0,-0.03944444109507185,-1.998873232431546,0.0,-0.012950343049797926,0.0,0.0,0.0,0.0,0.0,0.0,0.0,-0.35437499999999994,0.0945,3.4728749999999997,-0.059423279999999995,0.6038171999999999,0.00670908
1779585097214091539,B,1.200000951939728e-07,0.0,-0.03944444109507185,-1.998873232431546,0.0,-0.012950343049797926,0.0,0.0,0.0,0.0,0.0,0.0,0.0,-0.35437499999999994,0.0945,3.4728749999999997,-0.059423279999999995,0.6038171999999999,0.00670908
1779585097234002351,B,1.200000951939728e-07,0.0,-0.03944444109507185,-1.998873232431546,0.0,-0.012950343049797926,0.0,0.0,0.0,0.0,0.0,0.0,0.0,-0.34964999999999996,0.099225,3.50595,-0.05846484,0.6009418799999999,0.00191688
1779585097234002351,B,1.200000951939728e-07,0.0,-0.03944444109507185,-1.998873232431546,0.0,-0.012950343049797926,0.0,0.0,0.0,0.0,0.0,0.0,0.0,-0.34964999999999996,0.099225,3.50595,-0.05846484,0.6009418799999999,0.00191688
1779585097234002351,B,1.200000951939728e-07,0.0,-0.03944444109507185,-1.998873232431546,0.0,-0.012950343049797926,0.0,0.0,0.0,0.0,0.0,0.0,0.0,-0.34964999999999996,0.099225,3.50595,-0.05846484,0.6009418799999999,0.00191688
1779585097249224185,B,1.200000951939728e-07,0.0,-0.03944444109507185,-1.998873232431546,0.0,-0.012950343049797926,0.0,0.0,0.0,0.0,0.0,0.0,0.0,-0.3402,0.10394999999999999,3.4964999999999997,-0.05750639999999999,0.5990249999999999,0.01054284
1779585097249224185,B,1.200000951939728e-07,0.0,-0.03944444109507185,-1.998873232431546,0.0,-0.012950343049797926,0.0,0.0,0.0,0.0,0.0,0.0,0.0,-0.3402,0.10394999999999999,3.4964999999999997,-0.05750639999999999,0.5990249999999999,0.01054284
1779585097249224185,B,1.200000951939728e-07,0.0,-0.03944444109507185,-1.998873232431546,0.0,-0.012950343049797926,0.0,0.0,0.0,0.0,0.0,0.0,0.0,-0.3402,0.10394999999999999,3.4964999999999997,-0.05750639999999999,0.5990249999999999,0.01054284
1779585097269084930,B,1.200000951939728e-07,0.0,-0.03944444109507185,-1.998873232431546,0.0,-0.012950343049797926,0.0,0.0,0.0,0.0,0.0,0.0,0.0,-0.34964999999999996,0.0945,3.4256249999999997,-0.04983888,0.60477564,0.00095844
1779585097269084930,B,1.200000951939728e-07,0.0,-0.03944444109507185,-1.998873232431546,0.0,-0.012950343049797926,0.0,0.0,0.0,0.0,0.0,0.0,0.0,-0.34964999999999996,0.0945,3.4256249999999997,-0.04983888,0.60477564,0.00095844
1779585097269084930,B,1.200000951939728e-07,0.0,-0.03944444109507185,-1.998873232431546,0.0,-0.012950343049797926,0.0,0.0,0.0,0.0,0.0,0.0,0.0,-0.34964999999999996,0.0945,3.4256249999999997,-0.04983888,0.60477564,0.00095844
1779585097284006595,B,1.198874811049749e-07,0.0,-0.03944444109507185,-1.998873232431546,0.0,-0.012950343049797926,0.0,0.0,0.0,0.0,0.0,0.0,0.0,-0.34964999999999996,0.080325,3.52485,-0.05750639999999999,0.5990249999999999,0.00766752
1779585097284006595,B,1.1045534461915497e-07,0.0,-0.03944444109507185,-1.998873232431546,0.0,-0.012950343049797926,0.0,0.0,0.0,0.0,0.0,0.0,0.0,-0.34964999999999996,0.080325,3.52485,-0.05750639999999999,0.5990249999999999,0.00766752
1779585097284006595,B,1.0203537744080176e-07,0.0,-0.03944444109507185,-1.998873232431546,0.0,-0.012950343049797926,0.0,0.0,0.0,0.0,0.0,0.0,0.0,-0.34964999999999996,0.080325,3.52485,-0.05750639999999999,0.5990249999999999,0.00766752
1779585097299010992,B,9.367977831491424e-08,0.0,-0.03944444109507185,-1.998873232431546,0.0,-0.012950343049797926,0.0,0.0,0.0,0.0,0.0,0.0,0.0,-0.35437499999999994,0.11339999999999999,3.50595,-0.04983888,0.6009418799999999,0.01054284
1779585097299010992,B,8.401090564558224e-08,0.0,-0.03944444109507185,-1.998873232431546,0.0,-0.012950343049797926,0.0,0.0,0.0,0.0,0.0,0.0,0.0,-0.35437499999999994,0.11339999999999999,3.50595,-0.04983888,0.6009418799999999,0.01054284
1779585097299010992,B,7.554341992524466e-08,0.0,-0.03944444109507185,-1.998873232431546,0.0,-0.012950343049797926,0.0,0.0,0.0,0.0,0.0,0.0,0.0,-0.35437499999999994,0.11339999999999999,3.50595,-0.04983888,0.6009418799999999,0.01054284
1779585097319000244,B,6.727085936495453e-08,0.0,-0.03944444109507185,-1.998873232431546,0.0,-0.012950343049797926,0.0,0.0,0.0,0.0,0.0,0.0,0.0,-0.3449249999999999,0.146475,3.4917749999999996,-0.05367264,0.6009418799999999,0.00383376
1779585097319000244,B,5.784549088932678e-08,0.0,-0.03944444109507185,-1.998873232431546,0.0,-0.012950343049797926,0.0,0.0,0.0,0.0,0.0,0.0,0.0,-0.3449249999999999,0.146475,3.4917749999999996,-0.05367264,0.6009418799999999,0.00383376
1779585097319000244,B,4.9441075717094156e-08,0.0,-0.03944444109507185,-1.998873232431546,0.0,-0.012950343049797926,0.0,0.0,0.0,0.0,0.0,0.0,0.0,-0.3449249999999999,0.146475,3.4917749999999996,-0.05367264,0.6009418799999999,0.00383376
1779585097338999748,B,4.115507514639451e-08,0.0,-0.03944444109507185,-1.998873232431546,0.0,-0.012950343049797926,0.0,0.0,0.0,0.0,0.0,0.0,0.0,-0.34964999999999996,0.061425,3.4917749999999996,-0.06038172,0.6038171999999999,0.00670908
1779585097338999748,B,3.182560924695119e-08,0.0,-0.03944444109507185,-1.998873232431546,0.0,-0.012950343049797926,0.0,0.0,0.0,0.0,0.0,0.0,0.0,-0.34964999999999996,0.061425,3.4917749999999996,-0.06038172,0.6038171999999999,0.00670908
1779585097338999748,B,2.3411691570129836e-08,0.0,-0.03944444109507185,-1.998873232431546,0.0,-0.012950343049797926,0.0,0.0,0.0,0.0,0.0,0.0,0.0,-0.34964999999999996,0.061425,3.4917749999999996,-0.06038172,0.6038171999999999,0.00670908
1779585097348995923,B,1.5159531023106266e-08,0.0,-0.03944444109507185,-1.998873232431546,0.0,-0.012950343049797926,0.0,0.0,0.0,0.0,0.0,0.0,0.0,-0.3449249999999999,0.1323,3.5153999999999996,-0.05079731999999999,0.6009418799999999,0.00670908
1779585097348995923,B,5.464643836084877e-09,0.0,-0.03944444109507185,-1.998873232431546,0.0,-0.012950343049797926,0.0,0.0,0.0,0.0,0.0,0.0,0.0,-0.3449249999999999,0.1323,3.5153999999999996,-0.05079731999999999,0.6009418799999999,0.00670908
1779585097348995923,B,0.0,0.0,-0.03944444109507185,-1.998873232431546,0.0,-0.012950343049797926,0.0,0.0,0.0,0.0,0.0,0.0,0.0,-0.3449249999999999,0.1323,3.5153999999999996,-0.05079731999999999,0.6009418799999999,0.00670908
1779585097359607934,B,0.0,0.0,-0.03944444109507185,-1.998873232431546,0.0,-0.012950343049797926,0.0,0.0,0.0,0.0,0.0,0.0,0.0,-0.35437499999999994,0.118125,3.4634249999999995,-0.052714199999999996,0.6009418799999999,0.014376599999999998
1779585097359607934,B,0.0,0.0,-0.03944444109507185,-1.998873232431546,0.0,-0.012950343049797926,0.0,0.0,0.0,0.0,0.0,0.0,0.0,-0.35437499999999994,0.118125,3.4634249999999995,-0.052714199999999996,0.6009418799999999,0.014376599999999998
1779585097359607934,B,0.0,0.0,-0.03944444109507185,-1.998873232431546,0.0,-0.012950343049797926,0.0,0.0,0.0,0.0,0.0,0.0,0.0,-0.35437499999999994,0.118125,3.4634249999999995,-0.052714199999999996,0.6009418799999999,0.014376599999999998
1779585097379007816,B,0.0,0.0,-0.03944444109507185,-1.998873232431546,0.0,-0.012950343049797926,0.0,0.0,0.0,0.0,0.0,0.0,0.0,-0.34964999999999996,0.080325,3.4917749999999996,-0.052714199999999996,0.6019003199999999,0.01341816
1779585097379007816,B,0.0,0.0,-0.03944444109507185,-1.998873232431546,0.0,-0.012950343049797926,0.0,0.0,0.0,0.0,0.0,0.0,0.0,-0.34964999999999996,0.080325,3.4917749999999996,-0.052714199999999996,0.6019003199999999,0.01341816
1779585097379007816,B,0.0,0.0,-0.03944444109507185,-1.998873232431546,0.0,-0.012950343049797926,0.0,0.0,0.0,0.0,0.0,0.0,0.0,-0.34964999999999996,0.080325,3.4917749999999996,-0.052714199999999996,0.6019003199999999,0.01341816
1779585097409008264,B,0.0,0.0,-0.03944444109507185,-1.998873232431546,0.0,-0.012950343049797926,0.0,0.0,0.0,0.0,0.0,0.0,0.0,-0.3449249999999999,0.0945,3.4964999999999997,-0.06038172,0.59806656,0.00575064
1779585097409008264,B,0.0,0.0,-0.03944444109507185,-1.998873232431546,0.0,-0.012950343049797926,0.0,0.0,0.0,0.0,0.0,0.0,0.0,-0.3449249999999999,0.0945,3.4964999999999997,-0.06038172,0.59806656,0.00575064
1779585097409008264,B,0.0,0.0,-0.03944444109507185,-1.998873232431546,0.0,-0.012950343049797926,0.0,0.0,0.0,0.0,0.0,0.0,0.0,-0.3449249999999999,0.0945,3.4964999999999997,-0.06038172,0.59806656,0.00575064
1779585097424009323,B,0.0,0.0,-0.03944444109507185,-1.998873232431546,0.0,-0.012950343049797926,0.0,0.0,0.0,0.0,0.0,0.0,0.0,-0.335475,0.11339999999999999,3.52485,-0.05367264,0.5999834399999999,0.01629348
1779585097424009323,B,0.0,0.0,-0.03944444109507185,-1.998873232431546,0.0,-0.012950343049797926,0.0,0.0,0.0,0.0,0.0,0.0,0.0,-0.335475,0.11339999999999999,3.52485,-0.05367264,0.5999834399999999,0.01629348
1779585097424009323,B,0.0,0.0,-0.03944444109507185,-1.998873232431546,0.0,-0.012950343049797926,0.0,0.0,0.0,0.0,0.0,0.0,0.0,-0.335475,0.11339999999999999,3.52485,-0.05367264,0.5999834399999999,0.01629348
1779585097444017171,B,0.0,0.0,-0.03944444109507185,-1.998873232431546,0.0,-0.012950343049797926,0.0,0.0,0.0,0.0,0.0,0.0,0.0,-0.36382499999999995,0.080325,3.529575,-0.05463108,0.6038171999999999,0.00575064
1779585097444017171,B,0.0,0.0,-0.03944444109507185,-1.998873232431546,0.0,-0.012950343049797926,0.0,0.0,0.0,0.0,0.0,0.0,0.0,-0.36382499999999995,0.080325,3.529575,-0.05463108,0.6038171999999999,0.00575064
1779585097444017171,B,0.0,0.0,-0.03944444109507185,-1.998873232431546,0.0,-0.012950343049797926,0.0,0.0,0.0,0.0,0.0,0.0,0.0,-0.36382499999999995,0.080325,3.529575,-0.05463108,0.6038171999999999,0.00575064
1779585097464006423,B,0.0,0.0,-0.03944444109507185,-1.998873232431546,0.0,-0.012950343049797926,0.0,0.0,0.0,0.0,0.0,0.0,0.0,-0.37327499999999997,0.1323,3.4870499999999995,-0.05367264,0.6028587599999999,0.00095844
1779585097464006423,B,0.0,0.0,-0.03944444109507185,-1.998873232431546,0.0,-0.012950343049797926,0.0,0.0,0.0,0.0,0.0,0.0,0.0,-0.37327499999999997,0.1323,3.4870499999999995,-0.05367264,0.6028587599999999,0.00095844
1779585097464006423,B,0.0,0.0,-0.03944444109507185,-1.998873232431546,0.0,-0.012950343049797926,0.0,0.0,0.0,0.0,0.0,0.0,0.0,-0.37327499999999997,0.1323,3.4870499999999995,-0.05367264,0.6028587599999999,0.00095844
1779585097484007596,B,0.0,0.0,-0.03944444109507185,-1.998873232431546,0.0,-0.012950343049797926,0.0,0.0,0.0,0.0,0.0,0.0,0.0,-0.3591,0.06615,3.52485,-0.05463108,0.5999834399999999,0.00191688
1779585097484007596,B,0.0,0.0,-0.03944444109507185,-1.998873232431546,0.0,-0.012950343049797926,0.0,0.0,0.0,0.0,0.0,0.0,0.0,-0.3591,0.06615,3.52485,-0.05463108,0.5999834399999999,0.00191688
1779585097484007596,B,0.0,0.0,-0.03944444109507185,-1.998873232431546,0.0,-0.012950343049797926,0.0,0.0,0.0,0.0,0.0,0.0,0.0,-0.3591,0.06615,3.52485,-0.05463108,0.5999834399999999,0.00191688
1779585097505427122,B,0.0,0.0,-0.03944444109507185,-1.998873232431546,0.0,-0.012950343049797926,0.0,0.0,0.0,0.0,0.0,0.0,0.0,-0.3591,0.0945,3.4917749999999996,-0.048880440000000004,0.60477564,0.0047922
1779585097505427122,B,0.0,0.0,-0.03944444109507185,-1.998873232431546,0.0,-0.012950343049797926,0.0,0.0,0.0,0.0,0.0,0.0,0.0,-0.3591,0.0945,3.4917749999999996,-0.048880440000000004,0.60477564,0.0047922
1779585097505427122,B,0.0,0.0,-0.03944444109507185,-1.998873232431546,0.0,-0.012950343049797926,0.0,0.0,0.0,0.0,0.0,0.0,0.0,-0.3591,0.0945,3.4917749999999996,-0.048880440000000004,0.60477564,0.0047922
1779585097519312858,B,0.0,0.0,-0.03944444109507185,-1.998873232431546,0.0,-0.012950343049797926,0.0,0.0,0.0,0.0,0.0,0.0,0.0,-0.3449249999999999,0.0945,3.4776,-0.04983888,0.6009418799999999,0.01150128
1779585097519312858,B,0.0,0.0,-0.03944444109507185,-1.998873232431546,0.0,-0.012950343049797926,0.0,0.0,0.0,0.0,0.0,0.0,0.0,-0.3449249999999999,0.0945,3.4776,-0.04983888,0.6009418799999999,0.01150128
1779585097519312858,B,0.0,0.0,-0.03944444109507185,-1.998873232431546,0.0,-0.012950343049797926,0.0,0.0,0.0,0.0,0.0,0.0,0.0,-0.3449249999999999,0.0945,3.4776,-0.04983888,0.6009418799999999,0.01150128
1779585097539007186,B,0.0,0.0,-0.03944444109507185,-1.998873232431546,0.0,-0.012950343049797926,0.0,0.0,0.0,0.0,0.0,0.0,0.0,-0.34964999999999996,0.0945,3.52485,-0.05463108,0.59806656,0.02012724
1779585097539007186,B,0.0,0.0,-0.03944444109507185,-1.998873232431546,0.0,-0.012950343049797926,0.0,0.0,0.0,0.0,0.0,0.0,0.0,-0.34964999999999996,0.0945,3.52485,-0.05463108,0.59806656,0.02012724
1779585097539007186,B,0.0,0.0,-0.03944444109507185,-1.998873232431546,0.0,-0.012950343049797926,0.0,0.0,0.0,0.0,0.0,0.0,0.0,-0.34964999999999996,0.0945,3.52485,-0.05463108,0.59806656,0.02012724
1779585097555050611,B,0.0,0.0,-0.03944444109507185,-1.998873232431546,0.0,-0.012950343049797926,0.0,0.0,0.0,0.0,0.0,0.0,0.0,-0.335475,0.0945,3.4964999999999997,-0.05558952,0.6038171999999999,0.00766752
1779585097555050611,B,0.0,0.0,-0.03944444109507185,-1.998873232431546,0.0,-0.012950343049797926,0.0,0.0,0.0,0.0,0.0,0.0,0.0,-0.335475,0.0945,3.4964999999999997,-0.05558952,0.6038171999999999,0.00766752
1779585097555050611,B,0.0,0.0,-0.03944444109507185,-1.998873232431546,0.0,-0.012950343049797926,0.0,0.0,0.0,0.0,0.0,0.0,0.0,-0.335475,0.0945,3.4964999999999997,-0.05558952,0.6038171999999999,0.00766752
1779585097568999052,B,0.0,0.0,-0.03944444109507185,-1.998873232431546,0.0,-0.012950343049797926,0.0,0.0,0.0,0.0,0.0,0.0,0.0,-0.35437499999999994,0.137025,3.4161749999999995,-0.05846484,0.60669252,0.01725192
1779585097568999052,B,0.0,0.0,-0.03944444109507185,-1.998873232431546,0.0,-0.012950343049797926,0.0,0.0,0.0,0.0,0.0,0.0,0.0,-0.35437499999999994,0.137025,3.4161749999999995,-0.05846484,0.60669252,0.01725192
1779585097568999052,B,0.0,0.0,-0.03944444109507185,-1.998873232431546,0.0,-0.012950343049797926,0.0,0.0,0.0,0.0,0.0,0.0,0.0,-0.35437499999999994,0.137025,3.4161749999999995,-0.05846484,0.60669252,0.01725192
1779585097579425811,B,0.0,0.0,-0.03944444109507185,-1.998873232431546,0.0,-0.012950343049797926,0.0,0.0,0.0,0.0,0.0,0.0,0.0,-0.3449249999999999,0.108675,3.4634249999999995,-0.047922,0.5990249999999999,0.0
1779585097579425811,B,0.0,0.0,-0.03944444109507185,-1.998873232431546,0.0,-0.012950343049797926,0.0,0.0,0.0,0.0,0.0,0.0,0.0,-0.3449249999999999,0.108675,3.4634249999999995,-0.047922,0.5990249999999999,0.0
1779585097579425811,B,0.0,0.0,-0.03944444109507185,-1.998873232431546,0.0,-0.012950343049797926,0.0,0.0,0.0,0.0,0.0,0.0,0.0,-0.3449249999999999,0.108675,3.4634249999999995,-0.047922,0.5990249999999999,0.0
1779585097590158939,B,0.0,0.0,-0.03944444109507185,-1.998873232431546,0.0,-0.012950343049797926,0.0,0.0,0.0,0.0,0.0,0.0,0.0,-0.37327499999999997,0.11339999999999999,3.4634249999999995,-0.05463108,0.6028587599999999,0.00670908
