deepaktalwardt/rage-cage-arm-hackstorm/ros2/ws/sysid/runs/sysid_20260524_014220/raw/joint2_phaseA_pos.csv
t_ns,phase,tau_cmd,q1,q2,q3,q4,q5,q6,qd1,qd2,qd3,qd4,qd5,qd6,tau1,tau2,tau3,tau4,tau5,tau6
1779586945712324619,A_+,2.0000061340397224e-07,0.0,1.4701431888323837,-2.917213124953402,-0.09072221451866526,-0.024504422698000388,0.0,0.0,0.0,0.0,0.0,-0.046,0.0,-0.155925,1.7057249999999997,1.1906999999999999,-0.029711639999999997,0.25686192,0.01821036
1779586945712324619,A_+,0.002724198000578326,0.0,1.4701431888323837,-2.917213124953402,-0.09072221451866526,-0.024504422698000388,0.0,0.0,0.0,0.0,0.0,-0.046,0.0,-0.155925,1.7057249999999997,1.1906999999999999,-0.029711639999999997,0.25686192,0.01821036
1779586949033581495,A_+,0.00540020575044764,0.0,1.471923424669418,-2.9134432137690944,-0.09072221451866526,-0.01816887751326097,0.0,0.0,0.0,0.0,0.0,0.0,0.0,-0.28822499999999995,-0.00945,0.34964999999999996,-0.05175576,-0.08434272,-0.00287532
1779586949033581495,A_+,0.008303005500238214,0.0,1.471923424669418,-2.9134432137690944,-0.09072221451866526,-0.01816887751326097,0.0,0.0,0.0,0.0,0.0,0.0,0.0,-0.28822499999999995,-0.00945,0.34964999999999996,-0.05175576,-0.08434272,-0.00287532
1779586949033581495,A_+,0.010997380500157306,0.0,1.471923424669418,-2.9134432137690944,-0.09072221451866526,-0.01816887751326097,0.0,0.0,0.0,0.0,0.0,0.0,0.0,-0.28822499999999995,-0.00945,0.34964999999999996,-0.05175576,-0.08434272,-0.00287532
1779586949072182178,A_+,0.013655837000442261,0.0,1.471923424669418,-2.9134432137690944,-0.09072221451866526,-0.01816887751326097,0.0,0.0,0.0,0.0,0.0,0.0,0.0,-0.31185,0.10394999999999999,0.3213,-0.047922,-0.08721804,0.0095844
1779586949072182178,A_+,0.01653444549992855,0.0,1.471923424669418,-2.9134432137690944,-0.09072221451866526,-0.01816887751326097,0.0,0.0,0.0,0.0,0.0,0.0,0.0,-0.31185,0.10394999999999999,0.3213,-0.047922,-0.08721804,0.0095844
1779586949072182178,A_+,0.01921821300038573,0.0,1.471923424669418,-2.9134432137690944,-0.09072221451866526,-0.01816887751326097,0.0,0.0,0.0,0.0,0.0,0.0,0.0,-0.31185,0.10394999999999999,0.3213,-0.047922,-0.08721804,0.0095844
1779586949097178459,A_+,0.0218727495002895,0.0,1.471923424669418,-2.9134432137690944,-0.09072221451866526,-0.01816887751326097,0.0,0.0,0.0,0.0,0.0,0.0,0.0,-0.307125,0.08505,0.36382499999999995,-0.05079731999999999,-0.09776088000000001,0.00575064
1779586949097178459,A_+,0.024728807000428787,0.0,1.471923424669418,-2.9134432137690944,-0.09072221451866526,-0.01816887751326097,0.0,0.0,0.0,0.0,0.0,0.0,0.0,-0.307125,0.08505,0.36382499999999995,-0.05079731999999999,-0.09776088000000001,0.00575064
1779586949097178459,A_+,0.027436181499979284,0.0,1.471923424669418,-2.9134432137690944,-0.09072221451866526,-0.01816887751326097,0.0,0.0,0.0,0.0,0.0,0.0,0.0,-0.307125,0.08505,0.36382499999999995,-0.05079731999999999,-0.09776088000000001,0.00575064
1779586949122936487,A_+,0.030111717250292713,0.0,1.471923424669418,-2.9134432137690944,-0.09072221451866526,-0.01816887751326097,0.0,0.0,0.023,0.0,0.0,0.0,0.0,-0.3024,0.089775,0.34964999999999996,-0.03642072,-0.08050896,0.0095844
1779586949122936487,A_+,0.033011405000252125,0.0,1.471923424669418,-2.9134432137690944,-0.09072221451866526,-0.01816887751326097,0.0,0.0,0.023,0.0,0.0,0.0,0.0,-0.3024,0.089775,0.34964999999999996,-0.03642072,-0.08050896,0.0095844
1779586949122936487,A_+,0.03571817974989244,0.0,1.471923424669418,-2.9134432137690944,-0.09072221451866526,-0.01816887751326097,0.0,0.0,0.023,0.0,0.0,0.0,0.0,-0.3024,0.089775,0.34964999999999996,-0.03642072,-0.08050896,0.0095844
1779586949147172212,A_+,0.03840171525007463,0.0,1.471923424669418,-2.9134432137690944,-0.09072221451866526,-0.01816887751326097,0.0,0.0,0.0,0.0,0.0,0.0,0.0,-0.29295,0.089775,0.36382499999999995,-0.0383376,-0.08817648,0.0
1779586949147172212,A_+,0.04133580175039242,0.0,1.471923424669418,-2.9134432137690944,-0.09072221451866526,-0.01816887751326097,0.0,0.0,0.0,0.0,0.0,0.0,0.0,-0.29295,0.089775,0.36382499999999995,-0.0383376,-0.08817648,0.0
1779586949147172212,A_+,0.04413130925058795,0.0,1.471923424669418,-2.9134432137690944,-0.09072221451866526,-0.01816887751326097,0.0,0.0,0.0,0.0,0.0,0.0,0.0,-0.29295,0.089775,0.36382499999999995,-0.0383376,-0.08817648,0.0
1779586949162188291,A_+,0.04678391000015836,0.0,1.471923424669418,-2.9134432137690944,-0.09072221451866526,-0.01816887751326097,0.0,0.0,0.0,0.0,0.0,0.0,0.0,-0.29295,0.0945,0.3449249999999999,-0.04983888,-0.09680244,0.0047922
1779586949162188291,A_+,0.04973388375037757,0.0,1.471923424669418,-2.9134432137690944,-0.09072221451866526,-0.01816887751326097,0.0,0.0,0.0,0.0,0.0,0.0,0.0,-0.29295,0.0945,0.3449249999999999,-0.04983888,-0.09680244,0.0047922
1779586949162188291,A_+,0.05242773100053455,0.0,1.471923424669418,-2.9134432137690944,-0.09072221451866526,-0.01816887751326097,0.0,0.0,0.0,0.0,0.0,0.0,0.0,-0.29295,0.0945,0.3449249999999999,-0.04983888,-0.09680244,0.0047922
1779586949187186241,A_+,0.05510615475031955,0.0,1.471923424669418,-2.9134432137690944,-0.09072221451866526,-0.01816887751326097,0.0,0.0,0.0,0.0,0.0,0.0,0.0,-0.307125,0.08505,0.3591,-0.05175576,-0.0910518,0.01054284
1779586949187186241,A_+,0.058137285750490264,0.0,1.471923424669418,-2.9134432137690944,-0.09072221451866526,-0.01816887751326097,0.0,0.0,0.0,0.0,0.0,0.0,0.0,-0.307125,0.08505,0.3591,-0.05175576,-0.0910518,0.01054284
1779586949187186241,A_+,0.06083788449996064,0.0,1.471923424669418,-2.9134432137690944,-0.09072221451866526,-0.01816887751326097,0.0,0.0,0.0,0.0,0.0,0.0,0.0,-0.307125,0.08505,0.3591,-0.05175576,-0.0910518,0.01054284
1779586949207182168,A_+,0.06351545225061273,0.0,1.471923424669418,-2.9134432137690944,-0.09072221451866526,-0.01816887751326097,0.0,0.0,0.0,0.0,0.0,0.0,0.0,-0.29767499999999997,0.089775,0.36855,-0.04983888,-0.08721804,0.01054284
1779586949207182168,A_+,0.06643300350060599,0.0,1.471923424669418,-2.9134432137690944,-0.09072221451866526,-0.01816887751326097,0.0,0.0,0.0,0.0,0.0,0.0,0.0,-0.29767499999999997,0.089775,0.36855,-0.04983888,-0.08721804,0.01054284
1779586949207182168,A_+,0.06914720175063849,0.0,1.471923424669418,-2.9134432137690944,-0.09072221451866526,-0.01816887751326097,0.0,0.0,0.0,0.0,0.0,0.0,0.0,-0.29767499999999997,0.089775,0.36855,-0.04983888,-0.08721804,0.01054284
1779586949232474088,A_+,0.07180785825039493,0.0,1.471923424669418,-2.9134432137690944,-0.09072221451866526,-0.01816887751326097,0.0,0.0,0.0,0.0,0.0,0.0,0.0,-0.3024,0.0945,0.34964999999999996,-0.03737916,-0.08338428,0.00862596
1779586949232474088,A_+,0.07482795750001969,0.0,1.471923424669418,-2.9134432137690944,-0.09072221451866526,-0.01816887751326097,0.0,0.0,0.0,0.0,0.0,0.0,0.0,-0.3024,0.0945,0.34964999999999996,-0.03737916,-0.08338428,0.00862596
1779586949232474088,A_+,0.07753725225029484,0.0,1.471923424669418,-2.9134432137690944,-0.09072221451866526,-0.01816887751326097,0.0,0.0,0.0,0.0,0.0,0.0,0.0,-0.3024,0.0945,0.34964999999999996,-0.03737916,-0.08338428,0.00862596
1779586949252202987,A_+,0.08020012450015201,0.0,1.471923424669418,-2.9134432137690944,-0.09072221451866526,-0.01816887751326097,0.0,0.0,0.0,0.0,0.0,0.0,0.0,-0.3024,0.099225,0.3449249999999999,-0.04600512,-0.08625959999999999,0.0095844
1779586949252202987,A_+,0.08311349174982752,0.0,1.471923424669418,-2.9134432137690944,-0.09072221451866526,-0.01816887751326097,0.0,0.0,0.0,0.0,0.0,0.0,0.0,-0.3024,0.099225,0.3449249999999999,-0.04600512,-0.08625959999999999,0.0095844
1779586949252202987,A_+,0.08581453850001708,0.0,1.471923424669418,-2.9134432137690944,-0.09072221451866526,-0.01816887751326097,0.0,0.0,0.0,0.0,0.0,0.0,0.0,-0.3024,0.099225,0.3449249999999999,-0.04600512,-0.08625959999999999,0.0095844
1779586949272180318,A_+,0.08850632975008921,0.0,1.471923424669418,-2.9134432137690944,-0.09072221451866526,-0.01816887751326097,0.0,0.0,0.0,0.0,0.0,0.0,0.0,-0.29295,0.05669999999999999,0.34964999999999996,-0.05367264,-0.095844,0.01054284
1779586949272180318,A_+,0.09159461074978026,0.0,1.471923424669418,-2.9134432137690944,-0.09072221451866526,-0.01816887751326097,0.0,0.0,0.0,0.0,0.0,0.0,0.0,-0.29295,0.05669999999999999,0.34964999999999996,-0.05367264,-0.095844,0.01054284
1779586949272180318,A_+,0.09433448024992686,0.0,1.471923424669418,-2.9134432137690944,-0.09072221451866526,-0.01816887751326097,0.0,0.0,0.0,0.0,0.0,0.0,0.0,-0.29295,0.05669999999999999,0.34964999999999996,-0.05367264,-0.095844,0.01054284
1779586949292185783,A_+,0.0970420470002864,0.0,1.471923424669418,-2.9134432137690944,-0.09072221451866526,-0.01816887751326097,0.0,0.0,0.0,0.0,0.0,0.0,0.0,-0.29767499999999997,0.10394999999999999,0.3449249999999999,-0.05079731999999999,-0.09201024,0.00766752
1779586949292185783,A_+,0.09996731775027001,0.0,1.471923424669418,-2.9134432137690944,-0.09072221451866526,-0.01816887751326097,0.0,0.0,0.0,0.0,0.0,0.0,0.0,-0.29767499999999997,0.10394999999999999,0.3449249999999999,-0.05079731999999999,-0.09201024,0.00766752
1779586949292185783,A_+,0.10267228449993127,0.0,1.471923424669418,-2.9134432137690944,-0.09072221451866526,-0.01816887751326097,0.0,0.0,0.0,0.0,0.0,0.0,0.0,-0.29767499999999997,0.10394999999999999,0.3449249999999999,-0.05079731999999999,-0.09201024,0.00766752
1779586949322191238,A_+,0.1053363247501693,0.0,1.471923424669418,-2.9134432137690944,-0.09072221451866526,-0.01816887751326097,0.0,0.0,0.0,0.0,0.0,0.0,0.0,-0.29767499999999997,0.08505,0.3449249999999999,-0.05846484,-0.08242584,0.00766752
1779586949322191238,A_+,0.10825345974990341,0.0,1.471923424669418,-2.9134432137690944,-0.09072221451866526,-0.01816887751326097,0.0,0.0,0.0,0.0,0.0,0.0,0.0,-0.29767499999999997,0.08505,0.3449249999999999,-0.05846484,-0.08242584,0.00766752
1779586949322191238,A_+,0.11098730550020264,0.0,1.471923424669418,-2.9134432137690944,-0.09072221451866526,-0.01816887751326097,0.0,0.0,0.0,0.0,0.0,0.0,0.0,-0.29767499999999997,0.08505,0.3449249999999999,-0.05846484,-0.08242584,0.00766752
1779586949352169513,A_+,0.1136506417506098,0.0,1.471923424669418,-2.9134432137690944,-0.09072221451866526,-0.01816887751326097,0.0,0.0,0.0,0.0,0.0,0.0,0.0,-0.29767499999999997,0.089775,0.3591,-0.048880440000000004,-0.08817648,0.0095844
1779586949352169513,A_+,0.11657080075019621,0.0,1.471923424669418,-2.9134432137690944,-0.09072221451866526,-0.01816887751326097,0.0,0.0,0.0,0.0,0.0,0.0,0.0,-0.29767499999999997,0.089775,0.3591,-0.048880440000000004,-0.08817648,0.0095844
1779586949352169513,A_+,0.11927429549996305,0.0,1.471923424669418,-2.9134432137690944,-0.09072221451866526,-0.01816887751326097,0.0,0.0,0.0,0.0,0.0,0.0,0.0,-0.29767499999999997,0.089775,0.3591,-0.048880440000000004,-0.08817648,0.0095844
1779586949417181015,A_+,0.12195979900025122,0.0,1.471923424669418,-2.9134432137690944,-0.09072221451866526,-0.01816887751326097,0.0,0.0,0.0,0.0,0.0,0.0,0.0,-0.29767499999999997,0.080325,0.36382499999999995,-0.048880440000000004,-0.09488556,0.01725192
1779586949417181015,A_+,0.12488786975063704,0.0,1.471923424669418,-2.9134432137690944,-0.09072221451866526,-0.01816887751326097,0.0,0.0,0.0,0.0,0.0,0.0,0.0,-0.29767499999999997,0.080325,0.36382499999999995,-0.048880440000000004,-0.09488556,0.01725192
1779586949417181015,A_+,0.12767493750016,0.0,1.471923424669418,-2.9134432137690944,-0.09072221451866526,-0.01816887751326097,0.0,0.0,0.0,0.0,0.0,0.0,0.0,-0.29767499999999997,0.080325,0.36382499999999995,-0.048880440000000004,-0.09488556,0.01725192
1779586949523122310,A_+,0.1303344260004451,0.0,1.471923424669418,-2.9134432137690944,-0.09072221451866526,-0.01816887751326097,0.0,0.0,0.0,0.0,0.0,0.0,0.0,-0.307125,0.10394999999999999,0.36382499999999995,-0.05175576,-0.08625959999999999,0.01629348
1779586949523122310,A_+,0.13324980100060202,0.0,1.471923424669418,-2.9134432137690944,-0.09072221451866526,-0.01816887751326097,0.0,0.0,0.0,0.0,0.0,0.0,0.0,-0.307125,0.10394999999999999,0.36382499999999995,-0.05175576,-0.08625959999999999,0.01629348
1779586949523122310,A_+,0.1359460082503574,0.0,1.471923424669418,-2.9134432137690944,-0.09072221451866526,-0.01816887751326097,0.0,0.0,0.0,0.0,0.0,0.0,0.0,-0.307125,0.10394999999999999,0.36382499999999995,-0.05175576,-0.08625959999999999,0.01629348
1779586949572162628,A_+,0.13864888700027223,0.0,1.471923424669418,-2.9134432137690944,-0.09072221451866526,-0.01816887751326097,0.0,0.0,0.0,0.0,0.0,0.0,0.0,-0.316575,0.335475,0.34964999999999996,-0.04025448,-0.07859208,0.00862596
1779586949572162628,A_+,0.14158534124999278,0.0,1.471923424669418,-2.9134432137690944,-0.09072221451866526,-0.01816887751326097,0.0,0.0,0.0,0.0,0.0,0.0,0.0,-0.316575,0.335475,0.34964999999999996,-0.04025448,-0.07859208,0.00862596
1779586949572162628,A_+,0.14436684925021837,0.0,1.471923424669418,-2.9134432137690944,-0.09072221451866526,-0.01816887751326097,0.0,0.0,0.0,0.0,0.0,0.0,0.0,-0.316575,0.335475,0.34964999999999996,-0.04025448,-0.07859208,0.00862596
1779586949602159738,A_+,0.14701589000014792,0.0,1.471923424669418,-2.9134432137690944,-0.09072221451866526,-0.01816887751326097,0.0,0.0,0.0,0.0,0.0,0.0,0.0,-0.326025,0.3402,0.3402,-0.047922,-0.07571676,0.02491944
1779586949602159738,A_+,0.1498030060001838,0.0,1.471923424669418,-2.9134432137690944,-0.09072221451866526,-0.01816887751326097,0.0,0.0,0.0,0.0,0.0,0.0,0.0,-0.326025,0.3402,0.3402,-0.047922,-0.07571676,0.02491944
1779586949602159738,A_+,0.15246181425027316,0.0,1.471923424669418,-2.9134432137690944,-0.09072221451866526,-0.01816887751326097,0.0,0.0,0.0,0.0,0.0,0.0,0.0,-0.326025,0.3402,0.3402,-0.047922,-0.07571676,0.02491944
1779586949627173662,A_+,0.1551271425005325,0.0,1.471923424669418,-2.9134432137690944,-0.09072221451866526,-0.01816887751326097,0.0,0.0,0.0,0.0,0.0,0.0,0.0,-0.31185,0.35437499999999994,0.35437499999999994,-0.05463108,-0.09871932,0.01150128
1779586949627173662,A_+,0.15794846500011772,0.0,1.471923424669418,-2.9134432137690944,-0.09072221451866526,-0.01816887751326097,0.0,0.0,0.0,0.0,0.0,0.0,0.0,-0.31185,0.35437499999999994,0.35437499999999994,-0.05463108,-0.09871932,0.01150128
1779586949627173662,A_+,0.16062875275019906,0.0,1.471923424669418,-2.9134432137690944,-0.09072221451866526,-0.01816887751326097,0.0,0.0,0.0,0.0,0.0,0.0,0.0,-0.31185,0.35437499999999994,0.35437499999999994,-0.05463108,-0.09871932,0.01150128
1779586949667213678,A_+,0.1632747535004455,0.0,1.471923424669418,-2.9134432137690944,-0.09072221451866526,-0.01816887751326097,0.0,0.0,0.0,0.0,0.0,0.0,0.0,-0.3024,0.335475,0.35437499999999994,-0.05558952,-0.09201024,0.01054284
1779586949667213678,A_+,0.16608780450042104,0.0,1.471923424669418,-2.9134432137690944,-0.09072221451866526,-0.01816887751326097,0.0,0.0,0.0,0.0,0.0,0.0,0.0,-0.3024,0.335475,0.35437499999999994,-0.05558952,-0.09201024,0.01054284
1779586949667213678,A_+,0.1687604762500996,0.0,1.471923424669418,-2.9134432137690944,-0.09072221451866526,-0.01816887751326097,0.0,0.0,0.0,0.0,0.0,0.0,0.0,-0.3024,0.335475,0.35437499999999994,-0.05558952,-0.09201024,0.01054284
1779586949697864294,A_+,0.17144814775019768,0.0,1.471923424669418,-2.9134432137690944,-0.09072221451866526,-0.01816887751326097,0.0,0.0,0.0,0.0,0.0,0.0,0.0,-0.307125,0.3402,0.36382499999999995,-0.048880440000000004,-0.0910518,0.01341816
1779586949697864294,A_+,0.1742972132506111,0.0,1.471923424669418,-2.9134432137690944,-0.09072221451866526,-0.01816887751326097,0.0,0.0,0.0,0.0,0.0,0.0,0.0,-0.307125,0.3402,0.36382499999999995,-0.048880440000000004,-0.0910518,0.01341816
1779586949697864294,A_+,0.1769448459999694,0.0,1.471923424669418,-2.9134432137690944,-0.09072221451866526,-0.01816887751326097,0.0,0.0,0.0,0.0,0.0,0.0,0.0,-0.307125,0.3402,0.36382499999999995,-0.048880440000000004,-0.0910518,0.01341816
1779586949727173566,A_+,0.1795551922505183,0.0,1.471923424669418,-2.9134432137690944,-0.09072221451866526,-0.01816887751326097,0.0,0.0,0.0,0.0,0.0,0.0,0.0,-0.31185,0.3402,0.335475,-0.04600512,-0.08913491999999999,0.00862596
1779586949727173566,A_+,0.18233357225017244,0.0,1.471923424669418,-2.9134432137690944,-0.09072221451866526,-0.01816887751326097,0.0,0.0,0.0,0.0,0.0,0.0,0.0,-0.31185,0.3402,0.335475,-0.04600512,-0.08913491999999999,0.00862596
1779586949727173566,A_+,0.18501769175054505,0.0,1.471923424669418,-2.9134432137690944,-0.09072221451866526,-0.01816887751326097,0.0,0.0,0.0,0.0,0.0,0.0,0.0,-0.31185,0.3402,0.335475,-0.04600512,-0.08913491999999999,0.00862596
1779586949757165431,A_+,0.18769381150013942,0.0,1.471923424669418,-2.9134432137690944,-0.09072221451866526,-0.01816887751326097,0.0,0.0,0.0,0.0,0.0,0.0,0.0,-0.31185,0.35437499999999994,0.3402,-0.05750639999999999,-0.08817648,0.00575064
1779586949757165431,A_+,0.19060648274989944,0.0,1.471923424669418,-2.9134432137690944,-0.09072221451866526,-0.01816887751326097,0.0,0.0,0.0,0.0,0.0,0.0,0.0,-0.31185,0.35437499999999994,0.3402,-0.05750639999999999,-0.08817648,0.00575064
1779586949757165431,A_+,0.19334319249992404,0.0,1.471923424669418,-2.9134432137690944,-0.09072221451866526,-0.01816887751326097,0.0,0.0,0.0,0.0,0.0,0.0,0.0,-0.31185,0.35437499999999994,0.3402,-0.05750639999999999,-0.08817648,0.00575064
1779586949772194385,A_+,0.19600768074997177,0.0,1.471923424669418,-2.9134432137690944,-0.09072221451866526,-0.01816887751326097,0.0,0.0,0.0,0.0,0.0,0.0,0.0,-0.307125,0.3449249999999999,0.378,-0.04600512,-0.08530115999999999,0.014376599999999998
1779586949772194385,A_+,0.19885405825061753,0.0,1.471923424669418,-2.9134432137690944,-0.09072221451866526,-0.01816887751326097,0.0,0.0,0.0,0.0,0.0,0.0,0.0,-0.307125,0.3449249999999999,0.378,-0.04600512,-0.08530115999999999,0.014376599999999998
1779586949772194385,A_+,0.20152873000006366,0.0,1.471923424669418,-2.9134432137690944,-0.09072221451866526,-0.01816887751326097,0.0,0.0,0.0,0.0,0.0,0.0,0.0,-0.307125,0.3449249999999999,0.378,-0.04600512,-0.08530115999999999,0.014376599999999998
1779586949787233352,A_+,0.20417257100052666,0.0,1.471923424669418,-2.9134432137690944,-0.09072221451866526,-0.01816887751326097,0.0,0.0,0.0,0.0,0.0,0.0,0.0,-0.29295,0.335475,0.34964999999999996,-0.04504668,-0.08817648,0.01054284
1779586949787233352,A_+,0.20704353974997503,0.0,1.471923424669418,-2.9134432137690944,-0.09072221451866526,-0.01816887751326097,0.0,0.0,0.0,0.0,0.0,0.0,0.0,-0.29295,0.335475,0.34964999999999996,-0.04504668,-0.08817648,0.01054284
1779586949787233352,A_+,0.20975350650041946,0.0,1.471923424669418,-2.9134432137690944,-0.09072221451866526,-0.01816887751326097,0.0,0.0,0.0,0.0,0.0,0.0,0.0,-0.29295,0.335475,0.34964999999999996,-0.04504668,-0.08817648,0.01054284
1779586949832165479,A_+,0.21243061025052157,0.0,1.471923424669418,-2.9134432137690944,-0.09072221451866526,-0.01816887751326097,0.0,0.0,0.0,0.0,0.0,0.0,0.0,-0.3024,0.335475,0.3402,-0.04696356,-0.08721804,0.00862596
1779586949832165479,A_+,0.21524199699979363,0.0,1.471923424669418,-2.9134432137690944,-0.09072221451866526,-0.01816887751326097,0.0,0.0,0.0,0.0,0.0,0.0,0.0,-0.3024,0.335475,0.3402,-0.04696356,-0.08721804,0.00862596
1779586949832165479,A_+,0.217905973249799,0.0,1.471923424669418,-2.9134432137690944,-0.09072221451866526,-0.01816887751326097,0.0,0.0,0.0,0.0,0.0,0.0,0.0,-0.3024,0.335475,0.3402,-0.04696356,-0.08721804,0.00862596
1779586949867158412,A_+,0.2205427745002453,0.0,1.471923424669418,-2.9134432137690944,-0.09072221451866526,-0.01816887751326097,0.0,0.0,0.0,0.0,0.0,0.0,0.0,-0.29767499999999997,0.307125,0.36855,-0.04696356,-0.06900768,0.02683632
1779586949867158412,A_+,0.22347438100041472,0.0,1.471923424669418,-2.9134432137690944,-0.09072221451866526,-0.01816887751326097,0.0,0.0,0.0,0.0,0.0,0.0,0.0,-0.29767499999999997,0.307125,0.36855,-0.04696356,-0.06900768,0.02683632
1779586949867158412,A_+,0.22620483500031696,0.0,1.471923424669418,-2.9134432137690944,-0.09072221451866526,-0.01816887751326097,0.0,0.0,0.0,0.0,0.0,0.0,0.0,-0.29767499999999997,0.307125,0.36855,-0.04696356,-0.06900768,0.02683632
1779586949922153711,A_+,0.22887837874986872,0.0,1.471923424669418,-2.9134432137690944,-0.09072221451866526,-0.01816887751326097,0.0,0.0,0.0,0.0,0.0,0.0,0.0,-0.31185,0.3591,0.36382499999999995,-0.05654796,-0.09009336,0.00287532
1779586949922153711,A_+,0.23181063325046125,0.0,1.471923424669418,-2.9134432137690944,-0.09072221451866526,-0.01816887751326097,0.0,0.0,0.0,0.0,0.0,0.0,0.0,-0.31185,0.3591,0.36382499999999995,-0.05654796,-0.09009336,0.00287532
1779586949922153711,A_+,0.234530367500156,0.0,1.471923424669418,-2.9134432137690944,-0.09072221451866526,-0.01816887751326097,0.0,0.0,0.0,0.0,0.0,0.0,0.0,-0.31185,0.3591,0.36382499999999995,-0.05654796,-0.09009336,0.00287532
1779586949967149496,A_+,0.23719195174999186,0.0,1.471923424669418,-2.9134432137690944,-0.09072221451866526,-0.01816887751326097,0.0,0.0,0.0,0.0,0.0,0.0,0.0,-0.29295,0.3402,0.37327499999999997,-0.04121292,-0.09296868,0.01150128
1779586949967149496,A_+,0.24011364675061486,0.0,1.471923424669418,-2.9134432137690944,-0.09072221451866526,-0.01816887751326097,0.0,0.0,0.0,0.0,0.0,0.0,0.0,-0.29295,0.3402,0.37327499999999997,-0.04121292,-0.09296868,0.01150128
1779586949967149496,A_+,0.2428252772506312,0.0,1.471923424669418,-2.9134432137690944,-0.09072221451866526,-0.01816887751326097,0.0,0.0,0.0,0.0,0.0,0.0,0.0,-0.29295,0.3402,0.37327499999999997,-0.04121292,-0.09296868,0.01150128
1779586949992152690,A_+,0.24546967024980404,0.0,1.471923424669418,-2.9134432137690944,-0.09072221451866526,-0.01816887751326097,0.0,0.0,0.0,0.0,0.0,0.0,0.0,-0.29767499999999997,0.3449249999999999,0.36382499999999995,-0.047922,-0.09296868,0.01150128
1779586949992152690,A_+,0.24841650025064155,0.0,1.471923424669418,-2.9134432137690944,-0.09072221451866526,-0.01816887751326097,0.0,0.0,0.0,0.0,0.0,0.0,0.0,-0.29767499999999997,0.3449249999999999,0.36382499999999995,-0.047922,-0.09296868,0.01150128
1779586949992152690,A_+,0.25107638075041905,0.0,1.471923424669418,-2.9134432137690944,-0.09072221451866526,-0.01816887751326097,0.0,0.0,0.0,0.0,0.0,0.0,0.0,-0.29767499999999997,0.3449249999999999,0.36382499999999995,-0.047922,-0.09296868,0.01150128
1779586950032140254,A_+,0.25371293399985007,0.0,1.471923424669418,-2.9134432137690944,-0.09072221451866526,-0.01816887751326097,0.0,0.0,0.0,0.0,0.0,0.0,0.0,-0.3024,0.3591,0.36855,-0.05367264,-0.09009336,0.00766752
1779586950032140254,A_+,0.25650209774994437,0.0,1.471923424669418,-2.9134432137690944,-0.09072221451866526,-0.01816887751326097,0.0,0.0,0.0,0.0,0.0,0.0,0.0,-0.3024,0.3591,0.36855,-0.05367264,-0.09009336,0.00766752
1779586950032140254,A_+,0.25917371374998766,0.0,1.471923424669418,-2.9134432137690944,-0.09072221451866526,-0.01816887751326097,0.0,0.0,0.0,0.0,0.0,0.0,0.0,-0.3024,0.3591,0.36855,-0.05367264,-0.09009336,0.00766752
1779586950062149047,A_+,0.2617985712504378,0.0,1.471923424669418,-2.9134432137690944,-0.09072221451866526,-0.01816887751326097,0.0,0.0,0.0,0.0,0.0,0.0,0.0,-0.28822499999999995,0.3449249999999999,0.3449249999999999,-0.048880440000000004,-0.08625959999999999,0.0095844
1779586950062149047,A_+,0.26463493350001954,0.0,1.471923424669418,-2.9134432137690944,-0.09072221451866526,-0.01816887751326097,0.0,0.0,0.0,0.0,0.0,0.0,0.0,-0.28822499999999995,0.3449249999999999,0.3449249999999999,-0.048880440000000004,-0.08625959999999999,0.0095844
1779586950062149047,A_+,0.2674015379998309,0.0,1.471923424669418,-2.9134432137690944,-0.09072221451866526,-0.01816887751326097,0.0,0.0,0.0,0.0,0.0,0.0,0.0,-0.28822499999999995,0.3449249999999999,0.3449249999999999,-0.048880440000000004,-0.08625959999999999,0.0095844
1779586950097141981,A_+,0.270024243750413,0.0,1.471923424669418,-2.9134432137690944,-0.09072221451866526,-0.01816887751326097,0.0,0.0,0.0,0.0,0.0,0.0,0.0,-0.28822499999999995,0.33075,0.3402,-0.05463108,-0.08338428,0.00383376
1779586950097141981,A_+,0.2729346269998132,0.0,1.471923424669418,-2.9134432137690944,-0.09072221451866526,-0.01816887751326097,0.0,0.0,0.0,0.0,0.0,0.0,0.0,-0.28822499999999995,0.33075,0.3402,-0.05463108,-0.08338428,0.00383376
1779586950097141981,A_+,0.27570129574996827,0.0,1.471923424669418,-2.9134432137690944,-0.09072221451866526,-0.01816887751326097,0.0,0.0,0.0,0.0,0.0,0.0,0.0,-0.28822499999999995,0.33075,0.3402,-0.05463108,-0.08338428,0.00383376
1779586950132142305,A_+,0.27837202375030756,0.0,1.471923424669418,-2.9134432137690944,-0.09072221451866526,-0.01816887751326097,0.0,0.0,0.0,0.0,0.0,0.0,0.0,-0.31185,0.3449249999999999,0.3449249999999999,-0.05367264,-0.09201024,0.014376599999999998
1779586950132142305,A_+,0.28127798325022013,0.0,1.471923424669418,-2.9134432137690944,-0.09072221451866526,-0.01816887751326097,0.0,0.0,0.0,0.0,0.0,0.0,0.0,-0.31185,0.3449249999999999,0.3449249999999999,-0.05367264,-0.09201024,0.014376599999999998
1779586950132142305,A_+,0.28402331650067936,0.0,1.471923424669418,-2.9134432137690944,-0.09072221451866526,-0.01816887751326097,0.0,0.0,0.0,0.0,0.0,0.0,0.0,-0.31185,0.3449249999999999,0.3449249999999999,-0.05367264,-0.09201024,0.014376599999999998
1779586950162147998,A_+,0.28668922075030423,0.0,1.471923424669418,-2.9134432137690944,-0.09072221451866526,-0.01816887751326097,0.0,0.0,0.0,0.0,0.0,0.0,0.0,-0.3024,0.34964999999999996,0.3449249999999999,-0.04983888,-0.08721804,0.00191688
1779586950162147998,A_+,0.289618451500246,0.0,1.471923424669418,-2.9134432137690944,-0.09072221451866526,-0.01816887751326097,0.0,0.0,0.0,0.0,0.0,0.0,0.0,-0.3024,0.34964999999999996,0.3449249999999999,-0.04983888,-0.08721804,0.00191688
1779586950162147998,A_+,0.2923283780000929,0.0,1.471923424669418,-2.9134432137690944,-0.09072221451866526,-0.01816887751326097,0.0,0.0,0.0,0.0,0.0,0.0,0.0,-0.3024,0.34964999999999996,0.3449249999999999,-0.04983888,-0.08721804,0.00191688
1779586950197150230,A_+,0.29504350450042693,0.0,1.471923424669418,-2.9134432137690944,-0.09072221451866526,-0.01816887751326097,0.0,0.0,0.0,0.0,0.0,0.0,0.0,-0.31185,0.36855,0.35437499999999994,-0.048880440000000004,-0.08625959999999999,0.00862596
1779586950197150230,A_+,0.2979486399999587,0.0,1.471923424669418,-2.9134432137690944,-0.09072221451866526,-0.01816887751326097,0.0,0.0,0.0,0.0,0.0,0.0,0.0,-0.31185,0.36855,0.35437499999999994,-0.048880440000000004,-0.08625959999999999,0.00862596
1779586950197150230,A_+,0.3006131602505775,0.0,1.471923424669418,-2.9134432137690944,-0.09072221451866526,-0.01816887751326097,0.0,0.0,0.0,0.0,0.0,0.0,0.0,-0.31185,0.36855,0.35437499999999994,-0.048880440000000004,-0.08625959999999999,0.00862596
1779586950222138881,A_+,0.3032679770003597,0.0,1.471923424669418,-2.9134432137690944,-0.09072221451866526,-0.01816887751326097,0.0,0.0,0.0,0.0,0.0,0.0,0.0,-0.3024,0.316575,0.34964999999999996,-0.043129799999999996,-0.08338428,0.00766752
1779586950222138881,A_+,0.3060921235000933,0.0,1.471923424669418,-2.9134432137690944,-0.09072221451866526,-0.01816887751326097,0.0,0.0,0.0,0.0,0.0,0.0,0.0,-0.3024,0.316575,0.34964999999999996,-0.043129799999999996,-0.08338428,0.00766752
1779586950222138881,A_+,0.30882436125011736,0.0,1.471923424669418,-2.9134432137690944,-0.09072221451866526,-0.01816887751326097,0.0,0.0,0.0,0.0,0.0,0.0,0.0,-0.3024,0.316575,0.34964999999999996,-0.043129799999999996,-0.08338428,0.00766752
1779586950252283811,A_+,0.3115293840000959,0.0,1.471923424669418,-2.9134432137690944,-0.09072221451866526,-0.01816887751326097,0.0,0.0,0.0,0.0,0.0,0.0,0.0,-0.31185,0.3213,0.35437499999999994,-0.05463108,-0.09776088000000001,0.00383376
1779586950252283811,A_+,0.31443219975062675,0.0,1.471923424669418,-2.9134432137690944,-0.09072221451866526,-0.01816887751326097,0.0,0.0,0.0,0.0,0.0,0.0,0.0,-0.31185,0.3213,0.35437499999999994,-0.05463108,-0.09776088000000001,0.00383376
1779586950252283811,A_+,0.31714789400029986,0.0,1.471923424669418,-2.9134432137690944,-0.09072221451866526,-0.01816887751326097,0.0,0.0,0.0,0.0,0.0,0.0,0.0,-0.31185,0.3213,0.35437499999999994,-0.05463108,-0.09776088000000001,0.00383376
1779586950272826194,A_+,0.31982034200063936,0.0,1.471923424669418,-2.9134432137690944,-0.09072221451866526,-0.01816887751326097,0.0,0.0,0.0,0.0,0.0,0.0,0.0,-0.31185,0.3591,0.34964999999999996,-0.04983888,-0.08625959999999999,0.01245972
1779586950272826194,A_+,0.3228348817501683,0.0,1.471923424669418,-2.9134432137690944,-0.09072221451866526,-0.01816887751326097,0.0,0.0,0.0,0.0,0.0,0.0,0.0,-0.31185,0.3591,0.34964999999999996,-0.04983888,-0.08625959999999999,0.01245972
1779586950272826194,A_+,0.3255419044999144,0.0,1.471923424669418,-2.9134432137690944,-0.09072221451866526,-0.01816887751326097,0.0,0.0,0.0,0.0,0.0,0.0,0.0,-0.31185,0.3591,0.34964999999999996,-0.04983888,-0.08625959999999999,0.01245972
1779586950287154912,A_+,0.32822568000028696,0.0,1.471923424669418,-2.9134432137690944,-0.09072221451866526,-0.01816887751326097,0.0,0.0,0.0,0.0,0.0,0.0,0.0,-0.29295,0.3449249999999999,0.37327499999999997,-0.047922,-0.08721804,0.00191688
1779586950287154912,A_+,0.33112319975043647,0.0,1.471923424669418,-2.9134432137690944,-0.09072221451866526,-0.01816887751326097,0.0,0.0,0.0,0.0,0.0,0.0,0.0,-0.29295,0.3449249999999999,0.37327499999999997,-0.047922,-0.08721804,0.00191688
1779586950287154912,A_+,0.33381855100014945,0.0,1.471923424669418,-2.9134432137690944,-0.09072221451866526,-0.01816887751326097,0.0,0.0,0.0,0.0,0.0,0.0,0.0,-0.29295,0.3449249999999999,0.37327499999999997,-0.047922,-0.08721804,0.00191688
1779586950307137966,A_+,0.33647646349982097,0.0,1.471923424669418,-2.9134432137690944,-0.09072221451866526,-0.01816887751326097,0.0,0.0,0.0,0.0,0.0,0.0,0.0,-0.29767499999999997,0.3591,0.35437499999999994,-0.04600512,-0.08913491999999999,0.01150128
1779586950307137966,A_+,0.3394174857503458,0.0,1.471923424669418,-2.9134432137690944,-0.09072221451866526,-0.01816887751326097,0.0,0.0,0.0,0.0,0.0,0.0,0.0,-0.29767499999999997,0.3591,0.35437499999999994,-0.04600512,-0.08913491999999999,0.01150128
1779586950307137966,A_+,0.3421271882498331,0.0,1.471923424669418,-2.9134432137690944,-0.09072221451866526,-0.01816887751326097,0.0,0.0,0.0,0.0,0.0,0.0,0.0,-0.29767499999999997,0.3591,0.35437499999999994,-0.04600512,-0.08913491999999999,0.01150128
1779586950338232040,A_+,0.3448116197505442,0.0,1.471923424669418,-2.9134432137690944,-0.09072221451866526,-0.01816887751326097,0.0,0.0,0.0,0.0,0.0,0.0,0.0,-0.29767499999999997,0.3402,0.34964999999999996,-0.052714199999999996,-0.08817648,0.01054284
1779586950338232040,A_+,0.3477205392500764,0.0,1.471923424669418,-2.9134432137690944,-0.09072221451866526,-0.01816887751326097,0.0,0.0,0.0,0.0,0.0,0.0,0.0,-0.29767499999999997,0.3402,0.34964999999999996,-0.052714199999999996,-0.08817648,0.01054284
1779586950338232040,A_+,0.3504265139999916,0.0,1.471923424669418,-2.9134432137690944,-0.09072221451866526,-0.01816887751326097,0.0,0.0,0.0,0.0,0.0,0.0,0.0,-0.29767499999999997,0.3402,0.34964999999999996,-0.052714199999999996,-0.08817648,0.01054284
1779586950352138757,A_+,0.35308002674992167,0.0,1.471923424669418,-2.9134432137690944,-0.09072221451866526,-0.01816887751326097,0.0,0.0,0.0,0.0,0.0,0.0,0.0,-0.3024,0.3591,0.36855,-0.04408824,-0.09009336,0.00383376
1779586950352138757,A_+,0.3560438882504968,0.0,1.471923424669418,-2.9134432137690944,-0.09072221451866526,-0.01816887751326097,0.0,0.0,0.0,0.0,0.0,0.0,0.0,-0.3024,0.3591,0.36855,-0.04408824,-0.09009336,0.00383376
1779586950352138757,A_+,0.35874389499986137,0.0,1.471923424669418,-2.9134432137690944,-0.09072221451866526,-0.01816887751326097,0.0,0.0,0.0,0.0,0.0,0.0,0.0,-0.3024,0.3591,0.36855,-0.04408824,-0.09009336,0.00383376
1779586950367911577,A_+,0.3614534617499885,0.0,1.471923424669418,-2.9134432137690944,-0.09072221451866526,-0.01816887751326097,0.0,0.0,0.0,0.0,0.0,0.0,0.0,-0.28822499999999995,0.35437499999999994,0.3591,-0.043129799999999996,-0.08434272,0.00670908
1779586950367911577,A_+,0.36436165324994363,0.0,1.471923424669418,-2.9134432137690944,-0.09072221451866526,-0.01816887751326097,0.0,0.0,0.0,0.0,0.0,0.0,0.0,-0.28822499999999995,0.35437499999999994,0.3591,-0.043129799999999996,-0.08434272,0.00670908
1779586950367911577,A_+,0.36705326850005804,0.0,1.471923424669418,-2.9134432137690944,-0.09072221451866526,-0.01816887751326097,0.0,0.0,0.0,0.0,0.0,0.0,0.0,-0.28822499999999995,0.35437499999999994,0.3591,-0.043129799999999996,-0.08434272,0.00670908
1779586950387133836,A_+,0.3697103650001736,0.0,1.471923424669418,-2.9134432137690944,-0.09072221451866526,-0.01816887751326097,0.0,0.0,0.0,0.0,0.0,0.0,0.0,-0.29295,0.33075,0.335475,-0.04696356,-0.08817648,0.014376599999999998
1779586950387133836,A_+,0.372646491499836,0.0,1.471923424669418,-2.9134432137690944,-0.09072221451866526,-0.01816887751326097,0.0,0.0,0.0,0.0,0.0,0.0,0.0,-0.29295,0.33075,0.335475,-0.04696356,-0.08817648,0.014376599999999998
1779586950387133836,A_+,0.37535603400010586,0.0,1.471923424669418,-2.9134432137690944,-0.09072221451866526,-0.01816887751326097,0.0,0.0,0.0,0.0,0.0,0.0,0.0,-0.29295,0.33075,0.335475,-0.04696356,-0.08817648,0.014376599999999998
1779586950407131433,A_+,0.37808309600040957,0.0,1.471923424669418,-2.9134432137690944,-0.09072221451866526,-0.01816887751326097,0.0,0.0,0.0,0.0,0.0,0.0,0.0,-0.3024,0.37327499999999997,0.3591,-0.04983888,-0.08913491999999999,0.014376599999999998
1779586950407131433,A_+,0.3809300977500243,0.0,1.471923424669418,-2.9134432137690944,-0.09072221451866526,-0.01816887751326097,0.0,0.0,0.0,0.0,0.0,0.0,0.0,-0.3024,0.37327499999999997,0.3591,-0.04983888,-0.08913491999999999,0.014376599999999998
1779586950407131433,A_+,0.38361476925001625,0.0,1.471923424669418,-2.9134432137690944,-0.09072221451866526,-0.01816887751326097,0.0,0.0,0.0,0.0,0.0,0.0,0.0,-0.3024,0.37327499999999997,0.3591,-0.04983888,-0.08913491999999999,0.014376599999999998
1779586950428183078,A_+,0.38626590600051713,0.0,1.471923424669418,-2.9134432137690944,-0.09072221451866526,-0.01816887751326097,0.0,0.0,0.0,0.0,0.0,0.0,0.0,-0.3213,0.34964999999999996,0.34964999999999996,-0.047922,-0.0910518,0.00575064
1779586950428183078,A_+,0.38925389450014336,0.0,1.471923424669418,-2.9134432137690944,-0.09072221451866526,-0.01816887751326097,0.0,0.0,0.0,0.0,0.0,0.0,0.0,-0.3213,0.34964999999999996,0.34964999999999996,-0.047922,-0.0910518,0.00575064
1779586950428183078,A_+,0.39193534224978066,0.0,1.471923424669418,-2.9134432137690944,-0.09072221451866526,-0.01816887751326097,0.0,0.0,0.0,0.0,0.0,0.0,0.0,-0.3213,0.34964999999999996,0.34964999999999996,-0.047922,-0.0910518,0.00575064
1779586950452130794,A_+,0.39463958099986485,0.0,1.471923424669418,-2.9134432137690944,-0.09072221451866526,-0.01816887751326097,0.0,0.0,0.0,0.0,0.0,0.0,0.0,-0.307125,0.3449249999999999,0.3591,-0.05558952,-0.095844,0.00670908
1779586950452130794,A_+,0.3975622759999169,0.0,1.471923424669418,-2.9134432137690944,-0.09072221451866526,-0.01816887751326097,0.0,0.0,0.0,0.0,0.0,0.0,0.0,-0.307125,0.3449249999999999,0.3591,-0.05558952,-0.095844,0.00670908
1779586950452130794,A_+,0.4002525712503484,0.0,1.471923424669418,-2.9134432137690944,-0.09072221451866526,-0.01816887751326097,0.0,0.0,0.0,0.0,0.0,0.0,0.0,-0.307125,0.3449249999999999,0.3591,-0.05558952,-0.095844,0.00670908
1779586950483433961,A_+,0.4029274112499479,0.0,1.471923424669418,-2.9134432137690944,-0.09072221451866526,-0.01816887751326097,0.0,0.0,0.0,0.0,0.0,0.0,0.0,-0.3213,0.33075,0.37327499999999997,-0.04408824,-0.09296868,-0.00766752
1779586950483433961,A_+,0.40587952100031544,0.0,1.471923424669418,-2.9134432137690944,-0.09072221451866526,-0.01816887751326097,0.0,0.0,0.0,0.0,0.0,0.0,0.0,-0.3213,0.33075,0.37327499999999997,-0.04408824,-0.09296868,-0.00766752
1779586950483433961,A_+,0.40861493475040334,0.0,1.471923424669418,-2.9134432137690944,-0.09072221451866526,-0.01816887751326097,0.0,0.0,0.0,0.0,0.0,0.0,0.0,-0.3213,0.33075,0.37327499999999997,-0.04408824,-0.09296868,-0.00766752
1779586950507132768,A_+,0.41131334175042866,0.0,1.471923424669418,-2.9134432137690944,-0.09072221451866526,-0.01816887751326097,0.0,0.0,0.0,0.0,0.0,0.0,0.0,-0.29767499999999997,0.33075,0.35437499999999994,-0.05079731999999999,-0.08817648,0.01054284
1779586950507132768,A_+,0.41423110100004124,0.0,1.471923424669418,-2.9134432137690944,-0.09072221451866526,-0.01816887751326097,0.0,0.0,0.0,0.0,0.0,0.0,0.0,-0.29767499999999997,0.33075,0.35437499999999994,-0.05079731999999999,-0.08817648,0.01054284
1779586950507132768,A_+,0.4169424034998883,0.0,1.471923424669418,-2.9134432137690944,-0.09072221451866526,-0.01816887751326097,0.0,0.0,0.0,0.0,0.0,0.0,0.0,-0.29767499999999997,0.33075,0.35437499999999994,-0.05079731999999999,-0.08817648,0.01054284
1779586950537126064,A_+,0.4196043717502107,0.0,1.471923424669418,-2.9134432137690944,-0.09072221451866526,-0.01816887751326097,0.0,0.0,0.0,0.0,0.0,0.0,0.0,-0.3024,0.4347,0.37327499999999997,-0.05558952,-0.08530115999999999,0.01245972
1779586950537126064,A_+,0.422563633500431,0.0,1.471923424669418,-2.9134432137690944,-0.09072221451866526,-0.01816887751326097,0.0,0.0,0.0,0.0,0.0,0.0,0.0,-0.3024,0.4347,0.37327499999999997,-0.05558952,-0.08530115999999999,0.01245972
1779586950537126064,A_+,0.4253137985006106,0.0,1.471923424669418,-2.9134432137690944,-0.09072221451866526,-0.01816887751326097,0.0,0.0,0.0,0.0,0.0,0.0,0.0,-0.3024,0.4347,0.37327499999999997,-0.05558952,-0.08530115999999999,0.01245972
1779586950567923545,A_+,0.4280112855003608,0.0,1.471923424669418,-2.9134432137690944,-0.09072221451866526,-0.01816887751326097,0.0,0.0,0.029,0.0,0.0,0.0,0.0,-0.3213,0.5244749999999999,0.35437499999999994,-0.05463108,-0.07859208,0.01629348
1779586950567923545,A_+,0.43094477224985894,0.0,1.471923424669418,-2.9134432137690944,-0.09072221451866526,-0.01816887751326097,0.0,0.0,0.029,0.0,0.0,0.0,0.0,-0.3213,0.5244749999999999,0.35437499999999994,-0.05463108,-0.07859208,0.01629348
1779586950567923545,A_+,0.4336634185001458,0.0,1.471923424669418,-2.9134432137690944,-0.09072221451866526,-0.01816887751326097,0.0,0.0,0.029,0.0,0.0,0.0,0.0,-0.3213,0.5244749999999999,0.35437499999999994,-0.05463108,-0.07859208,0.01629348
1779586950632153034,A_+,0.4363153072499699,0.0,1.4741748994044905,-2.9134432137690944,-0.09072221451866526,-0.01816887751326097,0.0,0.0,0.0,0.0,0.0,0.0,0.0,-0.3024,0.656775,0.36855,-0.04504668,-0.08242584,0.01725192
1779586950632153034,A_+,0.439263329250025,0.0,1.4741748994044905,-2.9134432137690944,-0.09072221451866526,-0.01816887751326097,0.0,0.0,0.0,0.0,0.0,0.0,0.0,-0.3024,0.656775,0.36855,-0.04504668,-0.08242584,0.01725192
1779586950632153034,A_+,0.4419886632504131,0.0,1.4741748994044905,-2.9134432137690944,-0.09072221451866526,-0.01816887751326097,0.0,0.0,0.0,0.0,0.0,0.0,0.0,-0.3024,0.656775,0.36855,-0.04504668,-0.08242584,0.01725192
1779586950672132730,A_+,0.4446717107502991,0.0,1.4741748994044905,-2.9134432137690944,-0.09072221451866526,-0.01816887751326097,0.0,0.0,0.0,0.0,0.0,0.0,0.0,-0.307125,0.590625,0.382725,-0.05750639999999999,-0.08530115999999999,0.00575064
1779586950672132730,A_+,0.4475432877497951,0.0,1.4741748994044905,-2.9134432137690944,-0.09072221451866526,-0.01816887751326097,0.0,0.0,0.0,0.0,0.0,0.0,0.0,-0.307125,0.590625,0.382725,-0.05750639999999999,-0.08530115999999999,0.00575064
1779586950672132730,A_+,0.45024832650051394,0.0,1.4741748994044905,-2.9134432137690944,-0.09072221451866526,-0.01816887751326097,0.0,0.0,0.0,0.0,0.0,0.0,0.0,-0.307125,0.590625,0.382725,-0.05750639999999999,-0.08530115999999999,0.00575064
1779586950697124004,A_+,0.45291445450038736,0.0,1.4741748994044905,-2.9134432137690944,-0.09072221451866526,-0.01816887751326097,0.0,0.0,0.0,0.0,0.0,0.0,0.0,-0.3024,0.5764499999999999,0.3402,-0.05463108,-0.08817648,0.00383376
1779586950697124004,A_+,0.45582448599998315,0.0,1.4741748994044905,-2.9134432137690944,-0.09072221451866526,-0.01816887751326097,0.0,0.0,0.0,0.0,0.0,0.0,0.0,-0.3024,0.5764499999999999,0.3402,-0.05463108,-0.08817648,0.00383376
1779586950697124004,A_+,0.45852888475019427,0.0,1.4741748994044905,-2.9134432137690944,-0.09072221451866526,-0.01816887751326097,0.0,0.0,0.0,0.0,0.0,0.0,0.0,-0.3024,0.5764499999999999,0.3402,-0.05463108,-0.08817648,0.00383376
1779586950727282047,A_+,0.46120135675027996,0.0,1.4741748994044905,-2.9134432137690944,-0.09072221451866526,-0.01816887751326097,0.0,0.0,0.0,0.0,0.0,0.0,0.0,-0.316575,0.590625,0.35437499999999994,-0.052714199999999996,-0.08530115999999999,0.0047922
1779586950727282047,A_+,0.4640866449999521,0.0,1.4741748994044905,-2.9134432137690944,-0.09072221451866526,-0.01816887751326097,0.0,0.0,0.0,0.0,0.0,0.0,0.0,-0.316575,0.590625,0.35437499999999994,-0.052714199999999996,-0.08530115999999999,0.0047922
1779586950727282047,A_+,0.46681604300010804,0.0,1.4741748994044905,-2.9134432137690944,-0.09072221451866526,-0.01816887751326097,0.0,0.0,0.0,0.0,0.0,0.0,0.0,-0.316575,0.590625,0.35437499999999994,-0.052714199999999996,-0.08530115999999999,0.0047922
1779586950748064756,A_+,0.4694798432501557,0.0,1.4741748994044905,-2.9134432137690944,-0.09072221451866526,-0.01816887751326097,0.0,0.0,0.0,0.0,0.0,0.0,0.0,-0.3024,0.61425,0.3402,-0.05079731999999999,-0.08625959999999999,0.0047922
1779586950748064756,A_+,0.4724669677498241,0.0,1.4741748994044905,-2.9134432137690944,-0.09072221451866526,-0.01816887751326097,0.0,0.0,0.0,0.0,0.0,0.0,0.0,-0.3024,0.61425,0.3402,-0.05079731999999999,-0.08625959999999999,0.0047922
1779586950748064756,A_+,0.47518327825036977,0.0,1.4741748994044905,-2.9134432137690944,-0.09072221451866526,-0.01816887751326097,0.0,0.0,0.0,0.0,0.0,0.0,0.0,-0.3024,0.61425,0.3402,-0.05079731999999999,-0.08625959999999999,0.0047922
1779586950762116193,A_+,0.4778746535002938,0.0,1.4741748994044905,-2.9134432137690944,-0.09072221451866526,-0.01816887751326097,0.0,0.0,0.0,0.0,0.0,0.0,0.0,-0.29295,0.6048,0.33075,-0.04696356,-0.08625959999999999,0.00766752
1779586950762116193,A_+,0.4808046282505529,0.0,1.4741748994044905,-2.9134432137690944,-0.09072221451866526,-0.01816887751326097,0.0,0.0,0.0,0.0,0.0,0.0,0.0,-0.29295,0.6048,0.33075,-0.04696356,-0.08625959999999999,0.00766752
1779586950762116193,A_+,0.4835158827499981,0.0,1.4741748994044905,-2.9134432137690944,-0.09072221451866526,-0.01816887751326097,0.0,0.0,0.0,0.0,0.0,0.0,0.0,-0.29295,0.6048,0.33075,-0.04696356,-0.08625959999999999,0.00766752
1779586950787118196,A_+,0.4861817790006171,0.0,1.4741748994044905,-2.9134432137690944,-0.09072221451866526,-0.01816887751326097,0.0,0.0,0.0,0.0,0.0,0.0,0.0,-0.3213,0.6048,0.37327499999999997,-0.047922,-0.08721804,0.00670908
1779586950787118196,A_+,0.4891155775003426,0.0,1.4741748994044905,-2.9134432137690944,-0.09072221451866526,-0.01816887751326097,0.0,0.0,0.0,0.0,0.0,0.0,0.0,-0.3213,0.6048,0.37327499999999997,-0.047922,-0.08721804,0.00670908
1779586950787118196,A_+,0.4918386637500589,0.0,1.4741748994044905,-2.9134432137690944,-0.09072221451866526,-0.01816887751326097,0.0,0.0,0.0,0.0,0.0,0.0,0.0,-0.3213,0.6048,0.37327499999999997,-0.047922,-0.08721804,0.00670908
1779586950802367448,A_+,0.49454406250060856,0.0,1.4741748994044905,-2.9134432137690944,-0.09072221451866526,-0.01816887751326097,0.0,0.0,0.0,0.0,0.0,0.0,0.0,-0.307125,0.581175,0.3591,-0.047922,-0.07955052,0.0095844
1779586950802367448,A_+,0.497469461250148,0.0,1.4741748994044905,-2.9134432137690944,-0.09072221451866526,-0.01816887751326097,0.0,0.0,0.0,0.0,0.0,0.0,0.0,-0.307125,0.581175,0.3591,-0.047922,-0.07955052,0.0095844
1779586950802367448,A_+,0.5001636285005588,0.0,1.4741748994044905,-2.9134432137690944,-0.09072221451866526,-0.01816887751326097,0.0,0.0,0.0,0.0,0.0,0.0,0.0,-0.307125,0.581175,0.3591,-0.047922,-0.07955052,0.0095844
1779586950847707033,A_+,0.502820292999786,0.0,1.4741748994044905,-2.9134432137690944,-0.09072221451866526,-0.01816887751326097,0.0,0.0,0.0,0.0,0.0,0.0,0.0,-0.3213,0.637875,0.36855,-0.047922,-0.08625959999999999,0.01341816
1779586950847707033,A_+,0.5057708270005605,0.0,1.4741748994044905,-2.9134432137690944,-0.09072221451866526,-0.01816887751326097,0.0,0.0,0.0,0.0,0.0,0.0,0.0,-0.3213,0.637875,0.36855,-0.047922,-0.08625959999999999,0.01341816
1779586950847707033,A_+,0.5084801697503281,0.0,1.4741748994044905,-2.9134432137690944,-0.09072221451866526,-0.01816887751326097,0.0,0.0,0.0,0.0,0.0,0.0,0.0,-0.3213,0.637875,0.36855,-0.047922,-0.08625959999999999,0.01341816
1779586950917115926,A_+,0.5111738969999351,0.0,1.4741748994044905,-2.9134432137690944,-0.09072221451866526,-0.01816887751326097,0.0,0.0,0.0,0.0,0.0,0.0,0.0,-0.326025,0.5717249999999999,0.36382499999999995,-0.04600512,-0.09392712,0.00670908
1779586950917115926,A_+,0.5140371620000224,0.0,1.4741748994044905,-2.9134432137690944,-0.09072221451866526,-0.01816887751326097,0.0,0.0,0.0,0.0,0.0,0.0,0.0,-0.326025,0.5717249999999999,0.36382499999999995,-0.04600512,-0.09392712,0.00670908
1779586950917115926,A_+,0.5167299132499465,0.0,1.4741748994044905,-2.9134432137690944,-0.09072221451866526,-0.01816887751326097,0.0,0.0,0.0,0.0,0.0,0.0,0.0,-0.326025,0.5717249999999999,0.36382499999999995,-0.04600512,-0.09392712,0.00670908
1779586950972122669,A_+,0.519391921749957,0.0,1.4741748994044905,-2.9134432137690944,-0.09072221451866526,-0.01816887751326097,0.0,0.0,0.0,0.0,0.0,0.0,0.0,-0.278775,0.590625,0.37327499999999997,-0.05079731999999999,-0.0910518,0.00766752
1779586950972122669,A_+,0.5222081165002237,0.0,1.4741748994044905,-2.9134432137690944,-0.09072221451866526,-0.01816887751326097,0.0,0.0,0.0,0.0,0.0,0.0,0.0,-0.278775,0.590625,0.37327499999999997,-0.05079731999999999,-0.0910518,0.00766752
1779586950972122669,A_+,0.5249682412504626,0.0,1.4741748994044905,-2.9134432137690944,-0.09072221451866526,-0.01816887751326097,0.0,0.0,0.0,0.0,0.0,0.0,0.0,-0.278775,0.590625,0.37327499999999997,-0.05079731999999999,-0.0910518,0.00766752
1779586951002399206,A_+,0.5276315537503251,0.0,1.4741748994044905,-2.9134432137690944,-0.09072221451866526,-0.01816887751326097,0.0,0.0,-0.002,0.0,0.0,0.0,0.0,-0.29767499999999997,0.6000749999999999,0.3402,-0.04600512,-0.08146740000000001,0.00862596
1779586951002399206,A_+,0.5305242977501621,0.0,1.4741748994044905,-2.9134432137690944,-0.09072221451866526,-0.01816887751326097,0.0,0.0,-0.002,0.0,0.0,0.0,0.0,-0.29767499999999997,0.6000749999999999,0.3402,-0.04600512,-0.08146740000000001,0.00862596
1779586951002399206,A_+,0.5331631790004394,0.0,1.4741748994044905,-2.9134432137690944,-0.09072221451866526,-0.01816887751326097,0.0,0.0,-0.002,0.0,0.0,0.0,0.0,-0.29767499999999997,0.6000749999999999,0.3402,-0.04600512,-0.08146740000000001,0.00862596
1779586951052135467,A_+,0.5358111077503054,0.0,1.4741748994044905,-2.9134432137690944,-0.09072221451866526,-0.01816887751326097,0.0,0.0,0.0,0.0,0.0,0.0,0.0,-0.29767499999999997,0.5717249999999999,0.36382499999999995,-0.05367264,-0.08242584,0.00862596
1779586951052135467,A_+,0.538785769000242,0.0,1.4741748994044905,-2.9134432137690944,-0.09072221451866526,-0.01816887751326097,0.0,0.0,0.0,0.0,0.0,0.0,0.0,-0.29767499999999997,0.5717249999999999,0.36382499999999995,-0.05367264,-0.08242584,0.00862596
1779586951052135467,A_+,0.5415073512504023,0.0,1.4741748994044905,-2.9134432137690944,-0.09072221451866526,-0.01816887751326097,0.0,0.0,0.0,0.0,0.0,0.0,0.0,-0.29767499999999997,0.5717249999999999,0.36382499999999995,-0.05367264,-0.08242584,0.00862596
1779586951067095518,A_+,0.5441895027506689,0.0,1.4741748994044905,-2.9134432137690944,-0.09072221451866526,-0.01816887751326097,0.0,0.0,0.0,0.0,0.0,0.0,0.0,-0.316575,0.581175,0.335475,-0.0383376,-0.07955052,0.00575064
1779586951067095518,A_+,0.5470954865004387,0.0,1.4741748994044905,-2.9134432137690944,-0.09072221451866526,-0.01816887751326097,0.0,0.0,0.0,0.0,0.0,0.0,0.0,-0.316575,0.581175,0.335475,-0.0383376,-0.07955052,0.00575064
1779586951067095518,A_+,0.5497912295004426,0.0,1.4741748994044905,-2.9134432137690944,-0.09072221451866526,-0.01816887751326097,0.0,0.0,0.0,0.0,0.0,0.0,0.0,-0.316575,0.581175,0.335475,-0.0383376,-0.07955052,0.00575064
1779586951087103843,A_+,0.5524709972505661,0.0,1.4741748994044905,-2.9134432137690944,-0.09072221451866526,-0.01816887751326097,0.0,0.0,0.0,0.0,0.0,0.0,0.0,-0.29295,0.590625,0.378,-0.047922,-0.08913491999999999,0.014376599999999998
1779586951087103843,A_+,0.5554227632501352,0.0,1.4741748994044905,-2.9134432137690944,-0.09072221451866526,-0.01816887751326097,0.0,0.0,0.0,0.0,0.0,0.0,0.0,-0.29295,0.590625,0.378,-0.047922,-0.08913491999999999,0.014376599999999998
1779586951087103843,A_+,0.5581408095004008,0.0,1.4741748994044905,-2.9134432137690944,-0.09072221451866526,-0.01816887751326097,0.0,0.0,0.0,0.0,0.0,0.0,0.0,-0.29295,0.590625,0.378,-0.047922,-0.08913491999999999,0.014376599999999998
1779586951102112293,A_+,0.5608363687506426,0.0,1.4741748994044905,-2.9134432137690944,-0.09072221451866526,-0.01816887751326097,0.0,0.0,0.0,0.0,0.0,0.0,0.0,-0.29295,0.590625,0.36855,-0.047922,-0.08817648,0.014376599999999998
1779586951102112293,A_+,0.5637526400005299,0.0,1.4741748994044905,-2.9134432137690944,-0.09072221451866526,-0.01816887751326097,0.0,0.0,0.0,0.0,0.0,0.0,0.0,-0.29295,0.590625,0.36855,-0.047922,-0.08817648,0.014376599999999998
1779586951102112293,A_+,0.5664811900005589,0.0,1.4741748994044905,-2.9134432137690944,-0.09072221451866526,-0.01816887751326097,0.0,0.0,0.0,0.0,0.0,0.0,0.0,-0.29295,0.590625,0.36855,-0.047922,-0.08817648,0.014376599999999998
1779586951162126779,A_+,0.569196612500491,0.0,1.4741748994044905,-2.9134432137690944,-0.09072221451866526,-0.01816887751326097,0.0,0.0,0.0,0.0,0.0,0.0,0.0,-0.3024,0.5717249999999999,0.3402,-0.04600512,-0.08050896,0.00862596
1779586951162126779,A_+,0.5720996999998533,0.0,1.4741748994044905,-2.9134432137690944,-0.09072221451866526,-0.01816887751326097,0.0,0.0,0.0,0.0,0.0,0.0,0.0,-0.3024,0.5717249999999999,0.3402,-0.04600512,-0.08050896,0.00862596
1779586951162126779,A_+,0.5748291300005803,0.0,1.4741748994044905,-2.9134432137690944,-0.09072221451866526,-0.01816887751326097,0.0,0.0,0.0,0.0,0.0,0.0,0.0,-0.3024,0.5717249999999999,0.3402,-0.04600512,-0.08050896,0.00862596
1779586951202093362,A_+,0.5775480564998361,0.0,1.4741748994044905,-2.9134432137690944,-0.09072221451866526,-0.01816887751326097,0.0,0.0,0.0,0.0,0.0,0.0,0.0,-0.31185,0.5717249999999999,0.392175,-0.05175576,-0.08721804,0.01245972
1779586951202093362,A_+,0.5806144822499846,0.0,1.4741748994044905,-2.9134432137690944,-0.09072221451866526,-0.01816887751326097,0.0,0.0,0.0,0.0,0.0,0.0,0.0,-0.31185,0.5717249999999999,0.392175,-0.05175576,-0.08721804,0.01245972
1779586951202093362,A_+,0.5833303767503821,0.0,1.4741748994044905,-2.9134432137690944,-0.09072221451866526,-0.01816887751326097,0.0,0.0,0.0,0.0,0.0,0.0,0.0,-0.31185,0.5717249999999999,0.392175,-0.05175576,-0.08721804,0.01245972
1779586951227103948,A_+,0.585996169000282,0.0,1.4741748994044905,-2.9134432137690944,-0.09072221451866526,-0.01816887751326097,0.0,0.0,0.0,0.0,0.0,0.0,0.0,-0.29295,0.637875,0.3591,-0.06900768,-0.08721804,0.00766752
1779586951227103948,A_+,0.5889183039998898,0.0,1.4741748994044905,-2.9134432137690944,-0.09072221451866526,-0.01816887751326097,0.0,0.0,0.0,0.0,0.0,0.0,0.0,-0.29295,0.637875,0.3591,-0.06900768,-0.08721804,0.00766752
1779586951227103948,A_+,0.5916422860000239,0.0,1.4741748994044905,-2.9134432137690944,-0.09072221451866526,-0.01816887751326097,0.0,0.0,0.0,0.0,0.0,0.0,0.0,-0.29295,0.637875,0.3591,-0.06900768,-0.08721804,0.00766752
1779586951272350072,A_+,0.5943229257500207,0.0,1.4741748994044905,-2.9134432137690944,-0.09072221451866526,-0.01816887751326097,0.0,0.0,0.0,0.0,0.0,0.0,0.0,-0.3024,0.5859,0.335475,-0.05558952,-0.08625959999999999,0.00862596
1779586951272350072,A_+,0.5972345812506319,0.0,1.4741748994044905,-2.9134432137690944,-0.09072221451866526,-0.01816887751326097,0.0,0.0,0.0,0.0,0.0,0.0,0.0,-0.3024,0.5859,0.335475,-0.05558952,-0.08625959999999999,0.00862596
1779586951272350072,A_+,0.5999312122503397,0.0,1.4741748994044905,-2.9134432137690944,-0.09072221451866526,-0.01816887751326097,0.0,0.0,0.0,0.0,0.0,0.0,0.0,-0.3024,0.5859,0.335475,-0.05558952,-0.08625959999999999,0.00862596
1779586951297154664,A_+,0.6025854050003545,0.0,1.4741748994044905,-2.9134432137690944,-0.09072221451866526,-0.01816887751326097,0.0,0.0,0.0,0.0,0.0,0.0,0.0,-0.2835,0.590625,0.36855,-0.048880440000000004,-0.08434272,0.01629348
1779586951297154664,A_+,0.6055378187502356,0.0,1.4741748994044905,-2.9134432137690944,-0.09072221451866526,-0.01816887751326097,0.0,0.0,0.0,0.0,0.0,0.0,0.0,-0.2835,0.590625,0.36855,-0.048880440000000004,-0.08434272,0.01629348
1779586951297154664,A_+,0.6082646567501797,0.0,1.4741748994044905,-2.9134432137690944,-0.09072221451866526,-0.01816887751326097,0.0,0.0,0.0,0.0,0.0,0.0,0.0,-0.2835,0.590625,0.36855,-0.048880440000000004,-0.08434272,0.01629348
1779586951317236423,A_+,0.6109367927501808,0.0,1.4741748994044905,-2.9134432137690944,-0.09072221451866526,-0.01816887751326097,0.0,0.0,0.0,0.0,0.0,0.0,0.0,-0.29767499999999997,0.5953499999999999,0.36855,-0.04600512,-0.08625959999999999,0.00575064
1779586951317236423,A_+,0.613853616000597,0.0,1.4741748994044905,-2.9134432137690944,-0.09072221451866526,-0.01816887751326097,0.0,0.0,0.0,0.0,0.0,0.0,0.0,-0.29767499999999997,0.5953499999999999,0.36855,-0.04600512,-0.08625959999999999,0.00575064
1779586951317236423,A_+,0.6165771982505248,0.0,1.4741748994044905,-2.9134432137690944,-0.09072221451866526,-0.01816887751326097,0.0,0.0,0.0,0.0,0.0,0.0,0.0,-0.29767499999999997,0.5953499999999999,0.36855,-0.04600512,-0.08625959999999999,0.00575064
1779586951332120895,A_+,0.6192665015005332,0.0,1.4741748994044905,-2.9134432137690944,-0.09072221451866526,-0.01816887751326097,0.0,0.0,0.0,0.0,0.0,0.0,0.0,-0.3024,0.6189749999999999,0.36855,-0.05079731999999999,-0.08817648,0.01245972
1779586951332120895,A_+,0.622208956000577,0.0,1.4741748994044905,-2.9134432137690944,-0.09072221451866526,-0.01816887751326097,0.0,0.0,0.0,0.0,0.0,0.0,0.0,-0.3024,0.6189749999999999,0.36855,-0.05079731999999999,-0.08817648,0.01245972
1779586951332120895,A_+,0.6249497694998354,0.0,1.4741748994044905,-2.9134432137690944,-0.09072221451866526,-0.01816887751326097,0.0,0.0,0.0,0.0,0.0,0.0,0.0,-0.3024,0.6189749999999999,0.36855,-0.05079731999999999,-0.08817648,0.01245972
1779586951367695808,A_+,0.6276542002506176,0.0,1.4741748994044905,-2.9134432137690944,-0.09072221451866526,-0.01816887751326097,0.0,0.0,0.0,0.0,0.0,0.0,0.0,-0.29295,0.6189749999999999,0.3591,-0.048880440000000004,-0.10638684,0.01245972
1779586951367695808,A_+,0.6306036142505036,0.0,1.4741748994044905,-2.9134432137690944,-0.09072221451866526,-0.01816887751326097,0.0,0.0,0.0,0.0,0.0,0.0,0.0,-0.29295,0.6189749999999999,0.3591,-0.048880440000000004,-0.10638684,0.01245972
1779586951367695808,A_+,0.633320020750034,0.0,1.4741748994044905,-2.9134432137690944,-0.09072221451866526,-0.01816887751326097,0.0,0.0,0.0,0.0,0.0,0.0,0.0,-0.29295,0.6189749999999999,0.3591,-0.048880440000000004,-0.10638684,0.01245972
1779586951397117137,A_+,0.6360038362499836,0.0,1.4741748994044905,-2.9134432137690944,-0.09072221451866526,-0.01816887751326097,0.0,0.0,0.0,0.0,0.0,0.0,0.0,-0.307125,0.5717249999999999,0.3591,-0.05079731999999999,-0.08817648,0.00862596
1779586951397117137,A_+,0.6389399067502382,0.0,1.4741748994044905,-2.9134432137690944,-0.09072221451866526,-0.01816887751326097,0.0,0.0,0.0,0.0,0.0,0.0,0.0,-0.307125,0.5717249999999999,0.3591,-0.05079731999999999,-0.08817648,0.00862596
1779586951397117137,A_+,0.6417599095002515,0.0,1.4741748994044905,-2.9134432137690944,-0.09072221451866526,-0.01816887751326097,0.0,0.0,0.0,0.0,0.0,0.0,0.0,-0.307125,0.5717249999999999,0.3591,-0.05079731999999999,-0.08817648,0.00862596
1779586951413355588,A_+,0.6444712279999294,0.0,1.4741748994044905,-2.9134432137690944,-0.09072221451866526,-0.01816887751326097,0.0,0.0,0.0,0.0,0.0,0.0,0.0,-0.29767499999999997,0.609525,0.3402,-0.048880440000000004,-0.08146740000000001,0.00766752
1779586951413355588,A_+,0.6474133225001424,0.0,1.4741748994044905,-2.9134432137690944,-0.09072221451866526,-0.01816887751326097,0.0,0.0,0.0,0.0,0.0,0.0,0.0,-0.29767499999999997,0.609525,0.3402,-0.048880440000000004,-0.08146740000000001,0.00766752
1779586951413355588,A_+,0.6501192252499095,0.0,1.4741748994044905,-2.9134432137690944,-0.09072221451866526,-0.01816887751326097,0.0,0.0,0.0,0.0,0.0,0.0,0.0,-0.29767499999999997,0.609525,0.3402,-0.048880440000000004,-0.08146740000000001,0.00766752
1779586951447854995,A_+,0.6527932412500377,0.0,1.4741748994044905,-2.9134432137690944,-0.09072221451866526,-0.01816887751326097,0.0,0.0,0.0,0.0,0.0,0.0,0.0,-0.316575,0.61425,0.3402,-0.05463108,-0.08530115999999999,0.00095844
1779586951447854995,A_+,0.6557335035004144,0.0,1.4741748994044905,-2.9134432137690944,-0.09072221451866526,-0.01816887751326097,0.0,0.0,0.0,0.0,0.0,0.0,0.0,-0.316575,0.61425,0.3402,-0.05463108,-0.08530115999999999,0.00095844
1779586951447854995,A_+,0.6584730049999052,0.0,1.4741748994044905,-2.9134432137690944,-0.09072221451866526,-0.01816887751326097,0.0,0.0,0.0,0.0,0.0,0.0,0.0,-0.316575,0.61425,0.3402,-0.05463108,-0.08530115999999999,0.00095844
1779586951482103586,A_+,0.6612109867501204,0.0,1.4741748994044905,-2.9134432137690944,-0.09072221451866526,-0.01816887751326097,0.0,0.0,0.0,0.0,0.0,0.0,0.0,-0.31185,0.5717249999999999,0.3449249999999999,-0.04408824,-0.08721804,0.0
1779586951482103586,A_+,0.6641263540004729,0.0,1.4741748994044905,-2.9134432137690944,-0.09072221451866526,-0.01816887751326097,0.0,0.0,0.0,0.0,0.0,0.0,0.0,-0.31185,0.5717249999999999,0.3449249999999999,-0.04408824,-0.08721804,0.0
1779586951482103586,A_+,0.6668744712505941,0.0,1.4741748994044905,-2.9134432137690944,-0.09072221451866526,-0.01816887751326097,0.0,0.0,0.0,0.0,0.0,0.0,0.0,-0.31185,0.5717249999999999,0.3449249999999999,-0.04408824,-0.08721804,0.0
1779586951527140855,A_+,0.6695453352504046,0.0,1.4741748994044905,-2.9134432137690944,-0.09072221451866526,-0.01816887751326097,0.0,0.0,0.0,0.0,0.0,0.0,0.0,-0.307125,0.581175,0.326025,-0.04983888,-0.09201024,0.00862596
1779586951527140855,A_+,0.6724915415006762,0.0,1.4741748994044905,-2.9134432137690944,-0.09072221451866526,-0.01816887751326097,0.0,0.0,0.0,0.0,0.0,0.0,0.0,-0.307125,0.581175,0.326025,-0.04983888,-0.09201024,0.00862596
1779586951527140855,A_+,0.6752034119999735,0.0,1.4741748994044905,-2.9134432137690944,-0.09072221451866526,-0.01816887751326097,0.0,0.0,0.0,0.0,0.0,0.0,0.0,-0.307125,0.581175,0.326025,-0.04983888,-0.09201024,0.00862596
1779586951557340860,A_+,0.6779202585003077,0.0,1.4741748994044905,-2.9134432137690944,-0.09072221451866526,-0.01816887751326097,0.0,0.0,0.0,0.0,0.0,0.0,0.0,-0.307125,0.80325,0.3402,-0.05175576,-0.08913491999999999,0.00766752
1779586951557340860,A_+,0.6808877757503069,0.0,1.4741748994044905,-2.9134432137690944,-0.09072221451866526,-0.01816887751326097,0.0,0.0,0.0,0.0,0.0,0.0,0.0,-0.307125,0.80325,0.3402,-0.05175576,-0.08913491999999999,0.00766752
1779586951557340860,A_+,0.6836027742501756,0.0,1.4741748994044905,-2.9134432137690944,-0.09072221451866526,-0.01816887751326097,0.0,0.0,0.0,0.0,0.0,0.0,0.0,-0.307125,0.80325,0.3402,-0.05175576,-0.08913491999999999,0.00766752
1779586951752093553,A_+,0.6862487672506177,0.0,1.4828317324943825,-2.9134432137690944,-0.09072221451866526,-0.01816887751326097,0.0,0.0,0.02,-0.013000000000000001,0.0,0.0,0.0,-0.3213,0.817425,0.43942499999999995,-0.05750639999999999,-0.1006362,0.01821036
1779586951752093553,A_+,0.6891270317501039,0.0,1.4828317324943825,-2.9134432137690944,-0.09072221451866526,-0.01816887751326097,0.0,0.0,0.02,-0.013000000000000001,0.0,0.0,0.0,-0.3213,0.817425,0.43942499999999995,-0.05750639999999999,-0.1006362,0.01821036
1779586951752093553,A_+,0.691871413249828,0.0,1.4828317324943825,-2.9134432137690944,-0.09072221451866526,-0.01816887751326097,0.0,0.0,0.02,-0.013000000000000001,0.0,0.0,0.0,-0.3213,0.817425,0.43942499999999995,-0.05750639999999999,-0.1006362,0.01821036
1779586951787097454,A_+,0.6945207019998634,0.0,1.4850133940593755,-2.9134432137690944,-0.09072221451866526,-0.01816887751326097,0.0,0.0,0.11800000000000001,0.0,0.0,0.0,0.0,-0.2835,0.29767499999999997,0.3213,-0.04504668,-0.095844,0.0047922
1779586951787097454,A_+,0.6973517122505655,0.0,1.4850133940593755,-2.9134432137690944,-0.09072221451866526,-0.01816887751326097,0.0,0.0,0.11800000000000001,0.0,0.0,0.0,0.0,-0.2835,0.29767499999999997,0.3213,-0.04504668,-0.095844,0.0047922
1779586951787097454,A_+,0.7000247362502705,0.0,1.4850133940593755,-2.9134432137690944,-0.09072221451866526,-0.01816887751326097,0.0,0.0,0.11800000000000001,0.0,0.0,0.0,0.0,-0.2835,0.29767499999999997,0.3213,-0.04504668,-0.095844,0.0047922
