deepaktalwardt/rage-cage-arm-hackstorm/ros2/ws/sysid/runs/sysid_20260524_004556/raw/joint4_phaseA_neg.csv
t_ns,phase,tau_cmd,q1,q2,q3,q4,q5,q6,qd1,qd2,qd3,qd4,qd5,qd6,tau1,tau2,tau3,tau4,tau5,tau6
1779583578624252796,A_-,-2.280003172927536e-07,0.02298598624876532,1.8435214757115306,-1.5410210097558732,-0.1271472360077869,-0.26333527754090447,0.17467255153959252,0.0,0.0,0.0,0.0,0.0,0.0,-0.17482499999999998,-7.9049249999999995,-5.107724999999999,0.029711639999999997,-1.0705774799999999,-0.06996611999999999
1779583578624252796,A_-,-0.004214738626160397,0.02298598624876532,1.8435214757115306,-1.5410210097558732,-0.1271472360077869,-0.26333527754090447,0.17467255153959252,0.0,0.0,0.0,0.0,0.0,0.0,-0.17482499999999998,-7.9049249999999995,-5.107724999999999,0.029711639999999997,-1.0705774799999999,-0.06996611999999999
1779583578624252796,A_-,-0.008195797501230118,0.02298598624876532,1.8435214757115306,-1.5410210097558732,-0.1271472360077869,-0.26333527754090447,0.17467255153959252,0.0,0.0,0.0,0.0,0.0,0.0,-0.17482499999999998,-7.9049249999999995,-5.107724999999999,0.029711639999999997,-1.0705774799999999,-0.06996611999999999
1779583578654059410,A_-,-0.01207891125113747,0.02298598624876532,1.8435214757115306,-1.5410210097558732,-0.1271472360077869,-0.26333527754090447,0.17467255153959252,0.0,0.0,0.0,0.0,0.0,0.0,-0.12285,-7.9521749999999995,-5.136074999999999,0.028753199999999996,-1.06099308,-0.06900768
1779583578654059410,A_-,-0.01624062112568936,0.02298598624876532,1.8435214757115306,-1.5410210097558732,-0.1271472360077869,-0.26333527754090447,0.17467255153959252,0.0,0.0,0.0,0.0,0.0,0.0,-0.12285,-7.9521749999999995,-5.136074999999999,0.028753199999999996,-1.06099308,-0.06900768
1779583578654059410,A_-,-0.020182067625682976,0.02298598624876532,1.8435214757115306,-1.5410210097558732,-0.1271472360077869,-0.26333527754090447,0.17467255153959252,0.0,0.0,0.0,0.0,0.0,0.0,-0.12285,-7.9521749999999995,-5.136074999999999,0.028753199999999996,-1.06099308,-0.06900768
1779583578684045553,A_-,-0.02409556537622848,0.02298598624876532,1.8435214757115306,-1.5410210097558732,-0.1271472360077869,-0.26333527754090447,0.17467255153959252,0.0,0.0,0.0,0.0,0.0,0.0,-0.137025,-7.909649999999999,-5.09355,0.03162852,-1.06578528,-0.07859208
1779583578684045553,A_-,-0.02826493125030538,0.02298598624876532,1.8435214757115306,-1.5410210097558732,-0.1271472360077869,-0.26333527754090447,0.17467255153959252,0.0,0.0,0.0,0.0,0.0,0.0,-0.137025,-7.909649999999999,-5.09355,0.03162852,-1.06578528,-0.07859208
1779583578684045553,A_-,-0.0321790773759858,0.02298598624876532,1.8435214757115306,-1.5410210097558732,-0.1271472360077869,-0.26333527754090447,0.17467255153959252,0.0,0.0,0.0,0.0,0.0,0.0,-0.137025,-7.909649999999999,-5.09355,0.03162852,-1.06578528,-0.07859208
1779583578719036340,A_-,-0.036057835125575366,0.02298598624876532,1.8435214757115306,-1.5410210097558732,-0.1271472360077869,-0.26333527754090447,0.17467255153959252,0.0,0.0,0.0,0.0,0.0,0.0,-0.165375,-7.919099999999999,-5.13135,0.0335454,-1.06578528,-0.08146740000000001
1779583578719036340,A_-,-0.040222509000159334,0.02298598624876532,1.8435214757115306,-1.5410210097558732,-0.1271472360077869,-0.26333527754090447,0.17467255153959252,0.0,0.0,0.0,0.0,0.0,0.0,-0.165375,-7.919099999999999,-5.13135,0.0335454,-1.06578528,-0.08146740000000001
1779583578719036340,A_-,-0.04415767912587398,0.02298598624876532,1.8435214757115306,-1.5410210097558732,-0.1271472360077869,-0.26333527754090447,0.17467255153959252,0.0,0.0,0.0,0.0,0.0,0.0,-0.165375,-7.919099999999999,-5.13135,0.0335454,-1.06578528,-0.08146740000000001
1779583578749048233,A_-,-0.04805474925069575,0.02298598624876532,1.8435214757115306,-1.5410210097558732,-0.1271472360077869,-0.26333527754090447,0.17467255153959252,0.0,0.0,0.0,0.0,0.0,0.0,-0.22679999999999997,-7.947449999999999,-5.13135,0.029711639999999997,-1.0686605999999998,-0.08146740000000001
1779583578749048233,A_-,-0.052238923125059955,0.02298598624876532,1.8435214757115306,-1.5410210097558732,-0.1271472360077869,-0.26333527754090447,0.17467255153959252,0.0,0.0,0.0,0.0,0.0,0.0,-0.22679999999999997,-7.947449999999999,-5.13135,0.029711639999999997,-1.0686605999999998,-0.08146740000000001
1779583578749048233,A_-,-0.05617871362619553,0.02298598624876532,1.8435214757115306,-1.5410210097558732,-0.1271472360077869,-0.26333527754090447,0.17467255153959252,0.0,0.0,0.0,0.0,0.0,0.0,-0.22679999999999997,-7.947449999999999,-5.13135,0.029711639999999997,-1.0686605999999998,-0.08146740000000001
1779583578784056186,A_-,-0.06005695500061847,0.02298598624876532,1.8435214757115306,-1.5410210097558732,-0.1271472360077869,-0.26333527754090447,0.17467255153959252,0.0,0.0,0.0,0.0,0.0,0.0,-0.2457,-7.914375,-5.05575,0.03162852,-1.06482684,-0.08338428
1779583578784056186,A_-,-0.06424243724995904,0.02298598624876532,1.8435214757115306,-1.5410210097558732,-0.1271472360077869,-0.26333527754090447,0.17467255153959252,0.0,0.0,0.0,0.0,0.0,0.0,-0.2457,-7.914375,-5.05575,0.03162852,-1.06482684,-0.08338428
1779583578784056186,A_-,-0.06820030012613643,0.02298598624876532,1.8435214757115306,-1.5410210097558732,-0.1271472360077869,-0.26333527754090447,0.17467255153959252,0.0,0.0,0.0,0.0,0.0,0.0,-0.2457,-7.914375,-5.05575,0.03162852,-1.06482684,-0.08338428
1779583578814037561,A_-,-0.07209610987547421,0.02298598624876532,1.8435214757115306,-1.5410210097558732,-0.1271472360077869,-0.26333527754090447,0.17467255153959252,0.0,0.0,0.0,0.0,0.0,0.0,-0.19372499999999998,-7.895474999999999,-5.103,0.03737916,-1.07153592,-0.08146740000000001
1779583578814037561,A_-,-0.07625771175116824,0.02298598624876532,1.8435214757115306,-1.5410210097558732,-0.1271472360077869,-0.26333527754090447,0.17467255153959252,0.0,0.0,0.0,0.0,0.0,0.0,-0.19372499999999998,-7.895474999999999,-5.103,0.03737916,-1.07153592,-0.08146740000000001
1779583578814037561,A_-,-0.08018240587580294,0.02298598624876532,1.8435214757115306,-1.5410210097558732,-0.1271472360077869,-0.26333527754090447,0.17467255153959252,0.0,0.0,0.0,0.0,0.0,0.0,-0.19372499999999998,-7.895474999999999,-5.103,0.03737916,-1.07153592,-0.08146740000000001
1779583578849048137,A_-,-0.08406866362520304,0.02298598624876532,1.8435214757115306,-1.5410210097558732,-0.1271472360077869,-0.26333527754090447,0.17467255153959252,0.0,0.0,0.0,0.0,0.0,0.0,-0.12285,-7.900199999999999,-5.1408,0.02683632,-1.0744112399999999,-0.08146740000000001
1779583578849048137,A_-,-0.08825200950013823,0.02298598624876532,1.8435214757115306,-1.5410210097558732,-0.1271472360077869,-0.26333527754090447,0.17467255153959252,0.0,0.0,0.0,0.0,0.0,0.0,-0.12285,-7.900199999999999,-5.1408,0.02683632,-1.0744112399999999,-0.08146740000000001
1779583578849048137,A_-,-0.09218516400051158,0.02298598624876532,1.8435214757115306,-1.5410210097558732,-0.1271472360077869,-0.26333527754090447,0.17467255153959252,0.0,0.0,0.0,0.0,0.0,0.0,-0.12285,-7.900199999999999,-5.1408,0.02683632,-1.0744112399999999,-0.08146740000000001
1779583578879050731,A_-,-0.0960822817510234,0.02298598624876532,1.8435214757115306,-1.5410210097558732,-0.1271472360077869,-0.26333527754090447,0.17467255153959252,0.0,0.0,0.0,0.0,0.0,0.0,-0.108675,-7.9285499999999995,-5.154974999999999,0.02779476,-1.07536968,-0.08625959999999999
1779583578879050731,A_-,-0.10031782875057615,0.02298598624876532,1.8435214757115306,-1.5410210097558732,-0.1271472360077869,-0.26333527754090447,0.17467255153959252,0.0,0.0,0.0,0.0,0.0,0.0,-0.108675,-7.9285499999999995,-5.154974999999999,0.02779476,-1.07536968,-0.08625959999999999
1779583578879050731,A_-,-0.10426760325117357,0.02298598624876532,1.8435214757115306,-1.5410210097558732,-0.1271472360077869,-0.26333527754090447,0.17467255153959252,0.0,0.0,0.0,0.0,0.0,0.0,-0.108675,-7.9285499999999995,-5.154974999999999,0.02779476,-1.07536968,-0.08625959999999999
1779583578909055709,A_-,-0.10814372062623079,0.02298598624876532,1.8435214757115306,-1.5410210097558732,-0.1271472360077869,-0.26333527754090447,0.17467255153959252,0.0,0.0,0.0,0.0,0.0,0.0,-0.16065,-7.890749999999999,-5.11245,0.04504668,-1.06578528,-0.07859208
1779583578909055709,A_-,-0.11234671125112072,0.02298598624876532,1.8435214757115306,-1.5410210097558732,-0.1271472360077869,-0.26333527754090447,0.17467255153959252,0.0,0.0,0.0,0.0,0.0,0.0,-0.16065,-7.890749999999999,-5.11245,0.04504668,-1.06578528,-0.07859208
1779583578909055709,A_-,-0.11648571637533678,0.02298598624876532,1.8435214757115306,-1.5410210097558732,-0.1271472360077869,-0.26333527754090447,0.17467255153959252,0.0,0.0,0.0,0.0,0.0,0.0,-0.16065,-7.890749999999999,-5.11245,0.04504668,-1.06578528,-0.07859208
1779583578944055557,A_-,-0.12042659887583795,0.02298598624876532,1.8435214757115306,-1.5410210097558732,-0.1271472360077869,-0.26333527754090447,0.17467255153959252,0.0,0.0,0.0,0.0,0.0,0.0,-0.137025,-7.914375,-5.258925,0.023961,-1.0705774799999999,-0.08146740000000001
1779583578944055557,A_-,-0.12459192075039027,0.02298598624876532,1.8435214757115306,-1.5410210097558732,-0.1271472360077869,-0.26333527754090447,0.17467255153959252,0.0,0.0,0.0,0.0,0.0,0.0,-0.137025,-7.914375,-5.258925,0.023961,-1.0705774799999999,-0.08146740000000001
1779583578944055557,A_-,-0.12854805562574256,0.02298598624876532,1.8435214757115306,-1.5410210097558732,-0.1271472360077869,-0.26333527754090447,0.17467255153959252,0.0,0.0,0.0,0.0,0.0,0.0,-0.137025,-7.914375,-5.258925,0.023961,-1.0705774799999999,-0.08146740000000001
1779583578974063396,A_-,-0.1324333170009595,0.02298598624876532,1.8435214757115306,-1.5410210097558732,-0.1271472360077869,-0.26333527754090447,0.17467255153959252,0.0,0.0,0.0,0.0,0.0,0.0,-0.17482499999999998,-7.909649999999999,-5.11245,0.02683632,-1.0705774799999999,-0.07379988
1779583578974063396,A_-,-0.1366379876258179,0.02298598624876532,1.8435214757115306,-1.5410210097558732,-0.1271472360077869,-0.26333527754090447,0.17467255153959252,0.0,0.0,0.0,0.0,0.0,0.0,-0.17482499999999998,-7.909649999999999,-5.11245,0.02683632,-1.0705774799999999,-0.07379988
1779583578974063396,A_-,-0.1405590337508329,0.02298598624876532,1.8435214757115306,-1.5410210097558732,-0.1271472360077869,-0.26333527754090447,0.17467255153959252,0.0,0.0,0.0,0.0,0.0,0.0,-0.17482499999999998,-7.909649999999999,-5.11245,0.02683632,-1.0705774799999999,-0.07379988
1779583579009049415,A_-,-0.14452223662510733,0.02298598624876532,1.8435214757115306,-1.5410210097558732,-0.1271472360077869,-0.26333527754090447,0.17467255153959252,0.0,0.0,0.0,0.0,0.0,0.0,-0.1701,-7.942724999999999,-5.1408,0.03258696,-1.0744112399999999,-0.08721804
1779583579009049415,A_-,-0.14880051562568042,0.02298598624876532,1.8435214757115306,-1.5410210097558732,-0.1271472360077869,-0.26333527754090447,0.17467255153959252,0.0,0.0,0.0,0.0,0.0,0.0,-0.1701,-7.942724999999999,-5.1408,0.03258696,-1.0744112399999999,-0.08721804
1779583579009049415,A_-,-0.1527188377508537,0.02298598624876532,1.8435214757115306,-1.5410210097558732,-0.1271472360077869,-0.26333527754090447,0.17467255153959252,0.0,0.0,0.0,0.0,0.0,0.0,-0.1701,-7.942724999999999,-5.1408,0.03258696,-1.0744112399999999,-0.08721804
1779583579039102077,A_-,-0.15659610712600625,0.02298598624876532,1.8435214757115306,-1.5410210097558732,-0.1271472360077869,-0.26333527754090447,0.17467255153959252,0.0,0.0,0.0,0.0,0.0,0.0,-0.19845,-7.85295,-5.1408,0.03929604,-1.06482684,-0.07284144
1779583579039102077,A_-,-0.1607380162508889,0.02298598624876532,1.8435214757115306,-1.5410210097558732,-0.1271472360077869,-0.26333527754090447,0.17467255153959252,0.0,0.0,0.0,0.0,0.0,0.0,-0.19845,-7.85295,-5.1408,0.03929604,-1.06482684,-0.07284144
1779583579039102077,A_-,-0.1646496303760614,0.02298598624876532,1.8435214757115306,-1.5410210097558732,-0.1271472360077869,-0.26333527754090447,0.17467255153959252,0.0,0.0,0.0,0.0,0.0,0.0,-0.19845,-7.85295,-5.1408,0.03929604,-1.06482684,-0.07284144
1779583579074228525,A_-,-0.168541803750486,0.02298598624876532,1.8435214757115306,-1.5410210097558732,-0.1271472360077869,-0.26333527754090447,0.17467255153959252,0.0,0.0,0.0,0.0,0.0,0.0,-0.25987499999999997,-7.914375,-5.16915,0.0335454,-1.0686605999999998,-0.07859208
1779583579074228525,A_-,-0.17278171837506306,0.02298598624876532,1.8435214757115306,-1.5410210097558732,-0.1271472360077869,-0.26333527754090447,0.17467255153959252,0.0,0.0,0.0,0.0,0.0,0.0,-0.25987499999999997,-7.914375,-5.16915,0.0335454,-1.0686605999999998,-0.07859208
1779583579074228525,A_-,-0.17670473250109353,0.02298598624876532,1.8435214757115306,-1.5410210097558732,-0.1271472360077869,-0.26333527754090447,0.17467255153959252,0.0,0.0,0.0,0.0,0.0,0.0,-0.25987499999999997,-7.914375,-5.16915,0.0335454,-1.0686605999999998,-0.07859208
1779583579104044198,A_-,-0.1805967622508433,0.02298598624876532,1.8435214757115306,-1.5410210097558732,-0.1271472360077869,-0.26333527754090447,0.17467255153959252,0.0,0.0,0.0,0.0,0.0,0.0,-0.17482499999999998,-7.890749999999999,-5.11245,0.02779476,-1.07153592,-0.07188299999999999
1779583579104044198,A_-,-0.18474548737594887,0.02298598624876532,1.8435214757115306,-1.5410210097558732,-0.1271472360077869,-0.26333527754090447,0.17467255153959252,0.0,0.0,0.0,0.0,0.0,0.0,-0.17482499999999998,-7.890749999999999,-5.11245,0.02779476,-1.07153592,-0.07188299999999999
1779583579104044198,A_-,-0.18865184550077174,0.02298598624876532,1.8435214757115306,-1.5410210097558732,-0.1271472360077869,-0.26333527754090447,0.17467255153959252,0.0,0.0,0.0,0.0,0.0,0.0,-0.17482499999999998,-7.890749999999999,-5.11245,0.02779476,-1.07153592,-0.07188299999999999
1779583579139055490,A_-,-0.19254381487598948,0.02298598624876532,1.8435214757115306,-1.5410210097558732,-0.1271472360077869,-0.26333527754090447,0.17467255153959252,0.0,0.0,0.0,0.0,0.0,0.0,-0.118125,-7.919099999999999,-5.117175,0.03162852,-1.0705774799999999,-0.08434272
1779583579139055490,A_-,-0.19671375675079616,0.02298598624876532,1.8435214757115306,-1.5410210097558732,-0.1271472360077869,-0.26333527754090447,0.17467255153959252,0.0,0.0,0.0,0.0,0.0,0.0,-0.118125,-7.919099999999999,-5.117175,0.03162852,-1.0705774799999999,-0.08434272
1779583579139055490,A_-,-0.20064069487625602,0.02298598624876532,1.8435214757115306,-1.5410210097558732,-0.1271472360077869,-0.26333527754090447,0.17467255153959252,0.0,0.0,0.0,0.0,0.0,0.0,-0.118125,-7.919099999999999,-5.117175,0.03162852,-1.0705774799999999,-0.08434272
1779583579169109821,A_-,-0.2045180962500126,0.02298598624876532,1.8435214757115306,-1.5410210097558732,-0.1271472360077869,-0.26333527754090447,0.17467255153959252,0.0,0.0,0.0,0.0,0.0,0.0,-0.137025,-7.895474999999999,-5.136074999999999,0.03642072,-1.0667437199999998,-0.07859208
1779583579169109821,A_-,-0.20859864862541144,0.02298598624876532,1.8435214757115306,-1.5410210097558732,-0.1271472360077869,-0.26333527754090447,0.17467255153959252,0.0,0.0,0.0,0.0,0.0,0.0,-0.137025,-7.895474999999999,-5.136074999999999,0.03642072,-1.0667437199999998,-0.07859208
1779583579169109821,A_-,-0.21250645837608317,0.02298598624876532,1.8435214757115306,-1.5410210097558732,-0.1271472360077869,-0.26333527754090447,0.17467255153959252,0.0,0.0,0.0,0.0,0.0,0.0,-0.137025,-7.895474999999999,-5.136074999999999,0.03642072,-1.0667437199999998,-0.07859208
1779583579199052810,A_-,-0.2163651273749565,0.02298598624876532,1.8435214757115306,-1.5410210097558732,-0.1271472360077869,-0.26333527754090447,0.17467255153959252,0.0,0.0,0.0,0.0,0.0,0.0,-0.16065,-7.9049249999999995,-5.13135,0.02300256,-1.0686605999999998,-0.07955052
1779583579199052810,A_-,-0.22046376412527025,0.02298598624876532,1.8435214757115306,-1.5410210097558732,-0.1271472360077869,-0.26333527754090447,0.17467255153959252,0.0,0.0,0.0,0.0,0.0,0.0,-0.16065,-7.9049249999999995,-5.13135,0.02300256,-1.0686605999999998,-0.07955052
1779583579199052810,A_-,-0.2243668698752117,0.02298598624876532,1.8435214757115306,-1.5410210097558732,-0.1271472360077869,-0.26333527754090447,0.17467255153959252,0.0,0.0,0.0,0.0,0.0,0.0,-0.16065,-7.9049249999999995,-5.13135,0.02300256,-1.0686605999999998,-0.07955052
1779583579234095811,A_-,-0.22823463487611662,0.02298598624876532,1.8435214757115306,-1.5410210097558732,-0.1271472360077869,-0.26333527754090447,0.17467255153959252,0.0,0.0,0.0,0.0,0.0,0.0,-0.23152499999999998,-7.919099999999999,-5.11245,0.03067008,-1.0734528,-0.08530115999999999
1779583579234095811,A_-,-0.23235012000077404,0.02298598624876532,1.8435214757115306,-1.5410210097558732,-0.1271472360077869,-0.26333527754090447,0.17467255153959252,0.0,0.0,0.0,0.0,0.0,0.0,-0.23152499999999998,-7.919099999999999,-5.11245,0.03067008,-1.0734528,-0.08530115999999999
1779583579234095811,A_-,-0.2363227185001051,0.02298598624876532,1.8435214757115306,-1.5410210097558732,-0.1271472360077869,-0.26333527754090447,0.17467255153959252,0.0,0.0,0.0,0.0,0.0,0.0,-0.23152499999999998,-7.919099999999999,-5.11245,0.03067008,-1.0734528,-0.08530115999999999
1779583579264060497,A_-,-0.24020405587589266,0.02298598624876532,1.8435214757115306,-1.5410210097558732,-0.1271472360077869,-0.26333527754090447,0.17467255153959252,0.0,0.0,0.0,0.0,0.0,0.0,-0.184275,-7.895474999999999,-5.088824999999999,0.0383376,-1.0686605999999998,-0.08050896
1779583579264060497,A_-,-0.2443815697511127,0.02298598624876532,1.8435214757115306,-1.5410210097558732,-0.1271472360077869,-0.26333527754090447,0.17467255153959252,0.0,0.0,0.0,0.0,0.0,0.0,-0.184275,-7.895474999999999,-5.088824999999999,0.0383376,-1.0686605999999998,-0.08050896
1779583579264060497,A_-,-0.2482954278757461,0.02298598624876532,1.8435214757115306,-1.5410210097558732,-0.1271472360077869,-0.26333527754090447,0.17467255153959252,0.0,0.0,0.0,0.0,0.0,0.0,-0.184275,-7.895474999999999,-5.088824999999999,0.0383376,-1.0686605999999998,-0.08050896
1779583579294047355,A_-,-0.2521786732504552,0.02298598624876532,1.8435214757115306,-1.5410210097558732,-0.1271472360077869,-0.26333527754090447,0.17467255153959252,0.0,0.0,0.0,0.0,0.0,0.0,-0.137025,-7.871849999999999,-5.145524999999999,0.028753199999999996,-1.0638684,-0.07859208
1779583579294047355,A_-,-0.25641898387630135,0.02298598624876532,1.8435214757115306,-1.5410210097558732,-0.1271472360077869,-0.26333527754090447,0.17467255153959252,0.0,0.0,0.0,0.0,0.0,0.0,-0.137025,-7.871849999999999,-5.145524999999999,0.028753199999999996,-1.0638684,-0.07859208
1779583579294047355,A_-,-0.2603473020008096,0.02298598624876532,1.8435214757115306,-1.5410210097558732,-0.1271472360077869,-0.26333527754090447,0.17467255153959252,0.0,0.0,0.0,0.0,0.0,0.0,-0.137025,-7.871849999999999,-5.145524999999999,0.028753199999999996,-1.0638684,-0.07859208
1779583579329053878,A_-,-0.26421056737535764,0.02298598624876532,1.8435214757115306,-1.5410210097558732,-0.1271472360077869,-0.26333527754090447,0.17467255153959252,0.0,0.0,0.0,0.0,0.0,0.0,-0.184275,-7.9049249999999995,-5.1597,0.03258696,-1.0705774799999999,-0.07571676
1779583579329053878,A_-,-0.2684867823759305,0.02298598624876532,1.8435214757115306,-1.5410210097558732,-0.1271472360077869,-0.26333527754090447,0.17467255153959252,0.0,0.0,0.0,0.0,0.0,0.0,-0.184275,-7.9049249999999995,-5.1597,0.03258696,-1.0705774799999999,-0.07571676
1779583579329053878,A_-,-0.2724542212504275,0.02298598624876532,1.8435214757115306,-1.5410210097558732,-0.1271472360077869,-0.26333527754090447,0.17467255153959252,0.0,0.0,0.0,0.0,0.0,0.0,-0.184275,-7.9049249999999995,-5.1597,0.03258696,-1.0705774799999999,-0.07571676
1779583579359053611,A_-,-0.27636707100100466,0.02298598624876532,1.8435214757115306,-1.5410210097558732,-0.1271472360077869,-0.26333527754090447,0.17467255153959252,0.0,0.0,0.0,0.0,0.0,0.0,-0.1323,-7.9285499999999995,-5.1408,0.03067008,-1.06482684,-0.07284144
1779583579359053611,A_-,-0.28065129037531733,0.02298598624876532,1.8435214757115306,-1.5410210097558732,-0.1271472360077869,-0.26333527754090447,0.17467255153959252,0.0,0.0,0.0,0.0,0.0,0.0,-0.1323,-7.9285499999999995,-5.1408,0.03067008,-1.06482684,-0.07284144
1779583579359053611,A_-,-0.28458642450004845,0.02298598624876532,1.8435214757115306,-1.5410210097558732,-0.1271472360077869,-0.26333527754090447,0.17467255153959252,0.0,0.0,0.0,0.0,0.0,0.0,-0.1323,-7.9285499999999995,-5.1408,0.03067008,-1.06482684,-0.07284144
1779583579394062519,A_-,-0.28849107862515666,0.02298598624876532,1.8435214757115306,-1.5410210097558732,-0.1271472360077869,-0.26333527754090447,0.17467255153959252,0.0,0.0,0.0,0.0,0.0,0.0,-0.17955,-7.881299999999999,-5.05575,0.03546228,-1.06290996,-0.07092456
1779583579394062519,A_-,-0.29279943000074127,0.02298598624876532,1.8435214757115306,-1.5410210097558732,-0.1271472360077869,-0.26333527754090447,0.17467255153959252,0.0,0.0,0.0,0.0,0.0,0.0,-0.17955,-7.881299999999999,-5.05575,0.03546228,-1.06290996,-0.07092456
1779583579394062519,A_-,-0.2967809812512314,0.02298598624876532,1.8435214757115306,-1.5410210097558732,-0.1271472360077869,-0.26333527754090447,0.17467255153959252,0.0,0.0,0.0,0.0,0.0,0.0,-0.17955,-7.881299999999999,-5.05575,0.03546228,-1.06290996,-0.07092456
1779583579424057483,A_-,-0.30080370450014016,0.02298598624876532,1.8435214757115306,-1.5410210097558732,-0.1271472360077869,-0.26333527754090447,0.17467255153959252,0.0,0.0,0.0,0.0,0.0,0.0,-0.165375,-7.890749999999999,-5.117175,0.029711639999999997,-1.06482684,-0.07763364
1779583579424057483,A_-,-0.3049188896252417,0.02298598624876532,1.8435214757115306,-1.5410210097558732,-0.1271472360077869,-0.26333527754090447,0.17467255153959252,0.0,0.0,0.0,0.0,0.0,0.0,-0.165375,-7.890749999999999,-5.117175,0.029711639999999997,-1.06482684,-0.07763364
1779583579424057483,A_-,-0.30884717175013066,0.02298598624876532,1.8435214757115306,-1.5410210097558732,-0.1271472360077869,-0.26333527754090447,0.17467255153959252,0.0,0.0,0.0,0.0,0.0,0.0,-0.165375,-7.890749999999999,-5.117175,0.029711639999999997,-1.06482684,-0.07763364
1779583579454084396,A_-,-0.3127237091262032,0.02298598624876532,1.8435214757115306,-1.5410210097558732,-0.1271472360077869,-0.26333527754090447,0.17467255153959252,0.0,0.0,0.0,0.0,0.0,0.0,-0.20789999999999997,-7.876575,-5.103,0.02779476,-1.07153592,-0.08625959999999999
1779583579454084396,A_-,-0.3168814706250487,0.02298598624876532,1.8435214757115306,-1.5410210097558732,-0.1271472360077869,-0.26333527754090447,0.17467255153959252,0.0,0.0,0.0,0.0,0.0,0.0,-0.20789999999999997,-7.876575,-5.103,0.02779476,-1.07153592,-0.08625959999999999
1779583579454084396,A_-,-0.3208787175008183,0.02298598624876532,1.8435214757115306,-1.5410210097558732,-0.1271472360077869,-0.26333527754090447,0.17467255153959252,0.0,0.0,0.0,0.0,0.0,0.0,-0.20789999999999997,-7.876575,-5.103,0.02779476,-1.07153592,-0.08625959999999999
1779583579489057064,A_-,-0.3247562988753998,0.02298598624876532,1.8435214757115306,-1.5410210097558732,-0.1271472360077869,-0.26333527754090447,0.17467255153959252,0.0,0.0,0.0,0.0,0.0,0.0,-0.17482499999999998,-7.8435,-5.126625,0.029711639999999997,-1.0744112399999999,-0.08050896
1779583579489057064,A_-,-0.3289446011262953,0.02298598624876532,1.8435214757115306,-1.5410210097558732,-0.1271472360077869,-0.26333527754090447,0.17467255153959252,0.0,0.0,0.0,0.0,0.0,0.0,-0.17482499999999998,-7.8435,-5.126625,0.029711639999999997,-1.0744112399999999,-0.08050896
1779583579489057064,A_-,-0.3329102036259428,0.02298598624876532,1.8435214757115306,-1.5410210097558732,-0.1271472360077869,-0.26333527754090447,0.17467255153959252,0.0,0.0,0.0,0.0,0.0,0.0,-0.17482499999999998,-7.8435,-5.126625,0.029711639999999997,-1.0744112399999999,-0.08050896
1779583579519051313,A_-,-0.33680550937515363,0.02298598624876532,1.8435214757115306,-1.5410210097558732,-0.1271472360077869,-0.26333527754090447,0.17467255153959252,0.0,0.0,0.0,0.0,0.0,0.0,-0.17955,-7.895474999999999,-5.164425,0.03642072,-1.07536968,-0.08242584
1779583579519051313,A_-,-0.34106707237515366,0.02298598624876532,1.8435214757115306,-1.5410210097558732,-0.1271472360077869,-0.26333527754090447,0.17467255153959252,0.0,0.0,0.0,0.0,0.0,0.0,-0.17955,-7.895474999999999,-5.164425,0.03642072,-1.07536968,-0.08242584
1779583579519051313,A_-,-0.34506065925006624,0.02298598624876532,1.8435214757115306,-1.5410210097558732,-0.1271472360077869,-0.26333527754090447,0.17467255153959252,0.0,0.0,0.0,0.0,0.0,0.0,-0.17955,-7.895474999999999,-5.164425,0.03642072,-1.07536968,-0.08242584
1779583579554061174,A_-,-0.3489758373757468,0.02298598624876532,1.8435214757115306,-1.5410210097558732,-0.1271472360077869,-0.26333527754090447,0.17467255153959252,0.0,0.0,0.0,0.0,0.0,0.0,-0.118125,-7.9049249999999995,-5.11245,0.02587788,-1.06770216,-0.08242584
1779583579554061174,A_-,-0.35313321487592475,0.02298598624876532,1.8435214757115306,-1.5410210097558732,-0.1271472360077869,-0.26333527754090447,0.17467255153959252,0.0,0.0,0.0,0.0,0.0,0.0,-0.118125,-7.9049249999999995,-5.11245,0.02587788,-1.06770216,-0.08242584
1779583579554061174,A_-,-0.35710888575067656,0.02298598624876532,1.8435214757115306,-1.5410210097558732,-0.1271472360077869,-0.26333527754090447,0.17467255153959252,0.0,0.0,0.0,0.0,0.0,0.0,-0.118125,-7.9049249999999995,-5.11245,0.02587788,-1.06770216,-0.08242584
1779583579584061384,A_-,-0.3609982871257671,0.02298598624876532,1.8435214757115306,-1.5410210097558732,-0.1271472360077869,-0.26333527754090447,0.17467255153959252,0.0,0.0,0.0,0.0,0.0,0.0,-0.12285,-7.919099999999999,-5.11245,0.03737916,-1.0686605999999998,-0.07571676
1779583579584061384,A_-,-0.3652569341252274,0.02298598624876532,1.8435214757115306,-1.5410210097558732,-0.1271472360077869,-0.26333527754090447,0.17467255153959252,0.0,0.0,0.0,0.0,0.0,0.0,-0.12285,-7.919099999999999,-5.11245,0.03737916,-1.0686605999999998,-0.07571676
1779583579584061384,A_-,-0.3692439450001075,0.02298598624876532,1.8435214757115306,-1.5410210097558732,-0.1271472360077869,-0.26333527754090447,0.17467255153959252,0.0,0.0,0.0,0.0,0.0,0.0,-0.12285,-7.919099999999999,-5.11245,0.03737916,-1.0686605999999998,-0.07571676
1779583579609063386,A_-,-0.3731361667505553,0.02298598624876532,1.8435214757115306,-1.5410210097558732,-0.1271472360077869,-0.26333527754090447,0.17467255153959252,0.0,0.0,0.0,0.0,0.0,0.0,-0.16065,-7.919099999999999,-5.11245,0.03450384,-1.06961904,-0.08338428
1779583579609063386,A_-,-0.37732892062558676,0.02298598624876532,1.8435214757115306,-1.5410210097558732,-0.1271472360077869,-0.26333527754090447,0.17467255153959252,0.0,0.0,0.0,0.0,0.0,0.0,-0.16065,-7.919099999999999,-5.11245,0.03450384,-1.06961904,-0.08338428
1779583579609063386,A_-,-0.3812674151254214,0.02298598624876532,1.8435214757115306,-1.5410210097558732,-0.1271472360077869,-0.26333527754090447,0.17467255153959252,0.0,0.0,0.0,0.0,0.0,0.0,-0.16065,-7.919099999999999,-5.11245,0.03450384,-1.06961904,-0.08338428
1779583579649066686,A_-,-0.38518002487580816,0.02298598624876532,1.8435214757115306,-1.5410210097558732,-0.1271472360077869,-0.26333527754090447,0.17467255153959252,0.0,0.0,0.0,0.0,0.0,0.0,-0.17955,-7.895474999999999,-5.09355,0.028753199999999996,-1.0705774799999999,-0.07571676
1779583579649066686,A_-,-0.3894566722510717,0.02298598624876532,1.8435214757115306,-1.5410210097558732,-0.1271472360077869,-0.26333527754090447,0.17467255153959252,0.0,0.0,0.0,0.0,0.0,0.0,-0.17955,-7.895474999999999,-5.09355,0.028753199999999996,-1.0705774799999999,-0.07571676
1779583579649066686,A_-,-0.3934341791255065,0.02298598624876532,1.8435214757115306,-1.5410210097558732,-0.1271472360077869,-0.26333527754090447,0.17467255153959252,0.0,0.0,0.0,0.0,0.0,0.0,-0.17955,-7.895474999999999,-5.09355,0.028753199999999996,-1.0705774799999999,-0.07571676
1779583579684055566,A_-,-0.3973456608755441,0.02298598624876532,1.8435214757115306,-1.5410210097558732,-0.1271472360077869,-0.26333527754090447,0.17467255153959252,0.0,0.0,0.0,0.0,0.0,0.0,-0.21262499999999998,-7.886024999999999,-5.1219,0.04025448,-1.06290996,-0.0766752
1779583579684055566,A_-,-0.4016418206256276,0.02298598624876532,1.8435214757115306,-1.5410210097558732,-0.1271472360077869,-0.26333527754090447,0.17467255153959252,0.0,0.0,0.0,0.0,0.0,0.0,-0.21262499999999998,-7.886024999999999,-5.1219,0.04025448,-1.06290996,-0.0766752
1779583579684055566,A_-,-0.4055358420009725,0.02298598624876532,1.8435214757115306,-1.5410210097558732,-0.1271472360077869,-0.26333527754090447,0.17467255153959252,0.0,0.0,0.0,0.0,0.0,0.0,-0.21262499999999998,-7.886024999999999,-5.1219,0.04025448,-1.06290996,-0.0766752
1779583579714067220,A_-,-0.40941912337530084,0.02298598624876532,1.8435214757115306,-1.5410210097558732,-0.1271472360077869,-0.26333527754090447,0.17467255153959252,0.0,0.0,0.0,0.0,0.0,0.0,-0.19372499999999998,-7.923825,-5.103,0.02779476,-1.0667437199999998,-0.07284144
1779583579714067220,A_-,-0.41371077112535204,0.02298598624876532,1.8435214757115306,-1.5410210097558732,-0.1271472360077869,-0.26333527754090447,0.17467255153959252,0.0,0.0,0.0,0.0,0.0,0.0,-0.19372499999999998,-7.923825,-5.103,0.02779476,-1.0667437199999998,-0.07284144
1779583579714067220,A_-,-0.4176967260004858,0.02298598624876532,1.8435214757115306,-1.5410210097558732,-0.1271472360077869,-0.26333527754090447,0.17467255153959252,0.0,0.0,0.0,0.0,0.0,0.0,-0.19372499999999998,-7.923825,-5.103,0.02779476,-1.0667437199999998,-0.07284144
1779583579714067220,A_-,-0.42187953187567473,0.02298598624876532,1.8435214757115306,-1.5410210097558732,-0.1271472360077869,-0.26333527754090447,0.17467255153959252,0.0,0.0,0.0,0.0,0.0,0.0,-0.19372499999999998,-7.923825,-5.103,0.02779476,-1.0667437199999998,-0.07284144
1779583579759064435,A_-,-0.4257976740000231,0.02298598624876532,1.8435214757115306,-1.5410210097558732,-0.1271472360077869,-0.26333527754090447,0.17467255153959252,0.0,0.0,0.0,0.0,0.0,0.0,-0.1512,-7.895474999999999,-5.107724999999999,0.03546228,-1.07153592,-0.07763364
1779583579759064435,A_-,-0.4300519290009106,0.02298598624876532,1.8435214757115306,-1.5410210097558732,-0.1271472360077869,-0.26333527754090447,0.17467255153959252,0.0,0.0,0.0,0.0,0.0,0.0,-0.1512,-7.895474999999999,-5.107724999999999,0.03546228,-1.07153592,-0.07763364
1779583579759064435,A_-,-0.43402480350005135,0.02298598624876532,1.8435214757115306,-1.5410210097558732,-0.1271472360077869,-0.26333527754090447,0.17467255153959252,0.0,0.0,0.0,0.0,0.0,0.0,-0.1512,-7.895474999999999,-5.107724999999999,0.03546228,-1.07153592,-0.07763364
1779583579759064435,A_-,-0.43816859700064015,0.02298598624876532,1.8435214757115306,-1.5410210097558732,-0.1271472360077869,-0.26333527754090447,0.17467255153959252,0.0,0.0,0.0,0.0,0.0,0.0,-0.1512,-7.895474999999999,-5.107724999999999,0.03546228,-1.07153592,-0.07763364
1779583579799071311,A_-,-0.4420336739999584,0.02298598624876532,1.8435214757115306,-1.5410210097558732,-0.1271472360077869,-0.26333527754090447,0.17467255153959252,0.0,0.0,0.0,0.0,0.0,0.0,-0.12285,-7.895474999999999,-5.126625,0.029711639999999997,-1.0667437199999998,-0.07284144
1779583579799071311,A_-,-0.44618095950045245,0.02298598624876532,1.8435214757115306,-1.5410210097558732,-0.1271472360077869,-0.26333527754090447,0.17467255153959252,0.0,0.0,0.0,0.0,0.0,0.0,-0.12285,-7.895474999999999,-5.126625,0.029711639999999997,-1.0667437199999998,-0.07284144
1779583579799071311,A_-,-0.4500975052501417,0.02298598624876532,1.8435214757115306,-1.5410210097558732,-0.1271472360077869,-0.26333527754090447,0.17467255153959252,0.0,0.0,0.0,0.0,0.0,0.0,-0.12285,-7.895474999999999,-5.126625,0.029711639999999997,-1.0667437199999998,-0.07284144
1779583579834067106,A_-,-0.4540444357508022,0.02298598624876532,1.8435214757115306,-1.5410210097558732,-0.1271472360077869,-0.26333527754090447,0.17467255153959252,0.0,0.0,0.0,0.0,0.0,0.0,-0.184275,-7.9285499999999995,-5.107724999999999,0.03642072,-1.07536968,-0.08146740000000001
1779583579834067106,A_-,-0.45831784312622403,0.02298598624876532,1.8435214757115306,-1.5410210097558732,-0.1271472360077869,-0.26333527754090447,0.17467255153959252,0.0,0.0,0.0,0.0,0.0,0.0,-0.184275,-7.9285499999999995,-5.107724999999999,0.03642072,-1.07536968,-0.08146740000000001
1779583579834067106,A_-,-0.46227403762577524,0.02298598624876532,1.8435214757115306,-1.5410210097558732,-0.1271472360077869,-0.26333527754090447,0.17467255153959252,0.0,0.0,0.0,0.0,0.0,0.0,-0.184275,-7.9285499999999995,-5.107724999999999,0.03642072,-1.07536968,-0.08146740000000001
1779583579864063501,A_-,-0.4661778393751774,0.02298598624876532,1.8435214757115306,-1.5410210097558732,-0.1271472360077869,-0.26333527754090447,0.17467255153959252,0.0,0.0,0.0,0.0,0.0,0.0,-0.155925,-7.914375,-5.117175,0.03546228,-1.07536968,-0.07571676
1779583579864063501,A_-,-0.4704537423749571,0.02298598624876532,1.8435214757115306,-1.5410210097558732,-0.1271472360077869,-0.26333527754090447,0.17467255153959252,0.0,0.0,0.0,0.0,0.0,0.0,-0.155925,-7.914375,-5.117175,0.03546228,-1.07536968,-0.07571676
1779583579864063501,A_-,-0.4744213372505328,0.02298598624876532,1.8435214757115306,-1.5410210097558732,-0.1271472360077869,-0.26333527754090447,0.17467255153959252,0.0,0.0,0.0,0.0,0.0,0.0,-0.155925,-7.914375,-5.117175,0.03546228,-1.07536968,-0.07571676
1779583579889050006,A_-,-0.4783543593757713,0.02298598624876532,1.8435214757115306,-1.5410210097558732,-0.1271472360077869,-0.26333527754090447,0.17467255153959252,0.0,0.0,0.0,0.0,0.0,0.0,-0.155925,-7.886024999999999,-5.136074999999999,0.02779476,-1.06195152,-0.07763364
1779583579889050006,A_-,-0.4826369827505914,0.02298598624876532,1.8435214757115306,-1.5410210097558732,-0.1271472360077869,-0.26333527754090447,0.17467255153959252,0.0,0.0,0.0,0.0,0.0,0.0,-0.155925,-7.886024999999999,-5.136074999999999,0.02779476,-1.06195152,-0.07763364
1779583579889050006,A_-,-0.4865841292503319,0.02298598624876532,1.8435214757115306,-1.5410210097558732,-0.1271472360077869,-0.26333527754090447,0.17467255153959252,0.0,0.0,0.0,0.0,0.0,0.0,-0.155925,-7.886024999999999,-5.136074999999999,0.02779476,-1.06195152,-0.07763364
1779583579924067497,A_-,-0.4904715266261519,0.02298598624876532,1.8435214757115306,-1.5410210097558732,-0.1271472360077869,-0.26333527754090447,0.17467255153959252,0.0,0.0,0.0,0.0,0.0,0.0,-0.1323,-7.881299999999999,-5.11245,0.03642072,-1.0686605999999998,-0.07859208
1779583579924067497,A_-,-0.4946421645004193,0.02298598624876532,1.8435214757115306,-1.5410210097558732,-0.1271472360077869,-0.26333527754090447,0.17467255153959252,0.0,0.0,0.0,0.0,0.0,0.0,-0.1323,-7.881299999999999,-5.11245,0.03642072,-1.0686605999999998,-0.07859208
1779583579924067497,A_-,-0.4985848586256907,0.02298598624876532,1.8435214757115306,-1.5410210097558732,-0.1271472360077869,-0.26333527754090447,0.17467255153959252,0.0,0.0,0.0,0.0,0.0,0.0,-0.1323,-7.881299999999999,-5.11245,0.03642072,-1.0686605999999998,-0.07859208
1779583579964065313,A_-,-0.502498704750451,0.02298598624876532,1.8435214757115306,-1.5410210097558732,-0.1271472360077869,-0.26333527754090447,0.17467255153959252,0.0,0.0,0.0,0.0,0.0,0.0,-0.21262499999999998,-7.914375,-5.0652,0.02587788,-1.06290996,-0.07571676
1779583579964065313,A_-,-0.5067780881254293,0.02298598624876532,1.8435214757115306,-1.5410210097558732,-0.1271472360077869,-0.26333527754090447,0.17467255153959252,0.0,0.0,0.0,0.0,0.0,0.0,-0.21262499999999998,-7.914375,-5.0652,0.02587788,-1.06290996,-0.07571676
1779583579964065313,A_-,-0.5107161502505733,0.02298598624876532,1.8435214757115306,-1.5410210097558732,-0.1271472360077869,-0.26333527754090447,0.17467255153959252,0.0,0.0,0.0,0.0,0.0,0.0,-0.21262499999999998,-7.914375,-5.0652,0.02587788,-1.06290996,-0.07571676
1779583579994072437,A_-,-0.5147345658751874,0.02298598624876532,1.8435214757115306,-1.5410210097558732,-0.1271472360077869,-0.26333527754090447,0.17467255153959252,0.0,0.0,0.0,0.0,0.0,0.0,-0.1512,-7.914375,-5.103,0.028753199999999996,-1.0734528,-0.07475832
1779583579994072437,A_-,-0.5190255172506113,0.02298598624876532,1.8435214757115306,-1.5410210097558732,-0.1271472360077869,-0.26333527754090447,0.17467255153959252,0.0,0.0,0.0,0.0,0.0,0.0,-0.1512,-7.914375,-5.103,0.028753199999999996,-1.0734528,-0.07475832
1779583579994072437,A_-,-0.5229877113756629,0.02298598624876532,1.8435214757115306,-1.5410210097558732,-0.1271472360077869,-0.26333527754090447,0.17467255153959252,0.0,0.0,0.0,0.0,0.0,0.0,-0.1512,-7.914375,-5.103,0.028753199999999996,-1.0734528,-0.07475832
1779583580014089107,A_-,-0.5268953051258904,0.02298598624876532,1.8435214757115306,-1.5410210097558732,-0.1271472360077869,-0.26333527754090447,0.17467255153959252,0.0,0.0,0.0,0.0,0.0,0.0,-0.12285,-7.914375,-5.11245,0.03162852,-1.06961904,-0.0766752
1779583580014089107,A_-,-0.531136995750785,0.02298598624876532,1.8435214757115306,-1.5410210097558732,-0.1271472360077869,-0.26333527754090447,0.17467255153959252,0.0,0.0,0.0,0.0,0.0,0.0,-0.12285,-7.914375,-5.11245,0.03162852,-1.06961904,-0.0766752
1779583580014089107,A_-,-0.5351009782511937,0.02298598624876532,1.8435214757115306,-1.5410210097558732,-0.1271472360077869,-0.26333527754090447,0.17467255153959252,0.0,0.0,0.0,0.0,0.0,0.0,-0.12285,-7.914375,-5.11245,0.03162852,-1.06961904,-0.0766752
1779583580054075479,A_-,-0.5390631487503015,0.02298598624876532,1.8435214757115306,-1.5410210097558732,-0.1271472360077869,-0.26333527754090447,0.17467255153959252,0.0,0.0,0.0,0.0,0.0,0.0,-0.099225,-7.890749999999999,-5.11245,0.03546228,-1.0705774799999999,-0.08242584
1779583580054075479,A_-,-0.5433038673759256,0.02298598624876532,1.8435214757115306,-1.5410210097558732,-0.1271472360077869,-0.26333527754090447,0.17467255153959252,0.0,0.0,0.0,0.0,0.0,0.0,-0.099225,-7.890749999999999,-5.11245,0.03546228,-1.0705774799999999,-0.08242584
1779583580054075479,A_-,-0.5475347696251447,0.02298598624876532,1.8435214757115306,-1.5410210097558732,-0.1271472360077869,-0.26333527754090447,0.17467255153959252,0.0,0.0,0.0,0.0,0.0,0.0,-0.099225,-7.890749999999999,-5.11245,0.03546228,-1.0705774799999999,-0.08242584
1779583580094060420,A_-,-0.5514369150005223,0.02298598624876532,1.8435214757115306,-1.5410210097558732,-0.1271472360077869,-0.26333527754090447,0.17467255153959252,0.0,0.0,0.0,0.0,0.0,0.0,-0.189,-7.933274999999999,-5.11245,0.03546228,-1.0667437199999998,-0.07379988
1779583580094060420,A_-,-0.5557964355007243,0.02298598624876532,1.8435214757115306,-1.5410210097558732,-0.1271472360077869,-0.26333527754090447,0.17467255153959252,0.0,0.0,0.0,0.0,0.0,0.0,-0.189,-7.933274999999999,-5.11245,0.03546228,-1.0667437199999998,-0.07379988
1779583580094060420,A_-,-0.5597417456256153,0.02298598624876532,1.8435214757115306,-1.5410210097558732,-0.1271472360077869,-0.26333527754090447,0.17467255153959252,0.0,0.0,0.0,0.0,0.0,0.0,-0.189,-7.933274999999999,-5.11245,0.03546228,-1.0667437199999998,-0.07379988
1779583580124106884,A_-,-0.5636181270006091,0.02298598624876532,1.8435214757115306,-1.5410210097558732,-0.1271472360077869,-0.26333527754090447,0.17467255153959252,0.0,0.0,0.0,0.0,0.0,0.0,-0.21262499999999998,-7.923825,-5.13135,0.02683632,-1.06961904,-0.08338428
1779583580124106884,A_-,-0.5678242608760229,0.02298598624876532,1.8435214757115306,-1.5410210097558732,-0.1271472360077869,-0.26333527754090447,0.17467255153959252,0.0,0.0,0.0,0.0,0.0,0.0,-0.21262499999999998,-7.923825,-5.13135,0.02683632,-1.06961904,-0.08338428
1779583580124106884,A_-,-0.5717520750004041,0.02298598624876532,1.8435214757115306,-1.5410210097558732,-0.1271472360077869,-0.26333527754090447,0.17467255153959252,0.0,0.0,0.0,0.0,0.0,0.0,-0.21262499999999998,-7.923825,-5.13135,0.02683632,-1.06961904,-0.08338428
1779583580159068584,A_-,-0.5756248320003579,0.02298598624876532,1.8435214757115306,-1.5410210097558732,-0.1271472360077869,-0.26333527754090447,0.17467255153959252,0.0,0.0,0.0,0.0,0.0,0.0,-0.17482499999999998,-7.942724999999999,-5.103,0.04025448,-1.06578528,-0.07859208
1779583580159068584,A_-,-0.579675647626118,0.02298598624876532,1.8435214757115306,-1.5410210097558732,-0.1271472360077869,-0.26333527754090447,0.17467255153959252,0.0,0.0,0.0,0.0,0.0,0.0,-0.17482499999999998,-7.942724999999999,-5.103,0.04025448,-1.06578528,-0.07859208
1779583580159068584,A_-,-0.5835777333759324,0.02298598624876532,1.8435214757115306,-1.5410210097558732,-0.1271472360077869,-0.26333527754090447,0.17467255153959252,0.0,0.0,0.0,0.0,0.0,0.0,-0.17482499999999998,-7.942724999999999,-5.103,0.04025448,-1.06578528,-0.07859208
1779583580189069747,A_-,-0.5874412143757581,0.02298598624876532,1.8435214757115306,-1.5410210097558732,-0.1271472360077869,-0.26333527754090447,0.17467255153959252,0.0,0.0,0.0,0.0,0.0,0.0,-0.17955,-7.876575,-5.126625,0.03162852,-1.0705774799999999,-0.07188299999999999
1779583580189069747,A_-,-0.59161366387616,0.02298598624876532,1.8435214757115306,-1.5410210097558732,-0.1271472360077869,-0.26333527754090447,0.17467255153959252,0.0,0.0,0.0,0.0,0.0,0.0,-0.17955,-7.876575,-5.126625,0.03162852,-1.0705774799999999,-0.07188299999999999
1779583580189069747,A_-,-0.5955710100006399,0.02298598624876532,1.8435214757115306,-1.5410210097558732,-0.1271472360077869,-0.26333527754090447,0.17467255153959252,0.0,0.0,0.0,0.0,0.0,0.0,-0.17955,-7.876575,-5.126625,0.03162852,-1.0705774799999999,-0.07188299999999999
1779583580224073648,A_-,-0.5995350885000335,0.02298598624876532,1.8435214757115306,-1.5410210097558732,-0.1271472360077869,-0.26333527754090447,0.17467255153959252,0.0,0.0,0.0,0.0,0.0,0.0,-0.14175,-7.923825,-5.136074999999999,0.02587788,-1.06195152,-0.08530115999999999
1779583580224073648,A_-,-0.6036841380009719,0.02298598624876532,1.8435214757115306,-1.5410210097558732,-0.1271472360077869,-0.26333527754090447,0.17467255153959252,0.0,0.0,0.0,0.0,0.0,0.0,-0.14175,-7.923825,-5.136074999999999,0.02587788,-1.06195152,-0.08530115999999999
1779583580224073648,A_-,-0.6076331921258316,0.02298598624876532,1.8435214757115306,-1.5410210097558732,-0.1271472360077869,-0.26333527754090447,0.17467255153959252,0.0,0.0,0.0,0.0,0.0,0.0,-0.14175,-7.923825,-5.136074999999999,0.02587788,-1.06195152,-0.08530115999999999
1779583580254059791,A_-,-0.6115189695010486,0.02298598624876532,1.8435214757115306,-1.5410210097558732,-0.1271472360077869,-0.26333527754090447,0.17467255153959252,0.0,0.0,0.0,0.0,0.0,0.0,-0.1323,-7.900199999999999,-5.0841,0.02491944,-1.06482684,-0.07955052
1779583580254059791,A_-,-0.6157136673759851,0.02298598624876532,1.8435214757115306,-1.5410210097558732,-0.1271472360077869,-0.26333527754090447,0.17467255153959252,0.0,0.0,0.0,0.0,0.0,0.0,-0.1323,-7.900199999999999,-5.0841,0.02491944,-1.06482684,-0.07955052
1779583580254059791,A_-,-0.6196676775002743,0.02298598624876532,1.8435214757115306,-1.5410210097558732,-0.1271472360077869,-0.26333527754090447,0.17467255153959252,0.0,0.0,0.0,0.0,0.0,0.0,-0.1323,-7.900199999999999,-5.0841,0.02491944,-1.06482684,-0.07955052
1779583580279062032,A_-,-0.6236283719999847,0.02298598624876532,1.8435214757115306,-1.5410210097558732,-0.1271472360077869,-0.26333527754090447,0.17467255153959252,0.0,0.0,0.0,0.0,0.0,0.0,-0.1512,-7.886024999999999,-5.126625,0.0335454,-1.0744112399999999,-0.07188299999999999
1779583580279062032,A_-,-0.6278463622506933,0.02298598624876532,1.8435214757115306,-1.5410210097558732,-0.1271472360077869,-0.26333527754090447,0.17467255153959252,0.0,0.0,0.0,0.0,0.0,0.0,-0.1512,-7.886024999999999,-5.126625,0.0335454,-1.0744112399999999,-0.07188299999999999
1779583580279062032,A_-,-0.6318006487499588,0.02298598624876532,1.8435214757115306,-1.5410210097558732,-0.1271472360077869,-0.26333527754090447,0.17467255153959252,0.0,0.0,0.0,0.0,0.0,0.0,-0.1512,-7.886024999999999,-5.126625,0.0335454,-1.0744112399999999,-0.07188299999999999
1779583580319067001,A_-,-0.635690926125335,0.02298598624876532,1.8435214757115306,-1.5410210097558732,-0.1271472360077869,-0.26333527754090447,0.17467255153959252,0.0,0.0,0.0,0.0,0.0,0.0,-0.17955,-7.947449999999999,-5.22585,0.02683632,-1.06961904,-0.07379988
1779583580319067001,A_-,-0.639941832750992,0.02298598624876532,1.8435214757115306,-1.5410210097558732,-0.1271472360077869,-0.26333527754090447,0.17467255153959252,0.0,0.0,0.0,0.0,0.0,0.0,-0.17955,-7.947449999999999,-5.22585,0.02683632,-1.06961904,-0.07379988
1779583580319067001,A_-,-0.6439056952513056,0.02298598624876532,1.8435214757115306,-1.5410210097558732,-0.1271472360077869,-0.26333527754090447,0.17467255153959252,0.0,0.0,0.0,0.0,0.0,0.0,-0.17955,-7.947449999999999,-5.22585,0.02683632,-1.06961904,-0.07379988
1779583580349068164,A_-,-0.6478225530004238,0.02298598624876532,1.8435214757115306,-1.5410210097558732,-0.1271472360077869,-0.26333527754090447,0.17467255153959252,0.0,0.0,0.0,0.0,0.0,0.0,-0.16065,-7.9285499999999995,-5.098274999999999,0.02779476,-1.07536968,-0.07571676
1779583580349068164,A_-,-0.652105548000236,0.02298598624876532,1.8435214757115306,-1.5410210097558732,-0.1271472360077869,-0.26333527754090447,0.17467255153959252,0.0,0.0,0.0,0.0,0.0,0.0,-0.16065,-7.9285499999999995,-5.098274999999999,0.02779476,-1.07536968,-0.07571676
1779583580349068164,A_-,-0.6560863308754961,0.02298598624876532,1.8435214757115306,-1.5410210097558732,-0.1271472360077869,-0.26333527754090447,0.17467255153959252,0.0,0.0,0.0,0.0,0.0,0.0,-0.16065,-7.9285499999999995,-5.098274999999999,0.02779476,-1.07536968,-0.07571676
1779583580384067058,A_-,-0.6599834602507144,0.02298598624876532,1.8435214757115306,-1.5410210097558732,-0.1271472360077869,-0.26333527754090447,0.17467255153959252,0.0,0.0,0.0,0.0,0.0,0.0,-0.21262499999999998,-7.886024999999999,-5.1219,0.02779476,-1.0638684,-0.07859208
1779583580384067058,A_-,-0.6642653756262007,0.02298598624876532,1.8435214757115306,-1.5410210097558732,-0.1271472360077869,-0.26333527754090447,0.17467255153959252,0.0,0.0,0.0,0.0,0.0,0.0,-0.21262499999999998,-7.886024999999999,-5.1219,0.02779476,-1.0638684,-0.07859208
1779583580384067058,A_-,-0.6682772025005761,0.02298598624876532,1.8435214757115306,-1.5410210097558732,-0.1271472360077869,-0.26333527754090447,0.17467255153959252,0.0,0.0,0.0,0.0,0.0,0.0,-0.21262499999999998,-7.886024999999999,-5.1219,0.02779476,-1.0638684,-0.07859208
1779583580409079551,A_-,-0.6721913842507092,0.02298598624876532,1.8435214757115306,-1.5410210097558732,-0.1271472360077869,-0.26333527754090447,0.17467255153959252,0.0,0.0,0.0,0.0,0.0,0.0,-0.146475,-7.933274999999999,-5.117175,0.029711639999999997,-1.06099308,-0.07763364
1779583580409079551,A_-,-0.6765015720011434,0.02298598624876532,1.8435214757115306,-1.5410210097558732,-0.1271472360077869,-0.26333527754090447,0.17467255153959252,0.0,0.0,0.0,0.0,0.0,0.0,-0.146475,-7.933274999999999,-5.117175,0.029711639999999997,-1.06099308,-0.07763364
1779583580409079551,A_-,-0.6804754425006649,0.02298598624876532,1.8435214757115306,-1.5410210097558732,-0.1271472360077869,-0.26333527754090447,0.17467255153959252,0.0,0.0,0.0,0.0,0.0,0.0,-0.146475,-7.933274999999999,-5.117175,0.029711639999999997,-1.06099308,-0.07763364
1779583580439076185,A_-,-0.6843854842509245,0.02298598624876532,1.8435214757115306,-1.5410210097558732,-0.1271472360077869,-0.26333527754090447,0.17467255153959252,0.0,0.0,0.0,0.0,0.0,0.0,-0.127575,-7.909649999999999,-5.107724999999999,0.03258696,-1.0705774799999999,-0.08146740000000001
1779583580439076185,A_-,-0.6886918556256205,0.02298598624876532,1.8435214757115306,-1.5410210097558732,-0.1271472360077869,-0.26333527754090447,0.17467255153959252,0.0,0.0,0.0,0.0,0.0,0.0,-0.127575,-7.909649999999999,-5.107724999999999,0.03258696,-1.0705774799999999,-0.08146740000000001
1779583580439076185,A_-,-0.6926661225002135,0.02298598624876532,1.8435214757115306,-1.5410210097558732,-0.1271472360077869,-0.26333527754090447,0.17467255153959252,0.0,0.0,0.0,0.0,0.0,0.0,-0.127575,-7.909649999999999,-5.107724999999999,0.03258696,-1.0705774799999999,-0.08146740000000001
1779583580479080438,A_-,-0.6966100646259292,0.02298598624876532,1.8435214757115306,-1.5410210097558732,-0.1271472360077869,-0.26333527754090447,0.17467255153959252,0.0,0.0,0.0,0.0,0.0,0.0,-0.099225,-7.919099999999999,-5.103,0.023961,-1.07536968,-0.07955052
1779583580479080438,A_-,-0.7008898316257728,0.02298598624876532,1.8435214757115306,-1.5410210097558732,-0.1271472360077869,-0.26333527754090447,0.17467255153959252,0.0,0.0,0.0,0.0,0.0,0.0,-0.099225,-7.919099999999999,-5.103,0.023961,-1.07536968,-0.07955052
1779583580479080438,A_-,-0.7048805025001457,0.02298598624876532,1.8435214757115306,-1.5410210097558732,-0.1271472360077869,-0.26333527754090447,0.17467255153959252,0.0,0.0,0.0,0.0,0.0,0.0,-0.099225,-7.919099999999999,-5.103,0.023961,-1.07536968,-0.07955052
1779583580509077310,A_-,-0.7087961962506597,0.02298598624876532,1.8435214757115306,-1.5410210097558732,-0.1271472360077869,-0.26333527754090447,0.17467255153959252,0.0,0.0,0.0,0.0,0.0,0.0,-0.05669999999999999,-7.923825,-5.1597,0.029711639999999997,-1.06961904,-0.07763364
1779583580509077310,A_-,-0.713069711251137,0.02298598624876532,1.8435214757115306,-1.5410210097558732,-0.1271472360077869,-0.26333527754090447,0.17467255153959252,0.0,0.0,0.0,0.0,0.0,0.0,-0.05669999999999999,-7.923825,-5.1597,0.029711639999999997,-1.06961904,-0.07763364
1779583580509077310,A_-,-0.7170608261262714,0.02298598624876532,1.8435214757115306,-1.5410210097558732,-0.1271472360077869,-0.26333527754090447,0.17467255153959252,0.0,0.0,0.0,0.0,0.0,0.0,-0.05669999999999999,-7.923825,-5.1597,0.029711639999999997,-1.06961904,-0.07763364
1779583580539075374,A_-,-0.7210285526252846,0.02298598624876532,1.8435214757115306,-1.5410210097558732,-0.1271472360077869,-0.26333527754090447,0.17467255153959252,0.0,0.0,0.0,0.0,0.0,0.0,-0.184275,-7.886024999999999,-5.126625,0.04121292,-1.07153592,-0.08625959999999999
1779583580539075374,A_-,-0.7253302443755274,0.02298598624876532,1.8435214757115306,-1.5410210097558732,-0.1271472360077869,-0.26333527754090447,0.17467255153959252,0.0,0.0,0.0,0.0,0.0,0.0,-0.184275,-7.886024999999999,-5.126625,0.04121292,-1.07153592,-0.08625959999999999
1779583580539075374,A_-,-0.7293059748758424,0.02298598624876532,1.8435214757115306,-1.5410210097558732,-0.1271472360077869,-0.26333527754090447,0.17467255153959252,0.0,0.0,0.0,0.0,0.0,0.0,-0.184275,-7.886024999999999,-5.126625,0.04121292,-1.07153592,-0.08625959999999999
1779583580574064970,A_-,-0.7332204566255314,0.02298598624876532,1.8435214757115306,-1.5410210097558732,-0.1271472360077869,-0.26333527754090447,0.17467255153959252,0.0,0.0,0.0,0.0,0.0,0.0,-0.184275,-7.900199999999999,-5.117175,0.02779476,-1.07153592,-0.07092456
1779583580574064970,A_-,-0.7374648712502676,0.02298598624876532,1.8435214757115306,-1.5410210097558732,-0.1271472360077869,-0.26333527754090447,0.17467255153959252,0.0,0.0,0.0,0.0,0.0,0.0,-0.184275,-7.900199999999999,-5.117175,0.02779476,-1.07153592,-0.07092456
1779583580574064970,A_-,-0.7414083813750949,0.02298598624876532,1.8435214757115306,-1.5410210097558732,-0.1271472360077869,-0.26333527754090447,0.17467255153959252,0.0,0.0,0.0,0.0,0.0,0.0,-0.184275,-7.900199999999999,-5.117175,0.02779476,-1.07153592,-0.07092456
1779583580609086275,A_-,-0.7453246631262118,0.02298598624876532,1.8435214757115306,-1.5410210097558732,-0.1271472360077869,-0.26333527754090447,0.17467255153959252,0.0,0.0,0.0,0.0,0.0,0.0,-0.14175,-7.914375,-5.164425,0.02587788,-1.0705774799999999,-0.08625959999999999
1779583580609086275,A_-,-0.7498306935012806,0.02298598624876532,1.8435214757115306,-1.5410210097558732,-0.1271472360077869,-0.26333527754090447,0.17467255153959252,0.0,0.0,0.0,0.0,0.0,0.0,-0.14175,-7.914375,-5.164425,0.02587788,-1.0705774799999999,-0.08625959999999999
1779583580609086275,A_-,-0.7538103243750811,0.02298598624876532,1.8435214757115306,-1.5410210097558732,-0.1271472360077869,-0.26333527754090447,0.17467255153959252,0.0,0.0,0.0,0.0,0.0,0.0,-0.14175,-7.914375,-5.164425,0.02587788,-1.0705774799999999,-0.08625959999999999
1779583580644105911,A_-,-0.7577086897508707,0.02298598624876532,1.8435214757115306,-1.5410210097558732,-0.1271472360077869,-0.26333527754090447,0.17467255153959252,0.0,0.0,0.0,0.0,0.0,0.0,-0.146475,-7.886024999999999,-5.103,0.03450384,-1.0705774799999999,-0.08242584
1779583580644105911,A_-,-0.7620170055006383,0.02298598624876532,1.8435214757115306,-1.5410210097558732,-0.1271472360077869,-0.26333527754090447,0.17467255153959252,0.0,0.0,0.0,0.0,0.0,0.0,-0.146475,-7.886024999999999,-5.103,0.03450384,-1.0705774799999999,-0.08242584
1779583580644105911,A_-,-0.7660003440009859,0.02298598624876532,1.8435214757115306,-1.5410210097558732,-0.1271472360077869,-0.26333527754090447,0.17467255153959252,0.0,0.0,0.0,0.0,0.0,0.0,-0.146475,-7.886024999999999,-5.103,0.03450384,-1.0705774799999999,-0.08242584
1779583580669079542,A_-,-0.7698916773761084,0.02298598624876532,1.8435214757115306,-1.5410210097558732,-0.1271472360077869,-0.26333527754090447,0.17467255153959252,0.0,0.0,0.0,0.0,0.0,0.0,-0.165375,-7.895474999999999,-5.164425,0.028753199999999996,-1.06482684,-0.07284144
1779583580669079542,A_-,-0.7741078316257699,0.02298598624876532,1.8435214757115306,-1.5410210097558732,-0.1271472360077869,-0.26333527754090447,0.17467255153959252,0.0,0.0,0.0,0.0,0.0,0.0,-0.165375,-7.895474999999999,-5.164425,0.028753199999999996,-1.06482684,-0.07284144
1779583580669079542,A_-,-0.7780668341256387,0.02298598624876532,1.8435214757115306,-1.5410210097558732,-0.1271472360077869,-0.26333527754090447,0.17467255153959252,0.0,0.0,0.0,0.0,0.0,0.0,-0.165375,-7.895474999999999,-5.164425,0.028753199999999996,-1.06482684,-0.07284144
1779583580709145784,A_-,-0.7819844718760578,0.02298598624876532,1.8435214757115306,-1.5410210097558732,-0.1271472360077869,-0.26333527754090447,0.17467255153959252,0.0,0.0,0.0,0.0,0.0,0.0,-0.16065,-7.919099999999999,-5.107724999999999,0.03258696,-1.0667437199999998,-0.08338428
1779583580709145784,A_-,-0.7861566573751588,0.02298598624876532,1.8435214757115306,-1.5410210097558732,-0.1271472360077869,-0.26333527754090447,0.17467255153959252,0.0,0.0,0.0,0.0,0.0,0.0,-0.16065,-7.919099999999999,-5.107724999999999,0.03258696,-1.0667437199999998,-0.08338428
1779583580709145784,A_-,-0.7900655591251962,0.02298598624876532,1.8435214757115306,-1.5410210097558732,-0.1271472360077869,-0.26333527754090447,0.17467255153959252,0.0,0.0,0.0,0.0,0.0,0.0,-0.16065,-7.919099999999999,-5.107724999999999,0.03258696,-1.0667437199999998,-0.08338428
1779583580739061117,A_-,-0.7939661205009543,0.02298598624876532,1.8435214757115306,-1.5410210097558732,-0.1271472360077869,-0.26333527754090447,0.17467255153959252,0.0,0.0,0.0,0.0,0.0,0.0,-0.155925,-7.900199999999999,-5.13135,0.028753199999999996,-1.06578528,-0.07859208
1779583580739061117,A_-,-0.7982565678762512,0.02298598624876532,1.8435214757115306,-1.5410210097558732,-0.1271472360077869,-0.26333527754090447,0.17467255153959252,0.0,0.0,0.0,0.0,0.0,0.0,-0.155925,-7.900199999999999,-5.13135,0.028753199999999996,-1.06578528,-0.07859208
1779583580739061117,A_-,-0.802232046750305,0.02298598624876532,1.8435214757115306,-1.5410210097558732,-0.1271472360077869,-0.26333527754090447,0.17467255153959252,0.0,0.0,0.0,0.0,0.0,0.0,-0.155925,-7.900199999999999,-5.13135,0.028753199999999996,-1.06578528,-0.07859208
1779583580764070749,A_-,-0.8061512565004705,0.02298598624876532,1.8435214757115306,-1.5410210097558732,-0.1271472360077869,-0.26333527754090447,0.17467255153959252,0.0,0.0,0.0,0.0,0.0,0.0,-0.1701,-7.9049249999999995,-5.145524999999999,0.029711639999999997,-1.0686605999999998,-0.08338428
1779583580764070749,A_-,-0.8104440558754504,0.02298598624876532,1.8435214757115306,-1.5410210097558732,-0.1271472360077869,-0.26333527754090447,0.17467255153959252,0.0,0.0,0.0,0.0,0.0,0.0,-0.1701,-7.9049249999999995,-5.145524999999999,0.029711639999999997,-1.0686605999999998,-0.08338428
1779583580764070749,A_-,-0.8144476987504277,0.02298598624876532,1.8435214757115306,-1.5410210097558732,-0.1271472360077869,-0.26333527754090447,0.17467255153959252,0.0,0.0,0.0,0.0,0.0,0.0,-0.1701,-7.9049249999999995,-5.145524999999999,0.029711639999999997,-1.0686605999999998,-0.08338428
1779583580804063081,A_-,-0.8183655765010371,0.02298598624876532,1.8435214757115306,-1.5410210097558732,-0.1271472360077869,-0.26333527754090447,0.17467255153959252,0.0,0.0,0.0,0.0,0.0,0.0,-0.155925,-7.923825,-5.136074999999999,0.02779476,-1.0792034400000001,-0.07284144
1779583580804063081,A_-,-0.8226968006251809,0.02298598624876532,1.8435214757115306,-1.5410210097558732,-0.1271472360077869,-0.26333527754090447,0.17467255153959252,0.0,0.0,0.0,0.0,0.0,0.0,-0.155925,-7.923825,-5.136074999999999,0.02779476,-1.0792034400000001,-0.07284144
1779583580804063081,A_-,-0.8266784471256869,0.02298598624876532,1.8435214757115306,-1.5410210097558732,-0.1271472360077869,-0.26333527754090447,0.17467255153959252,0.0,0.0,0.0,0.0,0.0,0.0,-0.155925,-7.923825,-5.136074999999999,0.02779476,-1.0792034400000001,-0.07284144
1779583580834085226,A_-,-0.8305895568755659,0.02298598624876532,1.8435214757115306,-1.5410210097558732,-0.1271472360077869,-0.26333527754090447,0.17467255153959252,0.0,0.0,0.0,0.0,0.0,0.0,-0.21735,-7.8246,-5.13135,0.02204412,-1.0686605999999998,-0.08338428
1779583580834085226,A_-,-0.8348733202506082,0.02298598624876532,1.8435214757115306,-1.5410210097558732,-0.1271472360077869,-0.26333527754090447,0.17467255153959252,0.0,0.0,0.0,0.0,0.0,0.0,-0.21735,-7.8246,-5.13135,0.02204412,-1.0686605999999998,-0.08338428
1779583580834085226,A_-,-0.8388400507506049,0.02298598624876532,1.8435214757115306,-1.5410210097558732,-0.1271472360077869,-0.26333527754090447,0.17467255153959252,0.0,0.0,0.0,0.0,0.0,0.0,-0.21735,-7.8246,-5.13135,0.02204412,-1.0686605999999998,-0.08338428
1779583580869120836,A_-,-0.8428090252500624,0.02298598624876532,1.8435214757115306,-1.5410210097558732,-0.1271472360077869,-0.26333527754090447,0.17467255153959252,0.0,0.0,0.0,0.0,0.0,0.0,-0.146475,-7.919099999999999,-5.1219,0.0335454,-1.0667437199999998,-0.07859208
1779583580869120836,A_-,-0.8470787482510787,0.02298598624876532,1.8435214757115306,-1.5410210097558732,-0.1271472360077869,-0.26333527754090447,0.17467255153959252,0.0,0.0,0.0,0.0,0.0,0.0,-0.146475,-7.919099999999999,-5.1219,0.0335454,-1.0667437199999998,-0.07859208
1779583580869120836,A_-,-0.8510704511254517,0.02298598624876532,1.8435214757115306,-1.5410210097558732,-0.1271472360077869,-0.26333527754090447,0.17467255153959252,0.0,0.0,0.0,0.0,0.0,0.0,-0.146475,-7.919099999999999,-5.1219,0.0335454,-1.0667437199999998,-0.07859208
1779583580904086351,A_-,-0.8550167812504696,0.02298598624876532,1.8435214757115306,-1.5410210097558732,-0.1271472360077869,-0.26333527754090447,0.17467255153959252,0.0,0.0,0.0,0.0,0.0,0.0,-0.14175,-7.890749999999999,-5.13135,0.0335454,-1.0724943599999999,-0.07763364
1779583580904086351,A_-,-0.8592998242511385,0.02298598624876532,1.8435214757115306,-1.5410210097558732,-0.1271472360077869,-0.26333527754090447,0.17467255153959252,0.0,0.0,0.0,0.0,0.0,0.0,-0.14175,-7.890749999999999,-5.13135,0.0335454,-1.0724943599999999,-0.07763364
1779583580904086351,A_-,-0.8632343223757744,0.02298598624876532,1.8435214757115306,-1.5410210097558732,-0.1271472360077869,-0.26333527754090447,0.17467255153959252,0.0,0.0,0.0,0.0,0.0,0.0,-0.14175,-7.890749999999999,-5.13135,0.0335454,-1.0724943599999999,-0.07763364
1779583580934075117,A_-,-0.8671192357505788,0.02298598624876532,1.8435214757115306,-1.5410210097558732,-0.1271472360077869,-0.26333527754090447,0.17467255153959252,0.0,0.0,0.0,0.0,0.0,0.0,-0.14175,-7.900199999999999,-5.117175,0.023961,-1.0724943599999999,-0.0766752
1779583580934075117,A_-,-0.8712565968758099,0.02298598624876532,1.8435214757115306,-1.5410210097558732,-0.1271472360077869,-0.26333527754090447,0.17467255153959252,0.0,0.0,0.0,0.0,0.0,0.0,-0.14175,-7.900199999999999,-5.117175,0.023961,-1.0724943599999999,-0.0766752
1779583580934075117,A_-,-0.8752082310006699,0.02298598624876532,1.8435214757115306,-1.5410210097558732,-0.1271472360077869,-0.26333527754090447,0.17467255153959252,0.0,0.0,0.0,0.0,0.0,0.0,-0.14175,-7.900199999999999,-5.117175,0.023961,-1.0724943599999999,-0.0766752
1779583580964064836,A_-,-0.8790782880005281,0.02298598624876532,1.8435214757115306,-1.5410210097558732,-0.1271472360077869,-0.26333527754090447,0.17467255153959252,0.0,0.0,0.0,0.0,0.0,0.0,-0.19372499999999998,-7.886024999999999,-5.13135,0.03067008,-1.06961904,-0.08050896
1779583580964064836,A_-,-0.8832089411257584,0.02298598624876532,1.8435214757115306,-1.5410210097558732,-0.1271472360077869,-0.26333527754090447,0.17467255153959252,0.0,0.0,0.0,0.0,0.0,0.0,-0.19372499999999998,-7.886024999999999,-5.13135,0.03067008,-1.06961904,-0.08050896
1779583580964064836,A_-,-0.8871142425005019,0.02298598624876532,1.8435214757115306,-1.5410210097558732,-0.1271472360077869,-0.26333527754090447,0.17467255153959252,0.0,0.0,0.0,0.0,0.0,0.0,-0.19372499999999998,-7.886024999999999,-5.13135,0.03067008,-1.06961904,-0.08050896
1779583580999081373,A_-,-0.8909919438751785,0.02298598624876532,1.8435214757115306,-1.5410210097558732,-0.1271472360077869,-0.26333527754090447,0.17467255153959252,0.0,0.0,0.0,0.0,0.0,0.0,-0.20789999999999997,-7.914375,-5.126625,0.03929604,-1.06961904,-0.07284144
1779583580999081373,A_-,-0.8951663133757393,0.02298598624876532,1.8435214757115306,-1.5410210097558732,-0.1271472360077869,-0.26333527754090447,0.17467255153959252,0.0,0.0,0.0,0.0,0.0,0.0,-0.20789999999999997,-7.914375,-5.126625,0.03929604,-1.06961904,-0.07284144
1779583580999081373,A_-,-0.8991576318762782,0.02298598624876532,1.8435214757115306,-1.5410210097558732,-0.1271472360077869,-0.26333527754090447,0.17467255153959252,0.0,0.0,0.0,0.0,0.0,0.0,-0.20789999999999997,-7.914375,-5.126625,0.03929604,-1.06961904,-0.07284144
1779583581029077291,A_-,-0.9030696776258083,0.02298598624876532,1.8435214757115306,-1.5410210097558732,-0.1271472360077869,-0.26333527754090447,0.17467255153959252,0.0,0.0,0.0,0.0,0.0,0.0,-0.203175,-7.890749999999999,-5.1219,0.029711639999999997,-1.06578528,-0.07955052
1779583581029077291,A_-,-0.907339028250135,0.02298598624876532,1.8435214757115306,-1.5410210097558732,-0.1271472360077869,-0.26333527754090447,0.17467255153959252,0.0,0.0,0.0,0.0,0.0,0.0,-0.203175,-7.890749999999999,-5.1219,0.029711639999999997,-1.06578528,-0.07955052
1779583581029077291,A_-,-0.9113253907512444,0.02298598624876532,1.8435214757115306,-1.5410210097558732,-0.1271472360077869,-0.26333527754090447,0.17467255153959252,0.0,0.0,0.0,0.0,0.0,0.0,-0.203175,-7.890749999999999,-5.1219,0.029711639999999997,-1.06578528,-0.07955052
1779583581064066648,A_-,-0.9152375445009966,0.02298598624876532,1.8435214757115306,-1.5410210097558732,-0.1271472360077869,-0.26333527754090447,0.17467255153959252,0.0,0.0,0.0,0.0,0.0,0.0,-0.17482499999999998,-7.923825,-5.126625,0.03929604,-1.0744112399999999,-0.07188299999999999
1779583581064066648,A_-,-0.9196087166255893,0.02298598624876532,1.8435214757115306,-1.5410210097558732,-0.1271472360077869,-0.26333527754090447,0.17467255153959252,0.0,0.0,0.0,0.0,0.0,0.0,-0.17482499999999998,-7.923825,-5.126625,0.03929604,-1.0744112399999999,-0.07188299999999999
1779583581064066648,A_-,-0.9235609387510522,0.02298598624876532,1.8435214757115306,-1.5410210097558732,-0.1271472360077869,-0.26333527754090447,0.17467255153959252,0.0,0.0,0.0,0.0,0.0,0.0,-0.17482499999999998,-7.923825,-5.126625,0.03929604,-1.0744112399999999,-0.07188299999999999
1779583581094084024,A_-,-0.92745415612535,0.02298598624876532,1.8435214757115306,-1.5410210097558732,-0.1271472360077869,-0.26333527754090447,0.17467255153959252,0.0,0.0,0.0,0.0,0.0,0.0,-0.155925,-7.890749999999999,-5.145524999999999,0.0335454,-1.0734528,-0.07571676
1779583581094084024,A_-,-0.9315687525008798,0.02298598624876532,1.8435214757115306,-1.5410210097558732,-0.1271472360077869,-0.26333527754090447,0.17467255153959252,0.0,0.0,0.0,0.0,0.0,0.0,-0.155925,-7.890749999999999,-5.145524999999999,0.0335454,-1.0734528,-0.07571676
1779583581094084024,A_-,-0.935490086250411,0.02298598624876532,1.8435214757115306,-1.5410210097558732,-0.1271472360077869,-0.26333527754090447,0.17467255153959252,0.0,0.0,0.0,0.0,0.0,0.0,-0.155925,-7.890749999999999,-5.145524999999999,0.0335454,-1.0734528,-0.07571676
1779583581094084024,A_-,-0.9395456898760131,0.02298598624876532,1.8435214757115306,-1.5410210097558732,-0.1271472360077869,-0.26333527754090447,0.17467255153959252,0.0,0.0,0.0,0.0,0.0,0.0,-0.155925,-7.890749999999999,-5.145524999999999,0.0335454,-1.0734528,-0.07571676
1779583581139076948,A_-,-0.9434339392510083,0.02298598624876532,1.8435214757115306,-1.5410210097558732,-0.1271472360077869,-0.26333527754090447,0.17467255153959252,0.0,0.0,0.0,0.0,0.0,0.0,-0.14175,-7.909649999999999,-5.1408,0.03546228,-1.06578528,-0.08434272
1779583581139076948,A_-,-0.9475069428754068,0.02298598624876532,1.8435214757115306,-1.5410210097558732,-0.1271472360077869,-0.26333527754090447,0.17467255153959252,0.0,0.0,0.0,0.0,0.0,0.0,-0.14175,-7.909649999999999,-5.1408,0.03546228,-1.06578528,-0.08434272
1779583581139076948,A_-,-0.9514219166253497,0.02298598624876532,1.8435214757115306,-1.5410210097558732,-0.1271472360077869,-0.26333527754090447,0.17467255153959252,0.0,0.0,0.0,0.0,0.0,0.0,-0.14175,-7.909649999999999,-5.1408,0.03546228,-1.06578528,-0.08434272
1779583581139076948,A_-,-0.9554253075002634,0.02298598624876532,1.8435214757115306,-1.5410210097558732,-0.1271472360077869,-0.26333527754090447,0.17467255153959252,0.0,0.0,0.0,0.0,0.0,0.0,-0.14175,-7.909649999999999,-5.1408,0.03546228,-1.06578528,-0.08434272
1779583581179069280,A_-,-0.9592872161251762,0.02298598624876532,1.8435214757115306,-1.5410210097558732,-0.1271472360077869,-0.26333527754090447,0.17467255153959252,0.0,0.0,0.0,0.0,0.0,0.0,-0.1323,-7.909649999999999,-5.126625,0.02683632,-1.0744112399999999,-0.0766752
1779583581179069280,A_-,-0.9634449416257667,0.02298598624876532,1.8435214757115306,-1.5410210097558732,-0.1271472360077869,-0.26333527754090447,0.17467255153959252,0.0,0.0,0.0,0.0,0.0,0.0,-0.1323,-7.909649999999999,-5.126625,0.02683632,-1.0744112399999999,-0.0766752
1779583581179069280,A_-,-0.9673664430010831,0.02298598624876532,1.8435214757115306,-1.5410210097558732,-0.1271472360077869,-0.26333527754090447,0.17467255153959252,0.0,0.0,0.0,0.0,0.0,0.0,-0.1323,-7.909649999999999,-5.126625,0.02683632,-1.0744112399999999,-0.0766752
1779583581214085340,A_-,-0.9712487763758872,0.02298598624876532,1.8435214757115306,-1.5410210097558732,-0.1271472360077869,-0.26333527754090447,0.17467255153959252,0.0,0.0,0.0,0.0,0.0,0.0,-0.12285,-7.895474999999999,-5.145524999999999,0.03258696,-1.0705774799999999,-0.08146740000000001
1779583581214085340,A_-,-0.9754015451253508,0.02298598624876532,1.8435214757115306,-1.5410210097558732,-0.1271472360077869,-0.26333527754090447,0.17467255153959252,0.0,0.0,0.0,0.0,0.0,0.0,-0.12285,-7.895474999999999,-5.145524999999999,0.03258696,-1.0705774799999999,-0.08146740000000001
1779583581214085340,A_-,-0.9793285188752634,0.02298598624876532,1.8435214757115306,-1.5410210097558732,-0.1271472360077869,-0.26333527754090447,0.17467255153959252,0.0,0.0,0.0,0.0,0.0,0.0,-0.12285,-7.895474999999999,-5.145524999999999,0.03258696,-1.0705774799999999,-0.08146740000000001
1779583581244070291,A_-,-0.9832063642511457,0.02298598624876532,1.8435214757115306,-1.5410210097558732,-0.1271472360077869,-0.26333527754090447,0.17467255153959252,0.0,0.0,0.0,0.0,0.0,0.0,-0.1512,-7.886024999999999,-5.1408,0.03162852,-1.0734528,-0.07763364
1779583581244070291,A_-,-0.987390297750153,0.02298598624876532,1.8435214757115306,-1.5410210097558732,-0.1271472360077869,-0.26333527754090447,0.17467255153959252,0.0,0.0,0.0,0.0,0.0,0.0,-0.1512,-7.886024999999999,-5.1408,0.03162852,-1.0734528,-0.07763364
1779583581244070291,A_-,-0.991334035500131,0.02298598624876532,1.8435214757115306,-1.5410210097558732,-0.1271472360077869,-0.26333527754090447,0.17467255153959252,0.0,0.0,0.0,0.0,0.0,0.0,-0.1512,-7.886024999999999,-5.1408,0.03162852,-1.0734528,-0.07763364
1779583581274074792,A_-,-0.9952224048752214,0.02298598624876532,1.8435214757115306,-1.5410210097558732,-0.1271472360077869,-0.26333527754090447,0.17467255153959252,0.0,0.0,0.0,0.0,0.0,0.0,-0.184275,-7.9049249999999995,-5.107724999999999,0.02108568,-1.06578528,-0.08050896
1779583581274074792,A_-,-0.9994183023759433,0.02298598624876532,1.8435214757115306,-1.5410210097558732,-0.1271472360077869,-0.26333527754090447,0.17467255153959252,0.0,0.0,0.0,0.0,0.0,0.0,-0.184275,-7.9049249999999995,-5.107724999999999,0.02108568,-1.06578528,-0.08050896
1779583581274074792,A_-,-1.0033525605003888,0.02298598624876532,1.8435214757115306,-1.5410210097558732,-0.1271472360077869,-0.26333527754090447,0.17467255153959252,0.0,0.0,0.0,0.0,0.0,0.0,-0.184275,-7.9049249999999995,-5.107724999999999,0.02108568,-1.06578528,-0.08050896
1779583581309074401,A_-,-1.0072472055007893,0.02298598624876532,1.8435214757115306,-1.5410210097558732,-0.1271472360077869,-0.26333527754090447,0.17467255153959252,0.0,0.0,0.0,0.0,0.0,0.0,-0.11339999999999999,-7.9049249999999995,-5.16915,0.03450384,-1.0734528,-0.07571676
1779583581309074401,A_-,-1.0113872666261159,0.02298598624876532,1.8435214757115306,-1.5410210097558732,-0.1271472360077869,-0.26333527754090447,0.17467255153959252,0.0,0.0,0.0,0.0,0.0,0.0,-0.11339999999999999,-7.9049249999999995,-5.16915,0.03450384,-1.0734528,-0.07571676
1779583581309074401,A_-,-1.0153422967505321,0.02298598624876532,1.8435214757115306,-1.5410210097558732,-0.1271472360077869,-0.26333527754090447,0.17467255153959252,0.0,0.0,0.0,0.0,0.0,0.0,-0.11339999999999999,-7.9049249999999995,-5.16915,0.03450384,-1.0734528,-0.07571676
1779583581339071512,A_-,-1.0192313017505512,0.02298598624876532,1.8435214757115306,-1.5410210097558732,-0.1271472360077869,-0.26333527754090447,0.17467255153959252,0.0,0.0,0.0,0.0,0.0,0.0,-0.203175,-7.909649999999999,-5.0841,0.03450384,-1.06770216,-0.07955052
1779583581339071512,A_-,-1.023441107625331,0.02298598624876532,1.8435214757115306,-1.5410210097558732,-0.1271472360077869,-0.26333527754090447,0.17467255153959252,0.0,0.0,0.0,0.0,0.0,0.0,-0.203175,-7.909649999999999,-5.0841,0.03450384,-1.06770216,-0.07955052
1779583581339071512,A_-,-1.027419874500083,0.02298598624876532,1.8435214757115306,-1.5410210097558732,-0.1271472360077869,-0.26333527754090447,0.17467255153959252,0.0,0.0,0.0,0.0,0.0,0.0,-0.203175,-7.909649999999999,-5.0841,0.03450384,-1.06770216,-0.07955052
1779583581374080419,A_-,-1.031316499500008,0.02298598624876532,1.8435214757115306,-1.5410210097558732,-0.1271472360077869,-0.26333527754090447,0.17467255153959252,0.0,0.0,0.0,0.0,0.0,0.0,-0.1323,-7.923825,-5.103,0.02779476,-1.06961904,-0.08050896
1779583581374080419,A_-,-1.035559138125791,0.02298598624876532,1.8435214757115306,-1.5410210097558732,-0.1271472360077869,-0.26333527754090447,0.17467255153959252,0.0,0.0,0.0,0.0,0.0,0.0,-0.1323,-7.923825,-5.103,0.02779476,-1.06961904,-0.08050896
1779583581374080419,A_-,-1.0394927118754822,0.02298598624876532,1.8435214757115306,-1.5410210097558732,-0.1271472360077869,-0.26333527754090447,0.17467255153959252,0.0,0.0,0.0,0.0,0.0,0.0,-0.1323,-7.923825,-5.103,0.02779476,-1.06961904,-0.08050896
1779583581404085397,A_-,-1.0434012532500674,0.02298598624876532,1.8435214757115306,-1.5410210097558732,-0.1271472360077869,-0.26333527754090447,0.17467255153959252,0.0,0.0,0.0,0.0,0.0,0.0,-0.089775,-7.881299999999999,-5.103,0.03450384,-1.0686605999999998,-0.07284144
1779583581404085397,A_-,-1.0476488838762634,0.02298598624876532,1.8435214757115306,-1.5410210097558732,-0.1271472360077869,-0.26333527754090447,0.17467255153959252,0.0,0.0,0.0,0.0,0.0,0.0,-0.089775,-7.881299999999999,-5.103,0.03450384,-1.0686605999999998,-0.07284144
1779583581404085397,A_-,-1.0515860336249716,0.02298598624876532,1.8435214757115306,-1.5410210097558732,-0.1271472360077869,-0.26333527754090447,0.17467255153959252,0.0,0.0,0.0,0.0,0.0,0.0,-0.089775,-7.881299999999999,-5.103,0.03450384,-1.0686605999999998,-0.07284144
1779583581439090967,A_-,-1.05548917500073,0.02298598624876532,1.8435214757115306,-1.5410210097558732,-0.1271472360077869,-0.26333527754090447,0.17467255153959252,0.0,0.0,0.0,0.0,0.0,0.0,-0.16065,-7.8246,-5.117175,0.03258696,-1.0734528,-0.08338428
1779583581439090967,A_-,-1.0596438041261536,0.02298598624876532,1.8435214757115306,-1.5410210097558732,-0.1271472360077869,-0.26333527754090447,0.17467255153959252,0.0,0.0,0.0,0.0,0.0,0.0,-0.16065,-7.8246,-5.117175,0.03258696,-1.0734528,-0.08338428
1779583581439090967,A_-,-1.0636025546259589,0.02298598624876532,1.8435214757115306,-1.5410210097558732,-0.1271472360077869,-0.26333527754090447,0.17467255153959252,0.0,0.0,0.0,0.0,0.0,0.0,-0.16065,-7.8246,-5.117175,0.03258696,-1.0734528,-0.08338428
1779583581469090223,A_-,-1.0675030436259476,0.02298598624876532,1.8435214757115306,-1.5410210097558732,-0.1271472360077869,-0.26333527754090447,0.17467255153959252,0.0,0.0,0.0,0.0,0.0,0.0,-0.21262499999999998,-7.923825,-5.117175,0.029711639999999997,-1.0705774799999999,-0.08721804
1779583581469090223,A_-,-1.0716823571260647,0.02298598624876532,1.8435214757115306,-1.5410210097558732,-0.1271472360077869,-0.26333527754090447,0.17467255153959252,0.0,0.0,0.0,0.0,0.0,0.0,-0.21262499999999998,-7.923825,-5.117175,0.029711639999999997,-1.0705774799999999,-0.08721804
1779583581469090223,A_-,-1.075630979250036,0.02298598624876532,1.8435214757115306,-1.5410210097558732,-0.1271472360077869,-0.26333527754090447,0.17467255153959252,0.0,0.0,0.0,0.0,0.0,0.0,-0.21262499999999998,-7.923825,-5.117175,0.029711639999999997,-1.0705774799999999,-0.08721804
1779583581504088401,A_-,-1.0795148846259508,0.02298598624876532,1.8435214757115306,-1.5410210097558732,-0.1271472360077869,-0.26333527754090447,0.17467255153959252,0.0,0.0,0.0,0.0,0.0,0.0,-0.17482499999999998,-7.909649999999999,-5.1408,0.023961,-1.07536968,-0.08242584
1779583581504088401,A_-,-1.0837656708749819,0.02298598624876532,1.8435214757115306,-1.5410210097558732,-0.1271472360077869,-0.26333527754090447,0.17467255153959252,0.0,0.0,0.0,0.0,0.0,0.0,-0.17482499999999998,-7.909649999999999,-5.1408,0.023961,-1.07536968,-0.08242584
1779583581504088401,A_-,-1.0876977450006962,0.02298598624876532,1.8435214757115306,-1.5410210097558732,-0.1271472360077869,-0.26333527754090447,0.17467255153959252,0.0,0.0,0.0,0.0,0.0,0.0,-0.17482499999999998,-7.909649999999999,-5.1408,0.023961,-1.07536968,-0.08242584
1779583581534080266,A_-,-1.0915813860001435,0.02298598624876532,1.8435214757115306,-1.5410210097558732,-0.1271472360077869,-0.26333527754090447,0.17467255153959252,0.0,0.0,0.0,0.0,0.0,0.0,-0.165375,-7.909649999999999,-5.069925,0.029711639999999997,-1.06770216,-0.06613236
1779583581534080266,A_-,-1.0957500311260446,0.02298598624876532,1.8435214757115306,-1.5410210097558732,-0.1271472360077869,-0.26333527754090447,0.17467255153959252,0.0,0.0,0.0,0.0,0.0,0.0,-0.165375,-7.909649999999999,-5.069925,0.029711639999999997,-1.06770216,-0.06613236
1779583581534080266,A_-,-1.0996698168755756,0.02298598624876532,1.8435214757115306,-1.5410210097558732,-0.1271472360077869,-0.26333527754090447,0.17467255153959252,0.0,0.0,0.0,0.0,0.0,0.0,-0.165375,-7.909649999999999,-5.069925,0.029711639999999997,-1.06770216,-0.06613236
1779583581564076662,A_-,-1.1035491378756888,0.02298598624876532,1.8435214757115306,-1.5410210097558732,-0.1271472360077869,-0.26333527754090447,0.17467255153959252,0.0,0.0,0.0,0.0,0.0,0.0,-0.10394999999999999,-7.900199999999999,-5.1219,0.04025448,-1.0849540800000002,-0.07571676
1779583581564076662,A_-,-1.1076924390008571,0.02298598624876532,1.8435214757115306,-1.5410210097558732,-0.1271472360077869,-0.26333527754090447,0.17467255153959252,0.0,0.0,0.0,0.0,0.0,0.0,-0.10394999999999999,-7.900199999999999,-5.1219,0.04025448,-1.0849540800000002,-0.07571676
1779583581564076662,A_-,-1.1116255207502945,0.02298598624876532,1.8435214757115306,-1.5410210097558732,-0.1271472360077869,-0.26333527754090447,0.17467255153959252,0.0,0.0,0.0,0.0,0.0,0.0,-0.10394999999999999,-7.900199999999999,-5.1219,0.04025448,-1.0849540800000002,-0.07571676
1779583581599084138,A_-,-1.115508429750662,0.02298598624876532,1.8435214757115306,-1.5410210097558732,-0.1271472360077869,-0.26333527754090447,0.17467255153959252,0.0,0.0,0.0,0.0,0.0,0.0,-0.1323,-7.871849999999999,-5.09355,0.02779476,-1.06961904,-0.08146740000000001
1779583581599084138,A_-,-1.1196864352509692,0.02298598624876532,1.8435214757115306,-1.5410210097558732,-0.1271472360077869,-0.26333527754090447,0.17467255153959252,0.0,0.0,0.0,0.0,0.0,0.0,-0.1323,-7.871849999999999,-5.09355,0.02779476,-1.06961904,-0.08146740000000001
1779583581599084138,A_-,-1.1236243050002486,0.02298598624876532,1.8435214757115306,-1.5410210097558732,-0.1271472360077869,-0.26333527754090447,0.17467255153959252,0.0,0.0,0.0,0.0,0.0,0.0,-0.1323,-7.871849999999999,-5.09355,0.02779476,-1.06961904,-0.08146740000000001
1779583581629085302,A_-,-1.1275755071255844,0.02298598624876532,1.8435214757115306,-1.5410210097558732,-0.1271472360077869,-0.26333527754090447,0.17467255153959252,0.0,0.0,0.0,0.0,0.0,0.0,-0.14175,-7.923825,-5.1219,0.023961,-1.06770216,-0.07379988
1779583581629085302,A_-,-1.1319178912503958,0.02298598624876532,1.8435214757115306,-1.5410210097558732,-0.1271472360077869,-0.26333527754090447,0.17467255153959252,0.0,0.0,0.0,0.0,0.0,0.0,-0.14175,-7.923825,-5.1219,0.023961,-1.06770216,-0.07379988
1779583581629085302,A_-,-1.1358992617510921,0.02298598624876532,1.8435214757115306,-1.5410210097558732,-0.1271472360077869,-0.26333527754090447,0.17467255153959252,0.0,0.0,0.0,0.0,0.0,0.0,-0.14175,-7.923825,-5.1219,0.023961,-1.06770216,-0.07379988
1779583581664083003,A_-,-1.1397907627506356,0.02298598624876532,1.8435214757115306,-1.5410210097558732,-0.1271472360077869,-0.26333527754090447,0.17467255153959252,0.0,0.0,0.0,0.0,0.0,0.0,-0.17482499999999998,-7.919099999999999,-5.136074999999999,0.03546228,-1.06961904,-0.08434272
1779583581664083003,A_-,-1.144019949000267,0.02298598624876532,1.8435214757115306,-1.5410210097558732,-0.1271472360077869,-0.26333527754090447,0.17467255153959252,0.0,0.0,0.0,0.0,0.0,0.0,-0.17482499999999998,-7.919099999999999,-5.136074999999999,0.03546228,-1.06961904,-0.08434272
1779583581664083003,A_-,-1.1479651751260462,0.02298598624876532,1.8435214757115306,-1.5410210097558732,-0.1271472360077869,-0.26333527754090447,0.17467255153959252,0.0,0.0,0.0,0.0,0.0,0.0,-0.17482499999999998,-7.919099999999999,-5.136074999999999,0.03546228,-1.06961904,-0.08434272
1779583581694142103,A_-,-1.1518709085003138,0.02298598624876532,1.8435214757115306,-1.5410210097558732,-0.1271472360077869,-0.26333527754090447,0.17467255153959252,0.0,0.0,0.0,0.0,0.0,0.0,-0.189,-7.933274999999999,-5.13135,0.02779476,-1.0734528,-0.08242584
1779583581694142103,A_-,-1.156305681750382,0.02298598624876532,1.8435214757115306,-1.5410210097558732,-0.1271472360077869,-0.26333527754090447,0.17467255153959252,0.0,0.0,0.0,0.0,0.0,0.0,-0.189,-7.933274999999999,-5.13135,0.02779476,-1.0734528,-0.08242584
1779583581694142103,A_-,-1.1602405035005177,0.02298598624876532,1.8435214757115306,-1.5410210097558732,-0.1271472360077869,-0.26333527754090447,0.17467255153959252,0.0,0.0,0.0,0.0,0.0,0.0,-0.189,-7.933274999999999,-5.13135,0.02779476,-1.0734528,-0.08242584
1779583581729119062,A_-,-1.164147557250999,0.02298598624876532,1.8435214757115306,-1.5410210097558732,-0.1271472360077869,-0.26333527754090447,0.17467255153959252,0.0,0.0,0.0,0.0,0.0,0.0,-0.165375,-7.9758,-5.1219,0.03162852,-1.07153592,-0.07955052
1779583581729119062,A_-,-1.1684552126257586,0.02298598624876532,1.8435214757115306,-1.5410210097558732,-0.1271472360077869,-0.26333527754090447,0.17467255153959252,0.0,0.0,0.0,0.0,0.0,0.0,-0.165375,-7.9758,-5.1219,0.03162852,-1.07153592,-0.07955052
1779583581729119062,A_-,-1.1724384191261379,0.02298598624876532,1.8435214757115306,-1.5410210097558732,-0.1271472360077869,-0.26333527754090447,0.17467255153959252,0.0,0.0,0.0,0.0,0.0,0.0,-0.165375,-7.9758,-5.1219,0.03162852,-1.07153592,-0.07955052
1779583581759086370,A_-,-1.176358312875891,0.02298598624876532,1.8435214757115306,-1.5410210097558732,-0.1271472360077869,-0.26333527754090447,0.17467255153959252,0.0,0.0,0.0,0.0,0.0,0.0,-0.1512,-7.886024999999999,-5.11245,0.028753199999999996,-1.0686605999999998,-0.08625959999999999
1779583581759086370,A_-,-1.1806531038751018,0.02298598624876532,1.8435214757115306,-1.5410210097558732,-0.1271472360077869,-0.26333527754090447,0.17467255153959252,0.0,0.0,0.0,0.0,0.0,0.0,-0.1512,-7.886024999999999,-5.11245,0.028753199999999996,-1.0686605999999998,-0.08625959999999999
1779583581759086370,A_-,-1.1845869296262208,0.02298598624876532,1.8435214757115306,-1.5410210097558732,-0.1271472360077869,-0.26333527754090447,0.17467255153959252,0.0,0.0,0.0,0.0,0.0,0.0,-0.1512,-7.886024999999999,-5.11245,0.028753199999999996,-1.0686605999999998,-0.08625959999999999
1779583581794205188,A_-,-1.1885093313753714,0.02298598624876532,1.8435214757115306,-1.5410210097558732,-0.1271472360077869,-0.26333527754090447,0.17467255153959252,0.0,0.0,0.0,0.0,0.0,0.0,-0.14175,-7.933274999999999,-5.136074999999999,0.029711639999999997,-1.07536968,-0.07859208
1779583581794205188,A_-,-1.1928236467506395,0.02298598624876532,1.8435214757115306,-1.5410210097558732,-0.1271472360077869,-0.26333527754090447,0.17467255153959252,0.0,0.0,0.0,0.0,0.0,0.0,-0.14175,-7.933274999999999,-5.136074999999999,0.029711639999999997,-1.07536968,-0.07859208
1779583581794205188,A_-,-1.1968109696249485,0.02298598624876532,1.8435214757115306,-1.5410210097558732,-0.1271472360077869,-0.26333527754090447,0.17467255153959252,0.0,0.0,0.0,0.0,0.0,0.0,-0.14175,-7.933274999999999,-5.136074999999999,0.029711639999999997,-1.07536968,-0.07859208
1779583581824088573,A_-,-1.2007242750009937,0.02298598624876532,1.8435214757115306,-1.5410210097558732,-0.1271472360077869,-0.26333527754090447,0.17467255153959252,0.0,0.0,0.0,0.0,0.0,0.0,-0.137025,-7.895474999999999,-5.107724999999999,0.03067008,-1.07153592,-0.07475832
1779583581824088573,A_-,-1.2050891831249828,0.02298598624876532,1.8435214757115306,-1.5410210097558732,-0.1271472360077869,-0.26333527754090447,0.17467255153959252,0.0,0.0,0.0,0.0,0.0,0.0,-0.137025,-7.895474999999999,-5.107724999999999,0.03067008,-1.07153592,-0.07475832
1779583581824088573,A_-,-1.2090425332507948,0.02298598624876532,1.8435214757115306,-1.5410210097558732,-0.1271472360077869,-0.26333527754090447,0.17467255153959252,0.0,0.0,0.0,0.0,0.0,0.0,-0.137025,-7.895474999999999,-5.107724999999999,0.03067008,-1.07153592,-0.07475832
1779583581859091520,A_-,-1.212916970250717,0.02298598624876532,1.8435214757115306,-1.5410210097558732,-0.1271472360077869,-0.26333527754090447,0.17467255153959252,0.0,0.0,0.0,0.0,0.0,0.0,-0.089775,-7.919099999999999,-5.107724999999999,0.028753199999999996,-1.0638684,-0.08050896
1779583581859091520,A_-,-1.2171904372503377,0.02298598624876532,1.8435214757115306,-1.5410210097558732,-0.1271472360077869,-0.26333527754090447,0.17467255153959252,0.0,0.0,0.0,0.0,0.0,0.0,-0.089775,-7.919099999999999,-5.107724999999999,0.028753199999999996,-1.0638684,-0.08050896
1779583581859091520,A_-,-1.2214529478760596,0.02298598624876532,1.8435214757115306,-1.5410210097558732,-0.1271472360077869,-0.26333527754090447,0.17467255153959252,0.0,0.0,0.0,0.0,0.0,0.0,-0.089775,-7.919099999999999,-5.107724999999999,0.028753199999999996,-1.0638684,-0.08050896
1779583581884088754,A_-,-1.2253665176258437,0.02298598624876532,1.8435214757115306,-1.5410210097558732,-0.1271472360077869,-0.26333527754090447,0.17467255153959252,0.0,0.0,0.0,0.0,0.0,0.0,-0.19845,-7.890749999999999,-5.154974999999999,0.03162852,-1.07153592,-0.0766752
1779583581884088754,A_-,-1.229644484250457,0.02298598624876532,1.8435214757115306,-1.5410210097558732,-0.1271472360077869,-0.26333527754090447,0.17467255153959252,0.0,0.0,0.0,0.0,0.0,0.0,-0.19845,-7.890749999999999,-5.154974999999999,0.03162852,-1.07153592,-0.0766752
1779583581884088754,A_-,-1.2335883903751892,0.02298598624876532,1.8435214757115306,-1.5410210097558732,-0.1271472360077869,-0.26333527754090447,0.17467255153959252,0.0,0.0,0.0,0.0,0.0,0.0,-0.19845,-7.890749999999999,-5.154974999999999,0.03162852,-1.07153592,-0.0766752
1779583581924088239,A_-,-1.2376739463757076,0.02298598624876532,1.8435214757115306,-1.5410210097558732,-0.1271472360077869,-0.26333527754090447,0.17467255153959252,0.0,0.0,0.0,0.0,0.0,0.0,-0.25042499999999995,-7.923825,-5.126625,0.029711639999999997,-1.0744112399999999,-0.07571676
1779583581924088239,A_-,-1.2419857417503408,0.02298598624876532,1.8435214757115306,-1.5410210097558732,-0.1271472360077869,-0.26333527754090447,0.17467255153959252,0.0,0.0,0.0,0.0,0.0,0.0,-0.25042499999999995,-7.923825,-5.126625,0.029711639999999997,-1.0744112399999999,-0.07571676
1779583581924088239,A_-,-1.2459691046256012,0.02298598624876532,1.8435214757115306,-1.5410210097558732,-0.1271472360077869,-0.26333527754090447,0.17467255153959252,0.0,0.0,0.0,0.0,0.0,0.0,-0.25042499999999995,-7.923825,-5.126625,0.029711639999999997,-1.0744112399999999,-0.07571676
1779583581949079990,A_-,-1.2498875700002827,0.02298598624876532,1.8435214757115306,-1.5410210097558732,-0.1271472360077869,-0.26333527754090447,0.17467255153959252,0.0,0.0,0.0,0.0,0.0,0.0,-0.17955,-7.871849999999999,-5.0652,0.02587788,-1.06482684,-0.07955052
1779583581949079990,A_-,-1.2541759290006667,0.02298598624876532,1.8435214757115306,-1.5410210097558732,-0.1271472360077869,-0.26333527754090447,0.17467255153959252,0.0,0.0,0.0,0.0,0.0,0.0,-0.17955,-7.871849999999999,-5.0652,0.02587788,-1.06482684,-0.07955052
1779583581949079990,A_-,-1.25814109950079,0.02298598624876532,1.8435214757115306,-1.5410210097558732,-0.1271472360077869,-0.26333527754090447,0.17467255153959252,0.0,0.0,0.0,0.0,0.0,0.0,-0.17955,-7.871849999999999,-5.0652,0.02587788,-1.06482684,-0.07955052
1779583581989091157,A_-,-1.2620621332507653,0.02298598624876532,1.8435214757115306,-1.5410210097558732,-0.1271472360077869,-0.26333527754090447,0.17467255153959252,0.0,0.0,0.0,0.0,0.0,0.0,-0.17482499999999998,-7.9049249999999995,-5.107724999999999,0.02683632,-1.06578528,-0.08146740000000001
1779583581989091157,A_-,-1.2663602842512773,0.02298598624876532,1.8435214757115306,-1.5410210097558732,-0.1271472360077869,-0.26333527754090447,0.17467255153959252,0.0,0.0,0.0,0.0,0.0,0.0,-0.17482499999999998,-7.9049249999999995,-5.107724999999999,0.02683632,-1.06578528,-0.08146740000000001
1779583581989091157,A_-,-1.2703348987511163,0.02298598624876532,1.8435214757115306,-1.5410210097558732,-0.1271472360077869,-0.26333527754090447,0.17467255153959252,0.0,0.0,0.0,0.0,0.0,0.0,-0.17482499999999998,-7.9049249999999995,-5.107724999999999,0.02683632,-1.06578528,-0.08146740000000001
1779583582014090776,A_-,-1.274255740125227,0.02298598624876532,1.8435214757115306,-1.5410210097558732,-0.1271472360077869,-0.26333527754090447,0.17467255153959252,0.0,0.0,0.0,0.0,0.0,0.0,-0.1701,-7.890749999999999,-5.11245,0.03737916,-1.06770216,-0.07475832
1779583582014090776,A_-,-1.2785558471255172,0.02298598624876532,1.8435214757115306,-1.5410210097558732,-0.1271472360077869,-0.26333527754090447,0.17467255153959252,0.0,0.0,0.0,0.0,0.0,0.0,-0.1701,-7.890749999999999,-5.11245,0.03737916,-1.06770216,-0.07475832
1779583582014090776,A_-,-1.2825432656250086,0.02298598624876532,1.8435214757115306,-1.5410210097558732,-0.1271472360077869,-0.26333527754090447,0.17467255153959252,0.0,0.0,0.0,0.0,0.0,0.0,-0.1701,-7.890749999999999,-5.11245,0.03737916,-1.06770216,-0.07475832
1779583582049097299,A_-,-1.2864519990002918,0.02298598624876532,1.8435214757115306,-1.5410210097558732,-0.1271472360077869,-0.26333527754090447,0.17467255153959252,0.0,0.0,0.0,0.0,0.0,0.0,-0.155925,-7.890749999999999,-5.003774999999999,0.028753199999999996,-1.0772865600000001,-0.07955052
1779583582049097299,A_-,-1.2905410710004617,0.02298598624876532,1.8435214757115306,-1.5410210097558732,-0.1271472360077869,-0.26333527754090447,0.17467255153959252,0.0,0.0,0.0,0.0,0.0,0.0,-0.155925,-7.890749999999999,-5.003774999999999,0.028753199999999996,-1.0772865600000001,-0.07955052
1779583582049097299,A_-,-1.2944559963757456,0.02298598624876532,1.8435214757115306,-1.5410210097558732,-0.1271472360077869,-0.26333527754090447,0.17467255153959252,0.0,0.0,0.0,0.0,0.0,0.0,-0.155925,-7.890749999999999,-5.003774999999999,0.028753199999999996,-1.0772865600000001,-0.07955052
1779583582084091663,A_-,-1.2983204490010394,0.02298598624876532,1.8435214757115306,-1.5410210097558732,-0.1271472360077869,-0.26333527754090447,0.17467255153959252,0.0,0.0,0.0,0.0,0.0,0.0,-0.1701,-7.966349999999999,-5.126625,0.03450384,-1.0667437199999998,-0.07571676
1779583582084091663,A_-,-1.3023959246252161,0.02298598624876532,1.8435214757115306,-1.5410210097558732,-0.1271472360077869,-0.26333527754090447,0.17467255153959252,0.0,0.0,0.0,0.0,0.0,0.0,-0.1701,-7.966349999999999,-5.126625,0.03450384,-1.0667437199999998,-0.07571676
1779583582084091663,A_-,-1.306308798000373,0.02298598624876532,1.8435214757115306,-1.5410210097558732,-0.1271472360077869,-0.26333527754090447,0.17467255153959252,0.0,0.0,0.0,0.0,0.0,0.0,-0.1701,-7.966349999999999,-5.126625,0.03450384,-1.0667437199999998,-0.07571676
1779583582114094018,A_-,-1.3101835110001048,0.02298598624876532,1.8435214757115306,-1.5410210097558732,-0.1271472360077869,-0.26333527754090447,0.17467255153959252,0.0,0.0,0.0,0.0,0.0,0.0,-0.19845,-7.909649999999999,-5.15025,0.0335454,-1.0667437199999998,-0.07955052
1779583582114094018,A_-,-1.3144299172504361,0.02298598624876532,1.8435214757115306,-1.5410210097558732,-0.1271472360077869,-0.26333527754090447,0.17467255153959252,0.0,0.0,0.0,0.0,0.0,0.0,-0.19845,-7.909649999999999,-5.15025,0.0335454,-1.0667437199999998,-0.07955052
1779583582114094018,A_-,-1.3184954328762615,0.02298598624876532,1.8435214757115306,-1.5410210097558732,-0.1271472360077869,-0.26333527754090447,0.17467255153959252,0.0,0.0,0.0,0.0,0.0,0.0,-0.19845,-7.909649999999999,-5.15025,0.0335454,-1.0667437199999998,-0.07955052
1779583582149084806,A_-,-1.3224302546250328,0.02298598624876532,1.8435214757115306,-1.5410210097558732,-0.1271472360077869,-0.26333527754090447,0.17467255153959252,0.0,0.0,0.0,0.0,0.0,0.0,-0.1323,-7.933274999999999,-5.088824999999999,0.028753199999999996,-1.06578528,-0.07955052
1779583582149084806,A_-,-1.3266460365007333,0.02298598624876532,1.8435214757115306,-1.5410210097558732,-0.1271472360077869,-0.26333527754090447,0.17467255153959252,0.0,0.0,0.0,0.0,0.0,0.0,-0.1323,-7.933274999999999,-5.088824999999999,0.028753199999999996,-1.06578528,-0.07955052
1779583582149084806,A_-,-1.330598510251093,0.02298598624876532,1.8435214757115306,-1.5410210097558732,-0.1271472360077869,-0.26333527754090447,0.17467255153959252,0.0,0.0,0.0,0.0,0.0,0.0,-0.1323,-7.933274999999999,-5.088824999999999,0.028753199999999996,-1.06578528,-0.07955052
1779583582179081678,A_-,-1.3344673788760701,0.02298598624876532,1.8435214757115306,-1.5410210097558732,-0.1271472360077869,-0.26333527754090447,0.17467255153959252,0.0,0.0,0.0,0.0,0.0,0.0,-0.19372499999999998,-7.881299999999999,-5.15025,0.03450384,-1.0705774799999999,-0.07475832
1779583582179081678,A_-,-1.3386593403761253,0.02298598624876532,1.8435214757115306,-1.5410210097558732,-0.1271472360077869,-0.26333527754090447,0.17467255153959252,0.0,0.0,0.0,0.0,0.0,0.0,-0.19372499999999998,-7.881299999999999,-5.15025,0.03450384,-1.0705774799999999,-0.07475832
1779583582179081678,A_-,-1.342604002501048,0.02298598624876532,1.8435214757115306,-1.5410210097558732,-0.1271472360077869,-0.26333527754090447,0.17467255153959252,0.0,0.0,0.0,0.0,0.0,0.0,-0.19372499999999998,-7.881299999999999,-5.15025,0.03450384,-1.0705774799999999,-0.07475832
1779583582214086055,A_-,-1.346518843875856,0.02298598624876532,1.8435214757115306,-1.5410210097558732,-0.1271472360077869,-0.26333527754090447,0.17467255153959252,0.0,0.0,0.0,0.0,0.0,0.0,-0.189,-7.890749999999999,-5.13135,0.028753199999999996,-1.0686605999999998,-0.07475832
1779583582214086055,A_-,-1.3507312773749618,0.02298598624876532,1.8435214757115306,-1.5410210097558732,-0.1271472360077869,-0.26333527754090447,0.17467255153959252,0.0,0.0,0.0,0.0,0.0,0.0,-0.189,-7.890749999999999,-5.13135,0.028753199999999996,-1.0686605999999998,-0.07475832
1779583582214086055,A_-,-1.354713751876261,0.02298598624876532,1.8435214757115306,-1.5410210097558732,-0.1271472360077869,-0.26333527754090447,0.17467255153959252,0.0,0.0,0.0,0.0,0.0,0.0,-0.189,-7.890749999999999,-5.13135,0.028753199999999996,-1.0686605999999998,-0.07475832
1779583582244086742,A_-,-1.3586014848760897,0.02298598624876532,1.8435214757115306,-1.5410210097558732,-0.1271472360077869,-0.26333527754090447,0.17467255153959252,0.0,0.0,0.0,0.0,0.0,0.0,-0.0945,-7.900199999999999,-5.098274999999999,0.03162852,-1.06195152,-0.08242584
1779583582244086742,A_-,-1.362865471501209,0.02298598624876532,1.8435214757115306,-1.5410210097558732,-0.1271472360077869,-0.26333527754090447,0.17467255153959252,0.0,0.0,0.0,0.0,0.0,0.0,-0.0945,-7.900199999999999,-5.098274999999999,0.03162852,-1.06195152,-0.08242584
1779583582244086742,A_-,-1.3668465176260725,0.02298598624876532,1.8435214757115306,-1.5410210097558732,-0.1271472360077869,-0.26333527754090447,0.17467255153959252,0.0,0.0,0.0,0.0,0.0,0.0,-0.0945,-7.900199999999999,-5.098274999999999,0.03162852,-1.06195152,-0.08242584
1779583582279088735,A_-,-1.3707399270010683,0.02298598624876532,1.8435214757115306,-1.5410210097558732,-0.1271472360077869,-0.26333527754090447,0.17467255153959252,0.0,0.0,0.0,0.0,0.0,0.0,-0.127575,-7.9049249999999995,-5.145524999999999,0.03067008,-1.07536968,-0.07955052
1779583582279088735,A_-,-1.3749507405009354,0.02298598624876532,1.8435214757115306,-1.5410210097558732,-0.1271472360077869,-0.26333527754090447,0.17467255153959252,0.0,0.0,0.0,0.0,0.0,0.0,-0.127575,-7.9049249999999995,-5.145524999999999,0.03067008,-1.07536968,-0.07955052
1779583582279088735,A_-,-1.3789073186253518,0.02298598624876532,1.8435214757115306,-1.5410210097558732,-0.1271472360077869,-0.26333527754090447,0.17467255153959252,0.0,0.0,0.0,0.0,0.0,0.0,-0.127575,-7.9049249999999995,-5.145524999999999,0.03067008,-1.07536968,-0.07955052
1779583582309081077,A_-,-1.3827968876262275,0.02298598624876532,1.8435214757115306,-1.5410210097558732,-0.1271472360077869,-0.26333527754090447,0.17467255153959252,0.0,0.0,0.0,0.0,0.0,0.0,-0.11339999999999999,-7.890749999999999,-5.107724999999999,0.02491944,-1.06961904,-0.07571676
1779583582309081077,A_-,-1.3870692382502057,0.02298598624876532,1.8435214757115306,-1.5410210097558732,-0.1271472360077869,-0.26333527754090447,0.17467255153959252,0.0,0.0,0.0,0.0,0.0,0.0,-0.11339999999999999,-7.890749999999999,-5.107724999999999,0.02491944,-1.06961904,-0.07571676
1779583582309081077,A_-,-1.3910325843753526,0.02298598624876532,1.8435214757115306,-1.5410210097558732,-0.1271472360077869,-0.26333527754090447,0.17467255153959252,0.0,0.0,0.0,0.0,0.0,0.0,-0.11339999999999999,-7.890749999999999,-5.107724999999999,0.02491944,-1.06961904,-0.07571676
1779583582344100713,A_-,-1.3949534497505738,0.02298598624876532,1.8435214757115306,-1.5410210097558732,-0.1271472360077869,-0.26333527754090447,0.17467255153959252,0.0,0.0,0.0,0.0,0.0,0.0,-0.11339999999999999,-7.881299999999999,-5.154974999999999,0.03929604,-1.06578528,-0.07571676
1779583582344100713,A_-,-1.399196388000746,0.02298598624876532,1.8435214757115306,-1.5410210097558732,-0.1271472360077869,-0.26333527754090447,0.17467255153959252,0.0,0.0,0.0,0.0,0.0,0.0,-0.11339999999999999,-7.881299999999999,-5.154974999999999,0.03929604,-1.06578528,-0.07571676
1779583582344100713,A_-,-1.403160346126242,0.02298598624876532,1.8435214757115306,-1.5410210097558732,-0.1271472360077869,-0.26333527754090447,0.17467255153959252,0.0,0.0,0.0,0.0,0.0,0.0,-0.11339999999999999,-7.881299999999999,-5.154974999999999,0.03929604,-1.06578528,-0.07571676
1779583582374091863,A_-,-1.4070573195003817,0.02298598624876532,1.8435214757115306,-1.5410210097558732,-0.1271472360077869,-0.26333527754090447,0.17467255153959252,0.0,0.0,0.0,0.0,0.0,0.0,-0.17955,-7.876575,-5.145524999999999,0.0383376,-1.06578528,-0.08434272
1779583582374091863,A_-,-1.411308405750333,0.02298598624876532,1.8435214757115306,-1.5410210097558732,-0.1271472360077869,-0.26333527754090447,0.17467255153959252,0.0,0.0,0.0,0.0,0.0,0.0,-0.17955,-7.876575,-5.145524999999999,0.0383376,-1.06578528,-0.08434272
1779583582374091863,A_-,-1.4152471395000248,0.02298598624876532,1.8435214757115306,-1.5410210097558732,-0.1271472360077869,-0.26333527754090447,0.17467255153959252,0.0,0.0,0.0,0.0,0.0,0.0,-0.17955,-7.876575,-5.145524999999999,0.0383376,-1.06578528,-0.08434272
1779583582409090042,A_-,-1.4191624368754674,0.02298598624876532,1.8435214757115306,-1.5410210097558732,-0.1271472360077869,-0.26333527754090447,0.17467255153959252,0.0,0.0,0.0,0.0,0.0,0.0,-0.16065,-7.895474999999999,-5.1408,0.03162852,-1.0724943599999999,-0.07859208
1779583582409090042,A_-,-1.423499696626095,0.02298598624876532,1.8435214757115306,-1.5410210097558732,-0.1271472360077869,-0.26333527754090447,0.17467255153959252,0.0,0.0,0.0,0.0,0.0,0.0,-0.16065,-7.895474999999999,-5.1408,0.03162852,-1.0724943599999999,-0.07859208
1779583582409090042,A_-,-1.4274941231251432,0.02298598624876532,1.8435214757115306,-1.5410210097558732,-0.1271472360077869,-0.26333527754090447,0.17467255153959252,0.0,0.0,0.0,0.0,0.0,0.0,-0.16065,-7.895474999999999,-5.1408,0.03162852,-1.0724943599999999,-0.07859208
1779583582439172029,A_-,-1.4313918161260517,0.02298598624876532,1.8435214757115306,-1.5410210097558732,-0.1271472360077869,-0.26333527754090447,0.17467255153959252,0.0,0.0,0.0,0.0,0.0,0.0,-0.12285,-7.900199999999999,-5.05575,0.03067008,-1.0686605999999998,-0.08146740000000001
1779583582439172029,A_-,-1.4356933271251364,0.02298598624876532,1.8435214757115306,-1.5410210097558732,-0.1271472360077869,-0.26333527754090447,0.17467255153959252,0.0,0.0,0.0,0.0,0.0,0.0,-0.12285,-7.900199999999999,-5.05575,0.03067008,-1.0686605999999998,-0.08146740000000001
1779583582439172029,A_-,-1.4397178983749654,0.02298598624876532,1.8435214757115306,-1.5410210097558732,-0.1271472360077869,-0.26333527754090447,0.17467255153959252,0.0,0.0,0.0,0.0,0.0,0.0,-0.12285,-7.900199999999999,-5.05575,0.03067008,-1.0686605999999998,-0.08146740000000001
1779583582474099874,A_-,-1.4436372157501864,0.02298598624876532,1.8435214757115306,-1.5410210097558732,-0.1271472360077869,-0.26333527754090447,0.17467255153959252,0.0,0.0,0.0,0.0,0.0,0.0,-0.17482499999999998,-7.933274999999999,-5.107724999999999,0.023961,-1.0744112399999999,-0.07571676
1779583582474099874,A_-,-1.4479615991253922,0.02298598624876532,1.8435214757115306,-1.5410210097558732,-0.1271472360077869,-0.26333527754090447,0.17467255153959252,0.0,0.0,0.0,0.0,0.0,0.0,-0.17482499999999998,-7.933274999999999,-5.107724999999999,0.023961,-1.0744112399999999,-0.07571676
1779583582474099874,A_-,-1.4519562056252653,0.02298598624876532,1.8435214757115306,-1.5410210097558732,-0.1271472360077869,-0.26333527754090447,0.17467255153959252,0.0,0.0,0.0,0.0,0.0,0.0,-0.17482499999999998,-7.933274999999999,-5.107724999999999,0.023961,-1.0744112399999999,-0.07571676
1779583582504092931,A_-,-1.455868467000073,0.02298598624876532,1.8435214757115306,-1.5410210097558732,-0.1271472360077869,-0.26333527754090447,0.17467255153959252,0.0,0.0,0.0,0.0,0.0,0.0,-0.1512,-7.919099999999999,-5.107724999999999,0.02779476,-1.0705774799999999,-0.08146740000000001
1779583582504092931,A_-,-1.4601322856256047,0.02298598624876532,1.8435214757115306,-1.5410210097558732,-0.1271472360077869,-0.26333527754090447,0.17467255153959252,0.0,0.0,0.0,0.0,0.0,0.0,-0.1512,-7.919099999999999,-5.107724999999999,0.02779476,-1.0705774799999999,-0.08146740000000001
1779583582504092931,A_-,-1.4640914437500214,0.02298598624876532,1.8435214757115306,-1.5410210097558732,-0.1271472360077869,-0.26333527754090447,0.17467255153959252,0.0,0.0,0.0,0.0,0.0,0.0,-0.1512,-7.919099999999999,-5.107724999999999,0.02779476,-1.0705774799999999,-0.08146740000000001
1779583582539195060,A_-,-1.4679521283756003,0.02298598624876532,1.8435214757115306,-1.5410210097558732,-0.1271472360077869,-0.26333527754090447,0.17467255153959252,0.0,0.0,0.0,0.0,0.0,0.0,-0.17482499999999998,-7.923825,-5.117175,0.03258696,-1.06578528,-0.07859208
1779583582539195060,A_-,-1.4721571578752446,0.02298598624876532,1.8435214757115306,-1.5410210097558732,-0.1271472360077869,-0.26333527754090447,0.17467255153959252,0.0,0.0,0.0,0.0,0.0,0.0,-0.17482499999999998,-7.923825,-5.117175,0.03258696,-1.06578528,-0.07859208
1779583582539195060,A_-,-1.4760944276254122,0.02298598624876532,1.8435214757115306,-1.5410210097558732,-0.1271472360077869,-0.26333527754090447,0.17467255153959252,0.0,0.0,0.0,0.0,0.0,0.0,-0.17482499999999998,-7.923825,-5.117175,0.03258696,-1.06578528,-0.07859208
