deepaktalwardt/rage-cage-arm-hackstorm/ros2/ws/sysid/runs/sysid_20260524_004556/raw/joint4_phaseA_pos.csv
t_ns,phase,tau_cmd,q1,q2,q3,q4,q5,q6,qd1,qd2,qd3,qd4,qd5,qd6,tau1,tau2,tau3,tau4,tau5,tau6
1779583570113952875,A_+,2.5200006348313764e-07,0.02298598624876532,1.8435214757115306,-1.5410210097558732,-0.1271472360077869,-0.26333527754090447,0.17467255153959252,0.0,0.0,0.0,0.0,0.0,0.0,-0.155925,-7.919099999999999,-5.164425,0.029711639999999997,-1.06770216,-0.07955052
1779583570113952875,A_+,0.004116482249173714,0.02298598624876532,1.8435214757115306,-1.5410210097558732,-0.1271472360077869,-0.26333527754090447,0.17467255153959252,0.0,0.0,0.0,0.0,0.0,0.0,-0.155925,-7.919099999999999,-5.164425,0.029711639999999997,-1.06770216,-0.07955052
1779583570113952875,A_+,0.008048834249166248,0.02298598624876532,1.8435214757115306,-1.5410210097558732,-0.1271472360077869,-0.26333527754090447,0.17467255153959252,0.0,0.0,0.0,0.0,0.0,0.0,-0.155925,-7.919099999999999,-5.164425,0.029711639999999997,-1.06770216,-0.07955052
1779583570153927326,A_+,0.01192527712419178,0.02298598624876532,1.8435214757115306,-1.5410210097558732,-0.1271472360077869,-0.26333527754090447,0.17467255153959252,0.0,0.0,0.0,0.0,0.0,0.0,-0.118125,-7.895474999999999,-5.1219,0.028753199999999996,-1.0763281199999999,-0.08242584
1779583570153927326,A_+,0.016016631374441204,0.02298598624876532,1.8435214757115306,-1.5410210097558732,-0.1271472360077869,-0.26333527754090447,0.17467255153959252,0.0,0.0,0.0,0.0,0.0,0.0,-0.118125,-7.895474999999999,-5.1219,0.028753199999999996,-1.0763281199999999,-0.08242584
1779583570153927326,A_+,0.01992207862485884,0.02298598624876532,1.8435214757115306,-1.5410210097558732,-0.1271472360077869,-0.26333527754090447,0.17467255153959252,0.0,0.0,0.0,0.0,0.0,0.0,-0.118125,-7.895474999999999,-5.1219,0.028753199999999996,-1.0763281199999999,-0.08242584
1779583570183943271,A_+,0.023787745124081994,0.02298598624876532,1.8435214757115306,-1.5410210097558732,-0.1271472360077869,-0.26333527754090447,0.17467255153959252,0.0,0.0,0.0,0.0,0.0,0.0,-0.189,-7.914375,-5.13135,0.03162852,-1.0667437199999998,-0.07763364
1779583570183943271,A_+,0.027877659374553332,0.02298598624876532,1.8435214757115306,-1.5410210097558732,-0.1271472360077869,-0.26333527754090447,0.17467255153959252,0.0,0.0,0.0,0.0,0.0,0.0,-0.189,-7.914375,-5.13135,0.03162852,-1.0667437199999998,-0.07763364
1779583570183943271,A_+,0.03179925899985392,0.02298598624876532,1.8435214757115306,-1.5410210097558732,-0.1271472360077869,-0.26333527754090447,0.17467255153959252,0.0,0.0,0.0,0.0,0.0,0.0,-0.189,-7.914375,-5.13135,0.03162852,-1.0667437199999998,-0.07763364
1779583570213954448,A_+,0.03566557387421199,0.02298598624876532,1.8435214757115306,-1.5410210097558732,-0.1271472360077869,-0.26333527754090447,0.17467255153959252,0.0,0.0,0.0,0.0,0.0,0.0,-0.155925,-7.900199999999999,-5.15025,0.03546228,-1.06961904,-0.07475832
1779583570213954448,A_+,0.03971132737478911,0.02298598624876532,1.8435214757115306,-1.5410210097558732,-0.1271472360077869,-0.26333527754090447,0.17467255153959252,0.0,0.0,0.0,0.0,0.0,0.0,-0.155925,-7.900199999999999,-5.15025,0.03546228,-1.06961904,-0.07475832
1779583570213954448,A_+,0.04356589387407439,0.02298598624876532,1.8435214757115306,-1.5410210097558732,-0.1271472360077869,-0.26333527754090447,0.17467255153959252,0.0,0.0,0.0,0.0,0.0,0.0,-0.155925,-7.900199999999999,-5.15025,0.03546228,-1.06961904,-0.07475832
1779583570248941659,A_+,0.0474123843741836,0.02298598624876532,1.8435214757115306,-1.5410210097558732,-0.1271472360077869,-0.26333527754090447,0.17467255153959252,0.0,0.0,0.0,0.0,0.0,0.0,-0.19845,-7.9285499999999995,-5.013224999999999,0.02204412,-1.0705774799999999,-0.07859208
1779583570248941659,A_+,0.051530523000110406,0.02298598624876532,1.8435214757115306,-1.5410210097558732,-0.1271472360077869,-0.26333527754090447,0.17467255153959252,0.0,0.0,0.0,0.0,0.0,0.0,-0.19845,-7.9285499999999995,-5.013224999999999,0.02204412,-1.0705774799999999,-0.07859208
1779583570248941659,A_+,0.05543462624973472,0.02298598624876532,1.8435214757115306,-1.5410210097558732,-0.1271472360077869,-0.26333527754090447,0.17467255153959252,0.0,0.0,0.0,0.0,0.0,0.0,-0.19845,-7.9285499999999995,-5.013224999999999,0.02204412,-1.0705774799999999,-0.07859208
1779583570273946285,A_+,0.05930306512482275,0.02298598624876532,1.8435214757115306,-1.5410210097558732,-0.1271472360077869,-0.26333527754090447,0.17467255153959252,0.0,0.0,0.0,0.0,0.0,0.0,-0.1701,-7.919099999999999,-5.1408,0.02587788,-1.06003464,-0.07955052
1779583570273946285,A_+,0.06337884299955476,0.02298598624876532,1.8435214757115306,-1.5410210097558732,-0.1271472360077869,-0.26333527754090447,0.17467255153959252,0.0,0.0,0.0,0.0,0.0,0.0,-0.1701,-7.919099999999999,-5.1408,0.02587788,-1.06003464,-0.07955052
1779583570273946285,A_+,0.06727569824943203,0.02298598624876532,1.8435214757115306,-1.5410210097558732,-0.1271472360077869,-0.26333527754090447,0.17467255153959252,0.0,0.0,0.0,0.0,0.0,0.0,-0.1701,-7.919099999999999,-5.1408,0.02587788,-1.06003464,-0.07955052
1779583570308958768,A_+,0.07114406475011492,0.02298598624876532,1.8435214757115306,-1.5410210097558732,-0.1271472360077869,-0.26333527754090447,0.17467255153959252,0.0,0.0,0.0,0.0,0.0,0.0,-0.17955,-7.919099999999999,-5.1597,0.04600512,-1.0734528,-0.07571676
1779583570308958768,A_+,0.07520759062481375,0.02298598624876532,1.8435214757115306,-1.5410210097558732,-0.1271472360077869,-0.26333527754090447,0.17467255153959252,0.0,0.0,0.0,0.0,0.0,0.0,-0.17955,-7.919099999999999,-5.1597,0.04600512,-1.0734528,-0.07571676
1779583570308958768,A_+,0.07910214187450038,0.02298598624876532,1.8435214757115306,-1.5410210097558732,-0.1271472360077869,-0.26333527754090447,0.17467255153959252,0.0,0.0,0.0,0.0,0.0,0.0,-0.17955,-7.919099999999999,-5.1597,0.04600512,-1.0734528,-0.07571676
1779583570343951225,A_+,0.08297947274968465,0.02298598624876532,1.8435214757115306,-1.5410210097558732,-0.1271472360077869,-0.26333527754090447,0.17467255153959252,0.0,0.0,0.0,0.0,0.0,0.0,-0.146475,-7.895474999999999,-5.0085,0.02779476,-1.0638684,-0.07763364
1779583570343951225,A_+,0.08704472662520857,0.02298598624876532,1.8435214757115306,-1.5410210097558732,-0.1271472360077869,-0.26333527754090447,0.17467255153959252,0.0,0.0,0.0,0.0,0.0,0.0,-0.146475,-7.895474999999999,-5.0085,0.02779476,-1.0638684,-0.07763364
1779583570343951225,A_+,0.09096869025006526,0.02298598624876532,1.8435214757115306,-1.5410210097558732,-0.1271472360077869,-0.26333527754090447,0.17467255153959252,0.0,0.0,0.0,0.0,0.0,0.0,-0.146475,-7.895474999999999,-5.0085,0.02779476,-1.0638684,-0.07763364
1779583570373944044,A_+,0.09482572874912876,0.02298598624876532,1.8435214757115306,-1.5410210097558732,-0.1271472360077869,-0.26333527754090447,0.17467255153959252,0.0,0.0,0.0,0.0,0.0,0.0,-0.1701,-7.9285499999999995,-5.126625,0.02587788,-1.0686605999999998,-0.08050896
1779583570373944044,A_+,0.0988866146244618,0.02298598624876532,1.8435214757115306,-1.5410210097558732,-0.1271472360077869,-0.26333527754090447,0.17467255153959252,0.0,0.0,0.0,0.0,0.0,0.0,-0.1701,-7.9285499999999995,-5.126625,0.02587788,-1.0686605999999998,-0.08050896
1779583570373944044,A_+,0.10278916987408593,0.02298598624876532,1.8435214757115306,-1.5410210097558732,-0.1271472360077869,-0.26333527754090447,0.17467255153959252,0.0,0.0,0.0,0.0,0.0,0.0,-0.1701,-7.9285499999999995,-5.126625,0.02587788,-1.0686605999999998,-0.08050896
1779583570403944253,A_+,0.1066567203752129,0.02298598624876532,1.8435214757115306,-1.5410210097558732,-0.1271472360077869,-0.26333527754090447,0.17467255153959252,0.0,0.0,0.0,0.0,0.0,0.0,-0.1701,-7.900199999999999,-5.126625,0.028753199999999996,-1.0705774799999999,-0.07955052
1779583570403944253,A_+,0.11074586662425645,0.02298598624876532,1.8435214757115306,-1.5410210097558732,-0.1271472360077869,-0.26333527754090447,0.17467255153959252,0.0,0.0,0.0,0.0,0.0,0.0,-0.1701,-7.900199999999999,-5.126625,0.028753199999999996,-1.0705774799999999,-0.07955052
1779583570403944253,A_+,0.1146583582490166,0.02298598624876532,1.8435214757115306,-1.5410210097558732,-0.1271472360077869,-0.26333527754090447,0.17467255153959252,0.0,0.0,0.0,0.0,0.0,0.0,-0.1701,-7.900199999999999,-5.126625,0.028753199999999996,-1.0705774799999999,-0.07955052
1779583570433949708,A_+,0.11854802512470997,0.02298598624876532,1.8435214757115306,-1.5410210097558732,-0.1271472360077869,-0.26333527754090447,0.17467255153959252,0.0,0.0,0.0,0.0,0.0,0.0,-0.127575,-7.9049249999999995,-5.1408,0.03450384,-1.0705774799999999,-0.07763364
1779583570433949708,A_+,0.12267833212536061,0.02298598624876532,1.8435214757115306,-1.5410210097558732,-0.1271472360077869,-0.26333527754090447,0.17467255153959252,0.0,0.0,0.0,0.0,0.0,0.0,-0.127575,-7.9049249999999995,-5.1408,0.03450384,-1.0705774799999999,-0.07763364
1779583570433949708,A_+,0.12658983937444646,0.02298598624876532,1.8435214757115306,-1.5410210097558732,-0.1271472360077869,-0.26333527754090447,0.17467255153959252,0.0,0.0,0.0,0.0,0.0,0.0,-0.127575,-7.9049249999999995,-5.1408,0.03450384,-1.0705774799999999,-0.07763364
1779583570468956947,A_+,0.13045418624915328,0.02298598624876532,1.8435214757115306,-1.5410210097558732,-0.1271472360077869,-0.26333527754090447,0.17467255153959252,0.0,0.0,0.0,0.0,0.0,0.0,-0.17955,-7.933274999999999,-5.11245,0.04025448,-1.0734528,-0.08530115999999999
1779583570468956947,A_+,0.13451925975004997,0.02298598624876532,1.8435214757115306,-1.5410210097558732,-0.1271472360077869,-0.26333527754090447,0.17467255153959252,0.0,0.0,0.0,0.0,0.0,0.0,-0.17955,-7.933274999999999,-5.11245,0.04025448,-1.0734528,-0.08530115999999999
1779583570468956947,A_+,0.13842489937496794,0.02298598624876532,1.8435214757115306,-1.5410210097558732,-0.1271472360077869,-0.26333527754090447,0.17467255153959252,0.0,0.0,0.0,0.0,0.0,0.0,-0.17955,-7.933274999999999,-5.11245,0.04025448,-1.0734528,-0.08530115999999999
1779583570498950481,A_+,0.1422866418747617,0.02298598624876532,1.8435214757115306,-1.5410210097558732,-0.1271472360077869,-0.26333527754090447,0.17467255153959252,0.0,0.0,0.0,0.0,0.0,0.0,-0.184275,-7.886024999999999,-5.145524999999999,0.03067008,-1.06770216,-0.08242584
1779583570498950481,A_+,0.14634974774980947,0.02298598624876532,1.8435214757115306,-1.5410210097558732,-0.1271472360077869,-0.26333527754090447,0.17467255153959252,0.0,0.0,0.0,0.0,0.0,0.0,-0.184275,-7.886024999999999,-5.145524999999999,0.03067008,-1.06770216,-0.08242584
1779583570498950481,A_+,0.1502617830001327,0.02298598624876532,1.8435214757115306,-1.5410210097558732,-0.1271472360077869,-0.26333527754090447,0.17467255153959252,0.0,0.0,0.0,0.0,0.0,0.0,-0.184275,-7.886024999999999,-5.145524999999999,0.03067008,-1.06770216,-0.08242584
1779583570528945446,A_+,0.15413972624946837,0.02298598624876532,1.8435214757115306,-1.5410210097558732,-0.1271472360077869,-0.26333527754090447,0.17467255153959252,0.0,0.0,0.0,0.0,0.0,0.0,-0.165375,-7.886024999999999,-5.088824999999999,0.028753199999999996,-1.0705774799999999,-0.08242584
1779583570528945446,A_+,0.15824363249930684,0.02298598624876532,1.8435214757115306,-1.5410210097558732,-0.1271472360077869,-0.26333527754090447,0.17467255153959252,0.0,0.0,0.0,0.0,0.0,0.0,-0.165375,-7.886024999999999,-5.088824999999999,0.028753199999999996,-1.0705774799999999,-0.08242584
1779583570528945446,A_+,0.16214929575016868,0.02298598624876532,1.8435214757115306,-1.5410210097558732,-0.1271472360077869,-0.26333527754090447,0.17467255153959252,0.0,0.0,0.0,0.0,0.0,0.0,-0.165375,-7.886024999999999,-5.088824999999999,0.028753199999999996,-1.0705774799999999,-0.08242584
1779583570563980102,A_+,0.16602224662528897,0.02298598624876532,1.8435214757115306,-1.5410210097558732,-0.1271472360077869,-0.26333527754090447,0.17467255153959252,0.0,0.0,0.0,0.0,0.0,0.0,-0.12285,-7.923825,-5.088824999999999,0.03067008,-1.0638684,-0.07188299999999999
1779583570563980102,A_+,0.1701613736240688,0.02298598624876532,1.8435214757115306,-1.5410210097558732,-0.1271472360077869,-0.26333527754090447,0.17467255153959252,0.0,0.0,0.0,0.0,0.0,0.0,-0.12285,-7.923825,-5.088824999999999,0.03067008,-1.0638684,-0.07188299999999999
1779583570563980102,A_+,0.17407589287404335,0.02298598624876532,1.8435214757115306,-1.5410210097558732,-0.1271472360077869,-0.26333527754090447,0.17467255153959252,0.0,0.0,0.0,0.0,0.0,0.0,-0.12285,-7.923825,-5.088824999999999,0.03067008,-1.0638684,-0.07188299999999999
1779583570593953371,A_+,0.17796443212455415,0.02298598624876532,1.8435214757115306,-1.5410210097558732,-0.1271472360077869,-0.26333527754090447,0.17467255153959252,0.0,0.0,0.0,0.0,0.0,0.0,-0.12285,-7.909649999999999,-5.1408,0.02204412,-1.0724943599999999,-0.0766752
1779583570593953371,A_+,0.1821316754999316,0.02298598624876532,1.8435214757115306,-1.5410210097558732,-0.1271472360077869,-0.26333527754090447,0.17467255153959252,0.0,0.0,0.0,0.0,0.0,0.0,-0.12285,-7.909649999999999,-5.1408,0.02204412,-1.0724943599999999,-0.0766752
1779583570593953371,A_+,0.18602129437476833,0.02298598624876532,1.8435214757115306,-1.5410210097558732,-0.1271472360077869,-0.26333527754090447,0.17467255153959252,0.0,0.0,0.0,0.0,0.0,0.0,-0.12285,-7.909649999999999,-5.1408,0.02204412,-1.0724943599999999,-0.0766752
1779583570628949880,A_+,0.18987148087535388,0.02298598624876532,1.8435214757115306,-1.5410210097558732,-0.1271472360077869,-0.26333527754090447,0.17467255153959252,0.0,0.0,0.0,0.0,0.0,0.0,-0.17482499999999998,-7.933274999999999,-5.154974999999999,0.03258696,-1.0724943599999999,-0.07859208
1779583570628949880,A_+,0.19392384674938512,0.02298598624876532,1.8435214757115306,-1.5410210097558732,-0.1271472360077869,-0.26333527754090447,0.17467255153959252,0.0,0.0,0.0,0.0,0.0,0.0,-0.17482499999999998,-7.933274999999999,-5.154974999999999,0.03258696,-1.0724943599999999,-0.07859208
1779583570628949880,A_+,0.19782520199942155,0.02298598624876532,1.8435214757115306,-1.5410210097558732,-0.1271472360077869,-0.26333527754090447,0.17467255153959252,0.0,0.0,0.0,0.0,0.0,0.0,-0.17482499999999998,-7.933274999999999,-5.154974999999999,0.03258696,-1.0724943599999999,-0.07859208
1779583570658952951,A_+,0.20168140049918293,0.02298598624876532,1.8435214757115306,-1.5410210097558732,-0.1271472360077869,-0.26333527754090447,0.17467255153959252,0.0,0.0,0.0,0.0,0.0,0.0,-0.20789999999999997,-7.914375,-5.136074999999999,0.03546228,-1.0590762,-0.08434272
1779583570658952951,A_+,0.205744926375246,0.02298598624876532,1.8435214757115306,-1.5410210097558732,-0.1271472360077869,-0.26333527754090447,0.17467255153959252,0.0,0.0,0.0,0.0,0.0,0.0,-0.20789999999999997,-7.914375,-5.136074999999999,0.03546228,-1.0590762,-0.08434272
1779583570658952951,A_+,0.2096422736240129,0.02298598624876532,1.8435214757115306,-1.5410210097558732,-0.1271472360077869,-0.26333527754090447,0.17467255153959252,0.0,0.0,0.0,0.0,0.0,0.0,-0.20789999999999997,-7.914375,-5.136074999999999,0.03546228,-1.0590762,-0.08434272
1779583570689010143,A_+,0.2135087561241562,0.02298598624876532,1.8435214757115306,-1.5410210097558732,-0.1271472360077869,-0.26333527754090447,0.17467255153959252,0.0,0.0,0.0,0.0,0.0,0.0,-0.20789999999999997,-7.900199999999999,-5.07465,0.028753199999999996,-1.06770216,-0.08530115999999999
1779583570689010143,A_+,0.21763405874935415,0.02298598624876532,1.8435214757115306,-1.5410210097558732,-0.1271472360077869,-0.26333527754090447,0.17467255153959252,0.0,0.0,0.0,0.0,0.0,0.0,-0.20789999999999997,-7.900199999999999,-5.07465,0.028753199999999996,-1.06770216,-0.08530115999999999
1779583570689010143,A_+,0.22154603437411424,0.02298598624876532,1.8435214757115306,-1.5410210097558732,-0.1271472360077869,-0.26333527754090447,0.17467255153959252,0.0,0.0,0.0,0.0,0.0,0.0,-0.20789999999999997,-7.900199999999999,-5.07465,0.028753199999999996,-1.06770216,-0.08530115999999999
1779583570723987817,A_+,0.2254169932498371,0.02298598624876532,1.8435214757115306,-1.5410210097558732,-0.1271472360077869,-0.26333527754090447,0.17467255153959252,0.0,0.0,0.0,0.0,0.0,0.0,-0.12285,-7.886024999999999,-5.107724999999999,0.028753199999999996,-1.0667437199999998,-0.0766752
1779583570723987817,A_+,0.22948546312409235,0.02298598624876532,1.8435214757115306,-1.5410210097558732,-0.1271472360077869,-0.26333527754090447,0.17467255153959252,0.0,0.0,0.0,0.0,0.0,0.0,-0.12285,-7.886024999999999,-5.107724999999999,0.028753199999999996,-1.0667437199999998,-0.0766752
1779583570723987817,A_+,0.23339039437450992,0.02298598624876532,1.8435214757115306,-1.5410210097558732,-0.1271472360077869,-0.26333527754090447,0.17467255153959252,0.0,0.0,0.0,0.0,0.0,0.0,-0.12285,-7.886024999999999,-5.107724999999999,0.028753199999999996,-1.0667437199999998,-0.0766752
1779583570753950357,A_+,0.23729208562508575,0.02298598624876532,1.8435214757115306,-1.5410210097558732,-0.1271472360077869,-0.26333527754090447,0.17467255153959252,0.0,0.0,0.0,0.0,0.0,0.0,-0.155925,-7.909649999999999,-5.13135,0.029711639999999997,-1.0590762,-0.07475832
1779583570753950357,A_+,0.241339699125092,0.02298598624876532,1.8435214757115306,-1.5410210097558732,-0.1271472360077869,-0.26333527754090447,0.17467255153959252,0.0,0.0,0.0,0.0,0.0,0.0,-0.155925,-7.909649999999999,-5.13135,0.029711639999999997,-1.0590762,-0.07475832
1779583570753950357,A_+,0.245240394375287,0.02298598624876532,1.8435214757115306,-1.5410210097558732,-0.1271472360077869,-0.26333527754090447,0.17467255153959252,0.0,0.0,0.0,0.0,0.0,0.0,-0.155925,-7.909649999999999,-5.13135,0.029711639999999997,-1.0590762,-0.07475832
1779583570783953905,A_+,0.24909324487498452,0.02298598624876532,1.8435214757115306,-1.5410210097558732,-0.1271472360077869,-0.26333527754090447,0.17467255153959252,0.0,0.0,0.0,0.0,0.0,0.0,-0.137025,-7.900199999999999,-5.098274999999999,0.03642072,-1.0705774799999999,-0.08338428
1779583570783953905,A_+,0.2531861831248534,0.02298598624876532,1.8435214757115306,-1.5410210097558732,-0.1271472360077869,-0.26333527754090447,0.17467255153959252,0.0,0.0,0.0,0.0,0.0,0.0,-0.137025,-7.900199999999999,-5.098274999999999,0.03642072,-1.0705774799999999,-0.08338428
1779583570783953905,A_+,0.2570919783743193,0.02298598624876532,1.8435214757115306,-1.5410210097558732,-0.1271472360077869,-0.26333527754090447,0.17467255153959252,0.0,0.0,0.0,0.0,0.0,0.0,-0.137025,-7.900199999999999,-5.098274999999999,0.03642072,-1.0705774799999999,-0.08338428
1779583570818951845,A_+,0.2609689372493449,0.02298598624876532,1.8435214757115306,-1.5410210097558732,-0.1271472360077869,-0.26333527754090447,0.17467255153959252,0.0,0.0,0.0,0.0,0.0,0.0,-0.16065,-7.919099999999999,-5.11245,0.03258696,-1.06961904,-0.07188299999999999
1779583570818951845,A_+,0.2651075722492351,0.02298598624876532,1.8435214757115306,-1.5410210097558732,-0.1271472360077869,-0.26333527754090447,0.17467255153959252,0.0,0.0,0.0,0.0,0.0,0.0,-0.16065,-7.919099999999999,-5.11245,0.03258696,-1.06961904,-0.07188299999999999
1779583570818951845,A_+,0.2690299878740916,0.02298598624876532,1.8435214757115306,-1.5410210097558732,-0.1271472360077869,-0.26333527754090447,0.17467255153959252,0.0,0.0,0.0,0.0,0.0,0.0,-0.16065,-7.919099999999999,-5.11245,0.03258696,-1.06961904,-0.07188299999999999
1779583570848952531,A_+,0.27290637074975166,0.02298598624876532,1.8435214757115306,-1.5410210097558732,-0.1271472360077869,-0.26333527754090447,0.17467255153959252,0.0,0.0,0.0,0.0,0.0,0.0,-0.17955,-7.867125,-5.1408,0.02683632,-1.0638684,-0.07571676
1779583570848952531,A_+,0.2769947009992393,0.02298598624876532,1.8435214757115306,-1.5410210097558732,-0.1271472360077869,-0.26333527754090447,0.17467255153959252,0.0,0.0,0.0,0.0,0.0,0.0,-0.17955,-7.867125,-5.1408,0.02683632,-1.0638684,-0.07571676
1779583570848952531,A_+,0.28090922024921383,0.02298598624876532,1.8435214757115306,-1.5410210097558732,-0.1271472360077869,-0.26333527754090447,0.17467255153959252,0.0,0.0,0.0,0.0,0.0,0.0,-0.17955,-7.867125,-5.1408,0.02683632,-1.0638684,-0.07571676
1779583570878953456,A_+,0.2847866711244933,0.02298598624876532,1.8435214757115306,-1.5410210097558732,-0.1271472360077869,-0.26333527754090447,0.17467255153959252,0.0,0.0,0.0,0.0,0.0,0.0,-0.1701,-7.895474999999999,-5.1219,0.03162852,-1.06961904,-0.06804924000000001
1779583570878953456,A_+,0.28893155812511395,0.02298598624876532,1.8435214757115306,-1.5410210097558732,-0.1271472360077869,-0.26333527754090447,0.17467255153959252,0.0,0.0,0.0,0.0,0.0,0.0,-0.1701,-7.895474999999999,-5.1219,0.03162852,-1.06961904,-0.06804924000000001
1779583570878953456,A_+,0.2928687221246946,0.02298598624876532,1.8435214757115306,-1.5410210097558732,-0.1271472360077869,-0.26333527754090447,0.17467255153959252,0.0,0.0,0.0,0.0,0.0,0.0,-0.1701,-7.895474999999999,-5.1219,0.03162852,-1.06961904,-0.06804924000000001
1779583570913954973,A_+,0.2967508769993401,0.02298598624876532,1.8435214757115306,-1.5410210097558732,-0.1271472360077869,-0.26333527754090447,0.17467255153959252,0.0,0.0,0.0,0.0,0.0,0.0,-0.1701,-7.8576749999999995,-5.1597,0.029711639999999997,-1.07536968,-0.08338428
1779583570913954973,A_+,0.30093666075026704,0.02298598624876532,1.8435214757115306,-1.5410210097558732,-0.1271472360077869,-0.26333527754090447,0.17467255153959252,0.0,0.0,0.0,0.0,0.0,0.0,-0.1701,-7.8576749999999995,-5.1597,0.029711639999999997,-1.07536968,-0.08338428
1779583570913954973,A_+,0.3049123811251775,0.02298598624876532,1.8435214757115306,-1.5410210097558732,-0.1271472360077869,-0.26333527754090447,0.17467255153959252,0.0,0.0,0.0,0.0,0.0,0.0,-0.1701,-7.8576749999999995,-5.1597,0.029711639999999997,-1.07536968,-0.08338428
1779583570928964853,A_+,0.30882770475000143,0.02298598624876532,1.8435214757115306,-1.5410210097558732,-0.1271472360077869,-0.26333527754090447,0.17467255153959252,0.0,0.0,0.0,0.0,0.0,0.0,-0.189,-7.876575,-5.136074999999999,0.02491944,-1.06961904,-0.08242584
1779583570928964853,A_+,0.3131098616249801,0.02298598624876532,1.8435214757115306,-1.5410210097558732,-0.1271472360077869,-0.26333527754090447,0.17467255153959252,0.0,0.0,0.0,0.0,0.0,0.0,-0.189,-7.876575,-5.136074999999999,0.02491944,-1.06961904,-0.08242584
1779583570928964853,A_+,0.3170886059992881,0.02298598624876532,1.8435214757115306,-1.5410210097558732,-0.1271472360077869,-0.26333527754090447,0.17467255153959252,0.0,0.0,0.0,0.0,0.0,0.0,-0.189,-7.876575,-5.136074999999999,0.02491944,-1.06961904,-0.08242584
1779583570963958978,A_+,0.321008081625223,0.02298598624876532,1.8435214757115306,-1.5410210097558732,-0.1271472360077869,-0.26333527754090447,0.17467255153959252,0.0,0.0,0.0,0.0,0.0,0.0,-0.155925,-7.895474999999999,-5.15025,0.028753199999999996,-1.0724943599999999,-0.07955052
1779583570963958978,A_+,0.32527029449965994,0.02298598624876532,1.8435214757115306,-1.5410210097558732,-0.1271472360077869,-0.26333527754090447,0.17467255153959252,0.0,0.0,0.0,0.0,0.0,0.0,-0.155925,-7.895474999999999,-5.15025,0.028753199999999996,-1.0724943599999999,-0.07955052
1779583570963958978,A_+,0.3292485588749514,0.02298598624876532,1.8435214757115306,-1.5410210097558732,-0.1271472360077869,-0.26333527754090447,0.17467255153959252,0.0,0.0,0.0,0.0,0.0,0.0,-0.155925,-7.895474999999999,-5.15025,0.028753199999999996,-1.0724943599999999,-0.07955052
1779583571008941173,A_+,0.3331529021247661,0.02298598624876532,1.8435214757115306,-1.5410210097558732,-0.1271472360077869,-0.26333527754090447,0.17467255153959252,0.0,0.0,0.0,0.0,0.0,0.0,-0.1512,-7.909649999999999,-5.11245,0.03929604,-1.0686605999999998,-0.07859208
1779583571008941173,A_+,0.3374155706246711,0.02298598624876532,1.8435214757115306,-1.5410210097558732,-0.1271472360077869,-0.26333527754090447,0.17467255153959252,0.0,0.0,0.0,0.0,0.0,0.0,-0.1512,-7.909649999999999,-5.11245,0.03929604,-1.0686605999999998,-0.07859208
1779583571008941173,A_+,0.3413903789996766,0.02298598624876532,1.8435214757115306,-1.5410210097558732,-0.1271472360077869,-0.26333527754090447,0.17467255153959252,0.0,0.0,0.0,0.0,0.0,0.0,-0.1512,-7.909649999999999,-5.11245,0.03929604,-1.0686605999999998,-0.07859208
1779583571043946504,A_+,0.34529727824974543,0.02298598624876532,1.8435214757115306,-1.5410210097558732,-0.1271472360077869,-0.26333527754090447,0.17467255153959252,0.0,0.0,0.0,0.0,0.0,0.0,-0.099225,-7.900199999999999,-5.11245,0.02491944,-1.0744112399999999,-0.07475832
1779583571043946504,A_+,0.3495708667501276,0.02298598624876532,1.8435214757115306,-1.5410210097558732,-0.1271472360077869,-0.26333527754090447,0.17467255153959252,0.0,0.0,0.0,0.0,0.0,0.0,-0.099225,-7.900199999999999,-5.11245,0.02491944,-1.0744112399999999,-0.07475832
1779583571043946504,A_+,0.3535579391250394,0.02298598624876532,1.8435214757115306,-1.5410210097558732,-0.1271472360077869,-0.26333527754090447,0.17467255153959252,0.0,0.0,0.0,0.0,0.0,0.0,-0.099225,-7.900199999999999,-5.11245,0.02491944,-1.0744112399999999,-0.07475832
1779583571073946475,A_+,0.35756107987435826,0.02298598624876532,1.8435214757115306,-1.5410210097558732,-0.1271472360077869,-0.26333527754090447,0.17467255153959252,0.0,0.0,0.0,0.0,0.0,0.0,-0.16065,-7.937999999999999,-5.1219,0.03067008,-1.07153592,-0.08721804
1779583571073946475,A_+,0.3618576851245052,0.02298598624876532,1.8435214757115306,-1.5410210097558732,-0.1271472360077869,-0.26333527754090447,0.17467255153959252,0.0,0.0,0.0,0.0,0.0,0.0,-0.16065,-7.937999999999999,-5.1219,0.03067008,-1.07153592,-0.08721804
1779583571073946475,A_+,0.365850757500084,0.02298598624876532,1.8435214757115306,-1.5410210097558732,-0.1271472360077869,-0.26333527754090447,0.17467255153959252,0.0,0.0,0.0,0.0,0.0,0.0,-0.16065,-7.937999999999999,-5.1219,0.03067008,-1.07153592,-0.08721804
1779583571108944892,A_+,0.3697698607493294,0.02298598624876532,1.8435214757115306,-1.5410210097558732,-0.1271472360077869,-0.26333527754090447,0.17467255153959252,0.0,0.0,0.0,0.0,0.0,0.0,-0.17955,-7.937999999999999,-5.1408,0.029711639999999997,-1.0705774799999999,-0.08050896
1779583571108944892,A_+,0.3742819533740658,0.02298598624876532,1.8435214757115306,-1.5410210097558732,-0.1271472360077869,-0.26333527754090447,0.17467255153959252,0.0,0.0,0.0,0.0,0.0,0.0,-0.17955,-7.937999999999999,-5.1408,0.029711639999999997,-1.0705774799999999,-0.08050896
1779583571108944892,A_+,0.3782615853747302,0.02298598624876532,1.8435214757115306,-1.5410210097558732,-0.1271472360077869,-0.26333527754090447,0.17467255153959252,0.0,0.0,0.0,0.0,0.0,0.0,-0.17955,-7.937999999999999,-5.1408,0.029711639999999997,-1.0705774799999999,-0.08050896
1779583571139073610,A_+,0.3821852729997772,0.02298598624876532,1.8435214757115306,-1.5410210097558732,-0.1271472360077869,-0.26333527754090447,0.17467255153959252,0.0,0.0,0.0,0.0,0.0,0.0,-0.222075,-7.909649999999999,-5.107724999999999,0.028753199999999996,-1.0744112399999999,-0.07188299999999999
1779583571139073610,A_+,0.38658547574914337,0.02298598624876532,1.8435214757115306,-1.5410210097558732,-0.1271472360077869,-0.26333527754090447,0.17467255153959252,0.0,0.0,0.0,0.0,0.0,0.0,-0.222075,-7.909649999999999,-5.107724999999999,0.028753199999999996,-1.0744112399999999,-0.07188299999999999
1779583571139073610,A_+,0.39055349174986986,0.02298598624876532,1.8435214757115306,-1.5410210097558732,-0.1271472360077869,-0.26333527754090447,0.17467255153959252,0.0,0.0,0.0,0.0,0.0,0.0,-0.222075,-7.909649999999999,-5.107724999999999,0.028753199999999996,-1.0744112399999999,-0.07188299999999999
1779583571173950195,A_+,0.39444894262442176,0.02298598624876532,1.8435214757115306,-1.5410210097558732,-0.1271472360077869,-0.26333527754090447,0.17467255153959252,0.0,0.0,0.0,0.0,0.0,0.0,-0.16065,-7.909649999999999,-5.098274999999999,0.02683632,-1.06770216,-0.07475832
1779583571173950195,A_+,0.39874493587421966,0.02298598624876532,1.8435214757115306,-1.5410210097558732,-0.1271472360077869,-0.26333527754090447,0.17467255153959252,0.0,0.0,0.0,0.0,0.0,0.0,-0.16065,-7.909649999999999,-5.098274999999999,0.02683632,-1.06770216,-0.07475832
1779583571173950195,A_+,0.4027659446242069,0.02298598624876532,1.8435214757115306,-1.5410210097558732,-0.1271472360077869,-0.26333527754090447,0.17467255153959252,0.0,0.0,0.0,0.0,0.0,0.0,-0.16065,-7.909649999999999,-5.098274999999999,0.02683632,-1.06770216,-0.07475832
1779583571203970670,A_+,0.406674403874149,0.02298598624876532,1.8435214757115306,-1.5410210097558732,-0.1271472360077869,-0.26333527754090447,0.17467255153959252,0.0,0.0,0.0,0.0,0.0,0.0,-0.155925,-7.900199999999999,-5.136074999999999,0.02491944,-1.0763281199999999,-0.07859208
1779583571203970670,A_+,0.41113607174975186,0.02298598624876532,1.8435214757115306,-1.5410210097558732,-0.1271472360077869,-0.26333527754090447,0.17467255153959252,0.0,0.0,0.0,0.0,0.0,0.0,-0.155925,-7.900199999999999,-5.136074999999999,0.02491944,-1.0763281199999999,-0.07859208
1779583571203970670,A_+,0.4151077357500981,0.02298598624876532,1.8435214757115306,-1.5410210097558732,-0.1271472360077869,-0.26333527754090447,0.17467255153959252,0.0,0.0,0.0,0.0,0.0,0.0,-0.155925,-7.900199999999999,-5.136074999999999,0.02491944,-1.0763281199999999,-0.07859208
1779583571238947153,A_+,0.4190340633745109,0.02298598624876532,1.8435214757115306,-1.5410210097558732,-0.1271472360077869,-0.26333527754090447,0.17467255153959252,0.0,0.0,0.0,0.0,0.0,0.0,-0.16065,-7.933274999999999,-5.107724999999999,0.0335454,-1.06482684,-0.0766752
1779583571238947153,A_+,0.42329411587479626,0.02298598624876532,1.8435214757115306,-1.5410210097558732,-0.1271472360077869,-0.26333527754090447,0.17467255153959252,0.0,0.0,0.0,0.0,0.0,0.0,-0.16065,-7.933274999999999,-5.107724999999999,0.0335454,-1.06482684,-0.0766752
1779583571238947153,A_+,0.42728969624977253,0.02298598624876532,1.8435214757115306,-1.5410210097558732,-0.1271472360077869,-0.26333527754090447,0.17467255153959252,0.0,0.0,0.0,0.0,0.0,0.0,-0.16065,-7.933274999999999,-5.107724999999999,0.0335454,-1.06482684,-0.0766752
1779583571268950939,A_+,0.4312050194994299,0.02298598624876532,1.8435214757115306,-1.5410210097558732,-0.1271472360077869,-0.26333527754090447,0.17467255153959252,0.0,0.0,0.0,0.0,0.0,0.0,-0.16065,-7.895474999999999,-5.098274999999999,0.03067008,-1.06961904,-0.08242584
1779583571268950939,A_+,0.43552538512449246,0.02298598624876532,1.8435214757115306,-1.5410210097558732,-0.1271472360077869,-0.26333527754090447,0.17467255153959252,0.0,0.0,0.0,0.0,0.0,0.0,-0.16065,-7.895474999999999,-5.098274999999999,0.03067008,-1.06961904,-0.08242584
1779583571268950939,A_+,0.4395462858742576,0.02298598624876532,1.8435214757115306,-1.5410210097558732,-0.1271472360077869,-0.26333527754090447,0.17467255153959252,0.0,0.0,0.0,0.0,0.0,0.0,-0.16065,-7.895474999999999,-5.098274999999999,0.03067008,-1.06961904,-0.08242584
1779583571303962230,A_+,0.4434674654999071,0.02298598624876532,1.8435214757115306,-1.5410210097558732,-0.1271472360077869,-0.26333527754090447,0.17467255153959252,0.0,0.0,0.0,0.0,0.0,0.0,-0.17955,-7.919099999999999,-5.126625,0.03067008,-1.06961904,-0.07284144
1779583571303962230,A_+,0.4479290009990109,0.02298598624876532,1.8435214757115306,-1.5410210097558732,-0.1271472360077869,-0.26333527754090447,0.17467255153959252,0.0,0.0,0.0,0.0,0.0,0.0,-0.17955,-7.919099999999999,-5.126625,0.03067008,-1.06961904,-0.07284144
1779583571303962230,A_+,0.45191163337449325,0.02298598624876532,1.8435214757115306,-1.5410210097558732,-0.1271472360077869,-0.26333527754090447,0.17467255153959252,0.0,0.0,0.0,0.0,0.0,0.0,-0.17955,-7.919099999999999,-5.126625,0.03067008,-1.06961904,-0.07284144
1779583571338965892,A_+,0.45583792499928677,0.02298598624876532,1.8435214757115306,-1.5410210097558732,-0.1271472360077869,-0.26333527754090447,0.17467255153959252,0.0,0.0,0.0,0.0,0.0,0.0,-0.137025,-7.876575,-5.1408,0.04408824,-1.0686605999999998,-0.07859208
1779583571338965892,A_+,0.46102983937453246,0.02298598624876532,1.8435214757115306,-1.5410210097558732,-0.1271472360077869,-0.26333527754090447,0.17467255153959252,0.0,0.0,0.0,0.0,0.0,0.0,-0.137025,-7.876575,-5.1408,0.04408824,-1.0686605999999998,-0.07859208
1779583571338965892,A_+,0.46495940700015126,0.02298598624876532,1.8435214757115306,-1.5410210097558732,-0.1271472360077869,-0.26333527754090447,0.17467255153959252,0.0,0.0,0.0,0.0,0.0,0.0,-0.137025,-7.876575,-5.1408,0.04408824,-1.0686605999999998,-0.07859208
1779583571368945598,A_+,0.4688407458752408,0.02298598624876532,1.8435214757115306,-1.5410210097558732,-0.1271472360077869,-0.26333527754090447,0.17467255153959252,0.0,0.0,0.0,0.0,0.0,0.0,-0.19845,-7.914375,-5.2164,0.02491944,-1.0705774799999999,-0.08242584
1779583571368945598,A_+,0.47302018124992173,0.02298598624876532,1.8435214757115306,-1.5410210097558732,-0.1271472360077869,-0.26333527754090447,0.17467255153959252,0.0,0.0,0.0,0.0,0.0,0.0,-0.19845,-7.914375,-5.2164,0.02491944,-1.0705774799999999,-0.08242584
1779583571368945598,A_+,0.47691257212409255,0.02298598624876532,1.8435214757115306,-1.5410210097558732,-0.1271472360077869,-0.26333527754090447,0.17467255153959252,0.0,0.0,0.0,0.0,0.0,0.0,-0.19845,-7.914375,-5.2164,0.02491944,-1.0705774799999999,-0.08242584
1779583571403961420,A_+,0.48088178812440674,0.02298598624876532,1.8435214757115306,-1.5410210097558732,-0.1271472360077869,-0.26333527754090447,0.17467255153959252,0.0,0.0,0.0,0.0,0.0,0.0,-0.17482499999999998,-7.9758,-5.117175,0.02779476,-1.07153592,-0.08434272
1779583571403961420,A_+,0.4850921362499321,0.02298598624876532,1.8435214757115306,-1.5410210097558732,-0.1271472360077869,-0.26333527754090447,0.17467255153959252,0.0,0.0,0.0,0.0,0.0,0.0,-0.17482499999999998,-7.9758,-5.117175,0.02779476,-1.07153592,-0.08434272
1779583571403961420,A_+,0.4890413238740621,0.02298598624876532,1.8435214757115306,-1.5410210097558732,-0.1271472360077869,-0.26333527754090447,0.17467255153959252,0.0,0.0,0.0,0.0,0.0,0.0,-0.17482499999999998,-7.9758,-5.117175,0.02779476,-1.07153592,-0.08434272
1779583571433962345,A_+,0.4929472391249874,0.02298598624876532,1.8435214757115306,-1.5410210097558732,-0.1271472360077869,-0.26333527754090447,0.17467255153959252,0.0,0.0,0.0,0.0,0.0,0.0,-0.12285,-7.9049249999999995,-5.117175,0.03162852,-1.0724943599999999,-0.08434272
1779583571433962345,A_+,0.49717334325032425,0.02298598624876532,1.8435214757115306,-1.5410210097558732,-0.1271472360077869,-0.26333527754090447,0.17467255153959252,0.0,0.0,0.0,0.0,0.0,0.0,-0.12285,-7.9049249999999995,-5.117175,0.03162852,-1.0724943599999999,-0.08434272
1779583571433962345,A_+,0.5011367752490514,0.02298598624876532,1.8435214757115306,-1.5410210097558732,-0.1271472360077869,-0.26333527754090447,0.17467255153959252,0.0,0.0,0.0,0.0,0.0,0.0,-0.12285,-7.9049249999999995,-5.117175,0.03162852,-1.0724943599999999,-0.08434272
1779583571468955039,A_+,0.5050356341243969,0.02298598624876532,1.8435214757115306,-1.5410210097558732,-0.1271472360077869,-0.26333527754090447,0.17467255153959252,0.0,0.0,0.0,0.0,0.0,0.0,-0.118125,-7.914375,-5.13135,0.03642072,-1.0744112399999999,-0.08146740000000001
1779583571468955039,A_+,0.5093398113749572,0.02298598624876532,1.8435214757115306,-1.5410210097558732,-0.1271472360077869,-0.26333527754090447,0.17467255153959252,0.0,0.0,0.0,0.0,0.0,0.0,-0.118125,-7.914375,-5.13135,0.03642072,-1.0744112399999999,-0.08146740000000001
1779583571468955039,A_+,0.5133845808750266,0.02298598624876532,1.8435214757115306,-1.5410210097558732,-0.1271472360077869,-0.26333527754090447,0.17467255153959252,0.0,0.0,0.0,0.0,0.0,0.0,-0.118125,-7.914375,-5.13135,0.03642072,-1.0744112399999999,-0.08146740000000001
1779583571498950242,A_+,0.517262799375203,0.02298598624876532,1.8435214757115306,-1.5410210097558732,-0.1271472360077869,-0.26333527754090447,0.17467255153959252,0.0,0.0,0.0,0.0,0.0,0.0,-0.137025,-7.909649999999999,-5.1408,0.03546228,-1.0667437199999998,-0.07859208
1779583571498950242,A_+,0.5213437012503164,0.02298598624876532,1.8435214757115306,-1.5410210097558732,-0.1271472360077869,-0.26333527754090447,0.17467255153959252,0.0,0.0,0.0,0.0,0.0,0.0,-0.137025,-7.909649999999999,-5.1408,0.03546228,-1.0667437199999998,-0.07859208
1779583571498950242,A_+,0.5252482244995917,0.02298598624876532,1.8435214757115306,-1.5410210097558732,-0.1271472360077869,-0.26333527754090447,0.17467255153959252,0.0,0.0,0.0,0.0,0.0,0.0,-0.137025,-7.909649999999999,-5.1408,0.03546228,-1.0667437199999998,-0.07859208
1779583571528950214,A_+,0.5291160149995449,0.02298598624876532,1.8435214757115306,-1.5410210097558732,-0.1271472360077869,-0.26333527754090447,0.17467255153959252,0.0,0.0,0.0,0.0,0.0,0.0,-0.165375,-7.895474999999999,-5.1597,0.028753199999999996,-1.06770216,-0.07475832
1779583571528950214,A_+,0.5331829724996169,0.02298598624876532,1.8435214757115306,-1.5410210097558732,-0.1271472360077869,-0.26333527754090447,0.17467255153959252,0.0,0.0,0.0,0.0,0.0,0.0,-0.165375,-7.895474999999999,-5.1597,0.028753199999999996,-1.06770216,-0.07475832
1779583571528950214,A_+,0.537100864124568,0.02298598624876532,1.8435214757115306,-1.5410210097558732,-0.1271472360077869,-0.26333527754090447,0.17467255153959252,0.0,0.0,0.0,0.0,0.0,0.0,-0.165375,-7.895474999999999,-5.1597,0.028753199999999996,-1.06770216,-0.07475832
1779583571563966512,A_+,0.5409759626249979,0.02298598624876532,1.8435214757115306,-1.5410210097558732,-0.1271472360077869,-0.26333527754090447,0.17467255153959252,0.0,0.0,0.0,0.0,0.0,0.0,-0.17482499999999998,-7.909649999999999,-5.154974999999999,0.02683632,-1.0686605999999998,-0.07188299999999999
1779583571563966512,A_+,0.5452904122498694,0.02298598624876532,1.8435214757115306,-1.5410210097558732,-0.1271472360077869,-0.26333527754090447,0.17467255153959252,0.0,0.0,0.0,0.0,0.0,0.0,-0.17482499999999998,-7.909649999999999,-5.154974999999999,0.02683632,-1.0686605999999998,-0.07188299999999999
1779583571563966512,A_+,0.54929891699976,0.02298598624876532,1.8435214757115306,-1.5410210097558732,-0.1271472360077869,-0.26333527754090447,0.17467255153959252,0.0,0.0,0.0,0.0,0.0,0.0,-0.17482499999999998,-7.909649999999999,-5.154974999999999,0.02683632,-1.0686605999999998,-0.07188299999999999
1779583571593953847,A_+,0.5531771714995557,0.02298598624876532,1.8435214757115306,-1.5410210097558732,-0.1271472360077869,-0.26333527754090447,0.17467255153959252,0.0,0.0,0.0,0.0,0.0,0.0,-0.146475,-7.9521749999999995,-5.145524999999999,0.03546228,-1.0705774799999999,-0.0766752
1779583571593953847,A_+,0.5573385585003052,0.02298598624876532,1.8435214757115306,-1.5410210097558732,-0.1271472360077869,-0.26333527754090447,0.17467255153959252,0.0,0.0,0.0,0.0,0.0,0.0,-0.146475,-7.9521749999999995,-5.145524999999999,0.03546228,-1.0705774799999999,-0.0766752
1779583571593953847,A_+,0.5612759744999494,0.02298598624876532,1.8435214757115306,-1.5410210097558732,-0.1271472360077869,-0.26333527754090447,0.17467255153959252,0.0,0.0,0.0,0.0,0.0,0.0,-0.146475,-7.9521749999999995,-5.145524999999999,0.03546228,-1.0705774799999999,-0.0766752
1779583571628966093,A_+,0.5651686773749134,0.02298598624876532,1.8435214757115306,-1.5410210097558732,-0.1271472360077869,-0.26333527754090447,0.17467255153959252,0.0,0.0,0.0,0.0,0.0,0.0,-0.155925,-7.914375,-5.107724999999999,0.02108568,-1.0734528,-0.07379988
1779583571628966093,A_+,0.5694036014997437,0.02298598624876532,1.8435214757115306,-1.5410210097558732,-0.1271472360077869,-0.26333527754090447,0.17467255153959252,0.0,0.0,0.0,0.0,0.0,0.0,-0.155925,-7.914375,-5.107724999999999,0.02108568,-1.0734528,-0.07379988
1779583571628966093,A_+,0.5733671054990737,0.02298598624876532,1.8435214757115306,-1.5410210097558732,-0.1271472360077869,-0.26333527754090447,0.17467255153959252,0.0,0.0,0.0,0.0,0.0,0.0,-0.155925,-7.914375,-5.107724999999999,0.02108568,-1.0734528,-0.07379988
1779583571658954143,A_+,0.5772624483747677,0.02298598624876532,1.8435214757115306,-1.5410210097558732,-0.1271472360077869,-0.26333527754090447,0.17467255153959252,0.0,0.0,0.0,0.0,0.0,0.0,-0.1512,-7.876575,-5.0841,0.03162852,-1.0686605999999998,-0.08146740000000001
1779583571658954143,A_+,0.5814962084996296,0.02298598624876532,1.8435214757115306,-1.5410210097558732,-0.1271472360077869,-0.26333527754090447,0.17467255153959252,0.0,0.0,0.0,0.0,0.0,0.0,-0.1512,-7.876575,-5.0841,0.03162852,-1.0686605999999998,-0.08146740000000001
1779583571658954143,A_+,0.5854928332496456,0.02298598624876532,1.8435214757115306,-1.5410210097558732,-0.1271472360077869,-0.26333527754090447,0.17467255153959252,0.0,0.0,0.0,0.0,0.0,0.0,-0.1512,-7.876575,-5.0841,0.03162852,-1.0686605999999998,-0.08146740000000001
1779583571694016933,A_+,0.5894002484997145,0.02298598624876532,1.8435214757115306,-1.5410210097558732,-0.1271472360077869,-0.26333527754090447,0.17467255153959252,0.0,0.0,0.0,0.0,0.0,0.0,-0.14175,-7.933274999999999,-5.1219,0.043129799999999996,-1.06961904,-0.09392712
1779583571694016933,A_+,0.5936095282490896,0.02298598624876532,1.8435214757115306,-1.5410210097558732,-0.1271472360077869,-0.26333527754090447,0.17467255153959252,0.0,0.0,0.0,0.0,0.0,0.0,-0.14175,-7.933274999999999,-5.1219,0.043129799999999996,-1.06961904,-0.09392712
1779583571694016933,A_+,0.59758089224988,0.02298598624876532,1.8435214757115306,-1.5410210097558732,-0.1271472360077869,-0.26333527754090447,0.17467255153959252,0.0,0.0,0.0,0.0,0.0,0.0,-0.14175,-7.933274999999999,-5.1219,0.043129799999999996,-1.06961904,-0.09392712
1779583571723987340,A_+,0.6015595766248225,0.02298598624876532,1.8435214757115306,-1.5410210097558732,-0.1271472360077869,-0.26333527754090447,0.17467255153959252,0.0,0.0,0.0,0.0,0.0,0.0,-0.155925,-7.914375,-5.145524999999999,0.03067008,-1.0724943599999999,-0.08050896
1779583571723987340,A_+,0.6058346774993879,0.02298598624876532,1.8435214757115306,-1.5410210097558732,-0.1271472360077869,-0.26333527754090447,0.17467255153959252,0.0,0.0,0.0,0.0,0.0,0.0,-0.155925,-7.914375,-5.145524999999999,0.03067008,-1.0724943599999999,-0.08050896
1779583571723987340,A_+,0.6098090654995758,0.02298598624876532,1.8435214757115306,-1.5410210097558732,-0.1271472360077869,-0.26333527754090447,0.17467255153959252,0.0,0.0,0.0,0.0,0.0,0.0,-0.155925,-7.914375,-5.145524999999999,0.03067008,-1.0724943599999999,-0.08050896
1779583571758979082,A_+,0.6137098207491363,0.02298598624876532,1.8435214757115306,-1.5410210097558732,-0.1271472360077869,-0.26333527754090447,0.17467255153959252,0.0,0.0,0.0,0.0,0.0,0.0,-0.17482499999999998,-7.9049249999999995,-5.126625,0.03067008,-1.0724943599999999,-0.07475832
1779583571758979082,A_+,0.6179687572503099,0.02298598624876532,1.8435214757115306,-1.5410210097558732,-0.1271472360077869,-0.26333527754090447,0.17467255153959252,0.0,0.0,0.0,0.0,0.0,0.0,-0.17482499999999998,-7.9049249999999995,-5.126625,0.03067008,-1.0724943599999999,-0.07475832
1779583571758979082,A_+,0.6219060048751999,0.02298598624876532,1.8435214757115306,-1.5410210097558732,-0.1271472360077869,-0.26333527754090447,0.17467255153959252,0.0,0.0,0.0,0.0,0.0,0.0,-0.17482499999999998,-7.9049249999999995,-5.126625,0.03067008,-1.0724943599999999,-0.07475832
1779583571788970232,A_+,0.6257715993751845,0.02298598624876532,1.8435214757115306,-1.5410210097558732,-0.1271472360077869,-0.26333527754090447,0.17467255153959252,0.0,0.0,0.0,0.0,0.0,0.0,-0.16065,-7.942724999999999,-5.13135,0.03546228,-1.078245,-0.07475832
1779583571788970232,A_+,0.6299482987501506,0.02298598624876532,1.8435214757115306,-1.5410210097558732,-0.1271472360077869,-0.26333527754090447,0.17467255153959252,0.0,0.0,0.0,0.0,0.0,0.0,-0.16065,-7.942724999999999,-5.13135,0.03546228,-1.078245,-0.07475832
1779583571788970232,A_+,0.6338892783751362,0.02298598624876532,1.8435214757115306,-1.5410210097558732,-0.1271472360077869,-0.26333527754090447,0.17467255153959252,0.0,0.0,0.0,0.0,0.0,0.0,-0.16065,-7.942724999999999,-5.13135,0.03546228,-1.078245,-0.07475832
1779583571823973417,A_+,0.637778909249846,0.02298598624876532,1.8435214757115306,-1.5410210097558732,-0.1271472360077869,-0.26333527754090447,0.17467255153959252,0.0,0.0,0.0,0.0,0.0,0.0,-0.17955,-7.933274999999999,-5.117175,0.03258696,-1.0667437199999998,-0.08242584
1779583571823973417,A_+,0.6419705490002343,0.02298598624876532,1.8435214757115306,-1.5410210097558732,-0.1271472360077869,-0.26333527754090447,0.17467255153959252,0.0,0.0,0.0,0.0,0.0,0.0,-0.17955,-7.933274999999999,-5.117175,0.03258696,-1.0667437199999998,-0.08242584
1779583571823973417,A_+,0.6459099926250929,0.02298598624876532,1.8435214757115306,-1.5410210097558732,-0.1271472360077869,-0.26333527754090447,0.17467255153959252,0.0,0.0,0.0,0.0,0.0,0.0,-0.17955,-7.933274999999999,-5.117175,0.03258696,-1.0667437199999998,-0.08242584
1779583571853956460,A_+,0.6497762111252996,0.02298598624876532,1.8435214757115306,-1.5410210097558732,-0.1271472360077869,-0.26333527754090447,0.17467255153959252,0.0,0.0,0.0,0.0,0.0,0.0,-0.203175,-7.848224999999999,-5.136074999999999,0.03450384,-1.0705774799999999,-0.08242584
1779583571853956460,A_+,0.653961010499188,0.02298598624876532,1.8435214757115306,-1.5410210097558732,-0.1271472360077869,-0.26333527754090447,0.17467255153959252,0.0,0.0,0.0,0.0,0.0,0.0,-0.203175,-7.848224999999999,-5.136074999999999,0.03450384,-1.0705774799999999,-0.08242584
1779583571853956460,A_+,0.6578969861252517,0.02298598624876532,1.8435214757115306,-1.5410210097558732,-0.1271472360077869,-0.26333527754090447,0.17467255153959252,0.0,0.0,0.0,0.0,0.0,0.0,-0.203175,-7.848224999999999,-5.136074999999999,0.03450384,-1.0705774799999999,-0.08242584
1779583571883961200,A_+,0.6618015693752568,0.02298598624876532,1.8435214757115306,-1.5410210097558732,-0.1271472360077869,-0.26333527754090447,0.17467255153959252,0.0,0.0,0.0,0.0,0.0,0.0,-0.155925,-7.914375,-5.117175,0.0191688,-1.0667437199999998,-0.07379988
1779583571883961200,A_+,0.665968440375309,0.02298598624876532,1.8435214757115306,-1.5410210097558732,-0.1271472360077869,-0.26333527754090447,0.17467255153959252,0.0,0.0,0.0,0.0,0.0,0.0,-0.155925,-7.914375,-5.117175,0.0191688,-1.0667437199999998,-0.07379988
1779583571883961200,A_+,0.66987171562414,0.02298598624876532,1.8435214757115306,-1.5410210097558732,-0.1271472360077869,-0.26333527754090447,0.17467255153959252,0.0,0.0,0.0,0.0,0.0,0.0,-0.155925,-7.914375,-5.117175,0.0191688,-1.0667437199999998,-0.07379988
1779583571918959856,A_+,0.6737354021252031,0.02298598624876532,1.8435214757115306,-1.5410210097558732,-0.1271472360077869,-0.26333527754090447,0.17467255153959252,0.0,0.0,0.0,0.0,0.0,0.0,-0.203175,-7.937999999999999,-5.09355,0.029711639999999997,-1.0686605999999998,-0.08338428
1779583571918959856,A_+,0.6777845396240991,0.02298598624876532,1.8435214757115306,-1.5410210097558732,-0.1271472360077869,-0.26333527754090447,0.17467255153959252,0.0,0.0,0.0,0.0,0.0,0.0,-0.203175,-7.937999999999999,-5.09355,0.029711639999999997,-1.0686605999999998,-0.08338428
1779583571918959856,A_+,0.6816819225000472,0.02298598624876532,1.8435214757115306,-1.5410210097558732,-0.1271472360077869,-0.26333527754090447,0.17467255153959252,0.0,0.0,0.0,0.0,0.0,0.0,-0.203175,-7.937999999999999,-5.09355,0.029711639999999997,-1.0686605999999998,-0.08338428
1779583571948967933,A_+,0.6855522329992709,0.02298598624876532,1.8435214757115306,-1.5410210097558732,-0.1271472360077869,-0.26333527754090447,0.17467255153959252,0.0,0.0,0.0,0.0,0.0,0.0,-0.137025,-7.890749999999999,-5.1408,0.03546228,-1.0686605999999998,-0.07379988
1779583571948967933,A_+,0.6896145828741282,0.02298598624876532,1.8435214757115306,-1.5410210097558732,-0.1271472360077869,-0.26333527754090447,0.17467255153959252,0.0,0.0,0.0,0.0,0.0,0.0,-0.137025,-7.890749999999999,-5.1408,0.03546228,-1.0686605999999998,-0.07379988
1779583571948967933,A_+,0.6935271581241977,0.02298598624876532,1.8435214757115306,-1.5410210097558732,-0.1271472360077869,-0.26333527754090447,0.17467255153959252,0.0,0.0,0.0,0.0,0.0,0.0,-0.137025,-7.890749999999999,-5.1408,0.03546228,-1.0686605999999998,-0.07379988
1779583571978955984,A_+,0.6973928486245313,0.02298598624876532,1.8435214757115306,-1.5410210097558732,-0.1271472360077869,-0.26333527754090447,0.17467255153959252,0.0,0.0,0.0,0.0,0.0,0.0,-0.1701,-7.886024999999999,-5.11245,0.02491944,-1.0724943599999999,-0.07955052
1779583571978955984,A_+,0.7014584741250474,0.02298598624876532,1.8435214757115306,-1.5410210097558732,-0.1271472360077869,-0.26333527754090447,0.17467255153959252,0.0,0.0,0.0,0.0,0.0,0.0,-0.1701,-7.886024999999999,-5.11245,0.02491944,-1.0724943599999999,-0.07955052
1779583571978955984,A_+,0.7053611493747667,0.02298598624876532,1.8435214757115306,-1.5410210097558732,-0.1271472360077869,-0.26333527754090447,0.17467255153959252,0.0,0.0,0.0,0.0,0.0,0.0,-0.1701,-7.886024999999999,-5.11245,0.02491944,-1.0724943599999999,-0.07955052
1779583572013954162,A_+,0.709223419499267,0.02298598624876532,1.8435214757115306,-1.5410210097558732,-0.1271472360077869,-0.26333527754090447,0.17467255153959252,0.0,0.0,0.0,0.0,0.0,0.0,-0.1701,-7.914375,-5.107724999999999,0.04121292,-1.0724943599999999,-0.08050896
1779583572013954162,A_+,0.7132976729999427,0.02298598624876532,1.8435214757115306,-1.5410210097558732,-0.1271472360077869,-0.26333527754090447,0.17467255153959252,0.0,0.0,0.0,0.0,0.0,0.0,-0.1701,-7.914375,-5.107724999999999,0.04121292,-1.0724943599999999,-0.08050896
1779583572013954162,A_+,0.7172030842493768,0.02298598624876532,1.8435214757115306,-1.5410210097558732,-0.1271472360077869,-0.26333527754090447,0.17467255153959252,0.0,0.0,0.0,0.0,0.0,0.0,-0.1701,-7.914375,-5.107724999999999,0.04121292,-1.0724943599999999,-0.08050896
1779583572043961524,A_+,0.7211159351240894,0.02298598624876532,1.8435214757115306,-1.5410210097558732,-0.1271472360077869,-0.26333527754090447,0.17467255153959252,0.0,0.0,0.0,0.0,0.0,0.0,-0.189,-7.886024999999999,-5.09355,0.029711639999999997,-1.06770216,-0.0766752
1779583572043961524,A_+,0.7252027409995208,0.02298598624876532,1.8435214757115306,-1.5410210097558732,-0.1271472360077869,-0.26333527754090447,0.17467255153959252,0.0,0.0,0.0,0.0,0.0,0.0,-0.189,-7.886024999999999,-5.09355,0.029711639999999997,-1.06770216,-0.0766752
1779583572043961524,A_+,0.7291181122500348,0.02298598624876532,1.8435214757115306,-1.5410210097558732,-0.1271472360077869,-0.26333527754090447,0.17467255153959252,0.0,0.0,0.0,0.0,0.0,0.0,-0.189,-7.886024999999999,-5.09355,0.029711639999999997,-1.06770216,-0.0766752
1779583572073960781,A_+,0.7330047067503074,0.02298598624876532,1.8435214757115306,-1.5410210097558732,-0.1271472360077869,-0.26333527754090447,0.17467255153959252,0.0,0.0,0.0,0.0,0.0,0.0,-0.17482499999999998,-7.933274999999999,-5.1597,0.02779476,-1.06961904,-0.08242584
1779583572073960781,A_+,0.737094416625041,0.02298598624876532,1.8435214757115306,-1.5410210097558732,-0.1271472360077869,-0.26333527754090447,0.17467255153959252,0.0,0.0,0.0,0.0,0.0,0.0,-0.17482499999999998,-7.933274999999999,-5.1597,0.02779476,-1.06961904,-0.08242584
1779583572073960781,A_+,0.7410045558749516,0.02298598624876532,1.8435214757115306,-1.5410210097558732,-0.1271472360077869,-0.26333527754090447,0.17467255153959252,0.0,0.0,0.0,0.0,0.0,0.0,-0.17482499999999998,-7.933274999999999,-5.1597,0.02779476,-1.06961904,-0.08242584
1779583572108963012,A_+,0.744865913999547,0.02298598624876532,1.8435214757115306,-1.5410210097558732,-0.1271472360077869,-0.26333527754090447,0.17467255153959252,0.0,0.0,0.0,0.0,0.0,0.0,-0.16065,-7.895474999999999,-5.107724999999999,0.0335454,-1.0724943599999999,-0.07475832
1779583572108963012,A_+,0.7489184351243239,0.02298598624876532,1.8435214757115306,-1.5410210097558732,-0.1271472360077869,-0.26333527754090447,0.17467255153959252,0.0,0.0,0.0,0.0,0.0,0.0,-0.16065,-7.895474999999999,-5.107724999999999,0.0335454,-1.0724943599999999,-0.07475832
1779583572108963012,A_+,0.7528167539999231,0.02298598624876532,1.8435214757115306,-1.5410210097558732,-0.1271472360077869,-0.26333527754090447,0.17467255153959252,0.0,0.0,0.0,0.0,0.0,0.0,-0.16065,-7.895474999999999,-5.107724999999999,0.0335454,-1.0724943599999999,-0.07475832
1779583572139031171,A_+,0.7566831644994636,0.02298598624876532,1.8435214757115306,-1.5410210097558732,-0.1271472360077869,-0.26333527754090447,0.17467255153959252,0.0,0.0,0.0,0.0,0.0,0.0,-0.08505,-7.9285499999999995,-5.126625,0.03067008,-1.06482684,-0.07955052
1779583572139031171,A_+,0.76074067799982,0.02298598624876532,1.8435214757115306,-1.5410210097558732,-0.1271472360077869,-0.26333527754090447,0.17467255153959252,0.0,0.0,0.0,0.0,0.0,0.0,-0.08505,-7.9285499999999995,-5.126625,0.03067008,-1.06482684,-0.07955052
1779583572139031171,A_+,0.7646365365003476,0.02298598624876532,1.8435214757115306,-1.5410210097558732,-0.1271472360077869,-0.26333527754090447,0.17467255153959252,0.0,0.0,0.0,0.0,0.0,0.0,-0.08505,-7.9285499999999995,-5.126625,0.03067008,-1.06482684,-0.07955052
1779583572168961524,A_+,0.7684948229998554,0.02298598624876532,1.8435214757115306,-1.5410210097558732,-0.1271472360077869,-0.26333527754090447,0.17467255153959252,0.0,0.0,0.0,0.0,0.0,0.0,-0.14175,-7.890749999999999,-5.11245,0.03067008,-1.06578528,-0.07284144
1779583572168961524,A_+,0.7725197317495258,0.02298598624876532,1.8435214757115306,-1.5410210097558732,-0.1271472360077869,-0.26333527754090447,0.17467255153959252,0.0,0.0,0.0,0.0,0.0,0.0,-0.14175,-7.890749999999999,-5.11245,0.03067008,-1.06578528,-0.07284144
1779583572168961524,A_+,0.776402294250147,0.02298598624876532,1.8435214757115306,-1.5410210097558732,-0.1271472360077869,-0.26333527754090447,0.17467255153959252,0.0,0.0,0.0,0.0,0.0,0.0,-0.14175,-7.890749999999999,-5.11245,0.03067008,-1.06578528,-0.07284144
1779583572198976755,A_+,0.7802707687496877,0.02298598624876532,1.8435214757115306,-1.5410210097558732,-0.1271472360077869,-0.26333527754090447,0.17467255153959252,0.0,0.0,0.0,0.0,0.0,0.0,-0.165375,-7.890749999999999,-5.126625,0.03450384,-1.0705774799999999,-0.08050896
1779583572198976755,A_+,0.784340714249538,0.02298598624876532,1.8435214757115306,-1.5410210097558732,-0.1271472360077869,-0.26333527754090447,0.17467255153959252,0.0,0.0,0.0,0.0,0.0,0.0,-0.165375,-7.890749999999999,-5.126625,0.03450384,-1.0705774799999999,-0.08050896
1779583572198976755,A_+,0.7882495814992581,0.02298598624876532,1.8435214757115306,-1.5410210097558732,-0.1271472360077869,-0.26333527754090447,0.17467255153959252,0.0,0.0,0.0,0.0,0.0,0.0,-0.165375,-7.890749999999999,-5.126625,0.03450384,-1.0705774799999999,-0.08050896
1779583572218971014,A_+,0.7921093676241071,0.02298598624876532,1.8435214757115306,-1.5410210097558732,-0.1271472360077869,-0.26333527754090447,0.17467255153959252,0.0,0.0,0.0,0.0,0.0,0.0,-0.155925,-7.914375,-5.107724999999999,0.02779476,-1.06770216,-0.08146740000000001
1779583572218971014,A_+,0.796210597499794,0.02298598624876532,1.8435214757115306,-1.5410210097558732,-0.1271472360077869,-0.26333527754090447,0.17467255153959252,0.0,0.0,0.0,0.0,0.0,0.0,-0.155925,-7.914375,-5.107724999999999,0.02779476,-1.06770216,-0.08146740000000001
1779583572218971014,A_+,0.8001141487497989,0.02298598624876532,1.8435214757115306,-1.5410210097558732,-0.1271472360077869,-0.26333527754090447,0.17467255153959252,0.0,0.0,0.0,0.0,0.0,0.0,-0.155925,-7.914375,-5.107724999999999,0.02779476,-1.06770216,-0.08146740000000001
1779583572263955831,A_+,0.8039918512499753,0.02298598624876532,1.8435214757115306,-1.5410210097558732,-0.1271472360077869,-0.26333527754090447,0.17467255153959252,0.0,0.0,0.0,0.0,0.0,0.0,-0.16065,-7.909649999999999,-5.1408,0.0335454,-1.0686605999999998,-0.07475832
1779583572263955831,A_+,0.808073244750176,0.02298598624876532,1.8435214757115306,-1.5410210097558732,-0.1271472360077869,-0.26333527754090447,0.17467255153959252,0.0,0.0,0.0,0.0,0.0,0.0,-0.16065,-7.909649999999999,-5.1408,0.0335454,-1.0686605999999998,-0.07475832
1779583572263955831,A_+,0.8119900199994845,0.02298598624876532,1.8435214757115306,-1.5410210097558732,-0.1271472360077869,-0.26333527754090447,0.17467255153959252,0.0,0.0,0.0,0.0,0.0,0.0,-0.16065,-7.909649999999999,-5.1408,0.0335454,-1.0686605999999998,-0.07475832
1779583572298957586,A_+,0.8158608824996918,0.02298598624876532,1.8435214757115306,-1.5410210097558732,-0.1271472360077869,-0.26333527754090447,0.17467255153959252,0.0,0.0,0.0,0.0,0.0,0.0,-0.203175,-7.867125,-5.103,0.03162852,-1.07153592,-0.08817648
1779583572298957586,A_+,0.819923483999446,0.02298598624876532,1.8435214757115306,-1.5410210097558732,-0.1271472360077869,-0.26333527754090447,0.17467255153959252,0.0,0.0,0.0,0.0,0.0,0.0,-0.203175,-7.867125,-5.103,0.03162852,-1.07153592,-0.08817648
1779583572298957586,A_+,0.8238168224993387,0.02298598624876532,1.8435214757115306,-1.5410210097558732,-0.1271472360077869,-0.26333527754090447,0.17467255153959252,0.0,0.0,0.0,0.0,0.0,0.0,-0.203175,-7.867125,-5.103,0.03162852,-1.07153592,-0.08817648
1779583572328956127,A_+,0.8276743169990368,0.02298598624876532,1.8435214757115306,-1.5410210097558732,-0.1271472360077869,-0.26333527754090447,0.17467255153959252,0.0,0.0,0.0,0.0,0.0,0.0,-0.0945,-7.923825,-5.11245,0.02683632,-1.0667437199999998,-0.0766752
1779583572328956127,A_+,0.8317819308740582,0.02298598624876532,1.8435214757115306,-1.5410210097558732,-0.1271472360077869,-0.26333527754090447,0.17467255153959252,0.0,0.0,0.0,0.0,0.0,0.0,-0.0945,-7.923825,-5.11245,0.02683632,-1.0667437199999998,-0.0766752
1779583572328956127,A_+,0.8356770697491811,0.02298598624876532,1.8435214757115306,-1.5410210097558732,-0.1271472360077869,-0.26333527754090447,0.17467255153959252,0.0,0.0,0.0,0.0,0.0,0.0,-0.0945,-7.923825,-5.11245,0.02683632,-1.0667437199999998,-0.0766752
1779583572359028816,A_+,0.8395809566245589,0.02298598624876532,1.8435214757115306,-1.5410210097558732,-0.1271472360077869,-0.26333527754090447,0.17467255153959252,0.0,0.0,0.0,0.0,0.0,0.0,-0.146475,-7.919099999999999,-5.1219,0.03546228,-1.0724943599999999,-0.08625959999999999
1779583572359028816,A_+,0.8436594704990057,0.02298598624876532,1.8435214757115306,-1.5410210097558732,-0.1271472360077869,-0.26333527754090447,0.17467255153959252,0.0,0.0,0.0,0.0,0.0,0.0,-0.146475,-7.919099999999999,-5.1219,0.03546228,-1.0724943599999999,-0.08625959999999999
1779583572359028816,A_+,0.8475639813746056,0.02298598624876532,1.8435214757115306,-1.5410210097558732,-0.1271472360077869,-0.26333527754090447,0.17467255153959252,0.0,0.0,0.0,0.0,0.0,0.0,-0.146475,-7.919099999999999,-5.1219,0.03546228,-1.0724943599999999,-0.08625959999999999
1779583572388965845,A_+,0.851432911874781,0.02298598624876532,1.8435214757115306,-1.5410210097558732,-0.1271472360077869,-0.26333527754090447,0.17467255153959252,0.0,0.0,0.0,0.0,0.0,0.0,-0.11339999999999999,-7.871849999999999,-5.145524999999999,0.02587788,-1.07153592,-0.07379988
1779583572388965845,A_+,0.8555276977490394,0.02298598624876532,1.8435214757115306,-1.5410210097558732,-0.1271472360077869,-0.26333527754090447,0.17467255153959252,0.0,0.0,0.0,0.0,0.0,0.0,-0.11339999999999999,-7.871849999999999,-5.145524999999999,0.02587788,-1.07153592,-0.07379988
1779583572388965845,A_+,0.8594392766249257,0.02298598624876532,1.8435214757115306,-1.5410210097558732,-0.1271472360077869,-0.26333527754090447,0.17467255153959252,0.0,0.0,0.0,0.0,0.0,0.0,-0.11339999999999999,-7.871849999999999,-5.145524999999999,0.02587788,-1.07153592,-0.07379988
1779583572423969507,A_+,0.8633092271252281,0.02298598624876532,1.8435214757115306,-1.5410210097558732,-0.1271472360077869,-0.26333527754090447,0.17467255153959252,0.0,0.0,0.0,0.0,0.0,0.0,-0.1323,-7.900199999999999,-5.09355,0.02779476,-1.0724943599999999,-0.08050896
1779583572423969507,A_+,0.8673826046242539,0.02298598624876532,1.8435214757115306,-1.5410210097558732,-0.1271472360077869,-0.26333527754090447,0.17467255153959252,0.0,0.0,0.0,0.0,0.0,0.0,-0.1323,-7.900199999999999,-5.09355,0.02779476,-1.0724943599999999,-0.08050896
1779583572423969507,A_+,0.8713547486249809,0.02298598624876532,1.8435214757115306,-1.5410210097558732,-0.1271472360077869,-0.26333527754090447,0.17467255153959252,0.0,0.0,0.0,0.0,0.0,0.0,-0.1323,-7.900199999999999,-5.09355,0.02779476,-1.0724943599999999,-0.08050896
1779583572453967809,A_+,0.8752357754992772,0.02298598624876532,1.8435214757115306,-1.5410210097558732,-0.1271472360077869,-0.26333527754090447,0.17467255153959252,0.0,0.0,0.0,0.0,0.0,0.0,-0.16065,-7.9285499999999995,-5.1408,0.03450384,-1.0686605999999998,-0.07571676
1779583572453967809,A_+,0.8793347493742658,0.02298598624876532,1.8435214757115306,-1.5410210097558732,-0.1271472360077869,-0.26333527754090447,0.17467255153959252,0.0,0.0,0.0,0.0,0.0,0.0,-0.16065,-7.9285499999999995,-5.1408,0.03450384,-1.0686605999999998,-0.07571676
1779583572453967809,A_+,0.8832575126243682,0.02298598624876532,1.8435214757115306,-1.5410210097558732,-0.1271472360077869,-0.26333527754090447,0.17467255153959252,0.0,0.0,0.0,0.0,0.0,0.0,-0.16065,-7.9285499999999995,-5.1408,0.03450384,-1.0686605999999998,-0.07571676
1779583572484014272,A_+,0.8871168307500739,0.02298598624876532,1.8435214757115306,-1.5410210097558732,-0.1271472360077869,-0.26333527754090447,0.17467255153959252,0.0,0.0,0.0,0.0,0.0,0.0,-0.21735,-7.923825,-5.103,0.03737916,-1.06578528,-0.08146740000000001
1779583572484014272,A_+,0.8912001086246164,0.02298598624876532,1.8435214757115306,-1.5410210097558732,-0.1271472360077869,-0.26333527754090447,0.17467255153959252,0.0,0.0,0.0,0.0,0.0,0.0,-0.21735,-7.923825,-5.103,0.03737916,-1.06578528,-0.08146740000000001
1779583572484014272,A_+,0.8951007435002793,0.02298598624876532,1.8435214757115306,-1.5410210097558732,-0.1271472360077869,-0.26333527754090447,0.17467255153959252,0.0,0.0,0.0,0.0,0.0,0.0,-0.21735,-7.923825,-5.103,0.03737916,-1.06578528,-0.08146740000000001
1779583572518985986,A_+,0.8989732739992178,0.02298598624876532,1.8435214757115306,-1.5410210097558732,-0.1271472360077869,-0.26333527754090447,0.17467255153959252,0.0,0.0,0.0,0.0,0.0,0.0,-0.20789999999999997,-7.886024999999999,-5.15025,0.0335454,-1.06961904,-0.07859208
1779583572518985986,A_+,0.9030376154996702,0.02298598624876532,1.8435214757115306,-1.5410210097558732,-0.1271472360077869,-0.26333527754090447,0.17467255153959252,0.0,0.0,0.0,0.0,0.0,0.0,-0.20789999999999997,-7.886024999999999,-5.15025,0.0335454,-1.06961904,-0.07859208
1779583572518985986,A_+,0.9069466383753024,0.02298598624876532,1.8435214757115306,-1.5410210097558732,-0.1271472360077869,-0.26333527754090447,0.17467255153959252,0.0,0.0,0.0,0.0,0.0,0.0,-0.20789999999999997,-7.886024999999999,-5.15025,0.0335454,-1.06961904,-0.07859208
1779583572549015283,A_+,0.910799152499294,0.02298598624876532,1.8435214757115306,-1.5410210097558732,-0.1271472360077869,-0.26333527754090447,0.17467255153959252,0.0,0.0,0.0,0.0,0.0,0.0,-0.184275,-7.9049249999999995,-5.126625,0.03067008,-1.0686605999999998,-0.07284144
1779583572549015283,A_+,0.9148465136240702,0.02298598624876532,1.8435214757115306,-1.5410210097558732,-0.1271472360077869,-0.26333527754090447,0.17467255153959252,0.0,0.0,0.0,0.0,0.0,0.0,-0.184275,-7.9049249999999995,-5.126625,0.03067008,-1.0686605999999998,-0.07284144
1779583572549015283,A_+,0.9187337084999854,0.02298598624876532,1.8435214757115306,-1.5410210097558732,-0.1271472360077869,-0.26333527754090447,0.17467255153959252,0.0,0.0,0.0,0.0,0.0,0.0,-0.184275,-7.9049249999999995,-5.126625,0.03067008,-1.0686605999999998,-0.07284144
1779583572578971385,A_+,0.9225968786245176,0.02298598624876532,1.8435214757115306,-1.5410210097558732,-0.1271472360077869,-0.26333527754090447,0.17467255153959252,0.0,0.0,0.0,0.0,0.0,0.0,-0.12285,-7.923825,-5.1219,0.02587788,-1.0590762,-0.0766752
1779583572578971385,A_+,0.926655628124081,0.02298598624876532,1.8435214757115306,-1.5410210097558732,-0.1271472360077869,-0.26333527754090447,0.17467255153959252,0.0,0.0,0.0,0.0,0.0,0.0,-0.12285,-7.923825,-5.1219,0.02587788,-1.0590762,-0.0766752
1779583572578971385,A_+,0.9306028237501778,0.02298598624876532,1.8435214757115306,-1.5410210097558732,-0.1271472360077869,-0.26333527754090447,0.17467255153959252,0.0,0.0,0.0,0.0,0.0,0.0,-0.12285,-7.923825,-5.1219,0.02587788,-1.0590762,-0.0766752
1779583572613960504,A_+,0.9344639298747097,0.02298598624876532,1.8435214757115306,-1.5410210097558732,-0.1271472360077869,-0.26333527754090447,0.17467255153959252,0.0,0.0,0.0,0.0,0.0,0.0,-0.19372499999999998,-7.909649999999999,-5.11245,0.0335454,-1.0686605999999998,-0.08146740000000001
1779583572613960504,A_+,0.9385479037500772,0.02298598624876532,1.8435214757115306,-1.5410210097558732,-0.1271472360077869,-0.26333527754090447,0.17467255153959252,0.0,0.0,0.0,0.0,0.0,0.0,-0.19372499999999998,-7.909649999999999,-5.11245,0.0335454,-1.0686605999999998,-0.08146740000000001
1779583572613960504,A_+,0.942466742999386,0.02298598624876532,1.8435214757115306,-1.5410210097558732,-0.1271472360077869,-0.26333527754090447,0.17467255153959252,0.0,0.0,0.0,0.0,0.0,0.0,-0.19372499999999998,-7.909649999999999,-5.11245,0.0335454,-1.0686605999999998,-0.08146740000000001
1779583572644125461,A_+,0.9463308495001002,0.02298598624876532,1.8435214757115306,-1.5410210097558732,-0.1271472360077869,-0.26333527754090447,0.17467255153959252,0.0,0.0,0.0,0.0,0.0,0.0,-0.165375,-7.919099999999999,-5.1219,0.028753199999999996,-1.0686605999999998,-0.08338428
1779583572644125461,A_+,0.9503898386246874,0.02298598624876532,1.8435214757115306,-1.5410210097558732,-0.1271472360077869,-0.26333527754090447,0.17467255153959252,0.0,0.0,0.0,0.0,0.0,0.0,-0.165375,-7.919099999999999,-5.1219,0.028753199999999996,-1.0686605999999998,-0.08338428
1779583572644125461,A_+,0.954303253874059,0.02298598624876532,1.8435214757115306,-1.5410210097558732,-0.1271472360077869,-0.26333527754090447,0.17467255153959252,0.0,0.0,0.0,0.0,0.0,0.0,-0.165375,-7.919099999999999,-5.1219,0.028753199999999996,-1.0686605999999998,-0.08338428
1779583572673977851,A_+,0.958211640749596,0.02298598624876532,1.8435214757115306,-1.5410210097558732,-0.1271472360077869,-0.26333527754090447,0.17467255153959252,0.0,0.0,0.0,0.0,0.0,0.0,-0.20789999999999997,-7.890749999999999,-5.088824999999999,0.02300256,-1.0686605999999998,-0.08338428
1779583572673977851,A_+,0.9622866262493517,0.02298598624876532,1.8435214757115306,-1.5410210097558732,-0.1271472360077869,-0.26333527754090447,0.17467255153959252,0.0,0.0,0.0,0.0,0.0,0.0,-0.20789999999999997,-7.890749999999999,-5.088824999999999,0.02300256,-1.0686605999999998,-0.08338428
1779583572673977851,A_+,0.9662031974994534,0.02298598624876532,1.8435214757115306,-1.5410210097558732,-0.1271472360077869,-0.26333527754090447,0.17467255153959252,0.0,0.0,0.0,0.0,0.0,0.0,-0.20789999999999997,-7.890749999999999,-5.088824999999999,0.02300256,-1.0686605999999998,-0.08338428
1779583572708969593,A_+,0.970059875624429,0.02298598624876532,1.8435214757115306,-1.5410210097558732,-0.1271472360077869,-0.26333527754090447,0.17467255153959252,0.0,0.0,0.0,0.0,0.0,0.0,-0.16065,-7.942724999999999,-5.09355,0.03737916,-1.06770216,-0.07763364
1779583572708969593,A_+,0.9741310691247236,0.02298598624876532,1.8435214757115306,-1.5410210097558732,-0.1271472360077869,-0.26333527754090447,0.17467255153959252,0.0,0.0,0.0,0.0,0.0,0.0,-0.16065,-7.942724999999999,-5.09355,0.03737916,-1.06770216,-0.07763364
1779583572708969593,A_+,0.9780308519998471,0.02298598624876532,1.8435214757115306,-1.5410210097558732,-0.1271472360077869,-0.26333527754090447,0.17467255153959252,0.0,0.0,0.0,0.0,0.0,0.0,-0.16065,-7.942724999999999,-5.09355,0.03737916,-1.06770216,-0.07763364
1779583572738976478,A_+,0.981898114499927,0.02298598624876532,1.8435214757115306,-1.5410210097558732,-0.1271472360077869,-0.26333527754090447,0.17467255153959252,0.0,0.0,0.0,0.0,0.0,0.0,-0.17482499999999998,-7.933274999999999,-5.11245,0.02587788,-1.06578528,-0.07379988
1779583572738976478,A_+,0.9859726079994289,0.02298598624876532,1.8435214757115306,-1.5410210097558732,-0.1271472360077869,-0.26333527754090447,0.17467255153959252,0.0,0.0,0.0,0.0,0.0,0.0,-0.17482499999999998,-7.933274999999999,-5.11245,0.02587788,-1.06578528,-0.07379988
1779583572738976478,A_+,0.9898785472501004,0.02298598624876532,1.8435214757115306,-1.5410210097558732,-0.1271472360077869,-0.26333527754090447,0.17467255153959252,0.0,0.0,0.0,0.0,0.0,0.0,-0.17482499999999998,-7.933274999999999,-5.11245,0.02587788,-1.06578528,-0.07379988
1779583572768985271,A_+,0.9937430133745693,0.02298598624876532,1.8435214757115306,-1.5410210097558732,-0.1271472360077869,-0.26333527754090447,0.17467255153959252,0.0,0.0,0.0,0.0,0.0,0.0,-0.20789999999999997,-7.909649999999999,-5.07465,0.02683632,-1.0763281199999999,-0.0670908
1779583572768985271,A_+,0.9978426956240583,0.02298598624876532,1.8435214757115306,-1.5410210097558732,-0.1271472360077869,-0.26333527754090447,0.17467255153959252,0.0,0.0,0.0,0.0,0.0,0.0,-0.20789999999999997,-7.909649999999999,-5.07465,0.02683632,-1.0763281199999999,-0.0670908
1779583572768985271,A_+,1.00175542650004,0.02298598624876532,1.8435214757115306,-1.5410210097558732,-0.1271472360077869,-0.26333527754090447,0.17467255153959252,0.0,0.0,0.0,0.0,0.0,0.0,-0.20789999999999997,-7.909649999999999,-5.07465,0.02683632,-1.0763281199999999,-0.0670908
1779583572804043531,A_+,1.0056413613742734,0.02298598624876532,1.8435214757115306,-1.5410210097558732,-0.1271472360077869,-0.26333527754090447,0.17467255153959252,0.0,0.0,0.0,0.0,0.0,0.0,-0.118125,-7.909649999999999,-5.15025,0.03258696,-1.06578528,-0.07763364
1779583572804043531,A_+,1.009707922499274,0.02298598624876532,1.8435214757115306,-1.5410210097558732,-0.1271472360077869,-0.26333527754090447,0.17467255153959252,0.0,0.0,0.0,0.0,0.0,0.0,-0.118125,-7.909649999999999,-5.15025,0.03258696,-1.06578528,-0.07763364
1779583572804043531,A_+,1.0136087857490566,0.02298598624876532,1.8435214757115306,-1.5410210097558732,-0.1271472360077869,-0.26333527754090447,0.17467255153959252,0.0,0.0,0.0,0.0,0.0,0.0,-0.118125,-7.909649999999999,-5.15025,0.03258696,-1.06578528,-0.07763364
1779583572833977937,A_+,1.0174784002501838,0.02298598624876532,1.8435214757115306,-1.5410210097558732,-0.1271472360077869,-0.26333527754090447,0.17467255153959252,0.0,0.0,0.0,0.0,0.0,0.0,-0.10394999999999999,-7.900199999999999,-5.103,0.03258696,-1.0705774799999999,-0.07859208
1779583572833977937,A_+,1.0215712177496243,0.02298598624876532,1.8435214757115306,-1.5410210097558732,-0.1271472360077869,-0.26333527754090447,0.17467255153959252,0.0,0.0,0.0,0.0,0.0,0.0,-0.10394999999999999,-7.900199999999999,-5.103,0.03258696,-1.0705774799999999,-0.07859208
1779583572833977937,A_+,1.0254770969995661,0.02298598624876532,1.8435214757115306,-1.5410210097558732,-0.1271472360077869,-0.26333527754090447,0.17467255153959252,0.0,0.0,0.0,0.0,0.0,0.0,-0.10394999999999999,-7.900199999999999,-5.103,0.03258696,-1.0705774799999999,-0.07859208
1779583572863968372,A_+,1.029346879500281,0.02298598624876532,1.8435214757115306,-1.5410210097558732,-0.1271472360077869,-0.26333527754090447,0.17467255153959252,0.0,0.0,0.0,0.0,0.0,0.0,-0.12285,-7.895474999999999,-5.103,0.0335454,-1.06482684,-0.07475832
1779583572863968372,A_+,1.0334511813748577,0.02298598624876532,1.8435214757115306,-1.5410210097558732,-0.1271472360077869,-0.26333527754090447,0.17467255153959252,0.0,0.0,0.0,0.0,0.0,0.0,-0.12285,-7.895474999999999,-5.103,0.0335454,-1.06482684,-0.07475832
1779583572863968372,A_+,1.037353196249569,0.02298598624876532,1.8435214757115306,-1.5410210097558732,-0.1271472360077869,-0.26333527754090447,0.17467255153959252,0.0,0.0,0.0,0.0,0.0,0.0,-0.12285,-7.895474999999999,-5.103,0.0335454,-1.06482684,-0.07475832
1779583572898975372,A_+,1.041217926749141,0.02298598624876532,1.8435214757115306,-1.5410210097558732,-0.1271472360077869,-0.26333527754090447,0.17467255153959252,0.0,0.0,0.0,0.0,0.0,0.0,-0.189,-7.923825,-5.136074999999999,0.02779476,-1.0686605999999998,-0.08338428
1779583572898975372,A_+,1.0452920842494677,0.02298598624876532,1.8435214757115306,-1.5410210097558732,-0.1271472360077869,-0.26333527754090447,0.17467255153959252,0.0,0.0,0.0,0.0,0.0,0.0,-0.189,-7.923825,-5.136074999999999,0.02779476,-1.0686605999999998,-0.08338428
1779583572898975372,A_+,1.0491881471243687,0.02298598624876532,1.8435214757115306,-1.5410210097558732,-0.1271472360077869,-0.26333527754090447,0.17467255153959252,0.0,0.0,0.0,0.0,0.0,0.0,-0.189,-7.923825,-5.136074999999999,0.02779476,-1.0686605999999998,-0.08338428
1779583572928977727,A_+,1.0530516652493134,0.02298598624876532,1.8435214757115306,-1.5410210097558732,-0.1271472360077869,-0.26333527754090447,0.17467255153959252,0.0,0.0,0.0,0.0,0.0,0.0,-0.203175,-7.937999999999999,-5.1219,0.02587788,-1.06578528,-0.07859208
1779583572928977727,A_+,1.0571157667495754,0.02298598624876532,1.8435214757115306,-1.5410210097558732,-0.1271472360077869,-0.26333527754090447,0.17467255153959252,0.0,0.0,0.0,0.0,0.0,0.0,-0.203175,-7.937999999999999,-5.1219,0.02587788,-1.06578528,-0.07859208
1779583572928977727,A_+,1.060982801249338,0.02298598624876532,1.8435214757115306,-1.5410210097558732,-0.1271472360077869,-0.26333527754090447,0.17467255153959252,0.0,0.0,0.0,0.0,0.0,0.0,-0.203175,-7.937999999999999,-5.1219,0.02587788,-1.06578528,-0.07859208
1779583572958983182,A_+,1.064830023374725,0.02298598624876532,1.8435214757115306,-1.5410210097558732,-0.1271472360077869,-0.26333527754090447,0.17467255153959252,0.0,0.0,0.0,0.0,0.0,0.0,-0.19372499999999998,-7.848224999999999,-5.098274999999999,0.03450384,-1.06770216,-0.07475832
1779583572958983182,A_+,1.0689302332502848,0.02298598624876532,1.8435214757115306,-1.5410210097558732,-0.1271472360077869,-0.26333527754090447,0.17467255153959252,0.0,0.0,0.0,0.0,0.0,0.0,-0.19372499999999998,-7.848224999999999,-5.098274999999999,0.03450384,-1.06770216,-0.07475832
1779583572958983182,A_+,1.0728254921241387,0.02298598624876532,1.8435214757115306,-1.5410210097558732,-0.1271472360077869,-0.26333527754090447,0.17467255153959252,0.0,0.0,0.0,0.0,0.0,0.0,-0.19372499999999998,-7.848224999999999,-5.098274999999999,0.03450384,-1.06770216,-0.07475832
1779583572993974685,A_+,1.076725947000341,0.02298598624876532,1.8435214757115306,-1.5410210097558732,-0.1271472360077869,-0.26333527754090447,0.17467255153959252,0.0,0.0,0.0,0.0,0.0,0.0,-0.16065,-7.942724999999999,-5.164425,0.03258696,-1.06578528,-0.07859208
1779583572993974685,A_+,1.0808083844990506,0.02298598624876532,1.8435214757115306,-1.5410210097558732,-0.1271472360077869,-0.26333527754090447,0.17467255153959252,0.0,0.0,0.0,0.0,0.0,0.0,-0.16065,-7.942724999999999,-5.164425,0.03258696,-1.06578528,-0.07859208
1779583572993974685,A_+,1.0847095113749674,0.02298598624876532,1.8435214757115306,-1.5410210097558732,-0.1271472360077869,-0.26333527754090447,0.17467255153959252,0.0,0.0,0.0,0.0,0.0,0.0,-0.16065,-7.942724999999999,-5.164425,0.03258696,-1.06578528,-0.07859208
1779583573023975610,A_+,1.0885710494990235,0.02298598624876532,1.8435214757115306,-1.5410210097558732,-0.1271472360077869,-0.26333527754090447,0.17467255153959252,0.0,0.0,0.0,0.0,0.0,0.0,-0.12285,-7.923825,-5.117175,0.02108568,-1.06290996,-0.07955052
1779583573023975610,A_+,1.092641198999445,0.02298598624876532,1.8435214757115306,-1.5410210097558732,-0.1271472360077869,-0.26333527754090447,0.17467255153959252,0.0,0.0,0.0,0.0,0.0,0.0,-0.12285,-7.923825,-5.117175,0.02108568,-1.06290996,-0.07955052
1779583573023975610,A_+,1.096537141499084,0.02298598624876532,1.8435214757115306,-1.5410210097558732,-0.1271472360077869,-0.26333527754090447,0.17467255153959252,0.0,0.0,0.0,0.0,0.0,0.0,-0.12285,-7.923825,-5.117175,0.02108568,-1.06290996,-0.07955052
1779583573053974628,A_+,1.1003930636252335,0.02298598624876532,1.8435214757115306,-1.5410210097558732,-0.1271472360077869,-0.26333527754090447,0.17467255153959252,0.0,0.0,0.0,0.0,0.0,0.0,-0.11339999999999999,-7.876575,-5.117175,0.03642072,-1.06961904,-0.08146740000000001
1779583573053974628,A_+,1.1044693211251797,0.02298598624876532,1.8435214757115306,-1.5410210097558732,-0.1271472360077869,-0.26333527754090447,0.17467255153959252,0.0,0.0,0.0,0.0,0.0,0.0,-0.11339999999999999,-7.876575,-5.117175,0.03642072,-1.06961904,-0.08146740000000001
1779583573053974628,A_+,1.1083890119998614,0.02298598624876532,1.8435214757115306,-1.5410210097558732,-0.1271472360077869,-0.26333527754090447,0.17467255153959252,0.0,0.0,0.0,0.0,0.0,0.0,-0.11339999999999999,-7.876575,-5.117175,0.03642072,-1.06961904,-0.08146740000000001
1779583573088982343,A_+,1.1122523621252185,0.02298598624876532,1.8435214757115306,-1.5410210097558732,-0.1271472360077869,-0.26333527754090447,0.17467255153959252,0.0,0.0,0.0,0.0,0.0,0.0,-0.16065,-7.914375,-5.126625,0.02587788,-1.0744112399999999,-0.08242584
1779583573088982343,A_+,1.116312095250123,0.02298598624876532,1.8435214757115306,-1.5410210097558732,-0.1271472360077869,-0.26333527754090447,0.17467255153959252,0.0,0.0,0.0,0.0,0.0,0.0,-0.16065,-7.914375,-5.126625,0.02587788,-1.0744112399999999,-0.08242584
1779583573088982343,A_+,1.1202109661253417,0.02298598624876532,1.8435214757115306,-1.5410210097558732,-0.1271472360077869,-0.26333527754090447,0.17467255153959252,0.0,0.0,0.0,0.0,0.0,0.0,-0.16065,-7.914375,-5.126625,0.02587788,-1.0744112399999999,-0.08242584
1779583573118984937,A_+,1.124071616249239,0.02298598624876532,1.8435214757115306,-1.5410210097558732,-0.1271472360077869,-0.26333527754090447,0.17467255153959252,0.0,0.0,0.0,0.0,0.0,0.0,-0.165375,-7.886024999999999,-5.107724999999999,0.03546228,-1.0705774799999999,-0.07859208
1779583573118984937,A_+,1.1281292133749048,0.02298598624876532,1.8435214757115306,-1.5410210097558732,-0.1271472360077869,-0.26333527754090447,0.17467255153959252,0.0,0.0,0.0,0.0,0.0,0.0,-0.165375,-7.886024999999999,-5.107724999999999,0.03546228,-1.0705774799999999,-0.07859208
1779583573118984937,A_+,1.132049660249777,0.02298598624876532,1.8435214757115306,-1.5410210097558732,-0.1271472360077869,-0.26333527754090447,0.17467255153959252,0.0,0.0,0.0,0.0,0.0,0.0,-0.165375,-7.886024999999999,-5.107724999999999,0.03546228,-1.0705774799999999,-0.07859208
1779583573148972272,A_+,1.135906914374118,0.02298598624876532,1.8435214757115306,-1.5410210097558732,-0.1271472360077869,-0.26333527754090447,0.17467255153959252,0.0,0.0,0.0,0.0,0.0,0.0,-0.165375,-7.895474999999999,-5.136074999999999,0.03067008,-1.07153592,-0.08050896
1779583573148972272,A_+,1.1399850558746039,0.02298598624876532,1.8435214757115306,-1.5410210097558732,-0.1271472360077869,-0.26333527754090447,0.17467255153959252,0.0,0.0,0.0,0.0,0.0,0.0,-0.165375,-7.895474999999999,-5.136074999999999,0.03067008,-1.07153592,-0.08050896
1779583573148972272,A_+,1.1438748063742423,0.02298598624876532,1.8435214757115306,-1.5410210097558732,-0.1271472360077869,-0.26333527754090447,0.17467255153959252,0.0,0.0,0.0,0.0,0.0,0.0,-0.165375,-7.895474999999999,-5.136074999999999,0.03067008,-1.07153592,-0.08050896
1779583573183982849,A_+,1.147736476499631,0.02298598624876532,1.8435214757115306,-1.5410210097558732,-0.1271472360077869,-0.26333527754090447,0.17467255153959252,0.0,0.0,0.0,0.0,0.0,0.0,-0.080325,-7.9049249999999995,-5.088824999999999,0.03067008,-1.0667437199999998,-0.08146740000000001
1779583573183982849,A_+,1.1517943976245988,0.02298598624876532,1.8435214757115306,-1.5410210097558732,-0.1271472360077869,-0.26333527754090447,0.17467255153959252,0.0,0.0,0.0,0.0,0.0,0.0,-0.080325,-7.9049249999999995,-5.088824999999999,0.03067008,-1.0667437199999998,-0.08146740000000001
1779583573183982849,A_+,1.155705616875366,0.02298598624876532,1.8435214757115306,-1.5410210097558732,-0.1271472360077869,-0.26333527754090447,0.17467255153959252,0.0,0.0,0.0,0.0,0.0,0.0,-0.080325,-7.9049249999999995,-5.088824999999999,0.03067008,-1.0667437199999998,-0.08146740000000001
1779583573213982582,A_+,1.1595726989994546,0.02298598624876532,1.8435214757115306,-1.5410210097558732,-0.1271472360077869,-0.26333527754090447,0.17467255153959252,0.0,0.0,0.0,0.0,0.0,0.0,-0.16065,-7.900199999999999,-5.088824999999999,0.029711639999999997,-1.06770216,-0.08817648
1779583573213982582,A_+,1.1636242241252148,0.02298598624876532,1.8435214757115306,-1.5410210097558732,-0.1271472360077869,-0.26333527754090447,0.17467255153959252,0.0,0.0,0.0,0.0,0.0,0.0,-0.16065,-7.900199999999999,-5.088824999999999,0.029711639999999997,-1.06770216,-0.08817648
1779583573213982582,A_+,1.1675326949998635,0.02298598624876532,1.8435214757115306,-1.5410210097558732,-0.1271472360077869,-0.26333527754090447,0.17467255153959252,0.0,0.0,0.0,0.0,0.0,0.0,-0.16065,-7.900199999999999,-5.088824999999999,0.029711639999999997,-1.06770216,-0.08817648
1779583573243984699,A_+,1.1714046131246505,0.02298598624876532,1.8435214757115306,-1.5410210097558732,-0.1271472360077869,-0.26333527754090447,0.17467255153959252,0.0,0.0,0.0,0.0,0.0,0.0,-0.11339999999999999,-7.900199999999999,-5.098274999999999,0.02587788,-1.06961904,-0.07859208
1779583573243984699,A_+,1.1754669982501582,0.02298598624876532,1.8435214757115306,-1.5410210097558732,-0.1271472360077869,-0.26333527754090447,0.17467255153959252,0.0,0.0,0.0,0.0,0.0,0.0,-0.11339999999999999,-7.900199999999999,-5.098274999999999,0.02587788,-1.06961904,-0.07859208
1779583573243984699,A_+,1.1794195938750818,0.02298598624876532,1.8435214757115306,-1.5410210097558732,-0.1271472360077869,-0.26333527754090447,0.17467255153959252,0.0,0.0,0.0,0.0,0.0,0.0,-0.11339999999999999,-7.900199999999999,-5.098274999999999,0.02587788,-1.06961904,-0.07859208
1779583573268995523,A_+,1.1832996843745605,0.02298598624876532,1.8435214757115306,-1.5410210097558732,-0.1271472360077869,-0.26333527754090447,0.17467255153959252,0.0,0.0,0.0,0.0,0.0,0.0,-0.203175,-7.890749999999999,-5.1219,0.028753199999999996,-1.0734528,-0.07092456
1779583573268995523,A_+,1.1873670254994977,0.02298598624876532,1.8435214757115306,-1.5410210097558732,-0.1271472360077869,-0.26333527754090447,0.17467255153959252,0.0,0.0,0.0,0.0,0.0,0.0,-0.203175,-7.890749999999999,-5.1219,0.028753199999999996,-1.0734528,-0.07092456
1779583573268995523,A_+,1.1912736723743365,0.02298598624876532,1.8435214757115306,-1.5410210097558732,-0.1271472360077869,-0.26333527754090447,0.17467255153959252,0.0,0.0,0.0,0.0,0.0,0.0,-0.203175,-7.890749999999999,-5.1219,0.028753199999999996,-1.0734528,-0.07092456
1779583573308987140,A_+,1.1951742832502532,0.02298598624876532,1.8435214757115306,-1.5410210097558732,-0.1271472360077869,-0.26333527754090447,0.17467255153959252,0.0,0.0,0.0,0.0,0.0,0.0,-0.089775,-7.909649999999999,-5.098274999999999,0.03642072,-1.0744112399999999,-0.07955052
1779583573308987140,A_+,1.199230992374396,0.02298598624876532,1.8435214757115306,-1.5410210097558732,-0.1271472360077869,-0.26333527754090447,0.17467255153959252,0.0,0.0,0.0,0.0,0.0,0.0,-0.089775,-7.909649999999999,-5.098274999999999,0.03642072,-1.0744112399999999,-0.07955052
1779583573308987140,A_+,1.2031274868750188,0.02298598624876532,1.8435214757115306,-1.5410210097558732,-0.1271472360077869,-0.26333527754090447,0.17467255153959252,0.0,0.0,0.0,0.0,0.0,0.0,-0.089775,-7.909649999999999,-5.098274999999999,0.03642072,-1.0744112399999999,-0.07955052
1779583573338995933,A_+,1.206993524999234,0.02298598624876532,1.8435214757115306,-1.5410210097558732,-0.1271472360077869,-0.26333527754090447,0.17467255153959252,0.0,0.0,0.0,0.0,0.0,0.0,-0.19845,-7.895474999999999,-5.126625,0.02587788,-1.0724943599999999,-0.07763364
1779583573338995933,A_+,1.2110767905001012,0.02298598624876532,1.8435214757115306,-1.5410210097558732,-0.1271472360077869,-0.26333527754090447,0.17467255153959252,0.0,0.0,0.0,0.0,0.0,0.0,-0.19845,-7.895474999999999,-5.126625,0.02587788,-1.0724943599999999,-0.07763364
1779583573338995933,A_+,1.214984973375067,0.02298598624876532,1.8435214757115306,-1.5410210097558732,-0.1271472360077869,-0.26333527754090447,0.17467255153959252,0.0,0.0,0.0,0.0,0.0,0.0,-0.19845,-7.895474999999999,-5.126625,0.02587788,-1.0724943599999999,-0.07763364
1779583573368986606,A_+,1.2188471958752416,0.02298598624876532,1.8435214757115306,-1.5410210097558732,-0.1271472360077869,-0.26333527754090447,0.17467255153959252,0.0,0.0,0.0,0.0,0.0,0.0,-0.184275,-7.890749999999999,-5.09355,0.02204412,-1.06961904,-0.07571676
1779583573368986606,A_+,1.2229125689991633,0.02298598624876532,1.8435214757115306,-1.5410210097558732,-0.1271472360077869,-0.26333527754090447,0.17467255153959252,0.0,0.0,0.0,0.0,0.0,0.0,-0.184275,-7.890749999999999,-5.09355,0.02204412,-1.06961904,-0.07571676
1779583573368986606,A_+,1.2268451002496477,0.02298598624876532,1.8435214757115306,-1.5410210097558732,-0.1271472360077869,-0.26333527754090447,0.17467255153959252,0.0,0.0,0.0,0.0,0.0,0.0,-0.184275,-7.890749999999999,-5.09355,0.02204412,-1.06961904,-0.07571676
1779583573403990268,A_+,1.230718062374308,0.02298598624876532,1.8435214757115306,-1.5410210097558732,-0.1271472360077869,-0.26333527754090447,0.17467255153959252,0.0,0.0,0.0,0.0,0.0,0.0,-0.240975,-7.9049249999999995,-5.136074999999999,0.03929604,-1.0724943599999999,-0.0766752
1779583573403990268,A_+,1.2348318446247504,0.02298598624876532,1.8435214757115306,-1.5410210097558732,-0.1271472360077869,-0.26333527754090447,0.17467255153959252,0.0,0.0,0.0,0.0,0.0,0.0,-0.240975,-7.9049249999999995,-5.136074999999999,0.03929604,-1.0724943599999999,-0.0766752
1779583573403990268,A_+,1.2388295126243065,0.02298598624876532,1.8435214757115306,-1.5410210097558732,-0.1271472360077869,-0.26333527754090447,0.17467255153959252,0.0,0.0,0.0,0.0,0.0,0.0,-0.240975,-7.9049249999999995,-5.136074999999999,0.03929604,-1.0724943599999999,-0.0766752
1779583573433973312,A_+,1.2426985267497912,0.02298598624876532,1.8435214757115306,-1.5410210097558732,-0.1271472360077869,-0.26333527754090447,0.17467255153959252,0.0,0.0,0.0,0.0,0.0,0.0,-0.14175,-7.9285499999999995,-5.164425,0.023961,-1.06770216,-0.08242584
1779583573433973312,A_+,1.2467622442500215,0.02298598624876532,1.8435214757115306,-1.5410210097558732,-0.1271472360077869,-0.26333527754090447,0.17467255153959252,0.0,0.0,0.0,0.0,0.0,0.0,-0.14175,-7.9285499999999995,-5.164425,0.023961,-1.06770216,-0.08242584
1779583573433973312,A_+,1.2506978594992688,0.02298598624876532,1.8435214757115306,-1.5410210097558732,-0.1271472360077869,-0.26333527754090447,0.17467255153959252,0.0,0.0,0.0,0.0,0.0,0.0,-0.14175,-7.9285499999999995,-5.164425,0.023961,-1.06770216,-0.08242584
1779583573468994617,A_+,1.254600221999226,0.02298598624876532,1.8435214757115306,-1.5410210097558732,-0.1271472360077869,-0.26333527754090447,0.17467255153959252,0.0,0.0,0.0,0.0,0.0,0.0,-0.12285,-7.9049249999999995,-5.13135,0.03067008,-1.0705774799999999,-0.0766752
1779583573468994617,A_+,1.2586831634994269,0.02298598624876532,1.8435214757115306,-1.5410210097558732,-0.1271472360077869,-0.26333527754090447,0.17467255153959252,0.0,0.0,0.0,0.0,0.0,0.0,-0.12285,-7.9049249999999995,-5.13135,0.03067008,-1.0705774799999999,-0.0766752
1779583573468994617,A_+,1.262581278374455,0.02298598624876532,1.8435214757115306,-1.5410210097558732,-0.1271472360077869,-0.26333527754090447,0.17467255153959252,0.0,0.0,0.0,0.0,0.0,0.0,-0.12285,-7.9049249999999995,-5.13135,0.03067008,-1.0705774799999999,-0.0766752
1779583573498986721,A_+,1.2665908627500357,0.02298598624876532,1.8435214757115306,-1.5410210097558732,-0.1271472360077869,-0.26333527754090447,0.17467255153959252,0.0,0.0,0.0,0.0,0.0,0.0,-0.12285,-7.919099999999999,-5.079375,0.0335454,-1.0744112399999999,-0.07475832
1779583573498986721,A_+,1.270688384624009,0.02298598624876532,1.8435214757115306,-1.5410210097558732,-0.1271472360077869,-0.26333527754090447,0.17467255153959252,0.0,0.0,0.0,0.0,0.0,0.0,-0.12285,-7.919099999999999,-5.079375,0.0335454,-1.0744112399999999,-0.07475832
1779583573498986721,A_+,1.2745889471252667,0.02298598624876532,1.8435214757115306,-1.5410210097558732,-0.1271472360077869,-0.26333527754090447,0.17467255153959252,0.0,0.0,0.0,0.0,0.0,0.0,-0.12285,-7.919099999999999,-5.079375,0.0335454,-1.0744112399999999,-0.07475832
1779583573528988838,A_+,1.2784630016244591,0.02298598624876532,1.8435214757115306,-1.5410210097558732,-0.1271472360077869,-0.26333527754090447,0.17467255153959252,0.0,0.0,0.0,0.0,0.0,0.0,-0.19845,-7.933274999999999,-5.11245,0.03162852,-1.06961904,-0.0766752
1779583573528988838,A_+,1.282532850750158,0.02298598624876532,1.8435214757115306,-1.5410210097558732,-0.1271472360077869,-0.26333527754090447,0.17467255153959252,0.0,0.0,0.0,0.0,0.0,0.0,-0.19845,-7.933274999999999,-5.11245,0.03162852,-1.06961904,-0.0766752
1779583573528988838,A_+,1.286439617625092,0.02298598624876532,1.8435214757115306,-1.5410210097558732,-0.1271472360077869,-0.26333527754090447,0.17467255153959252,0.0,0.0,0.0,0.0,0.0,0.0,-0.19845,-7.933274999999999,-5.11245,0.03162852,-1.06961904,-0.0766752
1779583573558990001,A_+,1.2903081641252356,0.02298598624876532,1.8435214757115306,-1.5410210097558732,-0.1271472360077869,-0.26333527754090447,0.17467255153959252,0.0,0.0,0.0,0.0,0.0,0.0,-0.184275,-7.933274999999999,-5.0841,0.03162852,-1.0763281199999999,-0.07763364
1779583573558990001,A_+,1.2944078696241377,0.02298598624876532,1.8435214757115306,-1.5410210097558732,-0.1271472360077869,-0.26333527754090447,0.17467255153959252,0.0,0.0,0.0,0.0,0.0,0.0,-0.184275,-7.933274999999999,-5.0841,0.03162852,-1.0763281199999999,-0.07763364
1779583573558990001,A_+,1.2983244528741125,0.02298598624876532,1.8435214757115306,-1.5410210097558732,-0.1271472360077869,-0.26333527754090447,0.17467255153959252,0.0,0.0,0.0,0.0,0.0,0.0,-0.184275,-7.933274999999999,-5.0841,0.03162852,-1.0763281199999999,-0.07763364
1779583573593990325,A_+,1.3021979549998832,0.02298598624876532,1.8435214757115306,-1.5410210097558732,-0.1271472360077869,-0.26333527754090447,0.17467255153959252,0.0,0.0,0.0,0.0,0.0,0.0,-0.155925,-7.914375,-5.1219,0.03067008,-1.0772865600000001,-0.07763364
1779583573593990325,A_+,1.3066745264995916,0.02298598624876532,1.8435214757115306,-1.5410210097558732,-0.1271472360077869,-0.26333527754090447,0.17467255153959252,0.0,0.0,0.0,0.0,0.0,0.0,-0.155925,-7.914375,-5.1219,0.03067008,-1.0772865600000001,-0.07763364
1779583573593990325,A_+,1.3105955493751935,0.02298598624876532,1.8435214757115306,-1.5410210097558732,-0.1271472360077869,-0.26333527754090447,0.17467255153959252,0.0,0.0,0.0,0.0,0.0,0.0,-0.155925,-7.914375,-5.1219,0.03067008,-1.0772865600000001,-0.07763364
1779583573623981237,A_+,1.3145057002498106,0.02298598624876532,1.8435214757115306,-1.5410210097558732,-0.1271472360077869,-0.26333527754090447,0.17467255153959252,0.0,0.0,0.0,0.0,0.0,0.0,-0.19845,-7.8576749999999995,-5.13135,0.028753199999999996,-1.0686605999999998,-0.07859208
1779583573623981237,A_+,1.3185655297502308,0.02298598624876532,1.8435214757115306,-1.5410210097558732,-0.1271472360077869,-0.26333527754090447,0.17467255153959252,0.0,0.0,0.0,0.0,0.0,0.0,-0.19845,-7.8576749999999995,-5.13135,0.028753199999999996,-1.0686605999999998,-0.07859208
1779583573623981237,A_+,1.3224733402498714,0.02298598624876532,1.8435214757115306,-1.5410210097558732,-0.1271472360077869,-0.26333527754090447,0.17467255153959252,0.0,0.0,0.0,0.0,0.0,0.0,-0.19845,-7.8576749999999995,-5.13135,0.028753199999999996,-1.0686605999999998,-0.07859208
1779583573658978462,A_+,1.3263390667498243,0.02298598624876532,1.8435214757115306,-1.5410210097558732,-0.1271472360077869,-0.26333527754090447,0.17467255153959252,0.0,0.0,0.0,0.0,0.0,0.0,-0.20789999999999997,-7.900199999999999,-5.11245,0.03929604,-1.0705774799999999,-0.08530115999999999
1779583573658978462,A_+,1.3304257522499938,0.02298598624876532,1.8435214757115306,-1.5410210097558732,-0.1271472360077869,-0.26333527754090447,0.17467255153959252,0.0,0.0,0.0,0.0,0.0,0.0,-0.20789999999999997,-7.900199999999999,-5.11245,0.03929604,-1.0705774799999999,-0.08530115999999999
1779583573658978462,A_+,1.3343172547502036,0.02298598624876532,1.8435214757115306,-1.5410210097558732,-0.1271472360077869,-0.26333527754090447,0.17467255153959252,0.0,0.0,0.0,0.0,0.0,0.0,-0.20789999999999997,-7.900199999999999,-5.11245,0.03929604,-1.0705774799999999,-0.08530115999999999
1779583573683984518,A_+,1.3381879852490783,0.02298598624876532,1.8435214757115306,-1.5410210097558732,-0.1271472360077869,-0.26333527754090447,0.17467255153959252,0.0,0.0,0.0,0.0,0.0,0.0,-0.14175,-7.942724999999999,-5.1219,0.02587788,-1.0744112399999999,-0.08434272
1779583573683984518,A_+,1.3422387659993547,0.02298598624876532,1.8435214757115306,-1.5410210097558732,-0.1271472360077869,-0.26333527754090447,0.17467255153959252,0.0,0.0,0.0,0.0,0.0,0.0,-0.14175,-7.942724999999999,-5.1219,0.02587788,-1.0744112399999999,-0.08434272
1779583573683984518,A_+,1.3461274965002303,0.02298598624876532,1.8435214757115306,-1.5410210097558732,-0.1271472360077869,-0.26333527754090447,0.17467255153959252,0.0,0.0,0.0,0.0,0.0,0.0,-0.14175,-7.942724999999999,-5.1219,0.02587788,-1.0744112399999999,-0.08434272
1779583573718988418,A_+,1.3499927669995486,0.02298598624876532,1.8435214757115306,-1.5410210097558732,-0.1271472360077869,-0.26333527754090447,0.17467255153959252,0.0,0.0,0.0,0.0,0.0,0.0,-0.12285,-7.876575,-5.13135,0.02204412,-1.06770216,-0.07763364
1779583573718988418,A_+,1.354069900124614,0.02298598624876532,1.8435214757115306,-1.5410210097558732,-0.1271472360077869,-0.26333527754090447,0.17467255153959252,0.0,0.0,0.0,0.0,0.0,0.0,-0.12285,-7.876575,-5.13135,0.02204412,-1.06770216,-0.07763364
1779583573718988418,A_+,1.3579868913743667,0.02298598624876532,1.8435214757115306,-1.5410210097558732,-0.1271472360077869,-0.26333527754090447,0.17467255153959252,0.0,0.0,0.0,0.0,0.0,0.0,-0.12285,-7.876575,-5.13135,0.02204412,-1.06770216,-0.07763364
1779583573753986597,A_+,1.3618456815001991,0.02298598624876532,1.8435214757115306,-1.5410210097558732,-0.1271472360077869,-0.26333527754090447,0.17467255153959252,0.0,0.0,0.0,0.0,0.0,0.0,-0.0945,-7.947449999999999,-5.126625,0.043129799999999996,-1.0763281199999999,-0.08146740000000001
1779583573753986597,A_+,1.3659203066245027,0.02298598624876532,1.8435214757115306,-1.5410210097558732,-0.1271472360077869,-0.26333527754090447,0.17467255153959252,0.0,0.0,0.0,0.0,0.0,0.0,-0.0945,-7.947449999999999,-5.126625,0.043129799999999996,-1.0763281199999999,-0.08146740000000001
1779583573753986597,A_+,1.369808149499022,0.02298598624876532,1.8435214757115306,-1.5410210097558732,-0.1271472360077869,-0.26333527754090447,0.17467255153959252,0.0,0.0,0.0,0.0,0.0,0.0,-0.0945,-7.947449999999999,-5.126625,0.043129799999999996,-1.0763281199999999,-0.08146740000000001
1779583573783994436,A_+,1.3736673956241248,0.02298598624876532,1.8435214757115306,-1.5410210097558732,-0.1271472360077869,-0.26333527754090447,0.17467255153959252,0.0,0.0,0.0,0.0,0.0,0.0,-0.118125,-7.933274999999999,-5.183324999999999,0.028753199999999996,-1.0638684,-0.0766752
1779583573783994436,A_+,1.377727488749315,0.02298598624876532,1.8435214757115306,-1.5410210097558732,-0.1271472360077869,-0.26333527754090447,0.17467255153959252,0.0,0.0,0.0,0.0,0.0,0.0,-0.118125,-7.933274999999999,-5.183324999999999,0.028753199999999996,-1.0638684,-0.0766752
1779583573783994436,A_+,1.3816426796252017,0.02298598624876532,1.8435214757115306,-1.5410210097558732,-0.1271472360077869,-0.26333527754090447,0.17467255153959252,0.0,0.0,0.0,0.0,0.0,0.0,-0.118125,-7.933274999999999,-5.183324999999999,0.028753199999999996,-1.0638684,-0.0766752
1779583573813990592,A_+,1.3855059817497022,0.02298598624876532,1.8435214757115306,-1.5410210097558732,-0.1271472360077869,-0.26333527754090447,0.17467255153959252,0.0,0.0,0.0,0.0,0.0,0.0,-0.184275,-7.914375,-5.136074999999999,0.029711639999999997,-1.06770216,-0.08146740000000001
1779583573813990592,A_+,1.3895787832493625,0.02298598624876532,1.8435214757115306,-1.5410210097558732,-0.1271472360077869,-0.26333527754090447,0.17467255153959252,0.0,0.0,0.0,0.0,0.0,0.0,-0.184275,-7.914375,-5.136074999999999,0.029711639999999997,-1.06770216,-0.08146740000000001
1779583573813990592,A_+,1.3934799817493513,0.02298598624876532,1.8435214757115306,-1.5410210097558732,-0.1271472360077869,-0.26333527754090447,0.17467255153959252,0.0,0.0,0.0,0.0,0.0,0.0,-0.184275,-7.914375,-5.136074999999999,0.029711639999999997,-1.06770216,-0.08146740000000001
1779583573848977804,A_+,1.3973451202500655,0.02298598624876532,1.8435214757115306,-1.5410210097558732,-0.1271472360077869,-0.26333527754090447,0.17467255153959252,0.0,0.0,0.0,0.0,0.0,0.0,-0.14175,-7.890749999999999,-5.145524999999999,0.028753199999999996,-1.0705774799999999,-0.07763364
1779583573848977804,A_+,1.4014115013742412,0.02298598624876532,1.8435214757115306,-1.5410210097558732,-0.1271472360077869,-0.26333527754090447,0.17467255153959252,0.0,0.0,0.0,0.0,0.0,0.0,-0.14175,-7.890749999999999,-5.145524999999999,0.028753199999999996,-1.0705774799999999,-0.07763364
1779583573848977804,A_+,1.4053311802490498,0.02298598624876532,1.8435214757115306,-1.5410210097558732,-0.1271472360077869,-0.26333527754090447,0.17467255153959252,0.0,0.0,0.0,0.0,0.0,0.0,-0.14175,-7.890749999999999,-5.145524999999999,0.028753199999999996,-1.0705774799999999,-0.07763364
1779583573878979206,A_+,1.4091939543750414,0.02298598624876532,1.8435214757115306,-1.5410210097558732,-0.1271472360077869,-0.26333527754090447,0.17467255153959252,0.0,0.0,0.0,0.0,0.0,0.0,-0.165375,-7.900199999999999,-5.145524999999999,0.02683632,-1.0705774799999999,-0.07571676
1779583573878979206,A_+,1.413273127874163,0.02298598624876532,1.8435214757115306,-1.5410210097558732,-0.1271472360077869,-0.26333527754090447,0.17467255153959252,0.0,0.0,0.0,0.0,0.0,0.0,-0.165375,-7.900199999999999,-5.145524999999999,0.02683632,-1.0705774799999999,-0.07571676
1779583573878979206,A_+,1.417174794749826,0.02298598624876532,1.8435214757115306,-1.5410210097558732,-0.1271472360077869,-0.26333527754090447,0.17467255153959252,0.0,0.0,0.0,0.0,0.0,0.0,-0.165375,-7.900199999999999,-5.145524999999999,0.02683632,-1.0705774799999999,-0.07571676
1779583573908996582,A_+,1.4210371968742948,0.02298598624876532,1.8435214757115306,-1.5410210097558732,-0.1271472360077869,-0.26333527754090447,0.17467255153959252,0.0,0.0,0.0,0.0,0.0,0.0,-0.137025,-7.881299999999999,-5.145524999999999,0.028753199999999996,-1.07153592,-0.07955052
1779583573908996582,A_+,1.4250907019995793,0.02298598624876532,1.8435214757115306,-1.5410210097558732,-0.1271472360077869,-0.26333527754090447,0.17467255153959252,0.0,0.0,0.0,0.0,0.0,0.0,-0.137025,-7.881299999999999,-5.145524999999999,0.028753199999999996,-1.07153592,-0.07955052
1779583573908996582,A_+,1.4290513736250432,0.02298598624876532,1.8435214757115306,-1.5410210097558732,-0.1271472360077869,-0.26333527754090447,0.17467255153959252,0.0,0.0,0.0,0.0,0.0,0.0,-0.137025,-7.881299999999999,-5.145524999999999,0.028753199999999996,-1.07153592,-0.07955052
1779583573943994760,A_+,1.4329129237503366,0.02298598624876532,1.8435214757115306,-1.5410210097558732,-0.1271472360077869,-0.26333527754090447,0.17467255153959252,0.0,0.0,0.0,0.0,0.0,0.0,-0.137025,-7.9049249999999995,-5.15025,0.02779476,-1.0667437199999998,-0.07955052
1779583573943994760,A_+,1.4369747448749877,0.02298598624876532,1.8435214757115306,-1.5410210097558732,-0.1271472360077869,-0.26333527754090447,0.17467255153959252,0.0,0.0,0.0,0.0,0.0,0.0,-0.137025,-7.9049249999999995,-5.15025,0.02779476,-1.0667437199999998,-0.07955052
1779583573943994760,A_+,1.4408538153743393,0.02298598624876532,1.8435214757115306,-1.5410210097558732,-0.1271472360077869,-0.26333527754090447,0.17467255153959252,0.0,0.0,0.0,0.0,0.0,0.0,-0.137025,-7.9049249999999995,-5.15025,0.02779476,-1.0667437199999998,-0.07955052
1779583573973991632,A_+,1.4447145974995692,0.02298598624876532,1.8435214757115306,-1.5410210097558732,-0.1271472360077869,-0.26333527754090447,0.17467255153959252,0.0,0.0,0.0,0.0,0.0,0.0,-0.118125,-7.909649999999999,-5.145524999999999,0.03642072,-1.06482684,-0.07475832
1779583573973991632,A_+,1.4487766106249182,0.02298598624876532,1.8435214757115306,-1.5410210097558732,-0.1271472360077869,-0.26333527754090447,0.17467255153959252,0.0,0.0,0.0,0.0,0.0,0.0,-0.118125,-7.909649999999999,-5.145524999999999,0.03642072,-1.06482684,-0.07475832
1779583573973991632,A_+,1.4526732975000414,0.02298598624876532,1.8435214757115306,-1.5410210097558732,-0.1271472360077869,-0.26333527754090447,0.17467255153959252,0.0,0.0,0.0,0.0,0.0,0.0,-0.118125,-7.909649999999999,-5.145524999999999,0.03642072,-1.06482684,-0.07475832
1779583574004071474,A_+,1.4565422276250501,0.02298598624876532,1.8435214757115306,-1.5410210097558732,-0.1271472360077869,-0.26333527754090447,0.17467255153959252,0.0,0.0,0.0,0.0,0.0,0.0,-0.155925,-7.9049249999999995,-5.117175,0.0383376,-1.06770216,-0.07475832
1779583574004071474,A_+,1.4606087047495748,0.02298598624876532,1.8435214757115306,-1.5410210097558732,-0.1271472360077869,-0.26333527754090447,0.17467255153959252,0.0,0.0,0.0,0.0,0.0,0.0,-0.155925,-7.9049249999999995,-5.117175,0.0383376,-1.06770216,-0.07475832
1779583574004071474,A_+,1.464527927625113,0.02298598624876532,1.8435214757115306,-1.5410210097558732,-0.1271472360077869,-0.26333527754090447,0.17467255153959252,0.0,0.0,0.0,0.0,0.0,0.0,-0.155925,-7.9049249999999995,-5.117175,0.0383376,-1.06770216,-0.07475832
