deepaktalwardt/rage-cage-arm-hackstorm/ros2/ws/sysid/runs/sysid_20260524_015318/raw/joint3_phaseA_neg.csv
t_ns,phase,tau_cmd,q1,q2,q3,q4,q5,q6,qd1,qd2,qd3,qd4,qd5,qd6,tau1,tau2,tau3,tau4,tau5,tau6
1779587617807944536,A_-,-2.479991962900385e-07,0.0,1.4754315364659265,-2.4616821901828825,-0.09271188986593878,0.0,0.0,0.0,-0.083,0.0,0.0,0.14100000000000001,0.0,-0.3402,-0.55755,-2.7027,-0.00575064,-0.70349496,0.00670908
1779587617807944536,A_-,-0.002938053249636141,0.0,1.4754315364659265,-2.4616821901828825,-0.09271188986593878,0.0,0.0,0.0,-0.083,0.0,0.0,0.14100000000000001,0.0,-0.3402,-0.55755,-2.7027,-0.00575064,-0.70349496,0.00670908
1779587617807944536,A_-,-0.005621979249553988,0.0,1.4754315364659265,-2.4616821901828825,-0.09271188986593878,0.0,0.0,0.0,-0.083,0.0,0.0,0.14100000000000001,0.0,-0.3402,-0.55755,-2.7027,-0.00575064,-0.70349496,0.00670908
1779587617827874422,A_-,-0.008280228499643272,0.0,1.4754315364659265,-2.4616821901828825,-0.09271188986593878,0.0,0.0,0.0,0.128,0.0,0.0,-0.301,0.0,-0.335475,-3.699675,-2.6885250000000003,0.00287532,-0.28178136,0.01245972
1779587617827874422,A_-,-0.01122088949978206,0.0,1.4754315364659265,-2.4616821901828825,-0.09271188986593878,0.0,0.0,0.0,0.128,0.0,0.0,-0.301,0.0,-0.335475,-3.699675,-2.6885250000000003,0.00287532,-0.28178136,0.01245972
1779587617827874422,A_-,-0.014014289249644207,0.0,1.4754315364659265,-2.4616821901828825,-0.09271188986593878,0.0,0.0,0.0,0.128,0.0,0.0,-0.301,0.0,-0.335475,-3.699675,-2.6885250000000003,0.00287532,-0.28178136,0.01245972
1779587617842890739,A_-,-0.016693791749275988,0.0,1.4754315364659265,-2.4616821901828825,-0.09271188986593878,0.0,0.0,0.0,-0.131,0.0,0.0,0.08600000000000001,0.0,-0.33075,-0.45359999999999995,-2.7452249999999996,0.029711639999999997,-0.66515736,0.01245972
1779587617842890739,A_-,-0.019619518499894184,0.0,1.4754315364659265,-2.4616821901828825,-0.09271188986593878,0.0,0.0,0.0,-0.131,0.0,0.0,0.08600000000000001,0.0,-0.33075,-0.45359999999999995,-2.7452249999999996,0.029711639999999997,-0.66515736,0.01245972
1779587617842890739,A_-,-0.02232958524928108,0.0,1.4754315364659265,-2.4616821901828825,-0.09271188986593878,0.0,0.0,0.0,-0.131,0.0,0.0,0.08600000000000001,0.0,-0.33075,-0.45359999999999995,-2.7452249999999996,0.029711639999999997,-0.66515736,0.01245972
1779587617872856616,A_-,-0.024998376999974425,0.0,1.4754315364659265,-2.4616821901828825,-0.09271188986593878,0.0,0.0,0.0,-0.10400000000000001,0.0,0.0,0.093,0.0,-0.316575,-0.4205249999999999,-2.6649000000000003,0.00766752,-0.66899112,0.01629348
1779587617872856616,A_-,-0.02791540099951817,0.0,1.4754315364659265,-2.4616821901828825,-0.09271188986593878,0.0,0.0,0.0,-0.10400000000000001,0.0,0.0,0.093,0.0,-0.316575,-0.4205249999999999,-2.6649000000000003,0.00766752,-0.66899112,0.01629348
1779587617872856616,A_-,-0.030733790249541926,0.0,1.4754315364659265,-2.4616821901828825,-0.09271188986593878,0.0,0.0,0.0,-0.10400000000000001,0.0,0.0,0.093,0.0,-0.316575,-0.4205249999999999,-2.6649000000000003,0.00766752,-0.66899112,0.01629348
1779587617892857074,A_-,-0.03341226124939567,0.0,1.4754315364659265,-2.4616821901828825,-0.09271188986593878,0.0,0.0,0.0,0.121,0.0,0.0,-0.266,0.0,-0.316575,-2.537325,-2.679075,-0.00191688,-0.33545400000000003,0.00575064
1779587617892857074,A_-,-0.03622329124937096,0.0,1.4754315364659265,-2.4616821901828825,-0.09271188986593878,0.0,0.0,0.0,0.121,0.0,0.0,-0.266,0.0,-0.316575,-2.537325,-2.679075,-0.00191688,-0.33545400000000003,0.00575064
1779587617892857074,A_-,-0.038913200999559194,0.0,1.4754315364659265,-2.4616821901828825,-0.09271188986593878,0.0,0.0,0.0,0.121,0.0,0.0,-0.266,0.0,-0.316575,-2.537325,-2.679075,-0.00191688,-0.33545400000000003,0.00575064
1779587617913685083,A_-,-0.04158160949918965,0.0,1.4754315364659265,-2.4616821901828825,-0.09271188986593878,0.0,0.0,0.0,-0.157,0.0,0.0,-0.162,0.0,-0.3449249999999999,-0.19372499999999998,-2.660175,0.00670908,-0.59135748,0.01150128
1779587617913685083,A_-,-0.044495098250081355,0.0,1.4754315364659265,-2.4616821901828825,-0.09271188986593878,0.0,0.0,0.0,-0.157,0.0,0.0,-0.162,0.0,-0.3449249999999999,-0.19372499999999998,-2.660175,0.00670908,-0.59135748,0.01150128
1779587617913685083,A_-,-0.04720011799963686,0.0,1.4754315364659265,-2.4616821901828825,-0.09271188986593878,0.0,0.0,0.0,-0.157,0.0,0.0,-0.162,0.0,-0.3449249999999999,-0.19372499999999998,-2.660175,0.00670908,-0.59135748,0.01150128
1779587617948204994,A_-,-0.04985980750007002,0.0,1.4754315364659265,-2.4616821901828825,-0.09271188986593878,0.0,0.0,0.0,0.114,0.0,0.0,0.128,0.0,-0.34964999999999996,-4.1202,-2.669625,0.0,-0.6814508399999999,0.00862596
1779587617948204994,A_-,-0.05274631599968416,0.0,1.4754315364659265,-2.4616821901828825,-0.09271188986593878,0.0,0.0,0.0,0.114,0.0,0.0,0.128,0.0,-0.34964999999999996,-4.1202,-2.669625,0.0,-0.6814508399999999,0.00862596
1779587617948204994,A_-,-0.055429018500035454,0.0,1.4754315364659265,-2.4616821901828825,-0.09271188986593878,0.0,0.0,0.0,0.114,0.0,0.0,0.128,0.0,-0.34964999999999996,-4.1202,-2.669625,0.0,-0.6814508399999999,0.00862596
1779587617968568801,A_-,-0.05807419799930358,0.0,1.4754315364659265,-2.4616821901828825,-0.09271188986593878,0.0,0.0,0.0,-0.164,0.0,0.0,-0.371,0.0,-0.3449249999999999,-0.19372499999999998,-2.660175,0.00862596,-0.3737916,0.00670908
1779587617968568801,A_-,-0.06093810125003074,0.0,1.4754315364659265,-2.4616821901828825,-0.09271188986593878,0.0,0.0,0.0,-0.164,0.0,0.0,-0.371,0.0,-0.3449249999999999,-0.19372499999999998,-2.660175,0.00862596,-0.3737916,0.00670908
1779587617968568801,A_-,-0.06365928674949828,0.0,1.4754315364659265,-2.4616821901828825,-0.09271188986593878,0.0,0.0,0.0,-0.164,0.0,0.0,-0.371,0.0,-0.3449249999999999,-0.19372499999999998,-2.660175,0.00862596,-0.3737916,0.00670908
1779587617982865571,A_-,-0.06635549175007327,0.0,1.4754315364659265,-2.4616821901828825,-0.09271188986593878,0.0,0.0,0.0,0.17,0.0,0.0,0.10300000000000001,0.0,-0.35437499999999994,-4.1202,-2.6271,0.00670908,-0.6507807600000001,0.00862596
1779587617982865571,A_-,-0.06928792224971403,0.0,1.4754315364659265,-2.4616821901828825,-0.09271188986593878,0.0,0.0,0.0,0.17,0.0,0.0,0.10300000000000001,0.0,-0.35437499999999994,-4.1202,-2.6271,0.00670908,-0.6507807600000001,0.00862596
1779587617982865571,A_-,-0.07197598399943672,0.0,1.4754315364659265,-2.4616821901828825,-0.09271188986593878,0.0,0.0,0.0,0.17,0.0,0.0,0.10300000000000001,0.0,-0.35437499999999994,-4.1202,-2.6271,0.00670908,-0.6507807600000001,0.00862596
1779587618123513698,A_-,-0.074614836249566,0.0,1.4754315364659265,-2.4616821901828825,-0.09271188986593878,0.0,0.0,0.0,-0.105,0.0,0.0,0.322,0.0,-0.34964999999999996,-0.43942499999999995,-2.8019249999999998,0.00095844,-0.89518296,0.00862596
1779587618123513698,A_-,-0.07737076949979382,0.0,1.4754315364659265,-2.4616821901828825,-0.09271188986593878,0.0,0.0,0.0,-0.105,0.0,0.0,0.322,0.0,-0.34964999999999996,-0.43942499999999995,-2.8019249999999998,0.00095844,-0.89518296,0.00862596
1779587618123513698,A_-,-0.08001127749957959,0.0,1.4754315364659265,-2.4616821901828825,-0.09271188986593878,0.0,0.0,0.0,-0.105,0.0,0.0,0.322,0.0,-0.34964999999999996,-0.43942499999999995,-2.8019249999999998,0.00095844,-0.89518296,0.00862596
1779587618218749761,A_-,-0.08260716724998929,0.0,1.4754315364659265,-2.4616821901828825,-0.09271188986593878,0.0,0.0,0.0,-0.001,0.0,0.0,0.293,0.0,-0.3449249999999999,-1.3796999999999997,-2.67435,0.0047922,-0.83671812,0.00575064
1779587618218749761,A_-,-0.0854578002499693,0.0,1.4754315364659265,-2.4616821901828825,-0.09271188986593878,0.0,0.0,0.0,-0.001,0.0,0.0,0.293,0.0,-0.3449249999999999,-1.3796999999999997,-2.67435,0.0047922,-0.83671812,0.00575064
1779587618218749761,A_-,-0.08814936549970298,0.0,1.4754315364659265,-2.4616821901828825,-0.09271188986593878,0.0,0.0,0.0,-0.001,0.0,0.0,0.293,0.0,-0.3449249999999999,-1.3796999999999997,-2.67435,0.0047922,-0.83671812,0.00575064
1779587618252822160,A_-,-0.09080132824965403,0.0,1.4754315364659265,-2.4616821901828825,-0.09271188986593878,0.0,0.0,0.0,-0.043000000000000003,0.0,0.0,0.385,0.0,-0.3213,-1.18125,-2.646,0.01150128,-0.88559856,0.00766752
1779587618252822160,A_-,-0.09372875924964319,0.0,1.4754315364659265,-2.4616821901828825,-0.09271188986593878,0.0,0.0,0.0,-0.043000000000000003,0.0,0.0,0.385,0.0,-0.3213,-1.18125,-2.646,0.01150128,-0.88559856,0.00766752
1779587618252822160,A_-,-0.09645680799985712,0.0,1.4754315364659265,-2.4616821901828825,-0.09271188986593878,0.0,0.0,0.0,-0.043000000000000003,0.0,0.0,0.385,0.0,-0.3213,-1.18125,-2.646,0.01150128,-0.88559856,0.00766752
1779587618282959222,A_-,-0.09915028524937952,0.0,1.4754315364659265,-2.4616821901828825,-0.09271188986593878,0.0,0.0,0.0,-0.073,0.0,0.0,0.138,0.0,-0.34964999999999996,-0.675675,-2.54205,0.01245972,-0.73128972,0.0
1779587618282959222,A_-,-0.1020651179997003,0.0,1.4754315364659265,-2.4616821901828825,-0.09271188986593878,0.0,0.0,0.0,-0.073,0.0,0.0,0.138,0.0,-0.34964999999999996,-0.675675,-2.54205,0.01245972,-0.73128972,0.0
1779587618282959222,A_-,-0.10475743524966674,0.0,1.4754315364659265,-2.4616821901828825,-0.09271188986593878,0.0,0.0,0.0,-0.073,0.0,0.0,0.138,0.0,-0.34964999999999996,-0.675675,-2.54205,0.01245972,-0.73128972,0.0
1779587618318080425,A_-,-0.10740195874950587,0.0,1.4754315364659265,-2.4616821901828825,-0.09271188986593878,0.0,0.0,0.0,-0.096,0.0,0.0,0.161,0.0,-0.36382499999999995,-0.45359999999999995,-2.54205,0.00670908,-0.76771044,0.01341816
1779587618318080425,A_-,-0.11037868750008784,0.0,1.4754315364659265,-2.4616821901828825,-0.09271188986593878,0.0,0.0,0.0,-0.096,0.0,0.0,0.161,0.0,-0.36382499999999995,-0.45359999999999995,-2.54205,0.00670908,-0.76771044,0.01341816
1779587618318080425,A_-,-0.11306260599940288,0.0,1.4754315364659265,-2.4616821901828825,-0.09271188986593878,0.0,0.0,0.0,-0.096,0.0,0.0,0.161,0.0,-0.36382499999999995,-0.45359999999999995,-2.54205,0.00670908,-0.76771044,0.01341816
1779587618357801914,A_-,-0.11569924249943142,0.0,1.4754315364659265,-2.4616821901828825,-0.09271188986593878,0.0,0.0,0.0,-0.14400000000000002,0.0,0.0,0.153,0.0,-0.36855,-0.335475,-2.8397249999999996,-0.00287532,-0.75429228,0.00095844
1779587618357801914,A_-,-0.11853932474969042,0.0,1.4754315364659265,-2.4616821901828825,-0.09271188986593878,0.0,0.0,0.0,-0.14400000000000002,0.0,0.0,0.153,0.0,-0.36855,-0.335475,-2.8397249999999996,-0.00287532,-0.75429228,0.00095844
1779587618357801914,A_-,-0.12124264875001245,0.0,1.4754315364659265,-2.4616821901828825,-0.09271188986593878,0.0,0.0,0.0,-0.14400000000000002,0.0,0.0,0.153,0.0,-0.36855,-0.335475,-2.8397249999999996,-0.00287532,-0.75429228,0.00095844
1779587618383755445,A_-,-0.12389352349964611,0.0,1.4754315364659265,-2.4616821901828825,-0.09271188986593878,0.0,0.0,0.0,-0.081,0.0,0.0,0.132,0.0,-0.34964999999999996,-0.562275,-2.8349999999999995,0.00383376,-0.73991568,0.00095844
1779587618383755445,A_-,-0.1267717367500154,0.0,1.4754315364659265,-2.4616821901828825,-0.09271188986593878,0.0,0.0,0.0,-0.081,0.0,0.0,0.132,0.0,-0.34964999999999996,-0.562275,-2.8349999999999995,0.00383376,-0.73991568,0.00095844
1779587618383755445,A_-,-0.12949010674947203,0.0,1.4754315364659265,-2.4616821901828825,-0.09271188986593878,0.0,0.0,0.0,-0.081,0.0,0.0,0.132,0.0,-0.34964999999999996,-0.562275,-2.8349999999999995,0.00383376,-0.73991568,0.00095844
1779587618412788152,A_-,-0.1321388777496395,0.0,1.4754315364659265,-2.4616821901828825,-0.09271188986593878,0.0,0.0,0.0,-0.05,0.0,0.0,-0.406,0.0,-0.3449249999999999,-1.0631249999999999,-2.8349999999999995,0.00862596,-0.12747252,0.00862596
1779587618412788152,A_-,-0.13501419549993443,0.0,1.4754315364659265,-2.4616821901828825,-0.09271188986593878,0.0,0.0,0.0,-0.05,0.0,0.0,-0.406,0.0,-0.3449249999999999,-1.0631249999999999,-2.8349999999999995,0.00862596,-0.12747252,0.00862596
1779587618412788152,A_-,-0.1376920747497934,0.0,1.4754315364659265,-2.4616821901828825,-0.09271188986593878,0.0,0.0,0.0,-0.05,0.0,0.0,-0.406,0.0,-0.3449249999999999,-1.0631249999999999,-2.8349999999999995,0.00862596,-0.12747252,0.00862596
1779587618432788848,A_-,-0.14034835674920032,0.0,1.4754315364659265,-2.4616821901828825,-0.09271188986593878,0.0,0.0,0.0,-0.07100000000000001,0.0,0.0,0.352,0.0,-0.335475,-2.3813999999999997,-2.9673,0.00383376,-0.8913492000000001,0.0
1779587618432788848,A_-,-0.14322527424974396,0.0,1.4754315364659265,-2.4616821901828825,-0.09271188986593878,0.0,0.0,0.0,-0.07100000000000001,0.0,0.0,0.352,0.0,-0.335475,-2.3813999999999997,-2.9673,0.00383376,-0.8913492000000001,0.0
1779587618432788848,A_-,-0.14601436324937822,0.0,1.4754315364659265,-2.4616821901828825,-0.09271188986593878,0.0,0.0,0.0,-0.07100000000000001,0.0,0.0,0.352,0.0,-0.335475,-2.3813999999999997,-2.9673,0.00383376,-0.8913492000000001,0.0
1779587618447782993,A_-,-0.1486973137498353,0.0,1.4754315364659265,-2.4616821901828825,-0.09271188986593878,0.0,0.0,0.0,-0.069,0.0,0.0,-0.594,0.0,-0.316575,-0.78435,-2.8680749999999997,-0.00383376,-0.33545400000000003,0.00191688
1779587618447782993,A_-,-0.151627824499883,0.0,1.4754315364659265,-2.4616821901828825,-0.09271188986593878,0.0,0.0,0.0,-0.069,0.0,0.0,-0.594,0.0,-0.316575,-0.78435,-2.8680749999999997,-0.00383376,-0.33545400000000003,0.00191688
1779587618447782993,A_-,-0.15431970974987053,0.0,1.4754315364659265,-2.4616821901828825,-0.09271188986593878,0.0,0.0,0.0,-0.069,0.0,0.0,-0.594,0.0,-0.316575,-0.78435,-2.8680749999999997,-0.00383376,-0.33545400000000003,0.00191688
1779587618463450431,A_-,-0.15696446524998464,0.0,1.4754315364659265,-2.4616821901828825,-0.09271188986593878,0.0,0.0,0.0,0.021,0.0,0.0,0.368,0.0,-0.3213,-3.283875,-2.90115,-0.00095844,-0.9316036799999999,0.01245972
1779587618463450431,A_-,-0.15986721149965888,0.0,1.4754315364659265,-2.4616821901828825,-0.09271188986593878,0.0,0.0,0.0,0.021,0.0,0.0,0.368,0.0,-0.3213,-3.283875,-2.90115,-0.00095844,-0.9316036799999999,0.01245972
1779587618463450431,A_-,-0.16263624699968204,0.0,1.4754315364659265,-2.4616821901828825,-0.09271188986593878,0.0,0.0,0.0,0.021,0.0,0.0,0.368,0.0,-0.3213,-3.283875,-2.90115,-0.00095844,-0.9316036799999999,0.01245972
1779587618487777709,A_-,-0.16531364625006972,0.0,1.4754315364659265,-2.4616821901828825,-0.09271188986593878,0.0,0.0,0.0,-0.14,0.0,0.0,-0.6920000000000001,0.0,-0.37327499999999997,-0.798525,-2.8539,0.00095844,-0.263571,0.014376599999999998
1779587618487777709,A_-,-0.1682141289993524,0.0,1.4754315364659265,-2.4616821901828825,-0.09271188986593878,0.0,0.0,0.0,-0.14,0.0,0.0,-0.6920000000000001,0.0,-0.37327499999999997,-0.798525,-2.8539,0.00095844,-0.263571,0.014376599999999998
1779587618487777709,A_-,-0.17092275624963804,0.0,1.4754315364659265,-2.4616821901828825,-0.09271188986593878,0.0,0.0,0.0,-0.14,0.0,0.0,-0.6920000000000001,0.0,-0.37327499999999997,-0.798525,-2.8539,0.00095844,-0.263571,0.014376599999999998
1779587618508873939,A_-,-0.17360475474924897,0.0,1.4754315364659265,-2.4616821901828825,-0.09271188986593878,0.0,0.0,0.0,0.008,0.0,0.0,-0.433,0.0,-0.33075,-1.48365,-2.9484,0.00383376,-0.08721804,0.01533504
1779587618508873939,A_-,-0.1765264504992956,0.0,1.4754315364659265,-2.4616821901828825,-0.09271188986593878,0.0,0.0,0.0,0.008,0.0,0.0,-0.433,0.0,-0.33075,-1.48365,-2.9484,0.00383376,-0.08721804,0.01533504
1779587618508873939,A_-,-0.17923046249961772,0.0,1.4754315364659265,-2.4616821901828825,-0.09271188986593878,0.0,0.0,0.0,0.008,0.0,0.0,-0.433,0.0,-0.33075,-1.48365,-2.9484,0.00383376,-0.08721804,0.01533504
1779587618532828330,A_-,-0.1819043662499098,0.0,1.4754315364659265,-2.4616821901828825,-0.09271188986593878,0.0,0.0,0.0,0.111,0.0,0.0,0.159,0.0,-0.3591,-4.0634999999999994,-2.8397249999999996,0.0047922,-0.7379988,0.0191688
1779587618532828330,A_-,-0.1849205777498355,0.0,1.4754315364659265,-2.4616821901828825,-0.09271188986593878,0.0,0.0,0.0,0.111,0.0,0.0,0.159,0.0,-0.3591,-4.0634999999999994,-2.8397249999999996,0.0047922,-0.7379988,0.0191688
1779587618532828330,A_-,-0.18762619749941223,0.0,1.4754315364659265,-2.4616821901828825,-0.09271188986593878,0.0,0.0,0.0,0.111,0.0,0.0,0.159,0.0,-0.3591,-4.0634999999999994,-2.8397249999999996,0.0047922,-0.7379988,0.0191688
1779587618552769184,A_-,-0.19029524574943935,0.0,1.4754315364659265,-2.4616821901828825,-0.09271188986593878,0.0,0.0,0.0,-0.126,0.0,0.0,-0.304,0.0,-0.36855,-0.3213,-2.8539,0.00766752,-0.5942328,0.00191688
1779587618552769184,A_-,-0.19334473324943247,0.0,1.4754315364659265,-2.4616821901828825,-0.09271188986593878,0.0,0.0,0.0,-0.126,0.0,0.0,-0.304,0.0,-0.36855,-0.3213,-2.8539,0.00766752,-0.5942328,0.00191688
1779587618552769184,A_-,-0.19616148249951948,0.0,1.4754315364659265,-2.4616821901828825,-0.09271188986593878,0.0,0.0,0.0,-0.126,0.0,0.0,-0.304,0.0,-0.36855,-0.3213,-2.8539,0.00766752,-0.5942328,0.00191688
1779587618573413133,A_-,-0.19884144949992333,0.0,1.4754315364659265,-2.4616821901828825,-0.09271188986593878,0.0,0.0,0.0,0.112,0.0,0.0,-0.034,0.0,-0.3213,-2.3577749999999997,-2.99565,0.00670908,-0.19264644,0.01725192
1779587618573413133,A_-,-0.2017882539994389,0.0,1.4754315364659265,-2.4616821901828825,-0.09271188986593878,0.0,0.0,0.0,0.112,0.0,0.0,-0.034,0.0,-0.3213,-2.3577749999999997,-2.99565,0.00670908,-0.19264644,0.01725192
1779587618573413133,A_-,-0.20448654649953824,0.0,1.4754315364659265,-2.4616821901828825,-0.09271188986593878,0.0,0.0,0.0,0.112,0.0,0.0,-0.034,0.0,-0.3213,-2.3577749999999997,-2.99565,0.00670908,-0.19264644,0.01725192
1779587618592933893,A_-,-0.20713031824925565,0.0,1.4754315364659265,-2.4616821901828825,-0.09271188986593878,0.0,0.0,0.0,0.008,0.0,0.0,0.256,0.0,-0.3591,-3.14685,-2.8633499999999996,-0.0047922,-0.83096748,0.00575064
1779587618592933893,A_-,-0.2100216899998486,0.0,1.4754315364659265,-2.4616821901828825,-0.09271188986593878,0.0,0.0,0.0,0.008,0.0,0.0,0.256,0.0,-0.3591,-3.14685,-2.8633499999999996,-0.0047922,-0.83096748,0.00575064
1779587618592933893,A_-,-0.21275025049999385,0.0,1.4754315364659265,-2.4616821901828825,-0.09271188986593878,0.0,0.0,0.0,0.008,0.0,0.0,0.256,0.0,-0.3591,-3.14685,-2.8633499999999996,-0.0047922,-0.83096748,0.00575064
1779587618627781152,A_-,-0.2154040609993899,0.0,1.4754315364659265,-2.4616821901828825,-0.09271188986593878,0.0,0.0,0.0,0.083,0.0,0.0,-0.636,0.0,-0.36382499999999995,-3.61935,-2.8869749999999996,0.00095844,-0.19072956,0.0047922
1779587618627781152,A_-,-0.21827540324920847,0.0,1.4754315364659265,-2.4616821901828825,-0.09271188986593878,0.0,0.0,0.0,0.083,0.0,0.0,-0.636,0.0,-0.36382499999999995,-3.61935,-2.8869749999999996,0.00095844,-0.19072956,0.0047922
1779587618627781152,A_-,-0.2209462432492728,0.0,1.4754315364659265,-2.4616821901828825,-0.09271188986593878,0.0,0.0,0.0,0.083,0.0,0.0,-0.636,0.0,-0.36382499999999995,-3.61935,-2.8869749999999996,0.00095844,-0.19072956,0.0047922
1779587618677757740,A_-,-0.22358809524939716,0.0,1.4754315364659265,-2.4616821901828825,-0.09271188986593878,0.0,0.0,0.0,-0.012,0.0,0.0,-0.49,0.0,-0.316575,-1.4080499999999998,-2.9105999999999996,0.00095844,-0.08817648,0.00766752
1779587618677757740,A_-,-0.22648338649923971,0.0,1.4754315364659265,-2.4616821901828825,-0.09271188986593878,0.0,0.0,0.0,-0.012,0.0,0.0,-0.49,0.0,-0.316575,-1.4080499999999998,-2.9105999999999996,0.00095844,-0.08817648,0.00766752
1779587618677757740,A_-,-0.22952509075003036,0.0,1.4754315364659265,-2.4616821901828825,-0.09271188986593878,0.0,0.0,0.0,-0.012,0.0,0.0,-0.49,0.0,-0.316575,-1.4080499999999998,-2.9105999999999996,0.00095844,-0.08817648,0.00766752
1779587618702751398,A_-,-0.23217815725001856,0.0,1.4754315364659265,-2.4616821901828825,-0.09271188986593878,0.0,0.0,0.0,0.161,0.0,0.0,0.552,0.0,-0.34964999999999996,-3.3689249999999995,-2.9484,0.01245972,-0.99102696,0.01245972
1779587618702751398,A_-,-0.23504805174979992,0.0,1.4754315364659265,-2.4616821901828825,-0.09271188986593878,0.0,0.0,0.0,0.161,0.0,0.0,0.552,0.0,-0.34964999999999996,-3.3689249999999995,-2.9484,0.01245972,-0.99102696,0.01245972
1779587618702751398,A_-,-0.23772970649952185,0.0,1.4754315364659265,-2.4616821901828825,-0.09271188986593878,0.0,0.0,0.0,0.161,0.0,0.0,0.552,0.0,-0.34964999999999996,-3.3689249999999995,-2.9484,0.01245972,-0.99102696,0.01245972
1779587618737776994,A_-,-0.24038066100001743,0.0,1.4754315364659265,-2.4616821901828825,-0.09271188986593878,0.0,0.0,0.0,0.17300000000000001,0.0,0.0,0.297,0.0,-0.33075,-3.3689249999999995,-2.8728,0.00575064,-0.91818552,0.01341816
1779587618737776994,A_-,-0.24324712399993587,0.0,1.4754315364659265,-2.4616821901828825,-0.09271188986593878,0.0,0.0,0.0,0.17300000000000001,0.0,0.0,0.297,0.0,-0.33075,-3.3689249999999995,-2.8728,0.00575064,-0.91818552,0.01341816
1779587618737776994,A_-,-0.24612316174989246,0.0,1.4754315364659265,-2.4616821901828825,-0.09271188986593878,0.0,0.0,0.0,0.17300000000000001,0.0,0.0,0.297,0.0,-0.33075,-3.3689249999999995,-2.8728,0.00575064,-0.91818552,0.01341816
1779587618752751111,A_-,-0.24879460974989343,0.0,1.4754315364659265,-2.4616821901828825,-0.09271188986593878,0.0,0.0,0.0,-0.03,0.0,0.0,-0.705,0.0,-0.326025,-1.3891499999999999,-2.90115,-0.00095844,-0.05750639999999999,0.00095844
1779587618752751111,A_-,-0.25171146624961693,0.0,1.4754315364659265,-2.4616821901828825,-0.09271188986593878,0.0,0.0,0.0,-0.03,0.0,0.0,-0.705,0.0,-0.326025,-1.3891499999999999,-2.90115,-0.00095844,-0.05750639999999999,0.00095844
1779587618752751111,A_-,-0.2543816582492582,0.0,1.4754315364659265,-2.4616821901828825,-0.09271188986593878,0.0,0.0,0.0,-0.03,0.0,0.0,-0.705,0.0,-0.326025,-1.3891499999999999,-2.90115,-0.00095844,-0.05750639999999999,0.00095844
1779587618773662090,A_-,-0.25703524474920414,0.0,1.4754315364659265,-2.4616821901828825,-0.09271188986593878,0.0,0.0,0.0,0.14400000000000002,0.0,0.0,0.682,0.0,-0.3213,-2.8208249999999997,-2.972025,-0.00383376,-0.85588692,0.00575064
1779587618773662090,A_-,-0.25990642699980526,0.0,1.4754315364659265,-2.4616821901828825,-0.09271188986593878,0.0,0.0,0.0,0.14400000000000002,0.0,0.0,0.682,0.0,-0.3213,-2.8208249999999997,-2.972025,-0.00383376,-0.85588692,0.00575064
1779587618773662090,A_-,-0.2626532572494398,0.0,1.4754315364659265,-2.4616821901828825,-0.09271188986593878,0.0,0.0,0.0,0.14400000000000002,0.0,0.0,0.682,0.0,-0.3213,-2.8208249999999997,-2.972025,-0.00383376,-0.85588692,0.00575064
1779587618787735700,A_-,-0.26533360024950525,0.0,1.4754315364659265,-2.4616821901828825,-0.09271188986593878,0.0,0.0,0.0,-0.115,0.0,0.0,-0.059000000000000004,0.0,-0.34964999999999996,-0.36382499999999995,-2.8113749999999995,0.00383376,-0.72553908,0.0
1779587618787735700,A_-,-0.26819494374922215,0.0,1.4754315364659265,-2.4616821901828825,-0.09271188986593878,0.0,0.0,0.0,-0.115,0.0,0.0,-0.059000000000000004,0.0,-0.34964999999999996,-0.36382499999999995,-2.8113749999999995,0.00383376,-0.72553908,0.0
1779587618787735700,A_-,-0.2709060827492067,0.0,1.4754315364659265,-2.4616821901828825,-0.09271188986593878,0.0,0.0,0.0,-0.115,0.0,0.0,-0.059000000000000004,0.0,-0.34964999999999996,-0.36382499999999995,-2.8113749999999995,0.00383376,-0.72553908,0.0
1779587618802745342,A_-,-0.27358766549969005,0.0,1.4754315364659265,-2.4616821901828825,-0.09271188986593878,0.0,0.0,0.0,0.107,0.0,0.0,0.64,0.0,-0.3591,-3.9737249999999995,-3.0287249999999997,0.00670908,-0.7140378,0.01245972
1779587618802745342,A_-,-0.2765076414998475,0.0,1.4754315364659265,-2.4616821901828825,-0.09271188986593878,0.0,0.0,0.0,0.107,0.0,0.0,0.64,0.0,-0.3591,-3.9737249999999995,-3.0287249999999997,0.00670908,-0.7140378,0.01245972
1779587618802745342,A_-,-0.279230995249236,0.0,1.4754315364659265,-2.4616821901828825,-0.09271188986593878,0.0,0.0,0.0,0.107,0.0,0.0,0.64,0.0,-0.3591,-3.9737249999999995,-3.0287249999999997,0.00670908,-0.7140378,0.01245972
1779587618817742109,A_-,-0.281880694499705,0.0,1.4754315364659265,-2.4616821901828825,-0.09271188986593878,0.0,0.0,0.0,-0.037,0.0,0.0,0.107,0.0,-0.3213,-1.4742,-2.8444499999999997,0.00383376,-0.69391056,0.00670908
1779587618817742109,A_-,-0.28475202924983023,0.0,1.4754315364659265,-2.4616821901828825,-0.09271188986593878,0.0,0.0,0.0,-0.037,0.0,0.0,0.107,0.0,-0.3213,-1.4742,-2.8444499999999997,0.00383376,-0.69391056,0.00670908
1779587618817742109,A_-,-0.28742864499963616,0.0,1.4754315364659265,-2.4616821901828825,-0.09271188986593878,0.0,0.0,0.0,-0.037,0.0,0.0,0.107,0.0,-0.3213,-1.4742,-2.8444499999999997,0.00383376,-0.69391056,0.00670908
1779587618863378763,A_-,-0.29007592074958666,0.0,1.4754315364659265,-2.4616821901828825,-0.09271188986593878,0.0,0.0,0.0,-0.054,0.0,0.0,-0.625,0.0,-0.37327499999999997,-2.5137,-2.8397249999999996,0.0047922,-0.31532676,0.00670908
1779587618863378763,A_-,-0.29300343224986136,0.0,1.4754315364659265,-2.4616821901828825,-0.09271188986593878,0.0,0.0,0.0,-0.054,0.0,0.0,-0.625,0.0,-0.37327499999999997,-2.5137,-2.8397249999999996,0.0047922,-0.31532676,0.00670908
1779587618863378763,A_-,-0.2957674847493763,0.0,1.4754315364659265,-2.4616821901828825,-0.09271188986593878,0.0,0.0,0.0,-0.054,0.0,0.0,-0.625,0.0,-0.37327499999999997,-2.5137,-2.8397249999999996,0.0047922,-0.31532676,0.00670908
1779587618908802509,A_-,-0.2984539555000083,0.0,1.4754315364659265,-2.4616821901828825,-0.09271188986593878,0.0,0.0,0.0,-0.049,0.0,0.0,0.138,0.0,-0.36855,-2.7263249999999997,-2.8208249999999997,0.01150128,-0.7121209199999999,0.00766752
1779587618908802509,A_-,-0.30141764624931966,0.0,1.4754315364659265,-2.4616821901828825,-0.09271188986593878,0.0,0.0,0.0,-0.049,0.0,0.0,0.138,0.0,-0.36855,-2.7263249999999997,-2.8208249999999997,0.01150128,-0.7121209199999999,0.00766752
1779587618908802509,A_-,-0.30412080274982145,0.0,1.4754315364659265,-2.4616821901828825,-0.09271188986593878,0.0,0.0,0.0,-0.049,0.0,0.0,0.138,0.0,-0.36855,-2.7263249999999997,-2.8208249999999997,0.01150128,-0.7121209199999999,0.00766752
1779587618973913192,A_-,-0.3068001222500243,0.0,1.4754315364659265,-2.4616821901828825,-0.09271188986593878,0.0,0.0,0.0,-0.155,0.0,0.0,0.302,0.0,-0.36382499999999995,-0.37327499999999997,-2.8916999999999997,0.0047922,-0.90668424,0.00862596
1779587618973913192,A_-,-0.30971663524996984,0.0,1.4754315364659265,-2.4616821901828825,-0.09271188986593878,0.0,0.0,0.0,-0.155,0.0,0.0,0.302,0.0,-0.36382499999999995,-0.37327499999999997,-2.8916999999999997,0.0047922,-0.90668424,0.00862596
1779587618973913192,A_-,-0.31242163949991664,0.0,1.4754315364659265,-2.4616821901828825,-0.09271188986593878,0.0,0.0,0.0,-0.155,0.0,0.0,0.302,0.0,-0.36382499999999995,-0.37327499999999997,-2.8916999999999997,0.0047922,-0.90668424,0.00862596
1779587619008378744,A_-,-0.31509663949964306,0.0,1.4754315364659265,-2.4616821901828825,-0.09271188986593878,0.0,0.0,0.0,-0.14,0.0,0.0,-0.157,0.0,-0.3449249999999999,-0.893025,-2.8539,0.00191688,-0.69678588,0.00862596
1779587619008378744,A_-,-0.31800130600004195,0.0,1.4754315364659265,-2.4616821901828825,-0.09271188986593878,0.0,0.0,0.0,-0.14,0.0,0.0,-0.157,0.0,-0.3449249999999999,-0.893025,-2.8539,0.00191688,-0.69678588,0.00862596
1779587619008378744,A_-,-0.32070467850007844,0.0,1.4754315364659265,-2.4616821901828825,-0.09271188986593878,0.0,0.0,0.0,-0.14,0.0,0.0,-0.157,0.0,-0.3449249999999999,-0.893025,-2.8539,0.00191688,-0.69678588,0.00862596
1779587619038854598,A_-,-0.32332094199955463,0.0,1.4754315364659265,-2.4616821901828825,-0.09271188986593878,0.0,0.0,0.0,0.047,0.0,0.0,0.55,0.0,-0.335475,-3.4870499999999995,-2.9578499999999996,0.01341816,-1.08974628,0.00862596
1779587619038854598,A_-,-0.32621544174980954,0.0,1.4754315364659265,-2.4616821901828825,-0.09271188986593878,0.0,0.0,0.0,0.047,0.0,0.0,0.55,0.0,-0.335475,-3.4870499999999995,-2.9578499999999996,0.01341816,-1.08974628,0.00862596
1779587619038854598,A_-,-0.3289064717500878,0.0,1.4754315364659265,-2.4616821901828825,-0.09271188986593878,0.0,0.0,0.0,0.047,0.0,0.0,0.55,0.0,-0.335475,-3.4870499999999995,-2.9578499999999996,0.01341816,-1.08974628,0.00862596
1779587619072722434,A_-,-0.33158907074994204,0.0,1.4754315364659265,-2.4616821901828825,-0.09271188986593878,0.0,0.0,0.0,-0.078,0.0,0.0,0.586,0.0,-0.326025,-0.756,-3.019275,0.00766752,-1.04182428,-0.00766752
1779587619072722434,A_-,-0.3345057437500145,0.0,1.4754315364659265,-2.4616821901828825,-0.09271188986593878,0.0,0.0,0.0,-0.078,0.0,0.0,0.586,0.0,-0.326025,-0.756,-3.019275,0.00766752,-1.04182428,-0.00766752
1779587619072722434,A_-,-0.33719192650005425,0.0,1.4754315364659265,-2.4616821901828825,-0.09271188986593878,0.0,0.0,0.0,-0.078,0.0,0.0,0.586,0.0,-0.326025,-0.756,-3.019275,0.00766752,-1.04182428,-0.00766752
1779587619092700242,A_-,-0.33984577725004783,0.0,1.4754315364659265,-2.4616821901828825,-0.09271188986593878,0.0,0.0,0.0,-0.073,0.0,0.0,-0.402,0.0,-0.35437499999999994,-0.7748999999999999,-2.7641249999999995,-0.01629348,-0.52139136,0.0
1779587619092700242,A_-,-0.3427187517499988,0.0,1.4754315364659265,-2.4616821901828825,-0.09271188986593878,0.0,0.0,0.0,-0.073,0.0,0.0,-0.402,0.0,-0.35437499999999994,-0.7748999999999999,-2.7641249999999995,-0.01629348,-0.52139136,0.0
1779587619092700242,A_-,-0.34541693274968566,0.0,1.4754315364659265,-2.4616821901828825,-0.09271188986593878,0.0,0.0,0.0,-0.073,0.0,0.0,-0.402,0.0,-0.35437499999999994,-0.7748999999999999,-2.7641249999999995,-0.01629348,-0.52139136,0.0
1779587619107702016,A_-,-0.34811432999958924,0.0,1.4754315364659265,-2.4616821901828825,-0.09271188986593878,0.0,0.0,0.0,0.036000000000000004,0.0,0.0,0.611,0.0,-0.326025,-3.3452999999999995,-3.0098249999999998,0.01245972,-0.9776088,0.0
1779587619107702016,A_-,-0.351042569499441,0.0,1.4754315364659265,-2.4616821901828825,-0.09271188986593878,0.0,0.0,0.0,0.036000000000000004,0.0,0.0,0.611,0.0,-0.326025,-3.3452999999999995,-3.0098249999999998,0.01245972,-0.9776088,0.0
1779587619107702016,A_-,-0.3537504612495468,0.0,1.4754315364659265,-2.4616821901828825,-0.09271188986593878,0.0,0.0,0.0,0.036000000000000004,0.0,0.0,0.611,0.0,-0.326025,-3.3452999999999995,-3.0098249999999998,0.01245972,-0.9776088,0.0
1779587619132696628,A_-,-0.3564193262500339,0.0,1.4754315364659265,-2.4616821901828825,-0.09271188986593878,0.0,0.0,0.0,-0.06,0.0,0.0,-0.494,0.0,-0.34964999999999996,-0.996975,-2.7216,0.02012724,-0.50126412,0.00575064
1779587619132696628,A_-,-0.3593166894997921,0.0,1.4754315364659265,-2.4616821901828825,-0.09271188986593878,0.0,0.0,0.0,-0.06,0.0,0.0,-0.494,0.0,-0.34964999999999996,-0.996975,-2.7216,0.02012724,-0.50126412,0.00575064
1779587619132696628,A_-,-0.3620087994995629,0.0,1.4754315364659265,-2.4616821901828825,-0.09271188986593878,0.0,0.0,0.0,-0.06,0.0,0.0,-0.494,0.0,-0.34964999999999996,-0.996975,-2.7216,0.02012724,-0.50126412,0.00575064
1779587619167686462,A_-,-0.364689134749824,0.0,1.4754315364659265,-2.4616821901828825,-0.09271188986593878,0.0,0.0,0.0,-0.044,0.0,0.0,0.23500000000000001,0.0,-0.34964999999999996,-1.27575,-2.8113749999999995,0.00766752,-0.8530116,0.00670908
1779587619167686462,A_-,-0.3674774242499552,0.0,1.4754315364659265,-2.4616821901828825,-0.09271188986593878,0.0,0.0,0.0,-0.044,0.0,0.0,0.23500000000000001,0.0,-0.34964999999999996,-1.27575,-2.8113749999999995,0.00766752,-0.8530116,0.00670908
1779587619167686462,A_-,-0.3701818364997962,0.0,1.4754315364659265,-2.4616821901828825,-0.09271188986593878,0.0,0.0,0.0,-0.044,0.0,0.0,0.23500000000000001,0.0,-0.34964999999999996,-1.27575,-2.8113749999999995,0.00766752,-0.8530116,0.00670908
1779587619208103656,A_-,-0.37284524599999713,0.0,1.4754315364659265,-2.4616821901828825,-0.09271188986593878,0.0,0.0,0.0,-0.07,0.0,0.0,-0.241,0.0,-0.3591,-0.893025,-2.7452249999999996,0.0047922,-0.66707424,0.00670908
1779587619208103656,A_-,-0.3757452892496076,0.0,1.4754315364659265,-2.4616821901828825,-0.09271188986593878,0.0,0.0,0.0,-0.07,0.0,0.0,-0.241,0.0,-0.3591,-0.893025,-2.7452249999999996,0.0047922,-0.66707424,0.00670908
1779587619208103656,A_-,-0.37843363149931974,0.0,1.4754315364659265,-2.4616821901828825,-0.09271188986593878,0.0,0.0,0.0,-0.07,0.0,0.0,-0.241,0.0,-0.3591,-0.893025,-2.7452249999999996,0.0047922,-0.66707424,0.00670908
1779587619238805770,A_-,-0.3811135189998822,0.0,1.4754315364659265,-2.4616821901828825,-0.09271188986593878,0.0,0.0,0.0,0.093,0.0,0.0,-0.001,0.0,-0.35437499999999994,-2.27745,-2.716875,0.00191688,-0.7332065999999999,0.01821036
1779587619238805770,A_-,-0.38399725225008297,0.0,1.4754315364659265,-2.4616821901828825,-0.09271188986593878,0.0,0.0,0.0,0.093,0.0,0.0,-0.001,0.0,-0.35437499999999994,-2.27745,-2.716875,0.00191688,-0.7332065999999999,0.01821036
1779587619238805770,A_-,-0.3866739239992967,0.0,1.4754315364659265,-2.4616821901828825,-0.09271188986593878,0.0,0.0,0.0,0.093,0.0,0.0,-0.001,0.0,-0.35437499999999994,-2.27745,-2.716875,0.00191688,-0.7332065999999999,0.01821036
1779587619267677783,A_-,-0.38936058649960614,0.0,1.4754315364659265,-2.4616821901828825,-0.09271188986593878,0.0,0.0,0.0,0.002,0.0,0.0,0.596,0.0,-0.335475,-2.896425,-2.82555,0.00191688,-0.7140378,0.01821036
1779587619267677783,A_-,-0.39230932724967715,0.0,1.4754315364659265,-2.4616821901828825,-0.09271188986593878,0.0,0.0,0.0,0.002,0.0,0.0,0.596,0.0,-0.335475,-2.896425,-2.82555,0.00191688,-0.7140378,0.01821036
1779587619267677783,A_-,-0.39500441274958575,0.0,1.4754315364659265,-2.4616821901828825,-0.09271188986593878,0.0,0.0,0.0,0.002,0.0,0.0,0.596,0.0,-0.335475,-2.896425,-2.82555,0.00191688,-0.7140378,0.01821036
1779587619362668514,A_-,-0.3977316462496674,0.0,1.4754315364659265,-2.4616821901828825,-0.09271188986593878,0.0,0.0,0.0,0.023,-0.001,0.0,0.082,0.0,-0.335475,-2.3530499999999996,-3.01455,0.00287532,-0.20031395999999999,0.02012724
1779587619362668514,A_-,-0.4007637202494152,0.0,1.4754315364659265,-2.4616821901828825,-0.09271188986593878,0.0,0.0,0.0,0.023,-0.001,0.0,0.082,0.0,-0.335475,-2.3530499999999996,-3.01455,0.00287532,-0.20031395999999999,0.02012724
1779587619362668514,A_-,-0.4034742197500236,0.0,1.4754315364659265,-2.4616821901828825,-0.09271188986593878,0.0,0.0,0.0,0.023,-0.001,0.0,0.082,0.0,-0.335475,-2.3530499999999996,-3.01455,0.00287532,-0.20031395999999999,0.02012724
1779587619517641305,A_-,-0.4061525074994279,0.0,1.4754315364659265,-2.479816161111103,-0.09271188986593878,0.0,0.0,0.0,0.0,-0.179,0.0,0.0,0.0,-0.326025,-2.216025,-2.46645,0.00766752,-0.5578120799999999,0.01245972
1779587619517641305,A_-,-0.4090364004996445,0.0,1.4754315364659265,-2.479816161111103,-0.09271188986593878,0.0,0.0,0.0,0.0,-0.179,0.0,0.0,0.0,-0.326025,-2.216025,-2.46645,0.00766752,-0.5578120799999999,0.01245972
1779587619517641305,A_-,-0.41174751599919546,0.0,1.4754315364659265,-2.479816161111103,-0.09271188986593878,0.0,0.0,0.0,0.0,-0.179,0.0,0.0,0.0,-0.326025,-2.216025,-2.46645,0.00766752,-0.5578120799999999,0.01245972
