deepaktalwardt/rage-cage-arm-hackstorm/ros2/ws/sysid/runs/sysid_20260524_015318/raw/joint3_phaseA_pos.csv
t_ns,phase,tau_cmd,q1,q2,q3,q4,q5,q6,qd1,qd2,qd3,qd4,qd5,qd6,tau1,tau2,tau3,tau4,tau5,tau6
1779587606299176454,A_+,2.479991962900385e-07,0.0,1.476845253160042,-2.4880366618879965,-0.09271188986593878,0.0,0.0,0.0,0.0,0.0,0.0,0.0,0.0,-0.326025,-2.7452249999999996,-2.4995249999999998,0.01150128,-0.56739648,-0.00670908
1779587606299176454,A_+,0.0027353154991942574,0.0,1.476845253160042,-2.4880366618879965,-0.09271188986593878,0.0,0.0,0.0,0.0,0.0,0.0,0.0,0.0,-0.326025,-2.7452249999999996,-2.4995249999999998,0.01150128,-0.56739648,-0.00670908
1779587609643970966,A_+,0.005422045499472006,0.0,1.476845253160042,-2.4880366618879965,-0.09271188986593878,0.0,0.0,0.0,0.0,0.0,0.0,0.0,0.0,-0.34964999999999996,-2.7310499999999998,-2.6412750000000003,0.01150128,-0.56739648,0.01150128
1779587609643970966,A_+,0.008325066999532282,0.0,1.476845253160042,-2.4880366618879965,-0.09271188986593878,0.0,0.0,0.0,0.0,0.0,0.0,0.0,0.0,-0.34964999999999996,-2.7310499999999998,-2.6412750000000003,0.01150128,-0.56739648,0.01150128
1779587609643970966,A_+,0.011096393749539857,0.0,1.476845253160042,-2.4880366618879965,-0.09271188986593878,0.0,0.0,0.0,0.0,0.0,0.0,0.0,0.0,-0.34964999999999996,-2.7310499999999998,-2.6412750000000003,0.01150128,-0.56739648,0.01150128
1779587609678957223,A_+,0.013779819999399479,0.0,1.476845253160042,-2.4880366618879965,-0.09271188986593878,0.0,0.0,0.0,0.0,0.0,0.0,0.0,0.0,-0.33075,-2.7546749999999998,-2.6885250000000003,0.00670908,-0.5702718,0.00095844
1779587609678957223,A_+,0.016663052249896282,0.0,1.476845253160042,-2.4880366618879965,-0.09271188986593878,0.0,0.0,0.0,0.0,0.0,0.0,0.0,0.0,-0.33075,-2.7546749999999998,-2.6885250000000003,0.00670908,-0.5702718,0.00095844
1779587609678957223,A_+,0.01933738374918903,0.0,1.476845253160042,-2.4880366618879965,-0.09271188986593878,0.0,0.0,0.0,0.0,0.0,0.0,0.0,0.0,-0.33075,-2.7546749999999998,-2.6885250000000003,0.00670908,-0.5702718,0.00095844
1779587609709644079,A_+,0.022012906999407278,0.0,1.476845253160042,-2.4880366618879965,-0.09271188986593878,0.0,0.0,0.0,0.0,0.0,0.0,0.0,0.0,-0.3402,-2.82555,-2.67435,0.0,-0.57123024,0.014376599999999998
1779587609709644079,A_+,0.02491370499956247,0.0,1.476845253160042,-2.4880366618879965,-0.09271188986593878,0.0,0.0,0.0,0.0,0.0,0.0,0.0,0.0,-0.3402,-2.82555,-2.67435,0.0,-0.57123024,0.014376599999999998
1779587609709644079,A_+,0.02761728849964129,0.0,1.476845253160042,-2.4880366618879965,-0.09271188986593878,0.0,0.0,0.0,0.0,0.0,0.0,0.0,0.0,-0.3402,-2.82555,-2.67435,0.0,-0.57123024,0.014376599999999998
1779587609743974447,A_+,0.030278197749794344,0.0,1.476845253160042,-2.4880366618879965,-0.09271188986593878,0.0,0.0,0.0,0.0,0.0,0.0,0.0,0.0,-0.3402,-2.7121500000000003,-2.6412750000000003,0.00095844,-0.56739648,0.0
1779587609743974447,A_+,0.03316272574920731,0.0,1.476845253160042,-2.4880366618879965,-0.09271188986593878,0.0,0.0,0.0,0.0,0.0,0.0,0.0,0.0,-0.3402,-2.7121500000000003,-2.6412750000000003,0.00095844,-0.56739648,0.0
1779587609743974447,A_+,0.03587796400006482,0.0,1.476845253160042,-2.4880366618879965,-0.09271188986593878,0.0,0.0,0.0,0.0,0.0,0.0,0.0,0.0,-0.3402,-2.7121500000000003,-2.6412750000000003,0.00095844,-0.56739648,0.0
1779587609778951644,A_+,0.038528210499862325,0.0,1.476845253160042,-2.4880366618879965,-0.09271188986593878,0.0,0.0,0.0,0.0,0.0,0.0,0.0,0.0,-0.33075,-2.783025,-2.650725,0.01054284,-0.56260428,0.0191688
1779587609778951644,A_+,0.0414473659993746,0.0,1.476845253160042,-2.4880366618879965,-0.09271188986593878,0.0,0.0,0.0,0.0,0.0,0.0,0.0,0.0,-0.33075,-2.783025,-2.650725,0.01054284,-0.56260428,0.0191688
1779587609778951644,A_+,0.04418287349926686,0.0,1.476845253160042,-2.4880366618879965,-0.09271188986593878,0.0,0.0,0.0,0.0,0.0,0.0,0.0,0.0,-0.33075,-2.783025,-2.650725,0.01054284,-0.56260428,0.0191688
1779587609808957099,A_+,0.046900607499992475,0.0,1.476845253160042,-2.4880366618879965,-0.09271188986593878,0.0,0.0,0.0,0.0,0.0,0.0,0.0,0.0,-0.3402,-2.7593999999999994,-2.6412750000000003,0.00670908,-0.57218868,0.01150128
1779587609808957099,A_+,0.04990367999926093,0.0,1.476845253160042,-2.4880366618879965,-0.09271188986593878,0.0,0.0,0.0,0.0,0.0,0.0,0.0,0.0,-0.3402,-2.7593999999999994,-2.6412750000000003,0.00670908,-0.57218868,0.01150128
1779587609808957099,A_+,0.05259260149978218,0.0,1.476845253160042,-2.4880366618879965,-0.09271188986593878,0.0,0.0,0.0,0.0,0.0,0.0,0.0,0.0,-0.3402,-2.7593999999999994,-2.6412750000000003,0.00670908,-0.57218868,0.01150128
1779587609843956947,A_+,0.055244520000087505,0.0,1.476845253160042,-2.4880366618879965,-0.09271188986593878,0.0,0.0,0.0,0.0,0.0,0.0,0.0,0.0,-0.335475,-2.67435,-2.650725,0.01341816,-0.5779393199999999,0.014376599999999998
1779587609843956947,A_+,0.05818948799969803,0.0,1.476845253160042,-2.4880366618879965,-0.09271188986593878,0.0,0.0,0.0,0.0,0.0,0.0,0.0,0.0,-0.335475,-2.67435,-2.650725,0.01341816,-0.5779393199999999,0.014376599999999998
1779587609843956947,A_+,0.06089326374967641,0.0,1.476845253160042,-2.4880366618879965,-0.09271188986593878,0.0,0.0,0.0,0.0,0.0,0.0,0.0,0.0,-0.335475,-2.67435,-2.650725,0.01341816,-0.5779393199999999,0.014376599999999998
1779587609878954887,A_+,0.06357540199951472,0.0,1.476845253160042,-2.4880366618879965,-0.09271188986593878,0.0,0.0,0.0,0.0,0.0,0.0,0.0,0.0,-0.3213,-2.7404999999999995,-2.631825,0.00862596,-0.57123024,0.00766752
1779587609878954887,A_+,0.06648181524997199,0.0,1.476845253160042,-2.4880366618879965,-0.09271188986593878,0.0,0.0,0.0,0.0,0.0,0.0,0.0,0.0,-0.3213,-2.7404999999999995,-2.631825,0.00862596,-0.57123024,0.00766752
1779587609878954887,A_+,0.0691867267496491,0.0,1.476845253160042,-2.4880366618879965,-0.09271188986593878,0.0,0.0,0.0,0.0,0.0,0.0,0.0,0.0,-0.3213,-2.7404999999999995,-2.631825,0.00862596,-0.57123024,0.00766752
1779587609908962488,A_+,0.07186140224985138,0.0,1.476845253160042,-2.4880366618879965,-0.09271188986593878,0.0,0.0,0.0,0.0,0.0,0.0,0.0,0.0,-0.3402,-2.7357749999999994,-2.679075,0.00095844,-0.56643804,0.00862596
1779587609908962488,A_+,0.0747643437498482,0.0,1.476845253160042,-2.4880366618879965,-0.09271188986593878,0.0,0.0,0.0,0.0,0.0,0.0,0.0,0.0,-0.3402,-2.7357749999999994,-2.679075,0.00095844,-0.56643804,0.00862596
1779587609908962488,A_+,0.07747691024997039,0.0,1.476845253160042,-2.4880366618879965,-0.09271188986593878,0.0,0.0,0.0,0.0,0.0,0.0,0.0,0.0,-0.3402,-2.7357749999999994,-2.679075,0.00095844,-0.56643804,0.00862596
1779587609943940877,A_+,0.0801628562494443,0.0,1.476845253160042,-2.4880366618879965,-0.09271188986593878,0.0,0.0,0.0,0.0,0.0,0.0,0.0,0.0,-0.34964999999999996,-2.7216,-2.67435,0.00862596,-0.56931336,0.014376599999999998
1779587609943940877,A_+,0.0830789002493475,0.0,1.476845253160042,-2.4880366618879965,-0.09271188986593878,0.0,0.0,0.0,0.0,0.0,0.0,0.0,0.0,-0.34964999999999996,-2.7216,-2.67435,0.00862596,-0.56931336,0.014376599999999998
1779587609943940877,A_+,0.08575298374944396,0.0,1.476845253160042,-2.4880366618879965,-0.09271188986593878,0.0,0.0,0.0,0.0,0.0,0.0,0.0,0.0,-0.34964999999999996,-2.7216,-2.67435,0.00862596,-0.56931336,0.014376599999999998
1779587609978919267,A_+,0.0884384337496158,0.0,1.476845253160042,-2.4880366618879965,-0.09271188986593878,0.0,0.0,0.0,0.0,0.0,0.0,0.0,0.0,-0.36382499999999995,-2.7546749999999998,-2.650725,0.00287532,-0.57123024,0.00287532
1779587609978919267,A_+,0.09135224599958747,0.0,1.476845253160042,-2.4880366618879965,-0.09271188986593878,0.0,0.0,0.0,0.0,0.0,0.0,0.0,0.0,-0.36382499999999995,-2.7546749999999998,-2.650725,0.00287532,-0.57123024,0.00287532
1779587609978919267,A_+,0.09407787474992801,0.0,1.476845253160042,-2.4880366618879965,-0.09271188986593878,0.0,0.0,0.0,0.0,0.0,0.0,0.0,0.0,-0.36382499999999995,-2.7546749999999998,-2.650725,0.00287532,-0.57123024,0.00287532
1779587610009145736,A_+,0.09676100549950206,0.0,1.476845253160042,-2.4880366618879965,-0.09271188986593878,0.0,0.0,0.0,0.0,0.0,0.0,0.0,0.0,-0.3449249999999999,-2.7688499999999996,-2.69325,0.01054284,-0.56643804,0.01054284
1779587610009145736,A_+,0.09958807749990228,0.0,1.476845253160042,-2.4880366618879965,-0.09271188986593878,0.0,0.0,0.0,0.0,0.0,0.0,0.0,0.0,-0.3449249999999999,-2.7688499999999996,-2.69325,0.01054284,-0.56643804,0.01054284
1779587610009145736,A_+,0.10225314674971742,0.0,1.476845253160042,-2.4880366618879965,-0.09271188986593878,0.0,0.0,0.0,0.0,0.0,0.0,0.0,0.0,-0.3449249999999999,-2.7688499999999996,-2.69325,0.01054284,-0.56643804,0.01054284
1779587610043917417,A_+,0.104932925999492,0.0,1.476845253160042,-2.4880366618879965,-0.09271188986593878,0.0,0.0,0.0,0.0,0.0,0.0,0.0,0.0,-0.335475,-2.7216,-2.650725,0.00191688,-0.56835492,0.00766752
1779587610043917417,A_+,0.10814264424971043,0.0,1.476845253160042,-2.4880366618879965,-0.09271188986593878,0.0,0.0,0.0,0.0,0.0,0.0,0.0,0.0,-0.335475,-2.7216,-2.650725,0.00191688,-0.56835492,0.00766752
1779587610043917417,A_+,0.11097712324954045,0.0,1.476845253160042,-2.4880366618879965,-0.09271188986593878,0.0,0.0,0.0,0.0,0.0,0.0,0.0,0.0,-0.335475,-2.7216,-2.650725,0.00191688,-0.56835492,0.00766752
1779587610078922033,A_+,0.11370587199962756,0.0,1.476845253160042,-2.4880366618879965,-0.09271188986593878,0.0,0.0,0.0,0.0,0.0,0.0,0.0,0.0,-0.326025,-2.7404999999999995,-2.6838,0.00095844,-0.5702718,0.00862596
1779587610078922033,A_+,0.11661470950002695,0.0,1.476845253160042,-2.4880366618879965,-0.09271188986593878,0.0,0.0,0.0,0.0,0.0,0.0,0.0,0.0,-0.326025,-2.7404999999999995,-2.6838,0.00095844,-0.5702718,0.00862596
1779587610078922033,A_+,0.11933441949986445,0.0,1.476845253160042,-2.4880366618879965,-0.09271188986593878,0.0,0.0,0.0,0.0,0.0,0.0,0.0,0.0,-0.326025,-2.7404999999999995,-2.6838,0.00095844,-0.5702718,0.00862596
1779587610113920688,A_+,0.12201596649993007,0.0,1.476845253160042,-2.4880366618879965,-0.09271188986593878,0.0,0.0,0.0,0.0,0.0,0.0,0.0,0.0,-0.335475,-2.716875,-2.69325,0.00095844,-0.5702718,0.00670908
1779587610113920688,A_+,0.12493193099999189,0.0,1.476845253160042,-2.4880366618879965,-0.09271188986593878,0.0,0.0,0.0,0.0,0.0,0.0,0.0,0.0,-0.335475,-2.716875,-2.69325,0.00095844,-0.5702718,0.00670908
1779587610113920688,A_+,0.12768267699993885,0.0,1.476845253160042,-2.4880366618879965,-0.09271188986593878,0.0,0.0,0.0,0.0,0.0,0.0,0.0,0.0,-0.335475,-2.716875,-2.69325,0.00095844,-0.5702718,0.00670908
1779587610143916130,A_+,0.1303831094992347,0.0,1.476845253160042,-2.4880366618879965,-0.09271188986593878,0.0,0.0,0.0,0.0,0.0,0.0,0.0,0.0,-0.326025,-2.7310499999999998,-2.6412750000000003,0.00575064,-0.5702718,0.00670908
1779587610143916130,A_+,0.1335046552494532,0.0,1.476845253160042,-2.4880366618879965,-0.09271188986593878,0.0,0.0,0.0,0.0,0.0,0.0,0.0,0.0,-0.326025,-2.7310499999999998,-2.6412750000000003,0.00575064,-0.5702718,0.00670908
1779587610143916130,A_+,0.13618089874944417,0.0,1.476845253160042,-2.4880366618879965,-0.09271188986593878,0.0,0.0,0.0,0.0,0.0,0.0,0.0,0.0,-0.326025,-2.7310499999999998,-2.6412750000000003,0.00575064,-0.5702718,0.00670908
1779587610178904056,A_+,0.13896624824974424,0.0,1.476845253160042,-2.4880366618879965,-0.09271188986593878,0.0,0.0,0.0,0.0,0.0,0.0,0.0,0.0,-0.34964999999999996,-2.7499499999999997,-2.65545,0.00670908,-0.56931336,0.00862596
1779587610178904056,A_+,0.14183390699963638,0.0,1.476845253160042,-2.4880366618879965,-0.09271188986593878,0.0,0.0,0.0,0.0,0.0,0.0,0.0,0.0,-0.34964999999999996,-2.7499499999999997,-2.65545,0.00670908,-0.56931336,0.00862596
1779587610178904056,A_+,0.14456353574951208,0.0,1.476845253160042,-2.4880366618879965,-0.09271188986593878,0.0,0.0,0.0,0.0,0.0,0.0,0.0,0.0,-0.34964999999999996,-2.7499499999999997,-2.65545,0.00670908,-0.56931336,0.00862596
1779587610213893651,A_+,0.14724255500004801,0.0,1.476845253160042,-2.4880366618879965,-0.09271188986593878,0.0,0.0,0.0,0.0,0.0,0.0,0.0,0.0,-0.33075,-2.7499499999999997,-2.679075,-0.00287532,-0.56739648,0.014376599999999998
1779587610213893651,A_+,0.15018853950004996,0.0,1.476845253160042,-2.4880366618879965,-0.09271188986593878,0.0,0.0,0.0,0.0,0.0,0.0,0.0,0.0,-0.33075,-2.7499499999999997,-2.679075,-0.00287532,-0.56739648,0.014376599999999998
1779587610213893651,A_+,0.15288296499966236,0.0,1.476845253160042,-2.4880366618879965,-0.09271188986593878,0.0,0.0,0.0,0.0,0.0,0.0,0.0,0.0,-0.33075,-2.7499499999999997,-2.679075,-0.00287532,-0.56739648,0.014376599999999998
1779587610243893146,A_+,0.15555755274999683,0.0,1.476845253160042,-2.4880366618879965,-0.09271188986593878,0.0,0.0,0.0,0.0,0.0,0.0,0.0,0.0,-0.3449249999999999,-2.7593999999999994,-2.3813999999999997,0.00191688,-0.56643804,0.00862596
1779587610243893146,A_+,0.15848543574975338,0.0,1.476845253160042,-2.4880366618879965,-0.09271188986593878,0.0,0.0,0.0,0.0,0.0,0.0,0.0,0.0,-0.3449249999999999,-2.7593999999999994,-2.3813999999999997,0.00191688,-0.56643804,0.00862596
1779587610243893146,A_+,0.1612098892492213,0.0,1.476845253160042,-2.4880366618879965,-0.09271188986593878,0.0,0.0,0.0,0.0,0.0,0.0,0.0,0.0,-0.3449249999999999,-2.7593999999999994,-2.3813999999999997,0.00191688,-0.56643804,0.00862596
1779587610278878688,A_+,0.16389074024937145,0.0,1.476845253160042,-2.4880366618879965,-0.09271188986593878,0.0,0.0,0.0,0.0,0.0,0.0,0.0,0.0,-0.3449249999999999,-2.7263249999999997,-2.3813999999999997,0.0047922,-0.56931336,0.01150128
1779587610278878688,A_+,0.16679885774919967,0.0,1.476845253160042,-2.4880366618879965,-0.09271188986593878,0.0,0.0,0.0,0.0,0.0,0.0,0.0,0.0,-0.3449249999999999,-2.7263249999999997,-2.3813999999999997,0.0047922,-0.56931336,0.01150128
1779587610278878688,A_+,0.16949413099973754,0.0,1.476845253160042,-2.4880366618879965,-0.09271188986593878,0.0,0.0,0.0,0.0,0.0,0.0,0.0,0.0,-0.3449249999999999,-2.7263249999999997,-2.3813999999999997,0.0047922,-0.56931336,0.01150128
1779587610313878774,A_+,0.17216923875002976,0.0,1.476845253160042,-2.4880366618879965,-0.09271188986593878,0.0,0.0,0.0,0.0,0.0,0.0,0.0,0.0,-0.33075,-2.7499499999999997,-2.4239249999999997,-0.00095844,-0.56452116,0.028753199999999996
1779587610313878774,A_+,0.17510393675001978,0.0,1.476845253160042,-2.4880366618879965,-0.09271188986593878,0.0,0.0,0.0,0.0,0.0,0.0,0.0,0.0,-0.33075,-2.7499499999999997,-2.4239249999999997,-0.00095844,-0.56452116,0.028753199999999996
1779587610313878774,A_+,0.1778477154994107,0.0,1.476845253160042,-2.4880366618879965,-0.09271188986593878,0.0,0.0,0.0,0.0,0.0,0.0,0.0,0.0,-0.33075,-2.7499499999999997,-2.4239249999999997,-0.00095844,-0.56452116,0.028753199999999996
1779587610343891620,A_+,0.18051891999948566,0.0,1.476845253160042,-2.4880366618879965,-0.09271188986593878,0.0,0.0,0.0,0.0,0.0,0.0,0.0,0.0,-0.33075,-2.7216,-2.386125,0.0047922,-0.56931336,0.02204412
1779587610343891620,A_+,0.18343038099919795,0.0,1.476845253160042,-2.4880366618879965,-0.09271188986593878,0.0,0.0,0.0,0.0,0.0,0.0,0.0,0.0,-0.33075,-2.7216,-2.386125,0.0047922,-0.56931336,0.02204412
1779587610343891620,A_+,0.1861499950000507,0.0,1.476845253160042,-2.4880366618879965,-0.09271188986593878,0.0,0.0,0.0,0.0,0.0,0.0,0.0,0.0,-0.33075,-2.7216,-2.386125,0.0047922,-0.56931336,0.02204412
1779587610378869295,A_+,0.18883674924927618,0.0,1.476845253160042,-2.4880366618879965,-0.09271188986593878,0.0,0.0,0.0,0.0,0.0,0.0,0.0,0.0,-0.33075,-2.7593999999999994,-2.518425,0.0,-0.5702718,0.00766752
1779587610378869295,A_+,0.19178708524941612,0.0,1.476845253160042,-2.4880366618879965,-0.09271188986593878,0.0,0.0,0.0,0.0,0.0,0.0,0.0,0.0,-0.33075,-2.7593999999999994,-2.518425,0.0,-0.5702718,0.00766752
1779587610378869295,A_+,0.19451029099946027,0.0,1.476845253160042,-2.4880366618879965,-0.09271188986593878,0.0,0.0,0.0,0.0,0.0,0.0,0.0,0.0,-0.33075,-2.7593999999999994,-2.518425,0.0,-0.5702718,0.00766752
1779587610413895606,A_+,0.19720680399950652,0.0,1.476845253160042,-2.4880366618879965,-0.09271188986593878,0.0,0.0,0.0,0.0,0.0,0.0,0.0,0.0,-0.335475,-2.7310499999999998,-2.395575,0.00191688,-0.56643804,0.00862596
1779587610413895606,A_+,0.20015488424996875,0.0,1.476845253160042,-2.4880366618879965,-0.09271188986593878,0.0,0.0,0.0,0.0,0.0,0.0,0.0,0.0,-0.335475,-2.7310499999999998,-2.395575,0.00191688,-0.56643804,0.00862596
1779587610413895606,A_+,0.20285681249970366,0.0,1.476845253160042,-2.4880366618879965,-0.09271188986593878,0.0,0.0,0.0,0.0,0.0,0.0,0.0,0.0,-0.335475,-2.7310499999999998,-2.395575,0.00191688,-0.56643804,0.00862596
1779587610443858623,A_+,0.20552989649968367,0.0,1.476845253160042,-2.4880366618879965,-0.09271188986593878,0.0,0.0,0.0,0.0,0.0,0.0,0.0,0.0,-0.34964999999999996,-2.7782999999999998,-2.46645,0.01150128,-0.5702718,0.0047922
1779587610443858623,A_+,0.2084841839996443,0.0,1.476845253160042,-2.4880366618879965,-0.09271188986593878,0.0,0.0,0.0,0.0,0.0,0.0,0.0,0.0,-0.34964999999999996,-2.7782999999999998,-2.46645,0.01150128,-0.5702718,0.0047922
1779587610443858623,A_+,0.21118247300000803,0.0,1.476845253160042,-2.4880366618879965,-0.09271188986593878,0.0,0.0,0.0,0.0,0.0,0.0,0.0,0.0,-0.34964999999999996,-2.7782999999999998,-2.46645,0.01150128,-0.5702718,0.0047922
1779587610478878498,A_+,0.21387065099952451,0.0,1.476845253160042,-2.4880366618879965,-0.09271188986593878,0.0,0.0,0.0,0.0,0.0,0.0,0.0,0.0,-0.34964999999999996,-2.7499499999999997,-2.4002999999999997,0.00670908,-0.57218868,0.01533504
1779587610478878498,A_+,0.2167392777500936,0.0,1.476845253160042,-2.4880366618879965,-0.09271188986593878,0.0,0.0,0.0,0.0,0.0,0.0,0.0,0.0,-0.34964999999999996,-2.7499499999999997,-2.4002999999999997,0.00670908,-0.57218868,0.01533504
1779587610478878498,A_+,0.2194243682497472,0.0,1.476845253160042,-2.4880366618879965,-0.09271188986593878,0.0,0.0,0.0,0.0,0.0,0.0,0.0,0.0,-0.34964999999999996,-2.7499499999999997,-2.4002999999999997,0.00670908,-0.57218868,0.01533504
1779587610513849735,A_+,0.22208142225008487,0.0,1.476845253160042,-2.4880366618879965,-0.09271188986593878,0.0,0.0,0.0,0.0,0.0,0.0,0.0,0.0,-0.34964999999999996,-2.7310499999999998,-2.386125,0.00383376,-0.57218868,0.00383376
1779587610513849735,A_+,0.2249758854995889,0.0,1.476845253160042,-2.4880366618879965,-0.09271188986593878,0.0,0.0,0.0,0.0,0.0,0.0,0.0,0.0,-0.34964999999999996,-2.7310499999999998,-2.386125,0.00383376,-0.57218868,0.00383376
1779587610513849735,A_+,0.2276727664993814,0.0,1.476845253160042,-2.4880366618879965,-0.09271188986593878,0.0,0.0,0.0,0.0,0.0,0.0,0.0,0.0,-0.34964999999999996,-2.7310499999999998,-2.386125,0.00383376,-0.57218868,0.00383376
1779587610543844461,A_+,0.23034808249940397,0.0,1.476845253160042,-2.4880366618879965,-0.09271188986593878,0.0,0.0,0.0,0.0,0.0,0.0,0.0,0.0,-0.34964999999999996,-2.7404999999999995,-2.4239249999999997,0.0047922,-0.57123024,0.01341816
1779587610543844461,A_+,0.23325906349964498,0.0,1.476845253160042,-2.4880366618879965,-0.09271188986593878,0.0,0.0,0.0,0.0,0.0,0.0,0.0,0.0,-0.34964999999999996,-2.7404999999999995,-2.4239249999999997,0.0047922,-0.57123024,0.01341816
1779587610543844461,A_+,0.23598236499947234,0.0,1.476845253160042,-2.4880366618879965,-0.09271188986593878,0.0,0.0,0.0,0.0,0.0,0.0,0.0,0.0,-0.34964999999999996,-2.7404999999999995,-2.4239249999999997,0.0047922,-0.57123024,0.01341816
1779587610578840255,A_+,0.23864723424958356,0.0,1.476845253160042,-2.4880366618879965,-0.09271188986593878,0.0,0.0,0.0,0.0,0.0,0.0,0.0,0.0,-0.3402,-2.7593999999999994,-2.4522749999999998,0.00287532,-0.56835492,0.00191688
1779587610578840255,A_+,0.2415424652499496,0.0,1.476845253160042,-2.4880366618879965,-0.09271188986593878,0.0,0.0,0.0,0.0,0.0,0.0,0.0,0.0,-0.3402,-2.7593999999999994,-2.4522749999999998,0.00287532,-0.56835492,0.00191688
1779587610578840255,A_+,0.2442418339996948,0.0,1.476845253160042,-2.4880366618879965,-0.09271188986593878,0.0,0.0,0.0,0.0,0.0,0.0,0.0,0.0,-0.3402,-2.7593999999999994,-2.4522749999999998,0.00287532,-0.56835492,0.00191688
1779587610609108686,A_+,0.2469261087499035,0.0,1.476845253160042,-2.4880366618879965,-0.09271188986593878,0.0,0.0,0.0,0.0,0.0,0.0,0.0,0.0,-0.3449249999999999,-2.7216,-2.338875,0.00862596,-0.5587705199999999,0.01150128
1779587610609108686,A_+,0.24987606874947232,0.0,1.476845253160042,-2.4880366618879965,-0.09271188986593878,0.0,0.0,0.0,0.0,0.0,0.0,0.0,0.0,-0.3449249999999999,-2.7216,-2.338875,0.00862596,-0.5587705199999999,0.01150128
1779587610609108686,A_+,0.25258394024967856,0.0,1.476845253160042,-2.4880366618879965,-0.09271188986593878,0.0,0.0,0.0,0.0,0.0,0.0,0.0,0.0,-0.3449249999999999,-2.7216,-2.338875,0.00862596,-0.5587705199999999,0.01150128
1779587610643846750,A_+,0.25527478200001497,0.0,1.476845253160042,-2.4880366618879965,-0.09271188986593878,0.0,0.0,0.0,0.0,0.0,0.0,0.0,0.0,-0.335475,-2.7310499999999998,-2.395575,0.00670908,-0.5578120799999999,0.00575064
1779587610643846750,A_+,0.2581835394994414,0.0,1.476845253160042,-2.4880366618879965,-0.09271188986593878,0.0,0.0,0.0,0.0,0.0,0.0,0.0,0.0,-0.335475,-2.7310499999999998,-2.395575,0.00670908,-0.5578120799999999,0.00575064
1779587610643846750,A_+,0.26084952049950516,0.0,1.476845253160042,-2.4880366618879965,-0.09271188986593878,0.0,0.0,0.0,0.0,0.0,0.0,0.0,0.0,-0.335475,-2.7310499999999998,-2.395575,0.00670908,-0.5578120799999999,0.00575064
1779587610678836345,A_+,0.263484889499523,0.0,1.476845253160042,-2.4880366618879965,-0.09271188986593878,0.0,0.0,0.0,0.0,0.0,0.0,0.0,0.0,-0.326025,-2.7593999999999994,-2.367225,0.00766752,-0.5578120799999999,0.00670908
1779587610678836345,A_+,0.2663059222495576,0.0,1.476845253160042,-2.4880366618879965,-0.09271188986593878,0.0,0.0,0.0,0.0,0.0,0.0,0.0,0.0,-0.326025,-2.7593999999999994,-2.367225,0.00766752,-0.5578120799999999,0.00670908
1779587610678836345,A_+,0.2689751027492093,0.0,1.476845253160042,-2.4880366618879965,-0.09271188986593878,0.0,0.0,0.0,0.0,0.0,0.0,0.0,0.0,-0.326025,-2.7593999999999994,-2.367225,0.00766752,-0.5578120799999999,0.00670908
1779587610709165811,A_+,0.27160993599954963,0.0,1.476845253160042,-2.4880366618879965,-0.09271188986593878,0.0,0.0,0.0,0.0,0.0,0.0,0.0,0.0,-0.36382499999999995,-2.7404999999999995,-2.4239249999999997,0.0047922,-0.5568536399999999,0.00862596
1779587610709165811,A_+,0.2744214499998634,0.0,1.476845253160042,-2.4880366618879965,-0.09271188986593878,0.0,0.0,0.0,0.0,0.0,0.0,0.0,0.0,-0.36382499999999995,-2.7404999999999995,-2.4239249999999997,0.0047922,-0.5568536399999999,0.00862596
1779587610709165811,A_+,0.2770906224995997,0.0,1.476845253160042,-2.4880366618879965,-0.09271188986593878,0.0,0.0,0.0,0.0,0.0,0.0,0.0,0.0,-0.36382499999999995,-2.7404999999999995,-2.4239249999999997,0.0047922,-0.5568536399999999,0.00862596
1779587610733873367,A_+,0.27973333449972415,0.0,1.476845253160042,-2.4880366618879965,-0.09271188986593878,0.0,0.0,0.0,0.0,0.0,0.0,0.0,0.0,-0.335475,-2.7641249999999995,-2.40975,0.00191688,-0.5606874,0.00862596
1779587610733873367,A_+,0.2825613824998072,0.0,1.476845253160042,-2.4880366618879965,-0.09271188986593878,0.0,0.0,0.0,0.0,0.0,0.0,0.0,0.0,-0.335475,-2.7641249999999995,-2.40975,0.00191688,-0.5606874,0.00862596
1779587610733873367,A_+,0.2852305789992897,0.0,1.476845253160042,-2.4880366618879965,-0.09271188986593878,0.0,0.0,0.0,0.0,0.0,0.0,0.0,0.0,-0.335475,-2.7641249999999995,-2.40975,0.00191688,-0.5606874,0.00862596
1779587610764072895,A_+,0.2878805302498222,0.0,1.476845253160042,-2.4880366618879965,-0.09271188986593878,0.0,0.0,0.0,0.0,0.0,0.0,0.0,0.0,-0.3449249999999999,-2.7593999999999994,-2.3766749999999996,0.00575064,-0.56260428,0.01150128
1779587610764072895,A_+,0.2907440774997667,0.0,1.476845253160042,-2.4880366618879965,-0.09271188986593878,0.0,0.0,0.0,0.0,0.0,0.0,0.0,0.0,-0.3449249999999999,-2.7593999999999994,-2.3766749999999996,0.00575064,-0.56260428,0.01150128
1779587610764072895,A_+,0.29342578449995926,0.0,1.476845253160042,-2.4880366618879965,-0.09271188986593878,0.0,0.0,0.0,0.0,0.0,0.0,0.0,0.0,-0.3449249999999999,-2.7593999999999994,-2.3766749999999996,0.00575064,-0.56260428,0.01150128
1779587610784886598,A_+,0.2960897897492032,0.0,1.476845253160042,-2.4880366618879965,-0.09271188986593878,0.0,0.0,0.0,0.0,0.0,0.0,0.0,0.0,-0.3402,-2.7546749999999998,-2.4002999999999997,0.00383376,-0.5578120799999999,0.00383376
1779587610784886598,A_+,0.29903286274929997,0.0,1.476845253160042,-2.4880366618879965,-0.09271188986593878,0.0,0.0,0.0,0.0,0.0,0.0,0.0,0.0,-0.3402,-2.7546749999999998,-2.4002999999999997,0.00383376,-0.5578120799999999,0.00383376
1779587610784886598,A_+,0.30174927699954424,0.0,1.476845253160042,-2.4880366618879965,-0.09271188986593878,0.0,0.0,0.0,0.0,0.0,0.0,0.0,0.0,-0.3402,-2.7546749999999998,-2.4002999999999997,0.00383376,-0.5578120799999999,0.00383376
1779587610818818569,A_+,0.30442551274973084,0.0,1.476845253160042,-2.4880366618879965,-0.09271188986593878,0.0,0.0,0.0,0.0,0.0,0.0,0.0,0.0,-0.335475,-2.7216,-2.4050249999999997,-0.00287532,-0.5549367599999999,0.00575064
1779587610818818569,A_+,0.3073774884996965,0.0,1.476845253160042,-2.4880366618879965,-0.09271188986593878,0.0,0.0,0.0,0.0,0.0,0.0,0.0,0.0,-0.335475,-2.7216,-2.4050249999999997,-0.00287532,-0.5549367599999999,0.00575064
1779587610818818569,A_+,0.3100793609992252,0.0,1.476845253160042,-2.4880366618879965,-0.09271188986593878,0.0,0.0,0.0,0.0,0.0,0.0,0.0,0.0,-0.335475,-2.7216,-2.4050249999999997,-0.00287532,-0.5549367599999999,0.00575064
1779587610868802547,A_+,0.31275453274975007,0.0,1.476845253160042,-2.4880366618879965,-0.09271188986593878,0.0,0.0,0.0,0.0,0.0,0.0,0.0,0.0,-0.3402,-2.7216,-2.395575,0.00095844,-0.5597289599999999,0.00862596
1779587610868802547,A_+,0.3155920672497814,0.0,1.476845253160042,-2.4880366618879965,-0.09271188986593878,0.0,0.0,0.0,0.0,0.0,0.0,0.0,0.0,-0.3402,-2.7216,-2.395575,0.00095844,-0.5597289599999999,0.00862596
1779587610868802547,A_+,0.3182759339997574,0.0,1.476845253160042,-2.4880366618879965,-0.09271188986593878,0.0,0.0,0.0,0.0,0.0,0.0,0.0,0.0,-0.3402,-2.7216,-2.395575,0.00095844,-0.5597289599999999,0.00862596
1779587610908805370,A_+,0.3209268289992906,0.0,1.476845253160042,-2.4880366618879965,-0.09271188986593878,0.0,0.0,0.0,0.0,0.0,0.0,0.0,0.0,-0.3449249999999999,-2.7310499999999998,-2.39085,0.00287532,-0.5597289599999999,0.00670908
1779587610908805370,A_+,0.3238273874994775,0.0,1.476845253160042,-2.4880366618879965,-0.09271188986593878,0.0,0.0,0.0,0.0,0.0,0.0,0.0,0.0,-0.3449249999999999,-2.7310499999999998,-2.39085,0.00287532,-0.5597289599999999,0.00670908
1779587610908805370,A_+,0.32655411249925237,0.0,1.476845253160042,-2.4880366618879965,-0.09271188986593878,0.0,0.0,0.0,0.0,0.0,0.0,0.0,0.0,-0.3449249999999999,-2.7310499999999998,-2.39085,0.00287532,-0.5597289599999999,0.00670908
1779587610933867216,A_+,0.32917913099936413,0.0,1.476845253160042,-2.4880366618879965,-0.09271188986593878,0.0,0.0,0.0,0.0,0.0,0.0,0.0,0.0,-0.3402,-2.7735749999999997,-2.433375,0.00287532,-0.56260428,0.01725192
1779587610933867216,A_+,0.3319319327492849,0.0,1.476845253160042,-2.4880366618879965,-0.09271188986593878,0.0,0.0,0.0,0.0,0.0,0.0,0.0,0.0,-0.3402,-2.7735749999999997,-2.433375,0.00287532,-0.56260428,0.01725192
1779587610933867216,A_+,0.33457026924952515,0.0,1.476845253160042,-2.4880366618879965,-0.09271188986593878,0.0,0.0,0.0,0.0,0.0,0.0,0.0,0.0,-0.3402,-2.7735749999999997,-2.433375,0.00287532,-0.56260428,0.01725192
1779587610968793392,A_+,0.33719721524994384,0.0,1.476845253160042,-2.4880366618879965,-0.09271188986593878,0.0,0.0,0.0,0.0,0.0,0.0,0.0,0.0,-0.335475,-2.716875,-2.39085,0.00191688,-0.56356272,0.014376599999999998
1779587610968793392,A_+,0.34004560449920973,0.0,1.476845253160042,-2.4880366618879965,-0.09271188986593878,0.0,0.0,0.0,0.0,0.0,0.0,0.0,0.0,-0.335475,-2.716875,-2.39085,0.00191688,-0.56356272,0.014376599999999998
1779587610968793392,A_+,0.3426953957496153,0.0,1.476845253160042,-2.4880366618879965,-0.09271188986593878,0.0,0.0,0.0,0.0,0.0,0.0,0.0,0.0,-0.335475,-2.716875,-2.39085,0.00191688,-0.56356272,0.014376599999999998
1779587611004537820,A_+,0.3453483947496352,0.0,1.476845253160042,-2.4880366618879965,-0.09271188986593878,0.0,0.0,0.0,0.0,0.0,0.0,0.0,0.0,-0.33075,-2.7310499999999998,-2.4050249999999997,0.00766752,-0.5606874,0.01341816
1779587611004537820,A_+,0.34817604324962304,0.0,1.476845253160042,-2.4880366618879965,-0.09271188986593878,0.0,0.0,0.0,0.0,0.0,0.0,0.0,0.0,-0.33075,-2.7310499999999998,-2.4050249999999997,0.00766752,-0.5606874,0.01341816
1779587611004537820,A_+,0.3508440244995654,0.0,1.476845253160042,-2.4880366618879965,-0.09271188986593878,0.0,0.0,0.0,0.0,0.0,0.0,0.0,0.0,-0.33075,-2.7310499999999998,-2.4050249999999997,0.00766752,-0.5606874,0.01341816
1779587611025215387,A_+,0.353512949499418,0.0,1.476845253160042,-2.4880366618879965,-0.09271188986593878,0.0,0.0,0.0,0.0,0.0,0.0,0.0,0.0,-0.34964999999999996,-2.7357749999999994,-2.414475,0.00575064,-0.5597289599999999,0.00670908
1779587611025215387,A_+,0.3564463282500583,0.0,1.476845253160042,-2.4880366618879965,-0.09271188986593878,0.0,0.0,0.0,0.0,0.0,0.0,0.0,0.0,-0.34964999999999996,-2.7357749999999994,-2.414475,0.00575064,-0.5597289599999999,0.00670908
1779587611025215387,A_+,0.3591624632499588,0.0,1.476845253160042,-2.4880366618879965,-0.09271188986593878,0.0,0.0,0.0,0.0,0.0,0.0,0.0,0.0,-0.34964999999999996,-2.7357749999999994,-2.414475,0.00575064,-0.5597289599999999,0.00670908
1779587611053777933,A_+,0.3618339959994046,0.0,1.476845253160042,-2.4880366618879965,-0.09271188986593878,0.0,0.0,0.0,0.0,0.0,0.0,0.0,0.0,-0.3449249999999999,-2.7452249999999996,-2.4239249999999997,0.0,-0.56356272,0.00766752
1779587611053777933,A_+,0.36467500274920894,0.0,1.476845253160042,-2.4880366618879965,-0.09271188986593878,0.0,0.0,0.0,0.0,0.0,0.0,0.0,0.0,-0.3449249999999999,-2.7452249999999996,-2.4239249999999997,0.0,-0.56356272,0.00766752
1779587611053777933,A_+,0.36738087499998073,0.0,1.476845253160042,-2.4880366618879965,-0.09271188986593878,0.0,0.0,0.0,0.0,0.0,0.0,0.0,0.0,-0.3449249999999999,-2.7452249999999996,-2.4239249999999997,0.0,-0.56356272,0.00766752
1779587611103872060,A_+,0.37005557524935284,0.0,1.476845253160042,-2.4880366618879965,-0.09271188986593878,0.0,0.0,0.0,0.0,0.0,0.0,0.0,0.0,-0.3591,-2.7688499999999996,-2.4002999999999997,0.01341816,-0.56260428,0.0095844
1779587611103872060,A_+,0.3731026032492082,0.0,1.476845253160042,-2.4880366618879965,-0.09271188986593878,0.0,0.0,0.0,0.0,0.0,0.0,0.0,0.0,-0.3591,-2.7688499999999996,-2.4002999999999997,0.01341816,-0.56260428,0.0095844
1779587611103872060,A_+,0.3758171145000233,0.0,1.476845253160042,-2.4880366618879965,-0.09271188986593878,0.0,0.0,0.0,0.0,0.0,0.0,0.0,0.0,-0.3591,-2.7688499999999996,-2.4002999999999997,0.01341816,-0.56260428,0.0095844
1779587611138784646,A_+,0.37849195874969155,0.0,1.476845253160042,-2.4880366618879965,-0.09271188986593878,0.0,0.0,0.0,0.0,0.0,0.0,0.0,0.0,-0.35437499999999994,-2.7499499999999997,-2.4286499999999998,0.00575064,-0.5606874,0.00670908
1779587611138784646,A_+,0.38160254649937997,0.0,1.476845253160042,-2.4880366618879965,-0.09271188986593878,0.0,0.0,0.0,0.0,0.0,0.0,0.0,0.0,-0.35437499999999994,-2.7499499999999997,-2.4286499999999998,0.00575064,-0.5606874,0.00670908
1779587611138784646,A_+,0.3843718584994349,0.0,1.476845253160042,-2.4880366618879965,-0.09271188986593878,0.0,0.0,0.0,0.0,0.0,0.0,0.0,0.0,-0.35437499999999994,-2.7499499999999997,-2.4286499999999998,0.00575064,-0.5606874,0.00670908
1779587611173772573,A_+,0.38706544449996727,0.0,1.476845253160042,-2.4880366618879965,-0.09271188986593878,0.0,0.0,0.0,0.0,0.0,0.0,0.0,0.0,-0.3402,-2.716875,-2.4192,0.00383376,-0.5578120799999999,0.01054284
1779587611173772573,A_+,0.390200109000034,0.0,1.476845253160042,-2.4880366618879965,-0.09271188986593878,0.0,0.0,0.0,0.0,0.0,0.0,0.0,0.0,-0.3402,-2.716875,-2.4192,0.00383376,-0.5578120799999999,0.01054284
1779587611173772573,A_+,0.3929144362500665,0.0,1.476845253160042,-2.4880366618879965,-0.09271188986593878,0.0,0.0,0.0,0.0,0.0,0.0,0.0,0.0,-0.3402,-2.716875,-2.4192,0.00383376,-0.5578120799999999,0.01054284
1779587611203883647,A_+,0.3956331147492165,0.0,1.476845253160042,-2.4880366618879965,-0.09271188986593878,0.0,0.0,0.0,0.0,0.0,0.0,0.0,0.0,-0.34964999999999996,-2.7121500000000003,-2.4002999999999997,0.0095844,-0.5587705199999999,0.01054284
1779587611203883647,A_+,0.3987824094992902,0.0,1.476845253160042,-2.4880366618879965,-0.09271188986593878,0.0,0.0,0.0,0.0,0.0,0.0,0.0,0.0,-0.34964999999999996,-2.7121500000000003,-2.4002999999999997,0.0095844,-0.5587705199999999,0.01054284
1779587611203883647,A_+,0.4014223462500013,0.0,1.476845253160042,-2.4880366618879965,-0.09271188986593878,0.0,0.0,0.0,0.0,0.0,0.0,0.0,0.0,-0.34964999999999996,-2.7121500000000003,-2.4002999999999997,0.0095844,-0.5587705199999999,0.01054284
1779587611238745450,A_+,0.4040418057493298,0.0,1.476845253160042,-2.4880366618879965,-0.09271188986593878,0.0,0.0,0.0,0.0,0.029,0.0,0.0,0.0,-0.335475,-2.7546749999999998,-2.22075,0.00287532,-0.56452116,0.0047922
1779587611238745450,A_+,0.4068262279997725,0.0,1.476845253160042,-2.4880366618879965,-0.09271188986593878,0.0,0.0,0.0,0.0,0.029,0.0,0.0,0.0,-0.335475,-2.7546749999999998,-2.22075,0.00287532,-0.56452116,0.0047922
1779587611238745450,A_+,0.4094717079997281,0.0,1.476845253160042,-2.4880366618879965,-0.09271188986593878,0.0,0.0,0.0,0.0,0.029,0.0,0.0,0.0,-0.335475,-2.7546749999999998,-2.22075,0.00287532,-0.56452116,0.0047922
1779587611270094394,A_+,0.4120928072497918,0.0,1.476845253160042,-2.4880366618879965,-0.09271188986593878,0.0,0.0,0.0,0.0,0.0,0.0,0.0,0.0,-0.3402,-2.7310499999999998,-2.140425,0.00766752,-0.5606874,0.00383376
1779587611270094394,A_+,0.41482315649955126,0.0,1.476845253160042,-2.4880366618879965,-0.09271188986593878,0.0,0.0,0.0,0.0,0.0,0.0,0.0,0.0,-0.3402,-2.7310499999999998,-2.140425,0.00766752,-0.5606874,0.00383376
1779587611270094394,A_+,0.4174228904994379,0.0,1.476845253160042,-2.4880366618879965,-0.09271188986593878,0.0,0.0,0.0,0.0,0.0,0.0,0.0,0.0,-0.3402,-2.7310499999999998,-2.140425,0.00766752,-0.5606874,0.00383376
1779587611303745746,A_+,0.42001381774935,0.0,1.476845253160042,-2.4880366618879965,-0.09271188986593878,0.0,0.0,0.0,0.0,0.0,0.0,0.0,0.0,-0.3402,-2.7263249999999997,-2.16405,0.00191688,-0.5587705199999999,0.01821036
1779587611303745746,A_+,0.42276388424943434,0.0,1.476845253160042,-2.4880366618879965,-0.09271188986593878,0.0,0.0,0.0,0.0,0.0,0.0,0.0,0.0,-0.3402,-2.7263249999999997,-2.16405,0.00191688,-0.5587705199999999,0.01821036
1779587611303745746,A_+,0.42540562099929957,0.0,1.476845253160042,-2.4880366618879965,-0.09271188986593878,0.0,0.0,0.0,0.0,0.0,0.0,0.0,0.0,-0.3402,-2.7263249999999997,-2.16405,0.00191688,-0.5587705199999999,0.01821036
1779587611333791732,A_+,0.42802444849985477,0.0,1.476845253160042,-2.4880366618879965,-0.09271188986593878,0.0,0.0,0.0,0.0,0.0,0.0,0.0,0.0,-0.326025,-2.7263249999999997,-2.14515,0.0047922,-0.5415186000000001,0.0095844
1779587611333791732,A_+,0.43076887574989087,0.0,1.476845253160042,-2.4880366618879965,-0.09271188986593878,0.0,0.0,0.0,0.0,0.0,0.0,0.0,0.0,-0.326025,-2.7263249999999997,-2.14515,0.0047922,-0.5415186000000001,0.0095844
1779587611333791732,A_+,0.43342062724968855,0.0,1.476845253160042,-2.4880366618879965,-0.09271188986593878,0.0,0.0,0.0,0.0,0.0,0.0,0.0,0.0,-0.326025,-2.7263249999999997,-2.14515,0.0047922,-0.5415186000000001,0.0095844
1779587611368740320,A_+,0.4360474057493775,0.0,1.476845253160042,-2.4880366618879965,-0.09271188986593878,0.0,0.0,0.0,0.0,0.0,0.0,0.0,0.0,-0.34964999999999996,-2.7641249999999995,-2.20185,0.01054284,-0.5587705199999999,0.00862596
1779587611368740320,A_+,0.43879440074942977,0.0,1.476845253160042,-2.4880366618879965,-0.09271188986593878,0.0,0.0,0.0,0.0,0.0,0.0,0.0,0.0,-0.34964999999999996,-2.7641249999999995,-2.20185,0.01054284,-0.5587705199999999,0.00862596
1779587611368740320,A_+,0.4414242267494046,0.0,1.476845253160042,-2.4880366618879965,-0.09271188986593878,0.0,0.0,0.0,0.0,0.0,0.0,0.0,0.0,-0.34964999999999996,-2.7641249999999995,-2.20185,0.01054284,-0.5587705199999999,0.00862596
1779587611398734331,A_+,0.4440408867494625,0.0,1.476845253160042,-2.4880366618879965,-0.09271188986593878,0.0,0.0,0.0,0.0,0.0,0.0,0.0,0.0,-0.335475,-2.7499499999999997,-2.338875,0.0,-0.5549367599999999,0.00766752
1779587611398734331,A_+,0.44677868300004775,0.0,1.476845253160042,-2.4880366618879965,-0.09271188986593878,0.0,0.0,0.0,0.0,0.0,0.0,0.0,0.0,-0.335475,-2.7499499999999997,-2.338875,0.0,-0.5549367599999999,0.00766752
1779587611398734331,A_+,0.4494211314995482,0.0,1.476845253160042,-2.4880366618879965,-0.09271188986593878,0.0,0.0,0.0,0.0,0.0,0.0,0.0,0.0,-0.335475,-2.7499499999999997,-2.338875,0.0,-0.5549367599999999,0.00766752
1779587611423789501,A_+,0.452033599749484,0.0,1.476845253160042,-2.4880366618879965,-0.09271188986593878,0.0,0.0,0.0,0.0,0.0,0.0,0.0,0.0,-0.35437499999999994,-2.7593999999999994,-2.16405,0.00575064,-0.5558951999999999,0.00191688
1779587611423789501,A_+,0.45476680449974083,0.0,1.476845253160042,-2.4880366618879965,-0.09271188986593878,0.0,0.0,0.0,0.0,0.0,0.0,0.0,0.0,-0.35437499999999994,-2.7593999999999994,-2.16405,0.00575064,-0.5558951999999999,0.00191688
1779587611423789501,A_+,0.4574044937498911,0.0,1.476845253160042,-2.4880366618879965,-0.09271188986593878,0.0,0.0,0.0,0.0,0.0,0.0,0.0,0.0,-0.35437499999999994,-2.7593999999999994,-2.16405,0.00575064,-0.5558951999999999,0.00191688
1779587611463725805,A_+,0.4600203537493144,0.0,1.476845253160042,-2.4880366618879965,-0.09271188986593878,0.0,0.0,0.0,0.0,0.0,0.0,0.0,0.0,-0.3591,-2.69325,-2.18295,0.00383376,-0.5558951999999999,0.0095844
1779587611463725805,A_+,0.46275698199951876,0.0,1.476845253160042,-2.4880366618879965,-0.09271188986593878,0.0,0.0,0.0,0.0,0.0,0.0,0.0,0.0,-0.3591,-2.69325,-2.18295,0.00383376,-0.5558951999999999,0.0095844
1779587611463725805,A_+,0.46540373399966484,0.0,1.476845253160042,-2.4880366618879965,-0.09271188986593878,0.0,0.0,0.0,0.0,0.0,0.0,0.0,0.0,-0.3591,-2.69325,-2.18295,0.00383376,-0.5558951999999999,0.0095844
1779587611493720531,A_+,0.4680218737494215,0.0,1.476845253160042,-2.4880366618879965,-0.09271188986593878,0.0,0.0,0.0,0.0,0.0,0.0,0.0,0.0,-0.34964999999999996,-2.7310499999999998,-2.244375,0.01341816,-0.56164584,0.0
1779587611493720531,A_+,0.47077036449991283,0.0,1.476845253160042,-2.4880366618879965,-0.09271188986593878,0.0,0.0,0.0,0.0,0.0,0.0,0.0,0.0,-0.34964999999999996,-2.7310499999999998,-2.244375,0.01341816,-0.56164584,0.0
1779587611493720531,A_+,0.47341432474968315,0.0,1.476845253160042,-2.4880366618879965,-0.09271188986593878,0.0,0.0,0.0,0.0,0.0,0.0,0.0,0.0,-0.34964999999999996,-2.7310499999999998,-2.244375,0.01341816,-0.56164584,0.0
1779587611528730154,A_+,0.47605670124994504,0.0,1.476845253160042,-2.4880366618879965,-0.09271188986593878,0.0,0.0,0.0,0.0,0.0,0.0,0.0,0.0,-0.33075,-2.7641249999999995,-2.1734999999999998,0.00287532,-0.5558951999999999,0.00766752
1779587611528730154,A_+,0.47880982349943224,0.0,1.476845253160042,-2.4880366618879965,-0.09271188986593878,0.0,0.0,0.0,0.0,0.0,0.0,0.0,0.0,-0.33075,-2.7641249999999995,-2.1734999999999998,0.00287532,-0.5558951999999999,0.00766752
1779587611528730154,A_+,0.4814407134999783,0.0,1.476845253160042,-2.4880366618879965,-0.09271188986593878,0.0,0.0,0.0,0.0,0.0,0.0,0.0,0.0,-0.33075,-2.7641249999999995,-2.1734999999999998,0.00287532,-0.5558951999999999,0.00766752
1779587611558721303,A_+,0.4840651884996987,0.0,1.476845253160042,-2.4880366618879965,-0.09271188986593878,0.0,0.0,0.0,0.0,0.0,0.0,0.0,0.0,-0.3449249999999999,-2.7404999999999995,-2.178225,0.0095844,-0.56260428,0.014376599999999998
1779587611558721303,A_+,0.48682759724943026,0.0,1.476845253160042,-2.4880366618879965,-0.09271188986593878,0.0,0.0,0.0,0.0,0.0,0.0,0.0,0.0,-0.3449249999999999,-2.7404999999999995,-2.178225,0.0095844,-0.56260428,0.014376599999999998
1779587611558721303,A_+,0.4894666382497235,0.0,1.476845253160042,-2.4880366618879965,-0.09271188986593878,0.0,0.0,0.0,0.0,0.0,0.0,0.0,0.0,-0.3449249999999999,-2.7404999999999995,-2.178225,0.0095844,-0.56260428,0.014376599999999998
1779587611589930295,A_+,0.49209033724946494,0.0,1.476845253160042,-2.4880366618879965,-0.09271188986593878,0.0,0.0,0.0,0.0,0.0,0.0,0.0,0.0,-0.335475,-2.7216,-2.187675,-0.00287532,-0.5597289599999999,0.00287532
1779587611589930295,A_+,0.49484963474969845,0.0,1.476845253160042,-2.4880366618879965,-0.09271188986593878,0.0,0.0,0.0,0.0,0.0,0.0,0.0,0.0,-0.335475,-2.7216,-2.187675,-0.00287532,-0.5597289599999999,0.00287532
1779587611589930295,A_+,0.49749667449941626,0.0,1.476845253160042,-2.4880366618879965,-0.09271188986593878,0.0,0.0,0.0,0.0,0.0,0.0,0.0,0.0,-0.335475,-2.7216,-2.187675,-0.00287532,-0.5597289599999999,0.00287532
1779587611618707895,A_+,0.5001232852500834,0.0,1.476845253160042,-2.4880366618879965,-0.09271188986593878,0.0,0.0,0.0,0.0,0.0,0.0,0.0,0.0,-0.34964999999999996,-2.7357749999999994,-2.1546,0.00575064,-0.56164584,0.00575064
1779587611618707895,A_+,0.5028714239997498,0.0,1.476845253160042,-2.4880366618879965,-0.09271188986593878,0.0,0.0,0.0,0.0,0.0,0.0,0.0,0.0,-0.34964999999999996,-2.7357749999999994,-2.1546,0.00575064,-0.56164584,0.00575064
1779587611618707895,A_+,0.5055605864999961,0.0,1.476845253160042,-2.4880366618879965,-0.09271188986593878,0.0,0.0,0.0,0.0,0.0,0.0,0.0,0.0,-0.34964999999999996,-2.7357749999999994,-2.1546,0.00575064,-0.56164584,0.00575064
1779587611654379844,A_+,0.5081813977494676,0.0,1.476845253160042,-2.4880366618879965,-0.09271188986593878,0.0,0.0,0.0,0.0,0.0,0.0,0.0,0.0,-0.3402,-2.7546749999999998,-2.16405,0.00670908,-0.56164584,0.0095844
1779587611654379844,A_+,0.5109276727498582,0.0,1.476845253160042,-2.4880366618879965,-0.09271188986593878,0.0,0.0,0.0,0.0,0.0,0.0,0.0,0.0,-0.3402,-2.7546749999999998,-2.16405,0.00670908,-0.56164584,0.0095844
1779587611654379844,A_+,0.5135400692497569,0.0,1.476845253160042,-2.4880366618879965,-0.09271188986593878,0.0,0.0,0.0,0.0,0.0,0.0,0.0,0.0,-0.3402,-2.7546749999999998,-2.16405,0.00670908,-0.56164584,0.0095844
1779587611688694477,A_+,0.5161347799994473,0.0,1.476845253160042,-2.4880366618879965,-0.09271188986593878,0.0,0.0,0.0,0.0,0.0,0.0,0.0,0.0,-0.33075,-2.80665,-2.1734999999999998,0.00191688,-0.56164584,0.00191688
1779587611688694477,A_+,0.5188441397494898,0.0,1.476845253160042,-2.4880366618879965,-0.09271188986593878,0.0,0.0,0.0,0.0,0.0,0.0,0.0,0.0,-0.33075,-2.80665,-2.1734999999999998,0.00191688,-0.56164584,0.00191688
1779587611688694477,A_+,0.5214898039994296,0.0,1.476845253160042,-2.4880366618879965,-0.09271188986593878,0.0,0.0,0.0,0.0,0.0,0.0,0.0,0.0,-0.33075,-2.80665,-2.1734999999999998,0.00191688,-0.56164584,0.00191688
1779587611719361305,A_+,0.5241050639997411,0.0,1.476845253160042,-2.4880366618879965,-0.09271188986593878,0.0,0.0,0.0,0.0,0.0,0.0,0.0,0.0,-0.33075,-2.7735749999999997,-2.168775,-0.01245972,-0.5606874,0.01054284
1779587611719361305,A_+,0.5268472914995073,0.0,1.476845253160042,-2.4880366618879965,-0.09271188986593878,0.0,0.0,0.0,0.0,0.0,0.0,0.0,0.0,-0.33075,-2.7735749999999997,-2.168775,-0.01245972,-0.5606874,0.01054284
1779587611719361305,A_+,0.5294810452496677,0.0,1.476845253160042,-2.4880366618879965,-0.09271188986593878,0.0,0.0,0.0,0.0,0.0,0.0,0.0,0.0,-0.33075,-2.7735749999999997,-2.168775,-0.01245972,-0.5606874,0.01054284
1779587611743685007,A_+,0.5320894182495977,0.0,1.476845253160042,-2.4880366618879965,-0.09271188986593878,0.0,0.0,0.0,0.0,0.0,0.0,0.0,0.0,-0.34964999999999996,-2.7263249999999997,-2.130975,0.01054284,-0.56260428,0.00862596
1779587611743685007,A_+,0.5348522669992235,0.0,1.476845253160042,-2.4880366618879965,-0.09271188986593878,0.0,0.0,0.0,0.0,0.0,0.0,0.0,0.0,-0.34964999999999996,-2.7263249999999997,-2.130975,0.01054284,-0.56260428,0.00862596
1779587611743685007,A_+,0.5374885324999923,0.0,1.476845253160042,-2.4880366618879965,-0.09271188986593878,0.0,0.0,0.0,0.0,0.0,0.0,0.0,0.0,-0.34964999999999996,-2.7263249999999997,-2.130975,0.01054284,-0.56260428,0.00862596
1779587611768684148,A_+,0.5400990332500442,0.0,1.476845253160042,-2.4880366618879965,-0.09271188986593878,0.0,0.0,0.0,0.0,0.0,0.0,0.0,0.0,-0.35437499999999994,-2.7216,-2.1262499999999998,0.0047922,-0.56356272,0.00670908
1779587611768684148,A_+,0.5428353414999947,0.0,1.476845253160042,-2.4880366618879965,-0.09271188986593878,0.0,0.0,0.0,0.0,0.0,0.0,0.0,0.0,-0.35437499999999994,-2.7216,-2.1262499999999998,0.0047922,-0.56356272,0.00670908
1779587611768684148,A_+,0.5455072182494405,0.0,1.476845253160042,-2.4880366618879965,-0.09271188986593878,0.0,0.0,0.0,0.0,0.0,0.0,0.0,0.0,-0.35437499999999994,-2.7216,-2.1262499999999998,0.0047922,-0.56356272,0.00670908
1779587611794383287,A_+,0.5481487467495754,0.0,1.476845253160042,-2.4880366618879965,-0.09271188986593878,0.0,0.0,0.0,0.0,0.0,0.0,0.0,0.0,-0.316575,-2.7593999999999994,-2.14515,0.00383376,-0.5568536399999999,0.00575064
1779587611794383287,A_+,0.5509143072495135,0.0,1.476845253160042,-2.4880366618879965,-0.09271188986593878,0.0,0.0,0.0,0.0,0.0,0.0,0.0,0.0,-0.316575,-2.7593999999999994,-2.14515,0.00383376,-0.5568536399999999,0.00575064
1779587611794383287,A_+,0.5535241762499936,0.0,1.476845253160042,-2.4880366618879965,-0.09271188986593878,0.0,0.0,0.0,0.0,0.0,0.0,0.0,0.0,-0.316575,-2.7593999999999994,-2.14515,0.00383376,-0.5568536399999999,0.00575064
1779587611824525117,A_+,0.5561338210000031,0.0,1.476845253160042,-2.4880366618879965,-0.09271188986593878,0.0,0.0,0.0,0.0,0.0,0.0,0.0,0.0,-0.335475,-2.7546749999999998,-2.1971249999999998,0.00191688,-0.5587705199999999,0.01150128
1779587611824525117,A_+,0.5588800559999072,0.0,1.476845253160042,-2.4880366618879965,-0.09271188986593878,0.0,0.0,0.0,0.0,0.0,0.0,0.0,0.0,-0.335475,-2.7546749999999998,-2.1971249999999998,0.00191688,-0.5587705199999999,0.01150128
1779587611824525117,A_+,0.5615804169992771,0.0,1.476845253160042,-2.4880366618879965,-0.09271188986593878,0.0,0.0,0.0,0.0,0.0,0.0,0.0,0.0,-0.335475,-2.7546749999999998,-2.1971249999999998,0.00191688,-0.5587705199999999,0.01150128
1779587611838678121,A_+,0.5641956929994194,0.0,1.476845253160042,-2.4880366618879965,-0.09271188986593878,0.0,0.0,0.0,0.0,0.0,0.0,0.0,0.0,-0.35437499999999994,-2.7357749999999994,-2.1734999999999998,0.0047922,-0.5606874,0.014376599999999998
1779587611838678121,A_+,0.5669386324998413,0.0,1.476845253160042,-2.4880366618879965,-0.09271188986593878,0.0,0.0,0.0,0.0,0.0,0.0,0.0,0.0,-0.35437499999999994,-2.7357749999999994,-2.1734999999999998,0.0047922,-0.5606874,0.014376599999999998
1779587611838678121,A_+,0.569579561250066,0.0,1.476845253160042,-2.4880366618879965,-0.09271188986593878,0.0,0.0,0.0,0.0,0.0,0.0,0.0,0.0,-0.35437499999999994,-2.7357749999999994,-2.1734999999999998,0.0047922,-0.5606874,0.014376599999999998
1779587611859292984,A_+,0.5721850784993876,0.0,1.476845253160042,-2.4880366618879965,-0.09271188986593878,0.0,0.0,0.0,0.0,0.0,0.0,0.0,0.0,-0.3402,-2.7499499999999997,-2.16405,0.00575064,-0.5587705199999999,0.01533504
1779587611859292984,A_+,0.5749392884999907,0.0,1.476845253160042,-2.4880366618879965,-0.09271188986593878,0.0,0.0,0.0,0.0,0.0,0.0,0.0,0.0,-0.3402,-2.7499499999999997,-2.16405,0.00575064,-0.5587705199999999,0.01533504
1779587611859292984,A_+,0.5775841767499514,0.0,1.476845253160042,-2.4880366618879965,-0.09271188986593878,0.0,0.0,0.0,0.0,0.0,0.0,0.0,0.0,-0.3402,-2.7499499999999997,-2.16405,0.00575064,-0.5587705199999999,0.01533504
1779587611873684406,A_+,0.5801930217494373,0.0,1.476845253160042,-2.4880366618879965,-0.09271188986593878,0.0,0.0,0.0,0.0,0.0,0.0,0.0,0.0,-0.326025,-2.7310499999999998,-2.14515,0.0,-0.5558951999999999,0.01150128
1779587611873684406,A_+,0.5829053572497287,0.0,1.476845253160042,-2.4880366618879965,-0.09271188986593878,0.0,0.0,0.0,0.0,0.0,0.0,0.0,0.0,-0.326025,-2.7310499999999998,-2.14515,0.0,-0.5558951999999999,0.01150128
1779587611873684406,A_+,0.5855292562500836,0.0,1.476845253160042,-2.4880366618879965,-0.09271188986593878,0.0,0.0,0.0,0.0,0.0,0.0,0.0,0.0,-0.326025,-2.7310499999999998,-2.14515,0.0,-0.5558951999999999,0.01150128
1779587611898669004,A_+,0.5881406687494746,0.0,1.476845253160042,-2.4880366618879965,-0.09271188986593878,0.0,0.0,0.0,0.0,0.0,0.0,0.0,0.0,-0.3449249999999999,-2.716875,-2.2113,0.00383376,-0.5597289599999999,0.0095844
1779587611898669004,A_+,0.590897198499988,0.0,1.476845253160042,-2.4880366618879965,-0.09271188986593878,0.0,0.0,0.0,0.0,0.0,0.0,0.0,0.0,-0.3449249999999999,-2.716875,-2.2113,0.00383376,-0.5597289599999999,0.0095844
1779587611898669004,A_+,0.5935432544993091,0.0,1.476845253160042,-2.4880366618879965,-0.09271188986593878,0.0,0.0,0.0,0.0,0.0,0.0,0.0,0.0,-0.3449249999999999,-2.716875,-2.2113,0.00383376,-0.5597289599999999,0.0095844
1779587611914157152,A_+,0.5961786564994327,0.0,1.476845253160042,-2.4880366618879965,-0.09271188986593878,0.0,0.0,0.0,0.0,0.0,0.0,0.0,0.0,-0.335475,-2.783025,-2.140425,0.00575064,-0.5587705199999999,0.0095844
1779587611914157152,A_+,0.5989464492495244,0.0,1.476845253160042,-2.4880366618879965,-0.09271188986593878,0.0,0.0,0.0,0.0,0.0,0.0,0.0,0.0,-0.335475,-2.783025,-2.140425,0.00575064,-0.5587705199999999,0.0095844
1779587611914157152,A_+,0.6015898739997283,0.0,1.476845253160042,-2.4880366618879965,-0.09271188986593878,0.0,0.0,0.0,0.0,0.0,0.0,0.0,0.0,-0.335475,-2.783025,-2.140425,0.00575064,-0.5587705199999999,0.0095844
1779587611944723367,A_+,0.6042317949995777,0.0,1.476845253160042,-2.4880366618879965,-0.09271188986593878,0.0,0.0,0.0,0.0,0.0,0.0,0.0,0.0,-0.335475,-2.7027,-2.16405,0.00575064,-0.56164584,0.00766752
1779587611944723367,A_+,0.6069720874993436,0.0,1.476845253160042,-2.4880366618879965,-0.09271188986593878,0.0,0.0,0.0,0.0,0.0,0.0,0.0,0.0,-0.335475,-2.7027,-2.16405,0.00575064,-0.56164584,0.00766752
1779587611944723367,A_+,0.6095615112499218,0.0,1.476845253160042,-2.4880366618879965,-0.09271188986593878,0.0,0.0,0.0,0.0,0.0,0.0,0.0,0.0,-0.335475,-2.7027,-2.16405,0.00575064,-0.56164584,0.00766752
1779587611968667030,A_+,0.6121798115000274,0.0,1.476845253160042,-2.4880366618879965,-0.09271188986593878,0.0,0.0,0.0,0.0,0.0,0.0,0.0,0.0,-0.3591,-2.7452249999999996,-2.1498749999999998,0.0095844,-0.5587705199999999,0.01150128
1779587611968667030,A_+,0.6149125047495545,0.0,1.476845253160042,-2.4880366618879965,-0.09271188986593878,0.0,0.0,0.0,0.0,0.0,0.0,0.0,0.0,-0.3591,-2.7452249999999996,-2.1498749999999998,0.0095844,-0.5587705199999999,0.01150128
1779587611968667030,A_+,0.6175791824998669,0.0,1.476845253160042,-2.4880366618879965,-0.09271188986593878,0.0,0.0,0.0,0.0,0.0,0.0,0.0,0.0,-0.3591,-2.7452249999999996,-2.1498749999999998,0.0095844,-0.5587705199999999,0.01150128
1779587611988888978,A_+,0.6201764454999648,0.0,1.476845253160042,-2.4880366618879965,-0.09271188986593878,0.0,0.0,0.0,0.0,0.0,0.0,0.0,0.0,-0.3449249999999999,-2.7404999999999995,-2.1498749999999998,0.0,-0.5578120799999999,0.00575064
1779587611988888978,A_+,0.6228880774997378,0.0,1.476845253160042,-2.4880366618879965,-0.09271188986593878,0.0,0.0,0.0,0.0,0.0,0.0,0.0,0.0,-0.3449249999999999,-2.7404999999999995,-2.1498749999999998,0.0,-0.5578120799999999,0.00575064
1779587611988888978,A_+,0.6255197997497817,0.0,1.476845253160042,-2.4880366618879965,-0.09271188986593878,0.0,0.0,0.0,0.0,0.0,0.0,0.0,0.0,-0.3449249999999999,-2.7404999999999995,-2.1498749999999998,0.0,-0.5578120799999999,0.00575064
1779587612009892225,A_+,0.6281204942497425,0.0,1.476845253160042,-2.4880366618879965,-0.09271188986593878,0.0,0.0,0.0,0.0,0.0,0.0,0.0,0.0,-0.3449249999999999,-2.7735749999999997,-2.1546,0.0,-0.56164584,0.01054284
1779587612009892225,A_+,0.6308680414995251,0.0,1.476845253160042,-2.4880366618879965,-0.09271188986593878,0.0,0.0,0.0,0.0,0.0,0.0,0.0,0.0,-0.3449249999999999,-2.7735749999999997,-2.1546,0.0,-0.56164584,0.01054284
1779587612009892225,A_+,0.6334890534999431,0.0,1.476845253160042,-2.4880366618879965,-0.09271188986593878,0.0,0.0,0.0,0.0,0.0,0.0,0.0,0.0,-0.3449249999999999,-2.7735749999999997,-2.1546,0.0,-0.56164584,0.01054284
1779587612138646841,A_+,0.6360994504993869,0.0,1.476845253160042,-2.4880366618879965,-0.09271188986593878,0.0,0.0,0.0,0.0,0.0,0.0,0.0,0.0,-0.3213,-2.7357749999999994,-2.20185,0.00575064,-0.56356272,0.0047922
1779587612138646841,A_+,0.6388507254996512,0.0,1.476845253160042,-2.4880366618879965,-0.09271188986593878,0.0,0.0,0.0,0.0,0.0,0.0,0.0,0.0,-0.3213,-2.7357749999999994,-2.20185,0.00575064,-0.56356272,0.0047922
1779587612138646841,A_+,0.6415942172498035,0.0,1.476845253160042,-2.4880366618879965,-0.09271188986593878,0.0,0.0,0.0,0.0,0.0,0.0,0.0,0.0,-0.3213,-2.7357749999999994,-2.20185,0.00575064,-0.56356272,0.0047922
1779587612193638801,A_+,0.6442522882498452,0.0,1.476845253160042,-2.4880366618879965,-0.09271188986593878,0.0,0.0,0.0,0.0,0.0,0.0,0.0,0.0,-0.34964999999999996,-2.7357749999999994,-2.1734999999999998,0.00383376,-0.5587705199999999,0.01054284
1779587612193638801,A_+,0.6471574152492394,0.0,1.476845253160042,-2.4880366618879965,-0.09271188986593878,0.0,0.0,0.0,0.0,0.0,0.0,0.0,0.0,-0.34964999999999996,-2.7357749999999994,-2.1734999999999998,0.00383376,-0.5587705199999999,0.01054284
1779587612193638801,A_+,0.649820341499435,0.0,1.476845253160042,-2.4880366618879965,-0.09271188986593878,0.0,0.0,0.0,0.0,0.0,0.0,0.0,0.0,-0.34964999999999996,-2.7357749999999994,-2.1734999999999998,0.00383376,-0.5587705199999999,0.01054284
1779587612210056066,A_+,0.6524779564997516,0.0,1.476845253160042,-2.4880366618879965,-0.09271188986593878,0.0,0.0,0.0,0.0,0.0,0.0,0.0,0.0,-0.3449249999999999,-2.7310499999999998,-2.1546,0.01341816,-0.56356272,0.01054284
1779587612210056066,A_+,0.6553762682497108,0.0,1.476845253160042,-2.4880366618879965,-0.09271188986593878,0.0,0.0,0.0,0.0,0.0,0.0,0.0,0.0,-0.3449249999999999,-2.7310499999999998,-2.1546,0.01341816,-0.56356272,0.01054284
1779587612210056066,A_+,0.6581168084994715,0.0,1.476845253160042,-2.4880366618879965,-0.09271188986593878,0.0,0.0,0.0,0.0,0.0,0.0,0.0,0.0,-0.3449249999999999,-2.7310499999999998,-2.1546,0.01341816,-0.56356272,0.01054284
1779587612224448919,A_+,0.660765464749602,0.0,1.476845253160042,-2.4880366618879965,-0.09271188986593878,0.0,0.0,0.0,0.0,0.0,0.0,0.0,0.0,-0.35437499999999994,-2.783025,-2.168775,0.0,-0.5587705199999999,0.01245972
1779587612224448919,A_+,0.6636956924994593,0.0,1.476845253160042,-2.4880366618879965,-0.09271188986593878,0.0,0.0,0.0,0.0,0.0,0.0,0.0,0.0,-0.35437499999999994,-2.783025,-2.168775,0.0,-0.5587705199999999,0.01245972
1779587612224448919,A_+,0.6663896547497643,0.0,1.476845253160042,-2.4880366618879965,-0.09271188986593878,0.0,0.0,0.0,0.0,0.0,0.0,0.0,0.0,-0.35437499999999994,-2.783025,-2.168775,0.0,-0.5587705199999999,0.01245972
1779587612244320392,A_+,0.6690503334993991,0.0,1.476845253160042,-2.4880366618879965,-0.09271188986593878,0.0,0.0,0.0,0.0,0.0,0.0,0.0,0.0,-0.3402,-2.7452249999999996,-2.16405,0.00383376,-0.5587705199999999,0.0047922
1779587612244320392,A_+,0.6719878479998442,0.0,1.476845253160042,-2.4880366618879965,-0.09271188986593878,0.0,0.0,0.0,0.0,0.0,0.0,0.0,0.0,-0.3402,-2.7452249999999996,-2.16405,0.00383376,-0.5587705199999999,0.0047922
1779587612244320392,A_+,0.6747286682493723,0.0,1.476845253160042,-2.4880366618879965,-0.09271188986593878,0.0,0.0,0.0,0.0,0.0,0.0,0.0,0.0,-0.3402,-2.7452249999999996,-2.16405,0.00383376,-0.5587705199999999,0.0047922
1779587612253668308,A_+,0.67740205724931,0.0,1.476845253160042,-2.4880366618879965,-0.09271188986593878,0.0,0.0,0.0,0.0,0.0,0.0,0.0,0.0,-0.335475,-2.7121500000000003,-1.91835,0.00766752,-0.5587705199999999,0.01054284
1779587612253668308,A_+,0.6803277974995581,0.0,1.476845253160042,-2.4880366618879965,-0.09271188986593878,0.0,0.0,0.0,0.0,0.0,0.0,0.0,0.0,-0.335475,-2.7121500000000003,-1.91835,0.00766752,-0.5587705199999999,0.01054284
1779587612253668308,A_+,0.6830454687496967,0.0,1.476845253160042,-2.4880366618879965,-0.09271188986593878,0.0,0.0,0.0,0.0,0.0,0.0,0.0,0.0,-0.335475,-2.7121500000000003,-1.91835,0.00766752,-0.5587705199999999,0.01054284
1779587612273655176,A_+,0.6857134824995228,0.0,1.476845253160042,-2.4880366618879965,-0.09271188986593878,0.0,0.0,0.0,0.0,0.0,0.0,0.0,0.0,-0.3402,-2.7216,-1.894725,0.00670908,-0.5549367599999999,0.01341816
1779587612273655176,A_+,0.6886310637491988,0.0,1.476845253160042,-2.4880366618879965,-0.09271188986593878,0.0,0.0,0.0,0.0,0.0,0.0,0.0,0.0,-0.3402,-2.7216,-1.894725,0.00670908,-0.5549367599999999,0.01341816
1779587612273655176,A_+,0.6913620852492386,0.0,1.476845253160042,-2.4880366618879965,-0.09271188986593878,0.0,0.0,0.0,0.0,0.0,0.0,0.0,0.0,-0.3402,-2.7216,-1.894725,0.00670908,-0.5549367599999999,0.01341816
1779587612293626785,A_+,0.6940544317494641,0.0,1.476845253160042,-2.4880366618879965,-0.09271188986593878,0.0,0.0,0.0,0.0,0.0,0.0,0.0,0.0,-0.3402,-2.7310499999999998,-1.89,0.00287532,-0.56164584,0.00670908
1779587612293626785,A_+,0.6970029129997783,0.0,1.476845253160042,-2.4880366618879965,-0.09271188986593878,0.0,0.0,0.0,0.0,0.0,0.0,0.0,0.0,-0.3402,-2.7310499999999998,-1.89,0.00287532,-0.56164584,0.00670908
1779587612293626785,A_+,0.6996880524993685,0.0,1.476845253160042,-2.4880366618879965,-0.09271188986593878,0.0,0.0,0.0,0.0,0.0,0.0,0.0,0.0,-0.3402,-2.7310499999999998,-1.89,0.00287532,-0.56164584,0.00670908
1779587612318632125,A_+,0.7023384844997054,0.0,1.476845253160042,-2.4880366618879965,-0.09271188986593878,0.0,0.0,0.0,0.0,0.0,0.0,0.0,0.0,-0.3449249999999999,-2.7357749999999994,-1.9278,-0.00287532,-0.5606874,0.00383376
1779587612318632125,A_+,0.7052976442500949,0.0,1.476845253160042,-2.4880366618879965,-0.09271188986593878,0.0,0.0,0.0,0.0,0.0,0.0,0.0,0.0,-0.3449249999999999,-2.7357749999999994,-1.9278,-0.00287532,-0.5606874,0.00383376
1779587612318632125,A_+,0.7080487272496612,0.0,1.476845253160042,-2.4880366618879965,-0.09271188986593878,0.0,0.0,0.0,0.0,0.0,0.0,0.0,0.0,-0.3449249999999999,-2.7357749999999994,-1.9278,-0.00287532,-0.5606874,0.00383376
1779587612334051370,A_+,0.7106948957498389,0.0,1.476845253160042,-2.4880366618879965,-0.09271188986593878,0.0,0.0,0.0,0.0,0.0,0.0,0.0,0.0,-0.335475,-2.7357749999999994,-1.9656,0.00191688,-0.56356272,0.00766752
1779587612334051370,A_+,0.7135929275000308,0.0,1.476845253160042,-2.4880366618879965,-0.09271188986593878,0.0,0.0,0.0,0.0,0.0,0.0,0.0,0.0,-0.335475,-2.7357749999999994,-1.9656,0.00191688,-0.56356272,0.00766752
1779587612334051370,A_+,0.7162872339995374,0.0,1.476845253160042,-2.4880366618879965,-0.09271188986593878,0.0,0.0,0.0,0.0,0.0,0.0,0.0,0.0,-0.335475,-2.7357749999999994,-1.9656,0.00191688,-0.56356272,0.00766752
1779587612358653068,A_+,0.7189540557492364,0.0,1.476845253160042,-2.4880366618879965,-0.09271188986593878,0.0,0.0,0.0,0.0,0.0,0.0,0.0,0.0,-0.3591,-2.697975,-1.904175,0.00862596,-0.5568536399999999,0.01245972
1779587612358653068,A_+,0.7218524874997456,0.0,1.476845253160042,-2.4880366618879965,-0.09271188986593878,0.0,0.0,0.0,0.0,0.0,0.0,0.0,0.0,-0.3591,-2.697975,-1.904175,0.00862596,-0.5568536399999999,0.01245972
1779587612358653068,A_+,0.7245292759998847,0.0,1.476845253160042,-2.4880366618879965,-0.09271188986593878,0.0,0.0,0.0,0.0,0.0,0.0,0.0,0.0,-0.3591,-2.697975,-1.904175,0.00862596,-0.5568536399999999,0.01245972
1779587612378723621,A_+,0.7272016092492777,0.0,1.476845253160042,-2.4880366618879965,-0.09271188986593878,0.0,0.0,0.0,0.0,0.0,0.0,0.0,0.0,-0.33075,-2.7263249999999997,-1.894725,0.00191688,-0.5558951999999999,-0.00191688
1779587612378723621,A_+,0.7300913779999973,0.0,1.476845253160042,-2.4880366618879965,-0.09271188986593878,0.0,0.0,0.0,0.0,0.0,0.0,0.0,0.0,-0.33075,-2.7263249999999997,-1.894725,0.00191688,-0.5558951999999999,-0.00191688
1779587612378723621,A_+,0.7327750617496349,0.0,1.476845253160042,-2.4880366618879965,-0.09271188986593878,0.0,0.0,0.0,0.0,0.0,0.0,0.0,0.0,-0.33075,-2.7263249999999997,-1.894725,0.00191688,-0.5558951999999999,-0.00191688
1779587612413602352,A_+,0.7354254217498237,0.0,1.476845253160042,-2.4880366618879965,-0.09271188986593878,0.0,0.0,0.0,0.0,0.0,0.0,0.0,0.0,-0.326025,-2.7735749999999997,-1.91835,0.00383376,-0.5597289599999999,0.01629348
1779587612413602352,A_+,0.73833513199952,0.0,1.476845253160042,-2.4880366618879965,-0.09271188986593878,0.0,0.0,0.0,0.0,0.0,0.0,0.0,0.0,-0.326025,-2.7735749999999997,-1.91835,0.00383376,-0.5597289599999999,0.01629348
1779587612413602352,A_+,0.7410566747494158,0.0,1.476845253160042,-2.4880366618879965,-0.09271188986593878,0.0,0.0,0.0,0.0,0.0,0.0,0.0,0.0,-0.326025,-2.7735749999999997,-1.91835,0.00383376,-0.5597289599999999,0.01629348
1779587612454631567,A_+,0.7437467894997098,0.0,1.476845253160042,-2.4880366618879965,-0.09271188986593878,0.0,0.0,0.0,0.0,0.0,0.0,0.0,0.0,-0.3402,-2.7593999999999994,-1.885275,0.00670908,-0.5597289599999999,0.0095844
1779587612454631567,A_+,0.7466721617493022,0.0,1.476845253160042,-2.4880366618879965,-0.09271188986593878,0.0,0.0,0.0,0.0,0.0,0.0,0.0,0.0,-0.3402,-2.7593999999999994,-1.885275,0.00670908,-0.5597289599999999,0.0095844
1779587612454631567,A_+,0.7493703874997664,0.0,1.476845253160042,-2.4880366618879965,-0.09271188986593878,0.0,0.0,0.0,0.0,0.0,0.0,0.0,0.0,-0.3402,-2.7593999999999994,-1.885275,0.00670908,-0.5597289599999999,0.0095844
1779587612489483833,A_+,0.7520275707493056,0.0,1.476845253160042,-2.4880366618879965,-0.09271188986593878,0.0,0.0,0.0,0.0,0.0,0.0,0.0,0.0,-0.326025,-2.7499499999999997,-1.913625,0.0047922,-0.55014456,0.00766752
1779587612489483833,A_+,0.7549010377497325,0.0,1.476845253160042,-2.4880366618879965,-0.09271188986593878,0.0,0.0,0.0,0.0,0.0,0.0,0.0,0.0,-0.326025,-2.7499499999999997,-1.913625,0.0047922,-0.55014456,0.00766752
1779587612489483833,A_+,0.7576153012496434,0.0,1.476845253160042,-2.4880366618879965,-0.09271188986593878,0.0,0.0,0.0,0.0,0.0,0.0,0.0,0.0,-0.326025,-2.7499499999999997,-1.913625,0.0047922,-0.55014456,0.00766752
1779587612509551048,A_+,0.7602952014995026,0.0,1.476845253160042,-2.4880366618879965,-0.09271188986593878,0.0,0.0,0.0,0.0,0.0,0.0,0.0,0.0,-0.3449249999999999,-2.7357749999999994,-1.9467,0.00287532,-0.5606874,0.00862596
1779587612509551048,A_+,0.7631888657497257,0.0,1.476845253160042,-2.4880366618879965,-0.09271188986593878,0.0,0.0,0.0,0.0,0.0,0.0,0.0,0.0,-0.3449249999999999,-2.7357749999999994,-1.9467,0.00287532,-0.5606874,0.00862596
1779587612509551048,A_+,0.7658763489998819,0.0,1.476845253160042,-2.4880366618879965,-0.09271188986593878,0.0,0.0,0.0,0.0,0.0,0.0,0.0,0.0,-0.3449249999999999,-2.7357749999999994,-1.9467,0.00287532,-0.5606874,0.00862596
1779587612554694652,A_+,0.7685185339996679,0.0,1.476845253160042,-2.4880366618879965,-0.09271188986593878,0.0,0.0,0.0,0.0,0.0,0.0,0.0,0.0,-0.34964999999999996,-2.6838,-1.913625,0.00670908,-0.5597289599999999,0.00862596
1779587612554694652,A_+,0.7713816344994484,0.0,1.476845253160042,-2.4880366618879965,-0.09271188986593878,0.0,0.0,0.0,0.0,0.0,0.0,0.0,0.0,-0.34964999999999996,-2.6838,-1.913625,0.00670908,-0.5597289599999999,0.00862596
1779587612554694652,A_+,0.7741102002491971,0.0,1.476845253160042,-2.4880366618879965,-0.09271188986593878,0.0,0.0,0.0,0.0,0.0,0.0,0.0,0.0,-0.34964999999999996,-2.6838,-1.913625,0.00670908,-0.5597289599999999,0.00862596
1779587612574891328,A_+,0.7767850849995739,0.0,1.476845253160042,-2.4880366618879965,-0.09271188986593878,0.0,0.0,0.0,0.0,0.0,0.0,0.0,0.0,-0.326025,-2.7452249999999996,-1.894725,0.00095844,-0.5587705199999999,0.00575064
1779587612574891328,A_+,0.7796634315000119,0.0,1.476845253160042,-2.4880366618879965,-0.09271188986593878,0.0,0.0,0.0,0.0,0.0,0.0,0.0,0.0,-0.326025,-2.7452249999999996,-1.894725,0.00095844,-0.5587705199999999,0.00575064
1779587612574891328,A_+,0.7823421797493211,0.0,1.476845253160042,-2.4880366618879965,-0.09271188986593878,0.0,0.0,0.0,0.0,0.0,0.0,0.0,0.0,-0.326025,-2.7452249999999996,-1.894725,0.00095844,-0.5587705199999999,0.00575064
1779587612598855972,A_+,0.7850150567492165,0.0,1.476845253160042,-2.4880366618879965,-0.09271188986593878,0.0,0.0,0.0,0.0,0.0,0.0,0.0,0.0,-0.3449249999999999,-2.7641249999999995,-1.894725,0.00191688,-0.5606874,0.0191688
1779587612598855972,A_+,0.7878976664997026,0.0,1.476845253160042,-2.4880366618879965,-0.09271188986593878,0.0,0.0,0.0,0.0,0.0,0.0,0.0,0.0,-0.3449249999999999,-2.7641249999999995,-1.894725,0.00191688,-0.5606874,0.0191688
1779587612598855972,A_+,0.790607770749375,0.0,1.476845253160042,-2.4880366618879965,-0.09271188986593878,0.0,0.0,0.0,0.0,0.0,0.0,0.0,0.0,-0.3449249999999999,-2.7641249999999995,-1.894725,0.00191688,-0.5606874,0.0191688
1779587612629571676,A_+,0.7932926462499381,0.0,1.476845253160042,-2.4880366618879965,-0.09271188986593878,0.0,0.0,0.0,0.0,0.0,0.0,0.0,0.0,-0.335475,-2.7310499999999998,-1.89,0.0,-0.5568536399999999,0.0095844
1779587612629571676,A_+,0.7962302489995636,0.0,1.476845253160042,-2.4880366618879965,-0.09271188986593878,0.0,0.0,0.0,0.0,0.0,0.0,0.0,0.0,-0.335475,-2.7310499999999998,-1.89,0.0,-0.5568536399999999,0.0095844
1779587612629571676,A_+,0.7989410249992943,0.0,1.476845253160042,-2.4880366618879965,-0.09271188986593878,0.0,0.0,0.0,0.0,0.0,0.0,0.0,0.0,-0.335475,-2.7310499999999998,-1.89,0.0,-0.5568536399999999,0.0095844
1779587612664761781,A_+,0.8015913369999907,0.0,1.476845253160042,-2.4880366618879965,-0.09271188986593878,0.0,0.0,0.0,0.0,0.0,0.0,0.0,0.0,-0.33075,-2.7310499999999998,-1.913625,0.01533504,-0.5606874,0.01245972
1779587612664761781,A_+,0.804467507749905,0.0,1.476845253160042,-2.4880366618879965,-0.09271188986593878,0.0,0.0,0.0,0.0,0.0,0.0,0.0,0.0,-0.33075,-2.7310499999999998,-1.913625,0.01533504,-0.5606874,0.01245972
1779587612664761781,A_+,0.80719759349995,0.0,1.476845253160042,-2.4880366618879965,-0.09271188986593878,0.0,0.0,0.0,0.0,0.0,0.0,0.0,0.0,-0.33075,-2.7310499999999998,-1.913625,0.01533504,-0.5606874,0.01245972
1779587612699036598,A_+,0.8098736619995179,0.0,1.476845253160042,-2.4880366618879965,-0.09271188986593878,0.0,0.0,0.0,0.0,0.0,0.0,0.0,0.0,-0.335475,-2.7404999999999995,-1.923075,0.0,-0.56356272,0.00670908
1779587612699036598,A_+,0.8127839322496584,0.0,1.476845253160042,-2.4880366618879965,-0.09271188986593878,0.0,0.0,0.0,0.0,0.0,0.0,0.0,0.0,-0.335475,-2.7404999999999995,-1.923075,0.0,-0.56356272,0.00670908
1779587612699036598,A_+,0.8154759187500531,0.0,1.476845253160042,-2.4880366618879965,-0.09271188986593878,0.0,0.0,0.0,0.0,0.0,0.0,0.0,0.0,-0.335475,-2.7404999999999995,-1.923075,0.0,-0.56356272,0.00670908
1779587612733550786,A_+,0.8181212794997919,0.0,1.476845253160042,-2.4880366618879965,-0.09271188986593878,0.0,0.0,0.0,0.0,0.0,0.0,0.0,0.0,-0.34964999999999996,-2.7404999999999995,-1.923075,0.00766752,-0.5587705199999999,0.00670908
1779587612733550786,A_+,0.8210231987495717,0.0,1.476845253160042,-2.4880366618879965,-0.09271188986593878,0.0,0.0,0.0,0.0,0.0,0.0,0.0,0.0,-0.34964999999999996,-2.7404999999999995,-1.923075,0.00766752,-0.5587705199999999,0.00670908
1779587612733550786,A_+,0.8237360307493873,0.0,1.476845253160042,-2.4880366618879965,-0.09271188986593878,0.0,0.0,0.0,0.0,0.0,0.0,0.0,0.0,-0.34964999999999996,-2.7404999999999995,-1.923075,0.00766752,-0.5587705199999999,0.00670908
1779587612764348983,A_+,0.8264014207497894,0.0,1.476845253160042,-2.4880366618879965,-0.09271188986593878,0.0,0.0,0.0,0.0,0.0,0.0,0.0,0.0,-0.326025,-2.7404999999999995,-1.913625,0.00383376,-0.56260428,0.0047922
1779587612764348983,A_+,0.8293112269993799,0.0,1.476845253160042,-2.4880366618879965,-0.09271188986593878,0.0,0.0,0.0,0.0,0.0,0.0,0.0,0.0,-0.326025,-2.7404999999999995,-1.913625,0.00383376,-0.56260428,0.0047922
1779587612764348983,A_+,0.8320072289998279,0.0,1.476845253160042,-2.4880366618879965,-0.09271188986593878,0.0,0.0,0.0,0.0,0.0,0.0,0.0,0.0,-0.326025,-2.7404999999999995,-1.913625,0.00383376,-0.56260428,0.0047922
1779587612788615465,A_+,0.8346497579996139,0.0,1.476845253160042,-2.4880366618879965,-0.09271188986593878,0.0,0.0,0.0,0.0,0.0,0.0,0.0,0.0,-0.3449249999999999,-2.7735749999999997,-1.932525,0.00383376,-0.5568536399999999,0.00575064
1779587612788615465,A_+,0.8375289442492431,0.0,1.476845253160042,-2.4880366618879965,-0.09271188986593878,0.0,0.0,0.0,0.0,0.0,0.0,0.0,0.0,-0.3449249999999999,-2.7735749999999997,-1.932525,0.00383376,-0.5568536399999999,0.00575064
1779587612788615465,A_+,0.8402436799997304,0.0,1.476845253160042,-2.4880366618879965,-0.09271188986593878,0.0,0.0,0.0,0.0,0.0,0.0,0.0,0.0,-0.3449249999999999,-2.7735749999999997,-1.932525,0.00383376,-0.5568536399999999,0.00575064
1779587612828778505,A_+,0.842920500499531,0.0,1.476845253160042,-2.4880366618879965,-0.09271188986593878,0.0,0.0,0.0,0.0,0.0,0.0,0.0,0.0,-0.3449249999999999,-2.7546749999999998,-1.941975,0.00287532,-0.5606874,0.00575064
1779587612828778505,A_+,0.8459541789998184,0.0,1.476845253160042,-2.4880366618879965,-0.09271188986593878,0.0,0.0,0.0,0.0,0.0,0.0,0.0,0.0,-0.3449249999999999,-2.7546749999999998,-1.941975,0.00287532,-0.5606874,0.00575064
1779587612828778505,A_+,0.8486522932498701,0.0,1.476845253160042,-2.4880366618879965,-0.09271188986593878,0.0,0.0,0.0,0.0,0.0,0.0,0.0,0.0,-0.3449249999999999,-2.7546749999999998,-1.941975,0.00287532,-0.5606874,0.00575064
1779587612853545665,A_+,0.8512998942496779,0.0,1.476845253160042,-2.4880366618879965,-0.09271188986593878,0.0,0.0,0.0,0.0,0.0,0.0,0.0,0.0,-0.33075,-2.7641249999999995,-1.932525,0.0095844,-0.5587705199999999,0.0095844
1779587612853545665,A_+,0.8541933189999327,0.0,1.476845253160042,-2.4880366618879965,-0.09271188986593878,0.0,0.0,0.0,0.0,0.0,0.0,0.0,0.0,-0.33075,-2.7641249999999995,-1.932525,0.0095844,-0.5587705199999999,0.0095844
1779587612853545665,A_+,0.8568837142493066,0.0,1.476845253160042,-2.4880366618879965,-0.09271188986593878,0.0,0.0,0.0,0.0,0.0,0.0,0.0,0.0,-0.33075,-2.7641249999999995,-1.932525,0.0095844,-0.5587705199999999,0.0095844
1779587612894706249,A_+,0.8595577357500588,0.0,1.476845253160042,-2.4880366618879965,-0.09271188986593878,0.0,0.0,0.0,0.0,0.0,0.0,0.0,0.0,-0.3449249999999999,-2.7546749999999998,-1.9089,0.00575064,-0.5568536399999999,0.0095844
1779587612894706249,A_+,0.8624463292499058,0.0,1.476845253160042,-2.4880366618879965,-0.09271188986593878,0.0,0.0,0.0,0.0,0.0,0.0,0.0,0.0,-0.3449249999999999,-2.7546749999999998,-1.9089,0.00575064,-0.5568536399999999,0.0095844
1779587612894706249,A_+,0.8651453072498043,0.0,1.476845253160042,-2.4880366618879965,-0.09271188986593878,0.0,0.0,0.0,0.0,0.0,0.0,0.0,0.0,-0.3449249999999999,-2.7546749999999998,-1.9089,0.00575064,-0.5568536399999999,0.0095844
1779587612939144372,A_+,0.8678239362498061,0.0,1.476845253160042,-2.4880366618879965,-0.09271188986593878,0.0,0.0,0.0,0.0,0.0,0.0,0.0,0.0,-0.33075,-2.7688499999999996,-1.9467,0.00766752,-0.5558951999999999,0.01054284
1779587612939144372,A_+,0.8707195927499924,0.0,1.476845253160042,-2.4880366618879965,-0.09271188986593878,0.0,0.0,0.0,0.0,0.0,0.0,0.0,0.0,-0.33075,-2.7688499999999996,-1.9467,0.00766752,-0.5558951999999999,0.01054284
1779587612939144372,A_+,0.8734370724996552,0.0,1.476845253160042,-2.4880366618879965,-0.09271188986593878,0.0,0.0,0.0,0.0,0.0,0.0,0.0,0.0,-0.33075,-2.7688499999999996,-1.9467,0.00766752,-0.5558951999999999,0.01054284
1779587612963893890,A_+,0.8761141974991915,0.0,1.476845253160042,-2.4880366618879965,-0.09271188986593878,0.0,0.0,0.0,0.0,0.0,0.0,0.0,0.0,-0.33075,-2.7310499999999998,-1.913625,-0.00191688,-0.5578120799999999,0.00766752
1779587612963893890,A_+,0.8790373544998147,0.0,1.476845253160042,-2.4880366618879965,-0.09271188986593878,0.0,0.0,0.0,0.0,0.0,0.0,0.0,0.0,-0.33075,-2.7310499999999998,-1.913625,-0.00191688,-0.5578120799999999,0.00766752
1779587612963893890,A_+,0.8817545702495408,0.0,1.476845253160042,-2.4880366618879965,-0.09271188986593878,0.0,0.0,0.0,0.0,0.0,0.0,0.0,0.0,-0.33075,-2.7310499999999998,-1.913625,-0.00191688,-0.5578120799999999,0.00766752
1779587612993657112,A_+,0.8844069224996929,0.0,1.476845253160042,-2.4880366618879965,-0.09271188986593878,0.0,0.0,0.0,0.0,0.0,0.0,0.0,0.0,-0.3449249999999999,-2.7499499999999997,-1.904175,0.00287532,-0.5568536399999999,0.00862596
1779587612993657112,A_+,0.8873150814997643,0.0,1.476845253160042,-2.4880366618879965,-0.09271188986593878,0.0,0.0,0.0,0.0,0.0,0.0,0.0,0.0,-0.3449249999999999,-2.7499499999999997,-1.904175,0.00287532,-0.5568536399999999,0.00862596
1779587612993657112,A_+,0.8900152434998745,0.0,1.476845253160042,-2.4880366618879965,-0.09271188986593878,0.0,0.0,0.0,0.0,0.0,0.0,0.0,0.0,-0.3449249999999999,-2.7499499999999997,-1.904175,0.00287532,-0.5568536399999999,0.00862596
1779587613019289731,A_+,0.8926867532500182,0.0,1.476845253160042,-2.4880366618879965,-0.09271188986593878,0.0,0.0,0.0,0.0,0.0,0.0,0.0,0.0,-0.3449249999999999,-2.7735749999999997,-1.904175,0.01150128,-0.5578120799999999,0.01245972
1779587613019289731,A_+,0.895586761249433,0.0,1.476845253160042,-2.4880366618879965,-0.09271188986593878,0.0,0.0,0.0,0.0,0.0,0.0,0.0,0.0,-0.3449249999999999,-2.7735749999999997,-1.904175,0.01150128,-0.5578120799999999,0.01245972
1779587613019289731,A_+,0.8982784125000762,0.0,1.476845253160042,-2.4880366618879965,-0.09271188986593878,0.0,0.0,0.0,0.0,0.0,0.0,0.0,0.0,-0.3449249999999999,-2.7735749999999997,-1.904175,0.01150128,-0.5578120799999999,0.01245972
1779587613073825120,A_+,0.9009400832492247,0.0,1.476845253160042,-2.4880366618879965,-0.09271188986593878,0.0,0.0,0.0,0.0,0.0,0.0,0.0,0.0,-0.33075,-2.7310499999999998,-1.923075,0.0191688,-0.5587705199999999,0.01054284
1779587613073825120,A_+,0.9038233254996157,0.0,1.476845253160042,-2.4880366618879965,-0.09271188986593878,0.0,0.0,0.0,0.0,0.0,0.0,0.0,0.0,-0.33075,-2.7310499999999998,-1.923075,0.0191688,-0.5587705199999999,0.01054284
1779587613073825120,A_+,0.9065702734997103,0.0,1.476845253160042,-2.4880366618879965,-0.09271188986593878,0.0,0.0,0.0,0.0,0.0,0.0,0.0,0.0,-0.33075,-2.7310499999999998,-1.923075,0.0191688,-0.5587705199999999,0.01054284
1779587613128870248,A_+,0.9092499182497704,0.0,1.476845253160042,-2.4880366618879965,-0.09271188986593878,0.0,0.0,0.0,0.0,0.0,0.0,0.0,0.0,-0.3449249999999999,-2.7027,-1.923075,-0.0047922,-0.5606874,0.01054284
1779587613128870248,A_+,0.9121522380000897,0.0,1.476845253160042,-2.4880366618879965,-0.09271188986593878,0.0,0.0,0.0,0.0,0.0,0.0,0.0,0.0,-0.3449249999999999,-2.7027,-1.923075,-0.0047922,-0.5606874,0.01054284
1779587613128870248,A_+,0.9148679579993768,0.0,1.476845253160042,-2.4880366618879965,-0.09271188986593878,0.0,0.0,0.0,0.0,0.0,0.0,0.0,0.0,-0.3449249999999999,-2.7027,-1.923075,-0.0047922,-0.5606874,0.01054284
1779587613159136772,A_+,0.9175364919992717,0.0,1.476845253160042,-2.4880366618879965,-0.09271188986593878,0.0,0.0,0.0,0.0,0.0,0.0,0.0,0.0,-0.3449249999999999,-2.716875,-1.932525,0.0,-0.5587705199999999,0.00575064
1779587613159136772,A_+,0.9204594249995353,0.0,1.476845253160042,-2.4880366618879965,-0.09271188986593878,0.0,0.0,0.0,0.0,0.0,0.0,0.0,0.0,-0.3449249999999999,-2.716875,-1.932525,0.0,-0.5587705199999999,0.00575064
1779587613159136772,A_+,0.9231681459996253,0.0,1.476845253160042,-2.4880366618879965,-0.09271188986593878,0.0,0.0,0.0,0.0,0.0,0.0,0.0,0.0,-0.3449249999999999,-2.716875,-1.932525,0.0,-0.5587705199999999,0.00575064
1779587613198495626,A_+,0.9258334324995303,0.0,1.476845253160042,-2.4880366618879965,-0.09271188986593878,0.0,0.0,0.0,0.0,0.0,0.0,0.0,0.0,-0.3591,-2.716875,-1.904175,0.00095844,-0.5587705199999999,0.01341816
1779587613198495626,A_+,0.9287068599996928,0.0,1.476845253160042,-2.4880366618879965,-0.09271188986593878,0.0,0.0,0.0,0.0,0.0,0.0,0.0,0.0,-0.3591,-2.716875,-1.904175,0.00095844,-0.5587705199999999,0.01341816
1779587613198495626,A_+,0.9313816972498898,0.0,1.476845253160042,-2.4880366618879965,-0.09271188986593878,0.0,0.0,0.0,0.0,0.0,0.0,0.0,0.0,-0.3591,-2.716875,-1.904175,0.00095844,-0.5587705199999999,0.01341816
1779587613228500843,A_+,0.9340495354999803,0.0,1.476845253160042,-2.4880366618879965,-0.09271188986593878,0.0,0.0,0.0,0.0,0.0,0.0,0.0,0.0,-0.335475,-2.7546749999999998,-1.923075,0.01054284,-0.5587705199999999,0.00383376
1779587613228500843,A_+,0.9369124922495757,0.0,1.476845253160042,-2.4880366618879965,-0.09271188986593878,0.0,0.0,0.0,0.0,0.0,0.0,0.0,0.0,-0.335475,-2.7546749999999998,-1.923075,0.01054284,-0.5587705199999999,0.00383376
1779587613228500843,A_+,0.9395966484999008,0.0,1.476845253160042,-2.4880366618879965,-0.09271188986593878,0.0,0.0,0.0,0.0,0.0,0.0,0.0,0.0,-0.335475,-2.7546749999999998,-1.923075,0.01054284,-0.5587705199999999,0.00383376
1779587613243484497,A_+,0.9422637907500757,0.0,1.476845253160042,-2.4880366618879965,-0.09271188986593878,0.0,0.0,0.0,0.0,0.0,0.0,0.0,0.0,-0.34964999999999996,-2.716875,-1.894725,0.0047922,-0.56164584,0.00670908
1779587613243484497,A_+,0.9451175087497177,0.0,1.476845253160042,-2.4880366618879965,-0.09271188986593878,0.0,0.0,0.0,0.0,0.0,0.0,0.0,0.0,-0.34964999999999996,-2.716875,-1.894725,0.0047922,-0.56164584,0.00670908
1779587613243484497,A_+,0.9478124395000123,0.0,1.476845253160042,-2.4880366618879965,-0.09271188986593878,0.0,0.0,0.0,0.0,0.0,0.0,0.0,0.0,-0.34964999999999996,-2.716875,-1.894725,0.0047922,-0.56164584,0.00670908
1779587613284184217,A_+,0.9504724784992504,0.0,1.476845253160042,-2.4880366618879965,-0.09271188986593878,0.0,0.0,0.0,0.0,0.0,0.0,0.0,0.0,-0.3402,-2.7404999999999995,-1.649025,0.01533504,-0.5549367599999999,0.01245972
1779587613284184217,A_+,0.9533679432497593,0.0,1.476845253160042,-2.4880366618879965,-0.09271188986593878,0.0,0.0,0.0,0.0,0.0,0.0,0.0,0.0,-0.3402,-2.7404999999999995,-1.649025,0.01533504,-0.5549367599999999,0.01245972
1779587613284184217,A_+,0.9560934139999517,0.0,1.476845253160042,-2.4880366618879965,-0.09271188986593878,0.0,0.0,0.0,0.0,0.0,0.0,0.0,0.0,-0.3402,-2.7404999999999995,-1.649025,0.01533504,-0.5549367599999999,0.01245972
1779587613313765287,A_+,0.9587635157495242,0.0,1.476845253160042,-2.4880366618879965,-0.09271188986593878,0.0,0.0,0.0,0.0,0.0,0.0,0.0,0.0,-0.35437499999999994,-2.7593999999999994,-1.6443,0.0047922,-0.56452116,0.0095844
1779587613313765287,A_+,0.9616537572492234,0.0,1.476845253160042,-2.4880366618879965,-0.09271188986593878,0.0,0.0,0.0,0.0,0.0,0.0,0.0,0.0,-0.35437499999999994,-2.7593999999999994,-1.6443,0.0047922,-0.56452116,0.0095844
1779587613313765287,A_+,0.9643475359998774,0.0,1.476845253160042,-2.4880366618879965,-0.09271188986593878,0.0,0.0,0.0,0.0,0.0,0.0,0.0,0.0,-0.35437499999999994,-2.7593999999999994,-1.6443,0.0047922,-0.56452116,0.0095844
1779587613343466520,A_+,0.9670165899997301,0.0,1.476845253160042,-2.4880366618879965,-0.09271188986593878,0.0,0.0,0.0,0.0,0.0,0.0,0.0,0.0,-0.34964999999999996,-2.7735749999999997,-1.611225,-0.00095844,-0.5597289599999999,0.00670908
1779587613343466520,A_+,0.9698906494995754,0.0,1.476845253160042,-2.4880366618879965,-0.09271188986593878,0.0,0.0,0.0,0.0,0.0,0.0,0.0,0.0,-0.34964999999999996,-2.7735749999999997,-1.611225,-0.00095844,-0.5597289599999999,0.00670908
1779587613343466520,A_+,0.9726012339997396,0.0,1.476845253160042,-2.4880366618879965,-0.09271188986593878,0.0,0.0,0.0,0.0,0.0,0.0,0.0,0.0,-0.34964999999999996,-2.7735749999999997,-1.611225,-0.00095844,-0.5597289599999999,0.00670908
1779587613379915475,A_+,0.9753407109992622,0.0,1.476845253160042,-2.4880366618879965,-0.09271188986593878,0.0,0.0,0.0,0.0,0.0,0.0,0.0,0.0,-0.3402,-2.697975,-1.6631999999999998,-0.00095844,-0.5606874,0.00862596
1779587613379915475,A_+,0.978240759000073,0.0,1.476845253160042,-2.4880366618879965,-0.09271188986593878,0.0,0.0,0.0,0.0,0.0,0.0,0.0,0.0,-0.3402,-2.697975,-1.6631999999999998,-0.00095844,-0.5606874,0.00862596
1779587613379915475,A_+,0.9809234112499325,0.0,1.476845253160042,-2.4880366618879965,-0.09271188986593878,0.0,0.0,0.0,0.0,0.0,0.0,0.0,0.0,-0.3402,-2.697975,-1.6631999999999998,-0.00095844,-0.5606874,0.00862596
1779587613434727668,A_+,0.9835787949996302,0.0,1.476845253160042,-2.4880366618879965,-0.09271188986593878,0.0,0.0,0.0,0.0,0.0,0.0,0.0,0.0,-0.316575,-2.7452249999999996,-1.5403499999999999,0.0,-0.5578120799999999,0.00191688
1779587613434727668,A_+,0.9864501347492478,0.0,1.476845253160042,-2.4880366618879965,-0.09271188986593878,0.0,0.0,0.0,0.0,0.0,0.0,0.0,0.0,-0.316575,-2.7452249999999996,-1.5403499999999999,0.0,-0.5578120799999999,0.00191688
1779587613434727668,A_+,0.989145793500029,0.0,1.476845253160042,-2.4880366618879965,-0.09271188986593878,0.0,0.0,0.0,0.0,0.0,0.0,0.0,0.0,-0.316575,-2.7452249999999996,-1.5403499999999999,0.0,-0.5578120799999999,0.00191688
1779587613508452177,A_+,0.9918482429993674,0.0,1.476845253160042,-2.4880366618879965,-0.09271188986593878,0.0,0.0,0.0,0.0,0.0,0.0,0.0,0.0,-0.36382499999999995,-2.7641249999999995,-1.639575,0.00766752,-0.5578120799999999,0.014376599999999998
1779587613508452177,A_+,0.9948097232500004,0.0,1.476845253160042,-2.4880366618879965,-0.09271188986593878,0.0,0.0,0.0,0.0,0.0,0.0,0.0,0.0,-0.36382499999999995,-2.7641249999999995,-1.639575,0.00766752,-0.5578120799999999,0.014376599999999998
1779587613508452177,A_+,0.9975549752498409,0.0,1.476845253160042,-2.4880366618879965,-0.09271188986593878,0.0,0.0,0.0,0.0,0.0,0.0,0.0,0.0,-0.36382499999999995,-2.7641249999999995,-1.639575,0.00766752,-0.5578120799999999,0.014376599999999998
1779587613623450040,A_+,1.0002090872494591,0.0,1.476845253160042,-2.4880366618879965,-0.09271188986593878,0.0,0.0,0.0,0.0,0.0,0.0,0.0,0.0,-0.335475,-2.7310499999999998,-1.61595,-0.00287532,-0.5558951999999999,0.00287532
1779587613623450040,A_+,1.0031061037498148,0.0,1.476845253160042,-2.4880366618879965,-0.09271188986593878,0.0,0.0,0.0,0.0,0.0,0.0,0.0,0.0,-0.335475,-2.7310499999999998,-1.61595,-0.00287532,-0.5558951999999999,0.00287532
1779587613623450040,A_+,1.0058166484996036,0.0,1.476845253160042,-2.4880366618879965,-0.09271188986593878,0.0,0.0,0.0,0.0,0.0,0.0,0.0,0.0,-0.335475,-2.7310499999999998,-1.61595,-0.00287532,-0.5558951999999999,0.00287532
1779587613658426284,A_+,1.0085370957494888,0.0,1.476845253160042,-2.4880366618879965,-0.09271188986593878,0.0,0.0,0.0,0.0,0.0,0.0,0.0,0.0,-0.326025,-2.7263249999999997,-1.6915499999999999,0.00862596,-0.5549367599999999,0.00766752
1779587613658426284,A_+,1.0114300407494738,0.0,1.476845253160042,-2.4880366618879965,-0.09271188986593878,0.0,0.0,0.0,0.0,0.0,0.0,0.0,0.0,-0.326025,-2.7263249999999997,-1.6915499999999999,0.00862596,-0.5549367599999999,0.00766752
1779587613658426284,A_+,1.0141059419993326,0.0,1.476845253160042,-2.4880366618879965,-0.09271188986593878,0.0,0.0,0.0,0.0,0.0,0.0,0.0,0.0,-0.326025,-2.7263249999999997,-1.6915499999999999,0.00862596,-0.5549367599999999,0.00766752
1779587613688813686,A_+,1.016751414999817,0.0,1.476845253160042,-2.4880366618879965,-0.09271188986593878,0.0,0.0,0.0,0.0,0.0,0.0,0.0,0.0,-0.34964999999999996,-2.707425,-1.63485,0.00670908,-0.5578120799999999,0.00670908
1779587613688813686,A_+,1.0196245224997256,0.0,1.476845253160042,-2.4880366618879965,-0.09271188986593878,0.0,0.0,0.0,0.0,0.0,0.0,0.0,0.0,-0.34964999999999996,-2.707425,-1.63485,0.00670908,-0.5578120799999999,0.00670908
1779587613688813686,A_+,1.0223099264994744,0.0,1.476845253160042,-2.4880366618879965,-0.09271188986593878,0.0,0.0,0.0,0.0,0.0,0.0,0.0,0.0,-0.34964999999999996,-2.707425,-1.63485,0.00670908,-0.5578120799999999,0.00670908
1779587613718418598,A_+,1.0250566662498386,0.0,1.476845253160042,-2.4880366618879965,-0.09271188986593878,0.0,0.0,0.0,0.0,0.0,0.0,0.0,0.0,-0.335475,-2.7452249999999996,-1.6868249999999998,0.0047922,-0.5578120799999999,0.00287532
1779587613718418598,A_+,1.0279540027495386,0.0,1.476845253160042,-2.4880366618879965,-0.09271188986593878,0.0,0.0,0.0,0.0,0.0,0.0,0.0,0.0,-0.335475,-2.7452249999999996,-1.6868249999999998,0.0047922,-0.5578120799999999,0.00287532
1779587613718418598,A_+,1.0306508532494263,0.0,1.476845253160042,-2.4880366618879965,-0.09271188986593878,0.0,0.0,0.0,0.0,0.0,0.0,0.0,0.0,-0.335475,-2.7452249999999996,-1.6868249999999998,0.0047922,-0.5578120799999999,0.00287532
1779587613754658460,A_+,1.0332982619993345,0.0,1.476845253160042,-2.4880366618879965,-0.09271188986593878,0.0,0.0,0.0,0.0,0.0,0.0,0.0,0.0,-0.33075,-2.7263249999999997,-1.6726499999999997,0.00383376,-0.5606874,0.00575064
1779587613754658460,A_+,1.0362054052493477,0.0,1.476845253160042,-2.4880366618879965,-0.09271188986593878,0.0,0.0,0.0,0.0,0.0,0.0,0.0,0.0,-0.33075,-2.7263249999999997,-1.6726499999999997,0.00383376,-0.5606874,0.00575064
1779587613754658460,A_+,1.0388979762492454,0.0,1.476845253160042,-2.4880366618879965,-0.09271188986593878,0.0,0.0,0.0,0.0,0.0,0.0,0.0,0.0,-0.33075,-2.7263249999999997,-1.6726499999999997,0.00383376,-0.5606874,0.00575064
1779587613783417224,A_+,1.041585283749555,0.0,1.476845253160042,-2.4880366618879965,-0.09271188986593878,0.0,0.0,0.0,0.0,0.0,0.0,0.0,0.0,-0.33075,-2.7452249999999996,-1.649025,0.01054284,-0.5578120799999999,0.01245972
1779587613783417224,A_+,1.0445083129998238,0.0,1.476845253160042,-2.4880366618879965,-0.09271188986593878,0.0,0.0,0.0,0.0,0.0,0.0,0.0,0.0,-0.33075,-2.7452249999999996,-1.649025,0.01054284,-0.5578120799999999,0.01245972
1779587613783417224,A_+,1.0472224489994915,0.0,1.476845253160042,-2.4880366618879965,-0.09271188986593878,0.0,0.0,0.0,0.0,0.0,0.0,0.0,0.0,-0.33075,-2.7452249999999996,-1.649025,0.01054284,-0.5578120799999999,0.01245972
1779587613814087390,A_+,1.0498761609997018,0.0,1.476845253160042,-2.4880366618879965,-0.09271188986593878,0.0,0.0,0.0,0.0,0.0,0.0,0.0,0.0,-0.3402,-2.7782999999999998,-1.6868249999999998,0.00383376,-0.5597289599999999,0.0095844
1779587613814087390,A_+,1.0527636107499347,0.0,1.476845253160042,-2.4880366618879965,-0.09271188986593878,0.0,0.0,0.0,0.0,0.0,0.0,0.0,0.0,-0.3402,-2.7782999999999998,-1.6868249999999998,0.00383376,-0.5597289599999999,0.0095844
1779587613814087390,A_+,1.055445359249461,0.0,1.476845253160042,-2.4880366618879965,-0.09271188986593878,0.0,0.0,0.0,0.0,0.0,0.0,0.0,0.0,-0.3402,-2.7782999999999998,-1.6868249999999998,0.00383376,-0.5597289599999999,0.0095844
1779587613854618072,A_+,1.0580829932496272,0.0,1.476845253160042,-2.4880366618879965,-0.09271188986593878,0.0,0.0,0.0,0.0,0.0,0.0,0.0,0.0,-0.3402,-2.707425,-1.6631999999999998,0.0095844,-0.5587705199999999,0.00862596
1779587613854618072,A_+,1.0609062992498366,0.0,1.476845253160042,-2.4880366618879965,-0.09271188986593878,0.0,0.0,0.0,0.0,0.0,0.0,0.0,0.0,-0.3402,-2.707425,-1.6631999999999998,0.0095844,-0.5587705199999999,0.00862596
1779587613854618072,A_+,1.0635492767496544,0.0,1.476845253160042,-2.4880366618879965,-0.09271188986593878,0.0,0.0,0.0,0.0,0.0,0.0,0.0,0.0,-0.3402,-2.707425,-1.6631999999999998,0.0095844,-0.5587705199999999,0.00862596
1779587613883410215,A_+,1.06619560550007,0.0,1.476845253160042,-2.4880366618879965,-0.09271188986593878,0.0,0.0,0.0,0.0,0.0,0.0,0.0,0.0,-0.33075,-2.7452249999999996,-1.611225,0.0,-0.5539783199999999,0.01054284
1779587613883410215,A_+,1.0690335177496308,0.0,1.476845253160042,-2.4880366618879965,-0.09271188986593878,0.0,0.0,0.0,0.0,0.0,0.0,0.0,0.0,-0.33075,-2.7452249999999996,-1.611225,0.0,-0.5539783199999999,0.01054284
1779587613883410215,A_+,1.0716944447494825,0.0,1.476845253160042,-2.4880366618879965,-0.09271188986593878,0.0,0.0,0.0,0.0,0.0,0.0,0.0,0.0,-0.33075,-2.7452249999999996,-1.611225,0.0,-0.5539783199999999,0.01054284
1779587613909056663,A_+,1.074332750749818,0.0,1.476845253160042,-2.4880366618879965,-0.09271188986593878,0.0,0.0,0.0,0.0,0.0,0.0,0.0,0.0,-0.33075,-2.7121500000000003,-1.6726499999999997,0.01054284,-0.56643804,0.00766752
1779587613909056663,A_+,1.0772121534992039,0.0,1.476845253160042,-2.4880366618879965,-0.09271188986593878,0.0,0.0,0.0,0.0,0.0,0.0,0.0,0.0,-0.33075,-2.7121500000000003,-1.6726499999999997,0.01054284,-0.56643804,0.00766752
1779587613909056663,A_+,1.0798861589992157,0.0,1.476845253160042,-2.4880366618879965,-0.09271188986593878,0.0,0.0,0.0,0.0,0.0,0.0,0.0,0.0,-0.33075,-2.7121500000000003,-1.6726499999999997,0.01054284,-0.56643804,0.00766752
1779587613928424119,A_+,1.0825487097499717,0.0,1.476845253160042,-2.4880366618879965,-0.09271188986593878,0.0,0.0,0.0,0.0,0.0,0.0,0.0,0.0,-0.33075,-2.7263249999999997,-1.7009999999999998,0.00670908,-0.5587705199999999,0.00766752
1779587613928424119,A_+,1.085422033249415,0.0,1.476845253160042,-2.4880366618879965,-0.09271188986593878,0.0,0.0,0.0,0.0,0.0,0.0,0.0,0.0,-0.33075,-2.7263249999999997,-1.7009999999999998,0.00670908,-0.5587705199999999,0.00766752
1779587613928424119,A_+,1.0881144842496724,0.0,1.476845253160042,-2.4880366618879965,-0.09271188986593878,0.0,0.0,0.0,0.0,0.0,0.0,0.0,0.0,-0.33075,-2.7263249999999997,-1.7009999999999998,0.00670908,-0.5587705199999999,0.00766752
1779587613938394546,A_+,1.0907948167496215,0.0,1.476845253160042,-2.4880366618879965,-0.09271188986593878,0.0,0.0,0.0,0.0,0.0,0.0,0.0,0.0,-0.326025,-2.7310499999999998,-1.6679249999999999,0.00766752,-0.5606874,0.00766752
1779587613938394546,A_+,1.0936710359992503,0.0,1.476845253160042,-2.4880366618879965,-0.09271188986593878,0.0,0.0,0.0,0.0,0.0,0.0,0.0,0.0,-0.326025,-2.7310499999999998,-1.6679249999999999,0.00766752,-0.5606874,0.00766752
1779587613938394546,A_+,1.0964036902496446,0.0,1.476845253160042,-2.4880366618879965,-0.09271188986593878,0.0,0.0,0.0,0.0,0.0,0.0,0.0,0.0,-0.326025,-2.7310499999999998,-1.6679249999999999,0.00766752,-0.5606874,0.00766752
1779587613979007244,A_+,1.0990634659992793,0.0,1.476845253160042,-2.4880366618879965,-0.09271188986593878,0.0,0.0,0.0,0.0,0.0,0.0,0.0,0.0,-0.3449249999999999,-2.7546749999999998,-1.6679249999999999,0.01629348,-0.5568536399999999,0.00575064
1779587613979007244,A_+,1.1019974622495283,0.0,1.476845253160042,-2.4880366618879965,-0.09271188986593878,0.0,0.0,0.0,0.0,0.0,0.0,0.0,0.0,-0.3449249999999999,-2.7546749999999998,-1.6679249999999999,0.01629348,-0.5568536399999999,0.00575064
1779587613979007244,A_+,1.1046681084999364,0.0,1.476845253160042,-2.4880366618879965,-0.09271188986593878,0.0,0.0,0.0,0.0,0.0,0.0,0.0,0.0,-0.3449249999999999,-2.7546749999999998,-1.6679249999999999,0.01629348,-0.5568536399999999,0.00575064
1779587614029177188,A_+,1.107338010750027,0.0,1.476845253160042,-2.4880366618879965,-0.09271188986593878,0.0,0.0,0.0,0.0,0.0,0.0,0.0,0.0,-0.335475,-2.660175,-1.6773749999999998,0.00383376,-0.5558951999999999,0.00766752
1779587614029177188,A_+,1.1101766992496778,0.0,1.476845253160042,-2.4880366618879965,-0.09271188986593878,0.0,0.0,0.0,0.0,0.0,0.0,0.0,0.0,-0.335475,-2.660175,-1.6773749999999998,0.00383376,-0.5558951999999999,0.00766752
1779587614029177188,A_+,1.1128494892500385,0.0,1.476845253160042,-2.4880366618879965,-0.09271188986593878,0.0,0.0,0.0,0.0,0.0,0.0,0.0,0.0,-0.335475,-2.660175,-1.6773749999999998,0.00383376,-0.5558951999999999,0.00766752
1779587614068372011,A_+,1.11547940499986,0.0,1.476845253160042,-2.4880366618879965,-0.09271188986593878,0.0,0.0,0.0,0.0,0.0,0.0,0.0,0.0,-0.33075,-2.7310499999999998,-1.6773749999999998,-0.0047922,-0.5578120799999999,0.00383376
1779587614068372011,A_+,1.1183083987498321,0.0,1.476845253160042,-2.4880366618879965,-0.09271188986593878,0.0,0.0,0.0,0.0,0.0,0.0,0.0,0.0,-0.33075,-2.7310499999999998,-1.6773749999999998,-0.0047922,-0.5578120799999999,0.00383376
1779587614068372011,A_+,1.1209590314992965,0.0,1.476845253160042,-2.4880366618879965,-0.09271188986593878,0.0,0.0,0.0,0.0,0.0,0.0,0.0,0.0,-0.33075,-2.7310499999999998,-1.6773749999999998,-0.0047922,-0.5578120799999999,0.00383376
1779587614098407030,A_+,1.1235938504996739,0.0,1.476845253160042,-2.4880366618879965,-0.09271188986593878,0.0,0.0,0.0,0.0,0.0,0.0,0.0,0.0,-0.335475,-2.7877499999999995,-1.7104499999999998,0.00383376,-0.5539783199999999,0.01821036
1779587614098407030,A_+,1.1264148132495393,0.0,1.476845253160042,-2.4880366618879965,-0.09271188986593878,0.0,0.0,0.0,0.0,0.0,0.0,0.0,0.0,-0.335475,-2.7877499999999995,-1.7104499999999998,0.00383376,-0.5539783199999999,0.01821036
1779587614098407030,A_+,1.1290835877498466,0.0,1.476845253160042,-2.4880366618879965,-0.09271188986593878,0.0,0.0,0.0,0.0,0.0,0.0,0.0,0.0,-0.335475,-2.7877499999999995,-1.7104499999999998,0.00383376,-0.5539783199999999,0.01821036
1779587614123380184,A_+,1.1317267737495058,0.0,1.476845253160042,-2.4880366618879965,-0.09271188986593878,0.0,0.0,0.0,0.0,0.0,0.0,0.0,0.0,-0.3449249999999999,-2.7452249999999996,-1.6679249999999999,0.00191688,-0.5606874,0.00575064
1779587614123380184,A_+,1.1345746689994485,0.0,1.476845253160042,-2.4880366618879965,-0.09271188986593878,0.0,0.0,0.0,0.0,0.0,0.0,0.0,0.0,-0.3449249999999999,-2.7452249999999996,-1.6679249999999999,0.00191688,-0.5606874,0.00575064
1779587614123380184,A_+,1.1372464589994706,0.0,1.476845253160042,-2.4880366618879965,-0.09271188986593878,0.0,0.0,0.0,0.0,0.0,0.0,0.0,0.0,-0.3449249999999999,-2.7452249999999996,-1.6679249999999999,0.00191688,-0.5606874,0.00575064
1779587614143390655,A_+,1.1399095542492432,0.0,1.476845253160042,-2.4880366618879965,-0.09271188986593878,0.0,0.0,0.0,0.0,0.0,0.0,0.0,0.0,-0.3449249999999999,-2.7404999999999995,-1.6584750000000001,-0.0047922,-0.5606874,0.01150128
1779587614143390655,A_+,1.1427658084994619,0.0,1.476845253160042,-2.4880366618879965,-0.09271188986593878,0.0,0.0,0.0,0.0,0.0,0.0,0.0,0.0,-0.3449249999999999,-2.7404999999999995,-1.6584750000000001,-0.0047922,-0.5606874,0.01150128
1779587614143390655,A_+,1.1454680747492603,0.0,1.476845253160042,-2.4880366618879965,-0.09271188986593878,0.0,0.0,0.0,0.0,0.0,0.0,0.0,0.0,-0.3449249999999999,-2.7404999999999995,-1.6584750000000001,-0.0047922,-0.5606874,0.01150128
1779587614178360223,A_+,1.148110916749829,0.0,1.476845253160042,-2.4880366618879965,-0.09271188986593878,0.0,0.0,0.0,0.0,0.0,0.0,0.0,0.0,-0.3402,-2.7499499999999997,-1.63485,0.01054284,-0.5578120799999999,0.00383376
1779587614178360223,A_+,1.150962507499571,0.0,1.476845253160042,-2.4880366618879965,-0.09271188986593878,0.0,0.0,0.0,0.0,0.0,0.0,0.0,0.0,-0.3402,-2.7499499999999997,-1.63485,0.01054284,-0.5578120799999999,0.00383376
1779587614178360223,A_+,1.1536356894994242,0.0,1.476845253160042,-2.4880366618879965,-0.09271188986593878,0.0,0.0,0.0,0.0,0.0,0.0,0.0,0.0,-0.3402,-2.7499499999999997,-1.63485,0.01054284,-0.5578120799999999,0.00383376
1779587614208371639,A_+,1.156282474749787,0.0,1.476845253160042,-2.4880366618879965,-0.09271188986593878,0.0,0.0,0.0,0.0,0.0,0.0,0.0,0.0,-0.3402,-2.7499499999999997,-1.6584750000000001,0.00383376,-0.5558951999999999,0.00575064
1779587614208371639,A_+,1.159215479249724,0.0,1.476845253160042,-2.4880366618879965,-0.09271188986593878,0.0,0.0,0.0,0.0,0.0,0.0,0.0,0.0,-0.3402,-2.7499499999999997,-1.6584750000000001,0.00383376,-0.5558951999999999,0.00575064
1779587614208371639,A_+,1.1619130259996382,0.0,1.476845253160042,-2.4880366618879965,-0.09271188986593878,0.0,0.0,0.0,0.0,0.0,0.0,0.0,0.0,-0.3402,-2.7499499999999997,-1.6584750000000001,0.00383376,-0.5558951999999999,0.00575064
1779587614228356838,A_+,1.1645728497496748,0.0,1.476845253160042,-2.4880366618879965,-0.09271188986593878,0.0,0.0,0.0,0.0,0.0,0.0,0.0,0.0,-0.34964999999999996,-2.7452249999999996,-1.639575,0.00766752,-0.5597289599999999,0.01725192
1779587614228356838,A_+,1.1674719142492904,0.0,1.476845253160042,-2.4880366618879965,-0.09271188986593878,0.0,0.0,0.0,0.0,0.0,0.0,0.0,0.0,-0.34964999999999996,-2.7452249999999996,-1.639575,0.00766752,-0.5597289599999999,0.01725192
1779587614228356838,A_+,1.1701701409992893,0.0,1.476845253160042,-2.4880366618879965,-0.09271188986593878,0.0,0.0,0.0,0.0,0.0,0.0,0.0,0.0,-0.34964999999999996,-2.7452249999999996,-1.639575,0.00766752,-0.5597289599999999,0.01725192
1779587614249182701,A_+,1.1728411072499512,0.0,1.476845253160042,-2.4880366618879965,-0.09271188986593878,0.0,0.0,0.0,0.0,0.0,0.0,0.0,0.0,-0.3449249999999999,-2.7452249999999996,-1.497825,0.00862596,-0.5597289599999999,0.0047922
1779587614249182701,A_+,1.175762952999321,0.0,1.476845253160042,-2.4880366618879965,-0.09271188986593878,0.0,0.0,0.0,0.0,0.0,0.0,0.0,0.0,-0.3449249999999999,-2.7452249999999996,-1.497825,0.00862596,-0.5597289599999999,0.0047922
1779587614249182701,A_+,1.1784597239993673,0.0,1.476845253160042,-2.4880366618879965,-0.09271188986593878,0.0,0.0,0.0,0.0,0.0,0.0,0.0,0.0,-0.3449249999999999,-2.7452249999999996,-1.497825,0.00862596,-0.5597289599999999,0.0047922
1779587614273536682,A_+,1.1810993982498985,0.0,1.476845253160042,-2.4880366618879965,-0.09271188986593878,0.0,0.0,0.0,0.0,0.0,0.0,0.0,0.0,-0.34964999999999996,-2.7641249999999995,-1.3844249999999998,0.00191688,-0.56260428,0.00575064
1779587614273536682,A_+,1.1840348822497617,0.0,1.476845253160042,-2.4880366618879965,-0.09271188986593878,0.0,0.0,0.0,0.0,0.0,0.0,0.0,0.0,-0.34964999999999996,-2.7641249999999995,-1.3844249999999998,0.00191688,-0.56260428,0.00575064
1779587614273536682,A_+,1.186729685249702,0.0,1.476845253160042,-2.4880366618879965,-0.09271188986593878,0.0,0.0,0.0,0.0,0.0,0.0,0.0,0.0,-0.34964999999999996,-2.7641249999999995,-1.3844249999999998,0.00191688,-0.56260428,0.00575064
1779587614293724060,A_+,1.1894081867494606,0.0,1.476845253160042,-2.4880366618879965,-0.09271188986593878,0.0,0.0,0.0,0.0,0.0,0.0,0.0,0.0,-0.33075,-2.7452249999999996,-1.4222249999999999,0.00191688,-0.5606874,0.01150128
1779587614293724060,A_+,1.1923616362491885,0.0,1.476845253160042,-2.4880366618879965,-0.09271188986593878,0.0,0.0,0.0,0.0,0.0,0.0,0.0,0.0,-0.33075,-2.7452249999999996,-1.4222249999999999,0.00191688,-0.5606874,0.01150128
1779587614293724060,A_+,1.1950976660000379,0.0,1.476845253160042,-2.4880366618879965,-0.09271188986593878,0.0,0.0,0.0,0.0,0.0,0.0,0.0,0.0,-0.33075,-2.7452249999999996,-1.4222249999999999,0.00191688,-0.5606874,0.01150128
1779587614313588380,A_+,1.197777047249474,0.0,1.476845253160042,-2.4880366618879965,-0.09271188986593878,0.0,0.0,0.0,0.0,0.0,0.0,0.0,0.0,-0.3449249999999999,-2.7877499999999995,-1.4316749999999998,0.00287532,-0.5530198799999999,-0.00095844
1779587614313588380,A_+,1.2006728725000357,0.0,1.476845253160042,-2.4880366618879965,-0.09271188986593878,0.0,0.0,0.0,0.0,0.0,0.0,0.0,0.0,-0.3449249999999999,-2.7877499999999995,-1.4316749999999998,0.00287532,-0.5530198799999999,-0.00095844
1779587614313588380,A_+,1.20340459874933,0.0,1.476845253160042,-2.4880366618879965,-0.09271188986593878,0.0,0.0,0.0,0.0,0.0,0.0,0.0,0.0,-0.3449249999999999,-2.7877499999999995,-1.4316749999999998,0.00287532,-0.5530198799999999,-0.00095844
1779587614348963260,A_+,1.2060900429996764,0.0,1.476845253160042,-2.4880366618879965,-0.09271188986593878,0.0,0.0,0.0,0.0,0.0,0.0,0.0,0.0,-0.3402,-2.7121500000000003,-1.3938749999999998,0.01533504,-0.5606874,0.00191688
1779587614348963260,A_+,1.209004273749997,0.0,1.476845253160042,-2.4880366618879965,-0.09271188986593878,0.0,0.0,0.0,0.0,0.0,0.0,0.0,0.0,-0.3402,-2.7121500000000003,-1.3938749999999998,0.01533504,-0.5606874,0.00191688
1779587614348963260,A_+,1.2117078279998168,0.0,1.476845253160042,-2.4880366618879965,-0.09271188986593878,0.0,0.0,0.0,0.0,0.0,0.0,0.0,0.0,-0.3402,-2.7121500000000003,-1.3938749999999998,0.01533504,-0.5606874,0.00191688
1779587614368339538,A_+,1.2143609884997204,0.0,1.476845253160042,-2.4880366618879965,-0.09271188986593878,0.0,0.0,0.0,0.0,0.0,0.0,0.0,0.0,-0.316575,-2.7452249999999996,-1.4316749999999998,0.01341816,-0.5606874,0.01341816
1779587614368339538,A_+,1.2172645564996856,0.0,1.476845253160042,-2.4880366618879965,-0.09271188986593878,0.0,0.0,0.0,0.0,0.0,0.0,0.0,0.0,-0.316575,-2.7452249999999996,-1.4316749999999998,0.01341816,-0.5606874,0.01341816
1779587614368339538,A_+,1.2199835884994172,0.0,1.476845253160042,-2.4880366618879965,-0.09271188986593878,0.0,0.0,0.0,0.0,0.0,0.0,0.0,0.0,-0.316575,-2.7452249999999996,-1.4316749999999998,0.01341816,-0.5606874,0.01341816
1779587614388329982,A_+,1.22265907424935,0.0,1.476845253160042,-2.4880366618879965,-0.09271188986593878,0.0,0.0,0.0,0.0,0.0,0.0,0.0,0.0,-0.3449249999999999,-2.7499499999999997,-1.412775,0.00287532,-0.5587705199999999,0.0047922
1779587614388329982,A_+,1.2255341339996448,0.0,1.476845253160042,-2.4880366618879965,-0.09271188986593878,0.0,0.0,0.0,0.0,0.0,0.0,0.0,0.0,-0.3449249999999999,-2.7499499999999997,-1.412775,0.00287532,-0.5587705199999999,0.0047922
1779587614388329982,A_+,1.2282200422496317,0.0,1.476845253160042,-2.4880366618879965,-0.09271188986593878,0.0,0.0,0.0,0.0,0.0,0.0,0.0,0.0,-0.3449249999999999,-2.7499499999999997,-1.412775,0.00287532,-0.5587705199999999,0.0047922
1779587614434761047,A_+,1.230893752249358,0.0,1.476845253160042,-2.4880366618879965,-0.09271188986593878,0.0,0.0,0.0,0.0,0.0,0.0,0.0,0.0,-0.34964999999999996,-2.7452249999999996,-1.42695,0.00766752,-0.55206144,0.0047922
1779587614434761047,A_+,1.2337485587495394,0.0,1.476845253160042,-2.4880366618879965,-0.09271188986593878,0.0,0.0,0.0,0.0,0.0,0.0,0.0,0.0,-0.34964999999999996,-2.7452249999999996,-1.42695,0.00766752,-0.55206144,0.0047922
1779587614434761047,A_+,1.2364408819994424,0.0,1.476845253160042,-2.4880366618879965,-0.09271188986593878,0.0,0.0,0.0,0.0,0.0,0.0,0.0,0.0,-0.34964999999999996,-2.7452249999999996,-1.42695,0.00766752,-0.55206144,0.0047922
