deepaktalwardt/rage-cage-arm-hackstorm/ros2/ws/sysid/runs/step_20260524_024119/raw/joint1_amp10_kp10.0_kd0.5.csv
t_ns,phase,tau_cmd,q1,q2,q3,q4,q5,q6,qd1,qd2,qd3,qd4,qd5,qd6,tau1,tau2,tau3,tau4,tau5,tau6
1779590494412897109,step,0.0,-0.08869763258635183,1.473738567091492,-2.9149267436332895,-0.08773770149775495,-0.01918116847941768,0.0,0.0,-0.004,0.0,0.0,0.0,0.0,0.1512,-0.65205,0.55755,-0.08242584,-0.06517392,-0.0095844
1779590494412897109,step,0.0,-0.08869763258635183,1.473738567091492,-2.9149267436332895,-0.08773770149775495,-0.01918116847941768,0.0,0.0,-0.004,0.0,0.0,0.0,0.0,0.1512,-0.65205,0.55755,-0.08242584,-0.06517392,-0.0095844
1779590494417866468,step,0.0,-0.08869763258635183,1.473738567091492,-2.9149267436332895,-0.08773770149775495,-0.01918116847941768,0.0,0.0,-0.033,0.0,0.0,0.0,0.0,0.16065,-0.7087499999999999,0.55755,-0.08242584,-0.06038172,-0.02491944
1779590494417866468,step,0.0,-0.08869763258635183,1.473738567091492,-2.9149267436332895,-0.08773770149775495,-0.01918116847941768,0.0,0.0,-0.033,0.0,0.0,0.0,0.0,0.16065,-0.7087499999999999,0.55755,-0.08242584,-0.06038172,-0.02491944
1779590494422866582,step,0.0,-0.08869763258635183,1.473738567091492,-2.9149267436332895,-0.08773770149775495,-0.01918116847941768,0.0,0.0,-0.033,0.0,0.0,0.0,0.0,0.25515,-0.7087499999999999,0.5433749999999999,-0.08338428,-0.048880440000000004,0.00095844
1779590494422866582,step,0.0,-0.08869763258635183,1.473738567091492,-2.9149267436332895,-0.08773770149775495,-0.01918116847941768,0.0,0.0,-0.033,0.0,0.0,0.0,0.0,0.25515,-0.7087499999999999,0.5433749999999999,-0.08338428,-0.048880440000000004,0.00095844
1779590494427858829,step,0.0,-0.08869763258635183,1.473738567091492,-2.9149267436332895,-0.08773770149775495,-0.01918116847941768,0.0,0.0,0.025,0.0,0.0,0.0,0.0,0.25515,-0.930825,0.5764499999999999,-0.08625959999999999,-0.048880440000000004,0.00095844
1779590494427858829,step,0.0,-0.08869763258635183,1.473738567091492,-2.9149267436332895,-0.08773770149775495,-0.01918116847941768,0.0,0.0,0.025,0.0,0.0,0.0,0.0,0.25515,-0.930825,0.5764499999999999,-0.08625959999999999,-0.048880440000000004,0.00095844
1779590494432868480,step,0.0,-0.08869763258635183,1.473738567091492,-2.9149267436332895,-0.08773770149775495,-0.01918116847941768,0.0,0.0,-0.008,0.0,0.0,0.0,0.0,0.19372499999999998,-0.6426,0.5764499999999999,-0.09967776,-0.0622986,0.00095844
1779590494432868480,step,0.0,-0.08869763258635183,1.473738567091492,-2.9149267436332895,-0.08773770149775495,-0.01918116847941768,0.0,0.0,-0.008,0.0,0.0,0.0,0.0,0.19372499999999998,-0.6426,0.5764499999999999,-0.09967776,-0.0622986,0.00095844
1779590494437860727,step,0.0,-0.08869763258635183,1.473738567091492,-2.9149267436332895,-0.08773770149775495,-0.01918116847941768,0.0,0.0,0.003,0.0,0.0,0.0,0.0,0.189,-0.741825,0.533925,-0.08625959999999999,-0.07859208,-0.014376599999999998
1779590494437860727,step,0.0,-0.08869763258635183,1.473738567091492,-2.9149267436332895,-0.08773770149775495,-0.01918116847941768,0.0,0.0,0.003,0.0,0.0,0.0,0.0,0.189,-0.741825,0.533925,-0.08625959999999999,-0.07859208,-0.014376599999999998
1779590494442968368,step,0.0,-0.08869763258635183,1.473738567091492,-2.9149267436332895,-0.08773770149775495,-0.01918116847941768,0.0,0.0,0.003,0.0,0.0,0.0,0.0,0.17955,-0.741825,0.5292,-0.08625959999999999,-0.07859208,-0.014376599999999998
1779590494442968368,step,0.0,-0.08869763258635183,1.473738567091492,-2.9149267436332895,-0.08773770149775495,-0.01918116847941768,0.0,0.0,0.003,0.0,0.0,0.0,0.0,0.17955,-0.741825,0.5292,-0.08625959999999999,-0.07859208,-0.014376599999999998
1779590494447858095,step,0.0,-0.08869763258635183,1.473738567091492,-2.9149267436332895,-0.08773770149775495,-0.01918116847941768,0.0,0.0,-0.001,0.0,0.0,0.0,0.0,0.17955,-0.63315,0.53865,-0.07955052,-0.06134016,-0.00670908
1779590494447858095,step,0.0,-0.08869763258635183,1.473738567091492,-2.9149267436332895,-0.08773770149775495,-0.01918116847941768,0.0,0.0,-0.001,0.0,0.0,0.0,0.0,0.17955,-0.63315,0.53865,-0.07955052,-0.06134016,-0.00670908
1779590494452868223,step,0.0,-0.08869763258635183,1.473738567091492,-2.9149267436332895,-0.08773770149775495,-0.01918116847941768,0.0,0.0,-0.038,0.0,0.0,0.0,0.0,0.16065,-0.647325,0.53865,-0.0766752,-0.05175576,-0.01341816
1779590494452868223,step,0.0,-0.08869763258635183,1.473738567091492,-2.9149267436332895,-0.08773770149775495,-0.01918116847941768,0.0,0.0,-0.038,0.0,0.0,0.0,0.0,0.16065,-0.647325,0.53865,-0.0766752,-0.05175576,-0.01341816
1779590494457884073,step,0.0,-0.08869763258635183,1.473738567091492,-2.9149267436332895,-0.08773770149775495,-0.01918116847941768,0.0,0.0,-0.038,0.0,0.0,0.0,0.0,0.184275,-0.647325,0.562275,-0.0766752,-0.07955052,-0.01150128
1779590494457884073,step,0.0,-0.08869763258635183,1.473738567091492,-2.9149267436332895,-0.08773770149775495,-0.01918116847941768,0.0,0.0,-0.038,0.0,0.0,0.0,0.0,0.184275,-0.647325,0.562275,-0.0766752,-0.07955052,-0.01150128
1779590494462877035,step,0.0,-0.08869763258635183,1.473738567091492,-2.9149267436332895,-0.08773770149775495,-0.01918116847941768,0.0,0.0,0.016,0.0,0.0,0.0,0.0,0.184275,-0.864675,0.5481,-0.08050896,-0.07955052,-0.01150128
1779590494462877035,step,0.0,-0.08869763258635183,1.473738567091492,-2.9149267436332895,-0.08773770149775495,-0.01918116847941768,0.0,0.0,0.016,0.0,0.0,0.0,0.0,0.184275,-0.864675,0.5481,-0.08050896,-0.07955052,-0.01150128
1779590494462877035,step,0.0,-0.08869763258635183,1.473738567091492,-2.9149267436332895,-0.08773770149775495,-0.01918116847941768,0.0,0.0,0.016,0.0,0.0,0.0,0.0,0.184275,-0.864675,0.5481,-0.08050896,-0.07955052,-0.01150128
1779590494462877035,step,0.0,-0.08869763258635183,1.473738567091492,-2.9149267436332895,-0.08773770149775495,-0.01918116847941768,0.0,0.0,0.016,0.0,0.0,0.0,0.0,0.184275,-0.864675,0.5481,-0.08050896,-0.07955052,-0.01150128
1779590494467871427,step,0.0,-0.08869763258635183,1.473738567091492,-2.9149267436332895,-0.08773770149775495,-0.01918116847941768,0.0,0.0,-0.006,0.0,0.0,0.0,0.0,0.189,-0.6615,0.5481,-0.08338428,-0.0766752,-0.01533504
1779590494467871427,step,0.0,-0.08869763258635183,1.473738567091492,-2.9149267436332895,-0.08773770149775495,-0.01918116847941768,0.0,0.0,-0.006,0.0,0.0,0.0,0.0,0.189,-0.6615,0.5481,-0.08338428,-0.0766752,-0.01533504
1779590494472873687,step,0.0,-0.08869763258635183,1.473738567091492,-2.9149267436332895,-0.08773770149775495,-0.01918116847941768,0.0,0.0,-0.01,0.0,0.0,0.0,0.0,0.21262499999999998,-0.7701749999999999,0.5481,-0.08817648,-0.07188299999999999,-0.01629348
1779590494472873687,step,0.0,-0.08869763258635183,1.473738567091492,-2.9149267436332895,-0.08773770149775495,-0.01918116847941768,0.0,0.0,-0.01,0.0,0.0,0.0,0.0,0.21262499999999998,-0.7701749999999999,0.5481,-0.08817648,-0.07188299999999999,-0.01629348
1779590494482864856,step,0.0,-0.08869763258635183,1.473738567091492,-2.9149267436332895,-0.08773770149775495,-0.01918116847941768,0.0,0.0,0.024,0.0,0.0,0.0,0.0,0.17955,-0.959175,0.562275,-0.08242584,-0.07475832,-0.014376599999999998
1779590494482864856,step,0.0,-0.08869763258635183,1.473738567091492,-2.9149267436332895,-0.08773770149775495,-0.01918116847941768,0.0,0.0,0.024,0.0,0.0,0.0,0.0,0.17955,-0.959175,0.562275,-0.08242584,-0.07475832,-0.014376599999999998
1779590494487866401,step,0.0,-0.08869763258635183,1.473738567091492,-2.9149267436332895,-0.08773770149775495,-0.01918116847941768,0.0,0.0,-0.018000000000000002,0.0,0.0,0.0,0.0,0.19372499999999998,-0.55755,0.562275,-0.08434272,-0.06613236,-0.01725192
1779590494487866401,step,0.0,-0.08869763258635183,1.473738567091492,-2.9149267436332895,-0.08773770149775495,-0.01918116847941768,0.0,0.0,-0.018000000000000002,0.0,0.0,0.0,0.0,0.19372499999999998,-0.55755,0.562275,-0.08434272,-0.06613236,-0.01725192
1779590494492876529,step,0.0,-0.08869763258635183,1.473738567091492,-2.9149267436332895,-0.08773770149775495,-0.01918116847941768,0.0,0.0,-0.018000000000000002,0.0,0.0,0.0,0.0,0.17955,-0.55755,0.53865,-0.08434272,-0.05654796,-0.014376599999999998
1779590494492876529,step,0.0,-0.08869763258635183,1.473738567091492,-2.9149267436332895,-0.08773770149775495,-0.01918116847941768,0.0,0.0,-0.018000000000000002,0.0,0.0,0.0,0.0,0.17955,-0.55755,0.53865,-0.08434272,-0.05654796,-0.014376599999999998
1779590494497928380,step,0.0,-0.08869763258635183,1.473738567091492,-2.9149267436332895,-0.08773770149775495,-0.01918116847941768,0.0,0.0,0.008,0.0,0.0,0.0,0.0,0.17955,-0.7465499999999999,0.5717249999999999,-0.08625959999999999,-0.05654796,-0.014376599999999998
1779590494497928380,step,0.0,-0.08869763258635183,1.473738567091492,-2.9149267436332895,-0.08773770149775495,-0.01918116847941768,0.0,0.0,0.008,0.0,0.0,0.0,0.0,0.17955,-0.7465499999999999,0.5717249999999999,-0.08625959999999999,-0.05654796,-0.014376599999999998
1779590494502945184,step,0.0,-0.08869763258635183,1.473738567091492,-2.9149267436332895,-0.08773770149775495,-0.01918116847941768,0.0,0.0,-0.002,0.0,0.0,0.0,0.0,0.19845,-0.6804,0.5717249999999999,-0.08530115999999999,-0.06613236,-0.014376599999999998
1779590494502945184,step,0.0,-0.08869763258635183,1.473738567091492,-2.9149267436332895,-0.08773770149775495,-0.01918116847941768,0.0,0.0,-0.002,0.0,0.0,0.0,0.0,0.19845,-0.6804,0.5717249999999999,-0.08530115999999999,-0.06613236,-0.014376599999999998
1779590494507872343,step,0.0,-0.08869763258635183,1.473738567091492,-2.9149267436332895,-0.08773770149775495,-0.01918116847941768,0.0,0.0,-0.031,0.0,0.0,0.0,0.0,0.184275,-0.515025,0.552825,-0.08913491999999999,-0.06038172,-0.01150128
1779590494507872343,step,0.0,-0.08869763258635183,1.473738567091492,-2.9149267436332895,-0.08773770149775495,-0.01918116847941768,0.0,0.0,-0.031,0.0,0.0,0.0,0.0,0.184275,-0.515025,0.552825,-0.08913491999999999,-0.06038172,-0.01150128
1779590494512865304,step,0.0,-0.08869763258635183,1.473738567091492,-2.9149267436332895,-0.08773770149775495,-0.01918116847941768,0.0,0.0,-0.031,0.0,0.0,0.0,0.0,0.165375,-0.515025,0.562275,-0.08913491999999999,-0.06038172,-0.01341816
1779590494512865304,step,0.0,-0.08869763258635183,1.473738567091492,-2.9149267436332895,-0.08773770149775495,-0.01918116847941768,0.0,0.0,-0.031,0.0,0.0,0.0,0.0,0.165375,-0.515025,0.562275,-0.08913491999999999,-0.06038172,-0.01341816
1779590494517883300,step,0.0,-0.08869763258635183,1.473738567091492,-2.9149267436332895,-0.08773770149775495,-0.01918116847941768,0.0,0.0,0.007,0.0,0.0,0.0,0.0,0.165375,-0.798525,0.552825,-0.08817648,-0.05558952,-0.01150128
1779590494517883300,step,0.0,-0.08869763258635183,1.473738567091492,-2.9149267436332895,-0.08773770149775495,-0.01918116847941768,0.0,0.0,0.007,0.0,0.0,0.0,0.0,0.165375,-0.798525,0.552825,-0.08817648,-0.05558952,-0.01150128
1779590494522876262,step,0.0,-0.08869763258635183,1.473738567091492,-2.9149267436332895,-0.08773770149775495,-0.01918116847941768,0.0,0.0,-0.004,0.0,0.0,0.0,0.0,0.155925,-0.656775,0.552825,-0.08530115999999999,-0.06134016,-0.01150128
1779590494522876262,step,0.0,-0.08869763258635183,1.473738567091492,-2.9149267436332895,-0.08773770149775495,-0.01918116847941768,0.0,0.0,-0.004,0.0,0.0,0.0,0.0,0.155925,-0.656775,0.552825,-0.08530115999999999,-0.06134016,-0.01150128
1779590494527880430,step,0.0,-0.08869763258635183,1.473738567091492,-2.9149267436332895,-0.08773770149775495,-0.01918116847941768,0.0,0.0,-0.004,0.0,0.0,0.0,0.0,0.17955,-0.656775,0.552825,-0.08530115999999999,-0.0622986,-0.0191688
1779590494527880430,step,0.0,-0.08869763258635183,1.473738567091492,-2.9149267436332895,-0.08773770149775495,-0.01918116847941768,0.0,0.0,-0.004,0.0,0.0,0.0,0.0,0.17955,-0.656775,0.552825,-0.08530115999999999,-0.0622986,-0.0191688
1779590494532878637,step,0.0,-0.08869763258635183,1.473738567091492,-2.9149267436332895,-0.08773770149775495,-0.01918116847941768,0.0,0.0,-0.025,0.0,0.0,0.0,0.0,0.17955,-0.760725,0.5433749999999999,-0.08625959999999999,-0.0622986,-0.01054284
1779590494532878637,step,0.0,-0.08869763258635183,1.473738567091492,-2.9149267436332895,-0.08773770149775495,-0.01918116847941768,0.0,0.0,-0.025,0.0,0.0,0.0,0.0,0.17955,-0.760725,0.5433749999999999,-0.08625959999999999,-0.0622986,-0.01054284
1779590494537881612,step,0.0,-0.08869763258635183,1.473738567091492,-2.9149267436332895,-0.08773770149775495,-0.01918116847941768,0.0,0.0,-0.025,0.0,0.0,0.0,0.0,0.17955,-0.760725,0.5433749999999999,-0.08625959999999999,-0.0622986,-0.01054284
1779590494537881612,step,0.0,-0.08869763258635183,1.473738567091492,-2.9149267436332895,-0.08773770149775495,-0.01918116847941768,0.0,0.0,-0.025,0.0,0.0,0.0,0.0,0.17955,-0.760725,0.5433749999999999,-0.08625959999999999,-0.0622986,-0.01054284
1779590494542881250,step,0.0,-0.08869763258635183,1.473738567091492,-2.9149267436332895,-0.08773770149775495,-0.01918116847941768,0.0,0.0,-0.017,0.0,0.0,0.0,0.0,0.1701,-0.515025,0.55755,-0.08434272,-0.06325704,-0.02012724
1779590494542881250,step,0.0,-0.08869763258635183,1.473738567091492,-2.9149267436332895,-0.08773770149775495,-0.01918116847941768,0.0,0.0,-0.017,0.0,0.0,0.0,0.0,0.1701,-0.515025,0.55755,-0.08434272,-0.06325704,-0.02012724
1779590494547986745,step,0.0,-0.08869763258635183,1.473738567091492,-2.9149267436332895,-0.08773770149775495,-0.01918116847941768,0.0,0.0,-0.017,0.0,0.0,0.0,0.0,0.17482499999999998,-0.515025,0.55755,-0.08434272,-0.06325704,-0.02012724
1779590494547986745,step,0.0,-0.08869763258635183,1.473738567091492,-2.9149267436332895,-0.08773770149775495,-0.01918116847941768,0.0,0.0,-0.017,0.0,0.0,0.0,0.0,0.17482499999999998,-0.515025,0.55755,-0.08434272,-0.06325704,-0.02012724
1779590494552875518,step,0.0,-0.08869763258635183,1.473738567091492,-2.9149267436332895,-0.08773770149775495,-0.01918116847941768,0.0,0.0,0.003,0.0,0.0,0.0,0.0,0.17482499999999998,-0.7276499999999999,0.53865,-0.08242584,-0.05846484,-0.01150128
1779590494552875518,step,0.0,-0.08869763258635183,1.473738567091492,-2.9149267436332895,-0.08773770149775495,-0.01918116847941768,0.0,0.0,0.003,0.0,0.0,0.0,0.0,0.17482499999999998,-0.7276499999999999,0.53865,-0.08242584,-0.05846484,-0.01150128
1779590494557876110,step,0.0,-0.08869763258635183,1.473738567091492,-2.9149267436332895,-0.08773770149775495,-0.01918116847941768,0.0,0.0,0.034,0.0,0.0,0.0,0.0,0.1701,-0.7512749999999999,0.53865,-0.08625959999999999,-0.06421548,-0.01150128
1779590494557876110,step,0.0,-0.08869763258635183,1.473738567091492,-2.9149267436332895,-0.08773770149775495,-0.01918116847941768,0.0,0.0,0.034,0.0,0.0,0.0,0.0,0.1701,-0.7512749999999999,0.53865,-0.08625959999999999,-0.06421548,-0.01150128
1779590494562892436,step,0.0,-0.08869763258635183,1.473738567091492,-2.9149267436332895,-0.08773770149775495,-0.01918116847941768,0.0,0.0,0.034,0.0,0.0,0.0,0.0,0.19372499999999998,-0.7512749999999999,0.567,-0.08625959999999999,-0.059423279999999995,-0.014376599999999998
1779590494562892436,step,0.0,-0.08869763258635183,1.473738567091492,-2.9149267436332895,-0.08773770149775495,-0.01918116847941768,0.0,0.0,0.034,0.0,0.0,0.0,0.0,0.19372499999999998,-0.7512749999999999,0.567,-0.08625959999999999,-0.059423279999999995,-0.014376599999999998
1779590494567882537,step,0.0,-0.08869763258635183,1.473738567091492,-2.9149267436332895,-0.08773770149775495,-0.01918116847941768,0.0,0.0,-0.021,0.0,0.0,0.0,0.0,0.19372499999999998,-0.5433749999999999,0.5481,-0.08721804,-0.059423279999999995,-0.01725192
1779590494567882537,step,0.0,-0.08869763258635183,1.473738567091492,-2.9149267436332895,-0.08773770149775495,-0.01918116847941768,0.0,0.0,-0.021,0.0,0.0,0.0,0.0,0.19372499999999998,-0.5433749999999999,0.5481,-0.08721804,-0.059423279999999995,-0.01725192
1779590494572874069,step,0.0,-0.08869763258635183,1.473738567091492,-2.9149267436332895,-0.08773770149775495,-0.01918116847941768,0.0,0.0,0.011,0.0,0.0,0.0,0.0,0.17482499999999998,-0.8363249999999999,0.5481,-0.08721804,-0.06038172,-0.01725192
1779590494572874069,step,0.0,-0.08869763258635183,1.473738567091492,-2.9149267436332895,-0.08773770149775495,-0.01918116847941768,0.0,0.0,0.011,0.0,0.0,0.0,0.0,0.17482499999999998,-0.8363249999999999,0.5481,-0.08721804,-0.06038172,-0.01725192
1779590494577874422,step,0.0,-0.08869763258635183,1.473738567091492,-2.9149267436332895,-0.08773770149775495,-0.01918116847941768,0.0,0.0,-0.002,0.0,0.0,0.0,0.0,0.21262499999999998,-0.7040249999999999,0.55755,-0.08721804,-0.0670908,-0.01533504
1779590494577874422,step,0.0,-0.08869763258635183,1.473738567091492,-2.9149267436332895,-0.08773770149775495,-0.01918116847941768,0.0,0.0,-0.002,0.0,0.0,0.0,0.0,0.21262499999999998,-0.7040249999999999,0.55755,-0.08721804,-0.0670908,-0.01533504
1779590494582885742,step,0.0,-0.08869763258635183,1.473738567091492,-2.9149267436332895,-0.08773770149775495,-0.01918116847941768,0.0,0.0,-0.002,0.0,0.0,0.0,0.0,0.17482499999999998,-0.7040249999999999,0.5433749999999999,-0.08721804,-0.0670908,-0.01821036
1779590494582885742,step,0.0,-0.08869763258635183,1.473738567091492,-2.9149267436332895,-0.08773770149775495,-0.01918116847941768,0.0,0.0,-0.002,0.0,0.0,0.0,0.0,0.17482499999999998,-0.7040249999999999,0.5433749999999999,-0.08721804,-0.0670908,-0.01821036
1779590494587886810,step,0.0,-0.08869763258635183,1.473738567091492,-2.9149267436332895,-0.08773770149775495,-0.01918116847941768,0.0,0.0,-0.031,0.0,0.0,0.0,0.0,0.17482499999999998,-0.581175,0.552825,-0.08625959999999999,-0.06421548,-0.01821036
1779590494587886810,step,0.0,-0.08869763258635183,1.473738567091492,-2.9149267436332895,-0.08773770149775495,-0.01918116847941768,0.0,0.0,-0.031,0.0,0.0,0.0,0.0,0.17482499999999998,-0.581175,0.552825,-0.08625959999999999,-0.06421548,-0.01821036
1779590494592878103,step,0.0,-0.08869763258635183,1.473738567091492,-2.9149267436332895,-0.08773770149775495,-0.01918116847941768,0.0,0.0,0.021,0.0,0.0,0.0,0.0,0.17482499999999998,-0.968625,0.552825,-0.08338428,-0.07188299999999999,-0.01821036
1779590494592878103,step,0.0,-0.08869763258635183,1.473738567091492,-2.9149267436332895,-0.08773770149775495,-0.01918116847941768,0.0,0.0,0.021,0.0,0.0,0.0,0.0,0.17482499999999998,-0.968625,0.552825,-0.08338428,-0.07188299999999999,-0.01821036
1779590494597890377,step,0.0,-0.08869763258635183,1.473738567091492,-2.9149267436332895,-0.08773770149775495,-0.01918116847941768,0.0,0.0,0.021,0.0,0.0,0.0,0.0,0.17955,-0.968625,0.552825,-0.08338428,-0.07188299999999999,-0.01054284
1779590494597890377,step,0.0,-0.08869763258635183,1.473738567091492,-2.9149267436332895,-0.08773770149775495,-0.01918116847941768,0.0,0.0,0.021,0.0,0.0,0.0,0.0,0.17955,-0.968625,0.552825,-0.08338428,-0.07188299999999999,-0.01054284
1779590494597890377,step,0.0,-0.08869763258635183,1.473738567091492,-2.9149267436332895,-0.08773770149775495,-0.01918116847941768,0.0,0.0,0.021,0.0,0.0,0.0,0.0,0.17955,-0.968625,0.5764499999999999,-0.08338428,-0.0670908,-0.01533504
1779590494597890377,step,0.0,-0.08869763258635183,1.473738567091492,-2.9149267436332895,-0.08773770149775495,-0.01918116847941768,0.0,0.0,0.021,0.0,0.0,0.0,0.0,0.17955,-0.968625,0.5764499999999999,-0.08338428,-0.0670908,-0.01533504
1779590494607877731,step,0.0,-0.08869763258635183,1.473738567091492,-2.9149267436332895,-0.08773770149775495,-0.01918116847941768,0.0,0.0,-0.034,0.0,0.0,0.0,0.0,0.184275,-0.7371,0.5481,-0.08721804,-0.059423279999999995,-0.01245972
1779590494607877731,step,0.0,-0.08869763258635183,1.473738567091492,-2.9149267436332895,-0.08773770149775495,-0.01918116847941768,0.0,0.0,-0.034,0.0,0.0,0.0,0.0,0.184275,-0.7371,0.5481,-0.08721804,-0.059423279999999995,-0.01245972
1779590494612877368,step,0.0,-0.08869763258635183,1.473738567091492,-2.9149267436332895,-0.08773770149775495,-0.01918116847941768,0.0,0.0,0.029,0.0,0.0,0.0,0.0,0.1701,-0.91665,0.5717249999999999,-0.08721804,-0.0622986,-0.00862596
1779590494612877368,step,0.0,-0.08869763258635183,1.473738567091492,-2.9149267436332895,-0.08773770149775495,-0.01918116847941768,0.0,0.0,0.029,0.0,0.0,0.0,0.0,0.1701,-0.91665,0.5717249999999999,-0.08721804,-0.0622986,-0.00862596
1779590494617901802,step,0.0,-0.08869763258635183,1.473738567091492,-2.9149267436332895,-0.08773770149775495,-0.01918116847941768,0.0,0.0,0.029,0.0,0.0,0.0,0.0,0.17482499999999998,-0.91665,0.5292,-0.08721804,-0.06421548,-0.01725192
1779590494617901802,step,0.0,-0.08869763258635183,1.473738567091492,-2.9149267436332895,-0.08773770149775495,-0.01918116847941768,0.0,0.0,0.029,0.0,0.0,0.0,0.0,0.17482499999999998,-0.91665,0.5292,-0.08721804,-0.06421548,-0.01725192
1779590494622896194,step,0.0,-0.08869763258635183,1.473738567091492,-2.9149267436332895,-0.08773770149775495,-0.01918116847941768,0.0,0.0,-0.012,0.0,0.0,0.0,0.0,0.17482499999999998,-0.6000749999999999,0.5292,-0.07859208,-0.06421548,-0.01725192
1779590494622896194,step,0.0,-0.08869763258635183,1.473738567091492,-2.9149267436332895,-0.08773770149775495,-0.01918116847941768,0.0,0.0,-0.012,0.0,0.0,0.0,0.0,0.17482499999999998,-0.6000749999999999,0.5292,-0.07859208,-0.06421548,-0.01725192
1779590494622896194,step,0.0,-0.08869763258635183,1.473738567091492,-2.9149267436332895,-0.08773770149775495,-0.01918116847941768,0.0,0.0,-0.012,0.0,0.0,0.0,0.0,0.17482499999999998,-0.6000749999999999,0.5292,-0.07859208,-0.06421548,-0.01725192
1779590494622896194,step,0.0,-0.08869763258635183,1.473738567091492,-2.9149267436332895,-0.08773770149775495,-0.01918116847941768,0.0,0.0,-0.012,0.0,0.0,0.0,0.0,0.17482499999999998,-0.6000749999999999,0.5292,-0.07859208,-0.06421548,-0.01725192
1779590494627884864,step,0.0,-0.08869763258635183,1.473738567091492,-2.9149267436332895,-0.08773770149775495,-0.01918116847941768,0.0,0.0,-0.012,0.0,0.0,0.0,0.0,0.17955,-0.6000749999999999,0.5292,-0.07859208,-0.06421548,-0.01725192
1779590494627884864,step,0.0,-0.08869763258635183,1.473738567091492,-2.9149267436332895,-0.08773770149775495,-0.01918116847941768,0.0,0.0,-0.012,0.0,0.0,0.0,0.0,0.17955,-0.6000749999999999,0.5292,-0.07859208,-0.06421548,-0.01725192
1779590494637882947,step,0.0,-0.08869763258635183,1.473738567091492,-2.9149267436332895,-0.08773770149775495,-0.01918116847941768,0.0,0.33,0.019,0.0,0.0,0.0,0.0,12.422025,-0.63315,0.5717249999999999,-0.08817648,-0.05175576,-0.00575064
1779590494637882947,step,0.0,-0.08869763258635183,1.473738567091492,-2.9149267436332895,-0.08773770149775495,-0.01918116847941768,0.0,0.33,0.019,0.0,0.0,0.0,0.0,12.422025,-0.63315,0.5717249999999999,-0.08817648,-0.05175576,-0.00575064
1779590494642899274,step,0.0,-0.06939429105929454,1.473738567091492,-2.9149267436332895,-0.09300859583877781,-0.01918116847941768,0.0,2.988,-0.056,0.0,-0.385,0.0,-0.193,3.29805,-0.269325,0.5717249999999999,0.5779393199999999,-0.06996611999999999,0.3785838
1779590494642899274,step,0.0,-0.06939429105929454,1.473738567091492,-2.9149267436332895,-0.09300859583877781,-0.01918116847941768,0.0,2.988,-0.056,0.0,-0.385,0.0,-0.193,3.29805,-0.269325,0.5717249999999999,0.5779393199999999,-0.06996611999999999,0.3785838
1779590494647892475,step,0.0,-0.0471238898038469,1.473738567091492,-2.9149267436332895,-0.08962265708990882,-0.01918116847941768,0.0,3.0100000000000002,0.02,0.0,0.441,0.0,-0.001,-0.978075,-0.8788499999999999,0.5103,-0.29328264,-0.07092456,0.05463108
1779590494647892475,step,0.0,-0.0471238898038469,1.473738567091492,-2.9149267436332895,-0.08962265708990882,-0.01918116847941768,0.0,3.0100000000000002,0.02,0.0,0.441,0.0,-0.001,-0.978075,-0.8788499999999999,0.5103,-0.29328264,-0.07092456,0.05463108
1779590494652997493,step,0.0,-0.03017674276698196,1.473738567091492,-2.9149267436332895,-0.08962265708990882,-0.01918116847941768,0.0,2.349,0.02,0.0,0.441,0.0,0.157,0.16065,-0.8788499999999999,0.552825,-0.29328264,-0.0622986,-0.25782036
1779590494652997493,step,0.0,-0.03017674276698196,1.473738567091492,-2.9149267436332895,-0.08962265708990882,-0.01918116847941768,0.0,2.349,0.02,0.0,0.441,0.0,0.157,0.16065,-0.8788499999999999,0.552825,-0.29328264,-0.0622986,-0.25782036
1779590494657894372,step,0.0,-0.03017674276698196,1.473738567091492,-2.9149267436332895,-0.08957029721234899,-0.01918116847941768,0.0,2.349,-0.01,0.001,0.088,0.0,0.157,0.16065,-0.41579999999999995,0.46304999999999996,-0.1821036,-0.0622986,-0.25782036
1779590494657894372,step,0.0,-0.03017674276698196,1.473738567091492,-2.9149267436332895,-0.08957029721234899,-0.01918116847941768,0.0,2.349,-0.01,0.001,0.088,0.0,0.157,0.16065,-0.41579999999999995,0.46304999999999996,-0.1821036,-0.0622986,-0.25782036
1779590494662894725,step,0.0,-0.014765485471872028,1.473738567091492,-2.9149267436332895,-0.08962265708990882,-0.01918116847941768,0.0,2.157,0.002,0.001,-0.139,0.0,0.001,0.089775,-0.6898499999999999,0.46304999999999996,-0.08721804,-0.05558952,-0.05175576
1779590494662894725,step,0.0,-0.014765485471872028,1.473738567091492,-2.9149267436332895,-0.08962265708990882,-0.01918116847941768,0.0,2.157,0.002,0.001,-0.139,0.0,0.001,0.089775,-0.6898499999999999,0.46304999999999996,-0.08721804,-0.05558952,-0.05175576
1779590494667893886,step,0.0,-0.0015184364492350669,1.473738567091492,-2.9149267436332895,-0.08962265708990882,-0.01918116847941768,0.0,1.827,0.002,0.0,-0.139,0.0,-0.042,0.40635,-0.6898499999999999,0.5197499999999999,-0.08721804,-0.06996611999999999,0.043129799999999996
1779590494667893886,step,0.0,-0.0015184364492350669,1.473738567091492,-2.9149267436332895,-0.08962265708990882,-0.01918116847941768,0.0,1.827,0.002,0.0,-0.139,0.0,-0.042,0.40635,-0.6898499999999999,0.5197499999999999,-0.08721804,-0.06996611999999999,0.043129799999999996
1779590494667893886,step,0.0,-0.0015184364492350669,1.473738567091492,-2.9149267436332895,-0.08962265708990882,-0.01918116847941768,0.0,1.827,0.002,0.0,-0.139,0.0,-0.042,0.40635,-0.6898499999999999,0.5197499999999999,-0.08721804,-0.06996611999999999,0.043129799999999996
1779590494667893886,step,0.0,-0.0015184364492350669,1.473738567091492,-2.9149267436332895,-0.08962265708990882,-0.01918116847941768,0.0,1.827,0.002,0.0,-0.139,0.0,-0.042,0.40635,-0.6898499999999999,0.5197499999999999,-0.08721804,-0.06996611999999999,0.043129799999999996
1779590494672895193,step,0.0,-0.0015184364492350669,1.473738567091492,-2.9149267436332895,-0.08962265708990882,-0.01918116847941768,0.0,1.827,0.002,0.0,-0.139,0.0,-0.042,0.40635,-0.6898499999999999,0.5197499999999999,-0.08721804,-0.06996611999999999,0.043129799999999996
1779590494672895193,step,0.0,-0.0015184364492350669,1.473738567091492,-2.9149267436332895,-0.08962265708990882,-0.01918116847941768,0.0,1.827,0.002,0.0,-0.139,0.0,-0.042,0.40635,-0.6898499999999999,0.5197499999999999,-0.08721804,-0.06996611999999999,0.043129799999999996
1779590494682926177,step,0.0,0.02001892652037496,1.473738567091492,-2.9149267436332895,-0.08962265708990882,-0.01918116847941768,0.0,1.3840000000000001,0.02,0.0,0.0,0.0,0.0,0.36382499999999995,-0.8883,0.5292,-0.029711639999999997,-0.0670908,-0.01533504
1779590494682926177,step,0.0,0.02001892652037496,1.473738567091492,-2.9149267436332895,-0.08962265708990882,-0.01918116847941768,0.0,1.3840000000000001,0.02,0.0,0.0,0.0,0.0,0.36382499999999995,-0.8883,0.5292,-0.029711639999999997,-0.0670908,-0.01533504
1779590494682926177,step,0.0,0.02001892652037496,1.473738567091492,-2.9149267436332895,-0.08962265708990882,-0.01918116847941768,0.0,1.3840000000000001,0.02,0.0,0.0,0.0,0.0,0.36382499999999995,-0.8883,0.5292,-0.029711639999999997,-0.0670908,-0.01533504
1779590494682926177,step,0.0,0.02001892652037496,1.473738567091492,-2.9149267436332895,-0.08962265708990882,-0.01918116847941768,0.0,1.3840000000000001,0.02,0.0,0.0,0.0,0.0,0.36382499999999995,-0.8883,0.5292,-0.029711639999999997,-0.0670908,-0.01533504
1779590494687897443,step,0.0,0.028728119487826668,1.473738567091492,-2.9149267436332895,-0.08962265708990882,-0.01918116847941768,0.0,1.198,0.02,0.0,0.0,0.0,0.0,0.36855,-0.8883,0.5481,-0.029711639999999997,-0.0670908,-0.01821036
1779590494687897443,step,0.0,0.028728119487826668,1.473738567091492,-2.9149267436332895,-0.08962265708990882,-0.01918116847941768,0.0,1.198,0.02,0.0,0.0,0.0,0.0,0.36855,-0.8883,0.5481,-0.029711639999999997,-0.0670908,-0.01821036
1779590494692901372,step,0.0,0.028728119487826668,1.473738567091492,-2.9149267436332895,-0.08962265708990882,-0.01918116847941768,0.0,1.198,-0.008,0.0,0.0,0.0,0.0,0.36855,-0.567,0.53865,-0.029711639999999997,-0.0670908,-0.01821036
1779590494692901372,step,0.0,0.028728119487826668,1.473738567091492,-2.9149267436332895,-0.08962265708990882,-0.01918116847941768,0.0,1.198,-0.008,0.0,0.0,0.0,0.0,0.36855,-0.567,0.53865,-0.029711639999999997,-0.0670908,-0.01821036
1779590494697912454,step,0.0,0.036267941856442165,1.473738567091492,-2.9149267436332895,-0.08962265708990882,-0.01918116847941768,0.0,1.05,0.005,0.0,0.0,0.0,0.0,0.3449249999999999,-0.6945749999999999,0.53865,-0.03258696,-0.06517392,-0.01054284
1779590494697912454,step,0.0,0.036267941856442165,1.473738567091492,-2.9149267436332895,-0.08962265708990882,-0.01918116847941768,0.0,1.05,0.005,0.0,0.0,0.0,0.0,0.3449249999999999,-0.6945749999999999,0.53865,-0.03258696,-0.06517392,-0.01054284
1779590494707896709,step,0.0,0.04293509959906051,1.473738567091492,-2.9149267436332895,-0.08962265708990882,-0.01918116847941768,0.0,0.931,-0.002,0.0,0.0,0.0,0.0,0.165375,-0.637875,0.5197499999999999,-0.03450384,-0.0622986,-0.00287532
1779590494707896709,step,0.0,0.04293509959906051,1.473738567091492,-2.9149267436332895,-0.08962265708990882,-0.01918116847941768,0.0,0.931,-0.002,0.0,0.0,0.0,0.0,0.165375,-0.637875,0.5197499999999999,-0.03450384,-0.0622986,-0.00287532
1779590494712910175,step,0.0,0.04855505979048225,1.473738567091492,-2.9149267436332895,-0.08962265708990882,-0.01918116847941768,0.0,0.781,0.008,0.0,0.0,0.0,0.0,0.467775,-0.741825,0.5197499999999999,-0.03546228,-0.052714199999999996,-0.00287532
1779590494712910175,step,0.0,0.04855505979048225,1.473738567091492,-2.9149267436332895,-0.08962265708990882,-0.01918116847941768,0.0,0.781,0.008,0.0,0.0,0.0,0.0,0.467775,-0.741825,0.5197499999999999,-0.03546228,-0.052714199999999996,-0.00287532
1779590494717913150,step,0.0,0.05359906132874586,1.473738567091492,-2.9149267436332895,-0.08962265708990882,-0.01918116847941768,0.0,0.6990000000000001,-0.001,0.0,0.0,0.0,0.0,0.326025,-0.637875,0.53865,-0.03737916,-0.05654796,-0.00575064
1779590494717913150,step,0.0,0.05359906132874586,1.473738567091492,-2.9149267436332895,-0.08962265708990882,-0.01918116847941768,0.0,0.6990000000000001,-0.001,0.0,0.0,0.0,0.0,0.326025,-0.637875,0.53865,-0.03737916,-0.05654796,-0.00575064
1779590494722894668,step,0.0,0.057700585070932536,1.473738567091492,-2.9149267436332895,-0.08962265708990882,-0.01918116847941768,0.0,0.577,-0.001,0.0,0.0,0.0,0.0,0.20789999999999997,-0.637875,0.533925,-0.03737916,-0.06421548,0.0
1779590494722894668,step,0.0,0.057700585070932536,1.473738567091492,-2.9149267436332895,-0.08962265708990882,-0.01918116847941768,0.0,0.577,-0.001,0.0,0.0,0.0,0.0,0.20789999999999997,-0.637875,0.533925,-0.03737916,-0.06421548,0.0
1779590494728005170,step,0.0,0.057700585070932536,1.473738567091492,-2.9149267436332895,-0.08962265708990882,-0.01918116847941768,0.0,0.577,-0.032,0.0,0.0,0.0,0.0,0.20789999999999997,-0.5481,0.5244749999999999,-0.03162852,-0.06421548,0.0
1779590494728005170,step,0.0,0.057700585070932536,1.473738567091492,-2.9149267436332895,-0.08962265708990882,-0.01918116847941768,0.0,0.577,-0.032,0.0,0.0,0.0,0.0,0.20789999999999997,-0.5481,0.5244749999999999,-0.03162852,-0.06421548,0.0
1779590494732912063,step,0.0,0.06159266930287989,1.473738567091492,-2.9149267436332895,-0.08962265708990882,-0.01918116847941768,0.0,0.527,0.033,0.0,0.0,0.0,0.0,0.155925,-0.6945749999999999,0.5244749999999999,-0.03929604,-0.06804924000000001,-0.00287532
1779590494732912063,step,0.0,0.06159266930287989,1.473738567091492,-2.9149267436332895,-0.08962265708990882,-0.01918116847941768,0.0,0.527,0.033,0.0,0.0,0.0,0.0,0.155925,-0.6945749999999999,0.5244749999999999,-0.03929604,-0.06804924000000001,-0.00287532
1779590494732912063,step,0.0,0.06476916854150958,1.473738567091492,-2.9149267436332895,-0.08962265708990882,-0.01918116847941768,0.0,0.527,0.033,0.0,0.0,0.0,0.0,0.155925,-0.6945749999999999,0.5244749999999999,-0.03929604,-0.06804924000000001,-0.00287532
1779590494732912063,step,0.0,0.06476916854150958,1.473738567091492,-2.9149267436332895,-0.08962265708990882,-0.01918116847941768,0.0,0.527,0.033,0.0,0.0,0.0,0.0,0.155925,-0.6945749999999999,0.5244749999999999,-0.03929604,-0.06804924000000001,-0.00287532
1779590494742908954,step,0.0,0.06476916854150958,1.473738567091492,-2.9149267436332895,-0.08962265708990882,-0.01918116847941768,0.0,0.441,0.033,0.0,0.0,0.0,0.0,0.4725,-0.6945749999999999,0.552825,-0.03929604,-0.0622986,-0.00670908
1779590494742908954,step,0.0,0.06476916854150958,1.473738567091492,-2.9149267436332895,-0.08962265708990882,-0.01918116847941768,0.0,0.441,0.033,0.0,0.0,0.0,0.0,0.4725,-0.6945749999999999,0.552825,-0.03929604,-0.0622986,-0.00670908
1779590494747910737,step,0.0,0.06745697558958084,1.473738567091492,-2.9149267436332895,-0.08962265708990882,-0.01918116847941768,0.0,0.386,0.011,0.0,0.0,0.0,0.0,0.40635,-0.78435,0.4914,-0.03546228,-0.0622986,-0.00670908
1779590494747910737,step,0.0,0.06745697558958084,1.473738567091492,-2.9149267436332895,-0.08962265708990882,-0.01918116847941768,0.0,0.386,0.011,0.0,0.0,0.0,0.0,0.40635,-0.78435,0.4914,-0.03546228,-0.0622986,-0.00670908
1779590494752908945,step,0.0,0.07021459580773187,1.473738567091492,-2.9149267436332895,-0.08962265708990882,-0.01918116847941768,0.0,0.40800000000000003,-0.003,0.0,0.0,0.0,0.0,-0.042525,-0.6615,0.5197499999999999,-0.03067008,-0.059423279999999995,-0.00862596
1779590494752908945,step,0.0,0.07021459580773187,1.473738567091492,-2.9149267436332895,-0.08962265708990882,-0.01918116847941768,0.0,0.40800000000000003,-0.003,0.0,0.0,0.0,0.0,-0.042525,-0.6615,0.5197499999999999,-0.03067008,-0.059423279999999995,-0.00862596
1779590494757903099,step,0.0,0.07213445798492564,1.473738567091492,-2.9149267436332895,-0.08962265708990882,-0.01918116847941768,0.0,0.246,-0.003,0.0,0.0,0.0,0.0,0.45359999999999995,-0.6615,0.5197499999999999,-0.03067008,-0.06325704,0.00191688
1779590494757903099,step,0.0,0.07213445798492564,1.473738567091492,-2.9149267436332895,-0.08962265708990882,-0.01918116847941768,0.0,0.246,-0.003,0.0,0.0,0.0,0.0,0.45359999999999995,-0.6615,0.5197499999999999,-0.03067008,-0.06325704,0.00191688
1779590494762903928,step,0.0,0.07213445798492564,1.473738567091492,-2.9149267436332895,-0.08962265708990882,-0.01918116847941768,0.0,0.246,0.002,0.0,0.0,0.0,0.0,0.45359999999999995,-0.7748999999999999,0.53865,-0.03737916,-0.06325704,0.00191688
1779590494762903928,step,0.0,0.07213445798492564,1.473738567091492,-2.9149267436332895,-0.08962265708990882,-0.01918116847941768,0.0,0.246,0.002,0.0,0.0,0.0,0.0,0.45359999999999995,-0.7748999999999999,0.53865,-0.03737916,-0.06325704,0.00191688
1779590494767909765,step,0.0,0.07230899091012508,1.473738567091492,-2.9149267436332895,-0.08962265708990882,-0.01918116847941768,0.0,0.215,0.021,0.0,0.0,0.0,0.0,0.817425,-0.93555,0.53865,-0.0383376,-0.06134016,0.00191688
1779590494767909765,step,0.0,0.07230899091012508,1.473738567091492,-2.9149267436332895,-0.08962265708990882,-0.01918116847941768,0.0,0.215,0.021,0.0,0.0,0.0,0.0,0.817425,-0.93555,0.53865,-0.0383376,-0.06134016,0.00191688
1779590494772921800,step,0.0,0.07532841051607526,1.473738567091492,-2.9149267436332895,-0.08962265708990882,-0.01918116847941768,0.0,0.2,0.021,0.0,0.0,0.0,0.0,0.55755,-0.93555,0.5292,-0.0383376,-0.06134016,-0.0047922
1779590494772921800,step,0.0,0.07532841051607526,1.473738567091492,-2.9149267436332895,-0.08962265708990882,-0.01918116847941768,0.0,0.2,0.021,0.0,0.0,0.0,0.0,0.55755,-0.93555,0.5292,-0.0383376,-0.06134016,-0.0047922
1779590494777905702,step,0.0,0.07532841051607526,1.473738567091492,-2.9149267436332895,-0.08962265708990882,-0.01918116847941768,0.0,0.2,-0.024,0.0,0.0,0.0,0.0,0.55755,-0.789075,0.5292,-0.0383376,-0.06134016,-0.00862596
1779590494777905702,step,0.0,0.07532841051607526,1.473738567091492,-2.9149267436332895,-0.08962265708990882,-0.01918116847941768,0.0,0.2,-0.024,0.0,0.0,0.0,0.0,0.55755,-0.789075,0.5292,-0.0383376,-0.06134016,-0.00862596
1779590494782951593,step,0.0,0.07559020990387443,1.473738567091492,-2.9149267436332895,-0.08962265708990882,-0.01918116847941768,0.0,0.181,0.023,0.0,0.0,0.0,0.0,0.6662250000000001,-0.9639,0.5292,-0.03450384,-0.06038172,-0.00862596
1779590494782951593,step,0.0,0.07559020990387443,1.473738567091492,-2.9149267436332895,-0.08962265708990882,-0.01918116847941768,0.0,0.181,0.023,0.0,0.0,0.0,0.0,0.6662250000000001,-0.9639,0.5292,-0.03450384,-0.06038172,-0.00862596
1779590494787906408,step,0.0,0.07792895110154681,1.473738567091492,-2.9149267436332895,-0.08962265708990882,-0.01918116847941768,0.0,0.224,-0.003,0.0,0.0,0.0,0.0,0.0189,-0.7371,0.5481,-0.03737916,-0.06038172,-0.01054284
1779590494787906408,step,0.0,0.07792895110154681,1.473738567091492,-2.9149267436332895,-0.08962265708990882,-0.01918116847941768,0.0,0.224,-0.003,0.0,0.0,0.0,0.0,0.0189,-0.7371,0.5481,-0.03737916,-0.06038172,-0.01054284
1779590494792907476,step,0.0,0.07768460500626762,1.473738567091492,-2.9149267436332895,-0.08962265708990882,-0.01918116847941768,0.0,0.137,-0.003,0.0,0.0,0.0,0.0,0.29767499999999997,-0.7371,0.515025,-0.03737916,-0.06038172,-0.01054284
1779590494792907476,step,0.0,0.07768460500626762,1.473738567091492,-2.9149267436332895,-0.08962265708990882,-0.01918116847941768,0.0,0.137,-0.003,0.0,0.0,0.0,0.0,0.29767499999999997,-0.7371,0.515025,-0.03737916,-0.06038172,-0.01054284
1779590494797899723,step,0.0,0.07768460500626762,1.473738567091492,-2.9149267436332895,-0.08962265708990882,-0.01918116847941768,0.0,0.137,0.002,0.0,0.0,0.0,0.0,0.29767499999999997,-0.78435,0.5292,-0.03737916,-0.06038172,-0.01054284
1779590494797899723,step,0.0,0.07768460500626762,1.473738567091492,-2.9149267436332895,-0.08962265708990882,-0.01918116847941768,0.0,0.137,0.002,0.0,0.0,0.0,0.0,0.29767499999999997,-0.78435,0.5292,-0.03737916,-0.06038172,-0.01054284
1779590494802931785,step,0.0,0.08000589291142007,1.473738567091492,-2.9149267436332895,-0.08962265708990882,-0.01918116847941768,0.0,0.155,0.036000000000000004,0.0,0.0,0.0,0.0,0.165375,-0.9071999999999999,0.5292,-0.03258696,-0.06038172,-0.01054284
1779590494802931785,step,0.0,0.08000589291142007,1.473738567091492,-2.9149267436332895,-0.08962265708990882,-0.01918116847941768,0.0,0.155,0.036000000000000004,0.0,0.0,0.0,0.0,0.165375,-0.9071999999999999,0.5292,-0.03258696,-0.06038172,-0.01054284
1779590494802931785,step,0.0,0.08000589291142007,1.473738567091492,-2.9149267436332895,-0.08962265708990882,-0.01918116847941768,0.0,0.155,0.036000000000000004,0.0,0.0,0.0,0.0,0.165375,-0.9071999999999999,0.5292,-0.03258696,-0.06038172,-0.01054284
1779590494807906866,step,0.0,0.08025023900669927,1.473738567091492,-2.9149267436332895,-0.08962265708990882,-0.01918116847941768,0.0,0.203,0.036000000000000004,0.0,0.0,0.0,0.0,-0.41579999999999995,-0.9071999999999999,0.515025,-0.03258696,-0.0622986,-0.00287532
1779590494807906866,step,0.0,0.08025023900669927,1.473738567091492,-2.9149267436332895,-0.08962265708990882,-0.01918116847941768,0.0,0.203,0.036000000000000004,0.0,0.0,0.0,0.0,-0.41579999999999995,-0.9071999999999999,0.515025,-0.03258696,-0.0622986,-0.00287532
1779590494812961101,step,0.0,0.08025023900669927,1.473738567091492,-2.9149267436332895,-0.08962265708990882,-0.01918116847941768,0.0,0.203,-0.019,0.0,0.0,0.0,0.0,-0.41579999999999995,-0.5481,0.5197499999999999,-0.04217136,-0.0622986,0.00191688
1779590494812961101,step,0.0,0.08025023900669927,1.473738567091492,-2.9149267436332895,-0.08962265708990882,-0.01918116847941768,0.0,0.203,-0.019,0.0,0.0,0.0,0.0,-0.41579999999999995,-0.5481,0.5197499999999999,-0.04217136,-0.0622986,0.00191688
1779590494817916154,step,0.0,0.08025023900669927,1.473738567091492,-2.9149267436332895,-0.08962265708990882,-0.01918116847941768,0.0,0.01,0.005,0.0,0.0,0.0,0.0,0.8552249999999999,-0.7748999999999999,0.5197499999999999,-0.0335454,-0.06996611999999999,0.00191688
1779590494817916154,step,0.0,0.08025023900669927,1.473738567091492,-2.9149267436332895,-0.08962265708990882,-0.01918116847941768,0.0,0.01,0.005,0.0,0.0,0.0,0.0,0.8552249999999999,-0.7748999999999999,0.5197499999999999,-0.0335454,-0.06996611999999999,0.00191688
1779590494822992563,step,0.0,0.08025023900669927,1.473738567091492,-2.9149267436332895,-0.08962265708990882,-0.01918116847941768,0.0,0.0,0.02,0.0,0.0,0.0,0.0,1.0253249999999998,-0.6992999999999999,0.5008499999999999,-0.03737916,-0.06613236,-0.0047922
1779590494822992563,step,0.0,0.08025023900669927,1.473738567091492,-2.9149267436332895,-0.08962265708990882,-0.01918116847941768,0.0,0.0,0.02,0.0,0.0,0.0,0.0,1.0253249999999998,-0.6992999999999999,0.5008499999999999,-0.03737916,-0.06613236,-0.0047922
1779590494827917575,step,0.0,0.08208283472129332,1.473738567091492,-2.9149267436332895,-0.08962265708990882,-0.01918116847941768,0.0,0.042,0.02,0.0,0.0,0.0,0.0,0.798525,-0.6992999999999999,0.5433749999999999,-0.03737916,-0.0622986,-0.0047922
1779590494827917575,step,0.0,0.08208283472129332,1.473738567091492,-2.9149267436332895,-0.08962265708990882,-0.01918116847941768,0.0,0.042,0.02,0.0,0.0,0.0,0.0,0.798525,-0.6992999999999999,0.5433749999999999,-0.03737916,-0.0622986,-0.0047922
1779590494832918167,step,0.0,0.08208283472129332,1.473738567091492,-2.9149267436332895,-0.08962265708990882,-0.01918116847941768,0.0,0.042,-0.031,0.0,0.0,0.0,0.0,0.798525,-0.505575,0.533925,-0.03642072,-0.0622986,-0.00670908
1779590494832918167,step,0.0,0.08208283472129332,1.473738567091492,-2.9149267436332895,-0.08962265708990882,-0.01918116847941768,0.0,0.042,-0.031,0.0,0.0,0.0,0.0,0.798525,-0.505575,0.533925,-0.03642072,-0.0622986,-0.00670908
1779590494837919712,step,0.0,0.08190830179609389,1.473738567091492,-2.9149267436332895,-0.08962265708990882,-0.01918116847941768,0.0,0.076,0.013000000000000001,0.0,0.0,0.0,0.0,0.48195,-0.8410499999999999,0.533925,-0.03258696,-0.05750639999999999,-0.00670908
1779590494837919712,step,0.0,0.08190830179609389,1.473738567091492,-2.9149267436332895,-0.08962265708990882,-0.01918116847941768,0.0,0.076,0.013000000000000001,0.0,0.0,0.0,0.0,0.48195,-0.8410499999999999,0.533925,-0.03258696,-0.05750639999999999,-0.00670908
1779590494842909336,step,0.0,0.08190830179609389,1.473738567091492,-2.9149267436332895,-0.08962265708990882,-0.01918116847941768,0.0,0.06,0.013000000000000001,0.0,0.0,0.0,0.0,0.44415,-0.8410499999999999,0.505575,-0.03258696,-0.06134016,-0.0095844
1779590494842909336,step,0.0,0.08190830179609389,1.473738567091492,-2.9149267436332895,-0.08962265708990882,-0.01918116847941768,0.0,0.06,0.013000000000000001,0.0,0.0,0.0,0.0,0.44415,-0.8410499999999999,0.505575,-0.03258696,-0.06134016,-0.0095844
1779590494847910642,step,0.0,0.08190830179609389,1.473738567091492,-2.9149267436332895,-0.08962265708990882,-0.01918116847941768,0.0,0.06,-0.003,0.0,0.0,0.0,0.0,0.44415,-0.7276499999999999,0.5197499999999999,-0.03929604,-0.06134016,-0.0095844
1779590494847910642,step,0.0,0.08190830179609389,1.473738567091492,-2.9149267436332895,-0.08962265708990882,-0.01918116847941768,0.0,0.06,-0.003,0.0,0.0,0.0,0.0,0.44415,-0.7276499999999999,0.5197499999999999,-0.03929604,-0.06134016,-0.0095844
1779590494852912664,step,0.0,0.08190830179609389,1.473738567091492,-2.9149267436332895,-0.08962265708990882,-0.01918116847941768,0.0,0.03,0.001,0.0,0.0,0.0,0.0,0.5197499999999999,-0.798525,0.515025,-0.03450384,-0.06134016,-0.01150128
1779590494852912664,step,0.0,0.08190830179609389,1.473738567091492,-2.9149267436332895,-0.08962265708990882,-0.01918116847941768,0.0,0.03,0.001,0.0,0.0,0.0,0.0,0.5197499999999999,-0.798525,0.515025,-0.03450384,-0.06134016,-0.01150128
1779590494857912302,step,0.0,0.08190830179609389,1.473738567091492,-2.9149267436332895,-0.08962265708990882,-0.01918116847941768,0.0,0.047,0.031,0.0,0.0,0.0,0.0,0.33075,-0.8599499999999999,0.515025,-0.03450384,-0.06996611999999999,-0.01150128
1779590494857912302,step,0.0,0.08190830179609389,1.473738567091492,-2.9149267436332895,-0.08962265708990882,-0.01918116847941768,0.0,0.047,0.031,0.0,0.0,0.0,0.0,0.33075,-0.8599499999999999,0.515025,-0.03450384,-0.06996611999999999,-0.01150128
1779590494862930059,step,0.0,0.08389797714336743,1.473738567091492,-2.9149267436332895,-0.08962265708990882,-0.01918116847941768,0.0,0.07100000000000001,0.031,0.0,0.0,0.0,0.0,0.203175,-0.8599499999999999,0.5008499999999999,-0.03450384,-0.06613236,-0.00670908
1779590494862930059,step,0.0,0.08389797714336743,1.473738567091492,-2.9149267436332895,-0.08962265708990882,-0.01918116847941768,0.0,0.07100000000000001,0.031,0.0,0.0,0.0,0.0,0.203175,-0.8599499999999999,0.5008499999999999,-0.03450384,-0.06613236,-0.00670908
1779590494867928981,step,0.0,0.08389797714336743,1.473738567091492,-2.9149267436332895,-0.08962265708990882,-0.01918116847941768,0.0,0.07100000000000001,-0.013000000000000001,0.0,0.0,0.0,0.0,0.203175,-0.6000749999999999,0.5197499999999999,-0.03258696,-0.06613236,-0.00095844
1779590494867928981,step,0.0,0.08389797714336743,1.473738567091492,-2.9149267436332895,-0.08962265708990882,-0.01918116847941768,0.0,0.07100000000000001,-0.013000000000000001,0.0,0.0,0.0,0.0,0.203175,-0.6000749999999999,0.5197499999999999,-0.03258696,-0.06613236,-0.00095844
1779590494872914791,step,0.0,0.0839328837284073,1.473738567091492,-2.9149267436332895,-0.08962265708990882,-0.01918116847941768,0.0,0.016,0.015,0.0,0.0,0.0,0.0,0.25042499999999995,-0.807975,0.5197499999999999,-0.03258696,-0.06613236,-0.00095844
1779590494872914791,step,0.0,0.0839328837284073,1.473738567091492,-2.9149267436332895,-0.08962265708990882,-0.01918116847941768,0.0,0.016,0.015,0.0,0.0,0.0,0.0,0.25042499999999995,-0.807975,0.5197499999999999,-0.03258696,-0.06613236,-0.00095844
1779590494877914428,step,0.0,0.0839328837284073,1.473738567091492,-2.9149267436332895,-0.08962265708990882,-0.01918116847941768,0.0,0.002,0.015,0.0,0.0,0.0,0.0,0.533925,-0.807975,0.5197499999999999,-0.043129799999999996,-0.06900768,0.00191688
1779590494877914428,step,0.0,0.0839328837284073,1.473738567091492,-2.9149267436332895,-0.08962265708990882,-0.01918116847941768,0.0,0.002,0.015,0.0,0.0,0.0,0.0,0.533925,-0.807975,0.5197499999999999,-0.043129799999999996,-0.06900768,0.00191688
1779590494882916450,step,0.0,0.0839328837284073,1.473738567091492,-2.9149267436332895,-0.08962265708990882,-0.01918116847941768,0.0,0.02,-0.007,0.0,0.0,0.0,0.0,0.61425,-0.590625,0.53865,-0.0383376,-0.06900768,-0.00287532
1779590494882916450,step,0.0,0.0839328837284073,1.473738567091492,-2.9149267436332895,-0.08962265708990882,-0.01918116847941768,0.0,0.02,-0.007,0.0,0.0,0.0,0.0,0.61425,-0.590625,0.53865,-0.0383376,-0.06900768,-0.00287532
1779590494887950897,step,0.0,0.0839328837284073,1.473738567091492,-2.9149267436332895,-0.08962265708990882,-0.01918116847941768,0.0,0.02,-0.039,0.0,0.0,0.0,0.0,0.61425,-0.6000749999999999,0.5244749999999999,-0.03929604,-0.0670908,-0.00287532
1779590494887950897,step,0.0,0.0839328837284073,1.473738567091492,-2.9149267436332895,-0.08962265708990882,-0.01918116847941768,0.0,0.02,-0.039,0.0,0.0,0.0,0.0,0.61425,-0.6000749999999999,0.5244749999999999,-0.03929604,-0.0670908,-0.00287532
1779590494892925977,step,0.0,0.0839328837284073,1.473738567091492,-2.9149267436332895,-0.08962265708990882,-0.01918116847941768,0.0,0.0,0.0,0.0,0.0,0.0,0.0,0.6615,-0.63315,0.5244749999999999,-0.03162852,-0.06421548,-0.00575064
1779590494892925977,step,0.0,0.0839328837284073,1.473738567091492,-2.9149267436332895,-0.08962265708990882,-0.01918116847941768,0.0,0.0,0.0,0.0,0.0,0.0,0.0,0.6615,-0.63315,0.5244749999999999,-0.03162852,-0.06421548,-0.00575064
1779590494897926568,step,0.0,0.0839328837284073,1.473738567091492,-2.9149267436332895,-0.08962265708990882,-0.01918116847941768,0.0,0.032,0.0,0.0,0.0,0.0,0.0,0.647325,-0.63315,0.5292,-0.03162852,-0.06134016,-0.0095844
1779590494897926568,step,0.0,0.0839328837284073,1.473738567091492,-2.9149267436332895,-0.08962265708990882,-0.01918116847941768,0.0,0.032,0.0,0.0,0.0,0.0,0.0,0.647325,-0.63315,0.5292,-0.03162852,-0.06134016,-0.0095844
1779590494902926206,step,0.0,0.0839328837284073,1.473738567091492,-2.9149267436332895,-0.08962265708990882,-0.01918116847941768,0.0,0.032,-0.032,0.0,0.0,0.0,0.0,0.647325,-0.45359999999999995,0.5244749999999999,-0.03546228,-0.06134016,-0.0095844
1779590494902926206,step,0.0,0.0839328837284073,1.473738567091492,-2.9149267436332895,-0.08962265708990882,-0.01918116847941768,0.0,0.032,-0.032,0.0,0.0,0.0,0.0,0.647325,-0.45359999999999995,0.5244749999999999,-0.03546228,-0.06134016,-0.0095844
1779590494907932758,step,0.0,0.0839328837284073,1.473738567091492,-2.9149267436332895,-0.08962265708990882,-0.01918116847941768,0.0,0.0,0.015,0.0,0.0,0.0,0.0,0.590625,-0.8552249999999999,0.5244749999999999,-0.03258696,-0.0670908,-0.00191688
1779590494907932758,step,0.0,0.0839328837284073,1.473738567091492,-2.9149267436332895,-0.08962265708990882,-0.01918116847941768,0.0,0.0,0.015,0.0,0.0,0.0,0.0,0.590625,-0.8552249999999999,0.5244749999999999,-0.03258696,-0.0670908,-0.00191688
1779590494912946939,step,0.0,0.0839328837284073,1.473738567091492,-2.9149267436332895,-0.08962265708990882,-0.01918116847941768,0.0,0.0,0.015,0.0,0.0,0.0,0.0,0.6804,-0.8552249999999999,0.53865,-0.03258696,-0.06804924000000001,-0.0095844
1779590494912946939,step,0.0,0.0839328837284073,1.473738567091492,-2.9149267436332895,-0.08962265708990882,-0.01918116847941768,0.0,0.0,0.015,0.0,0.0,0.0,0.0,0.6804,-0.8552249999999999,0.53865,-0.03258696,-0.06804924000000001,-0.0095844
1779590494917950391,step,0.0,0.0839328837284073,1.473738567091492,-2.9149267436332895,-0.08962265708990882,-0.01918116847941768,0.0,0.0,-0.004,0.0,0.0,0.0,0.0,0.675675,-0.656775,0.5244749999999999,-0.03450384,-0.06804924000000001,-0.0095844
1779590494917950391,step,0.0,0.0839328837284073,1.473738567091492,-2.9149267436332895,-0.08962265708990882,-0.01918116847941768,0.0,0.0,-0.004,0.0,0.0,0.0,0.0,0.675675,-0.656775,0.5244749999999999,-0.03450384,-0.06804924000000001,-0.0095844
1779590494922946214,step,0.0,0.0839328837284073,1.473738567091492,-2.9149267436332895,-0.08962265708990882,-0.01918116847941768,0.0,0.0,0.003,0.0,0.0,0.0,0.0,0.675675,-0.7229249999999999,0.533925,-0.0335454,-0.0622986,0.0
1779590494922946214,step,0.0,0.0839328837284073,1.473738567091492,-2.9149267436332895,-0.08962265708990882,-0.01918116847941768,0.0,0.0,0.003,0.0,0.0,0.0,0.0,0.675675,-0.7229249999999999,0.533925,-0.0335454,-0.0622986,0.0
1779590494927931785,step,0.0,0.0839328837284073,1.473738567091492,-2.9149267436332895,-0.08962265708990882,-0.01918116847941768,0.0,0.0,-0.001,0.0,0.0,0.0,0.0,0.7087499999999999,-0.6237,0.533925,-0.0335454,-0.059423279999999995,-0.0047922
1779590494927931785,step,0.0,0.0839328837284073,1.473738567091492,-2.9149267436332895,-0.08962265708990882,-0.01918116847941768,0.0,0.0,-0.001,0.0,0.0,0.0,0.0,0.7087499999999999,-0.6237,0.533925,-0.0335454,-0.059423279999999995,-0.0047922
1779590494932931661,step,0.0,0.0839328837284073,1.473738567091492,-2.9149267436332895,-0.08962265708990882,-0.01918116847941768,0.0,0.0,-0.001,0.0,0.0,0.0,0.0,0.7087499999999999,-0.6237,0.515025,-0.0335454,-0.06517392,-0.0047922
1779590494932931661,step,0.0,0.0839328837284073,1.473738567091492,-2.9149267436332895,-0.08962265708990882,-0.01918116847941768,0.0,0.0,-0.001,0.0,0.0,0.0,0.0,0.7087499999999999,-0.6237,0.515025,-0.0335454,-0.06517392,-0.0047922
1779590494938034057,step,0.0,0.0839328837284073,1.473738567091492,-2.9149267436332895,-0.08962265708990882,-0.01918116847941768,0.0,0.0,-0.028,0.0,0.0,0.0,0.0,0.7087499999999999,-0.42997499999999994,0.5103,-0.04121292,-0.06517392,-0.00383376
1779590494938034057,step,0.0,0.0839328837284073,1.473738567091492,-2.9149267436332895,-0.08962265708990882,-0.01918116847941768,0.0,0.0,-0.028,0.0,0.0,0.0,0.0,0.7087499999999999,-0.42997499999999994,0.5103,-0.04121292,-0.06517392,-0.00383376
1779590494942923307,step,0.0,0.0839328837284073,1.473738567091492,-2.9149267436332895,-0.08962265708990882,-0.01918116847941768,0.0,0.0,0.023,0.0,0.0,0.0,0.0,0.675675,-0.807975,0.5103,-0.03162852,-0.06134016,-0.00383376
1779590494942923307,step,0.0,0.0839328837284073,1.473738567091492,-2.9149267436332895,-0.08962265708990882,-0.01918116847941768,0.0,0.0,0.023,0.0,0.0,0.0,0.0,0.675675,-0.807975,0.5103,-0.03162852,-0.06134016,-0.00383376
1779590494948071479,step,0.0,0.0839328837284073,1.473738567091492,-2.9149267436332895,-0.08962265708990882,-0.01918116847941768,0.0,0.0,-0.004,0.0,0.0,0.0,0.0,0.6804,-0.628425,0.5197499999999999,-0.03162852,-0.05367264,-0.00670908
1779590494948071479,step,0.0,0.0839328837284073,1.473738567091492,-2.9149267436332895,-0.08962265708990882,-0.01918116847941768,0.0,0.0,-0.004,0.0,0.0,0.0,0.0,0.6804,-0.628425,0.5197499999999999,-0.03162852,-0.05367264,-0.00670908
1779590494952924489,step,0.0,0.0839328837284073,1.473738567091492,-2.9149267436332895,-0.08962265708990882,-0.01918116847941768,0.0,0.0,-0.004,0.0,0.0,0.0,0.0,0.6898499999999999,-0.628425,0.53865,-0.0383376,-0.05367264,-0.0047922
1779590494952924489,step,0.0,0.0839328837284073,1.473738567091492,-2.9149267436332895,-0.08962265708990882,-0.01918116847941768,0.0,0.0,-0.004,0.0,0.0,0.0,0.0,0.6898499999999999,-0.628425,0.53865,-0.0383376,-0.05367264,-0.0047922
1779590494957924604,step,0.0,0.0839328837284073,1.473738567091492,-2.9149267436332895,-0.08962265708990882,-0.01918116847941768,0.0,0.0,0.012,0.0,0.0,0.0,0.0,0.6898499999999999,-0.8410499999999999,0.5433749999999999,-0.03929604,-0.059423279999999995,-0.0047922
1779590494957924604,step,0.0,0.0839328837284073,1.473738567091492,-2.9149267436332895,-0.08962265708990882,-0.01918116847941768,0.0,0.0,0.012,0.0,0.0,0.0,0.0,0.6898499999999999,-0.8410499999999999,0.5433749999999999,-0.03929604,-0.059423279999999995,-0.0047922
1779590494962925672,step,0.0,0.0839328837284073,1.473738567091492,-2.9149267436332895,-0.08962265708990882,-0.01918116847941768,0.0,0.0,-0.001,0.0,0.0,0.0,0.0,0.6662250000000001,-0.6615,0.5433749999999999,-0.03737916,-0.0622986,-0.00670908
1779590494962925672,step,0.0,0.0839328837284073,1.473738567091492,-2.9149267436332895,-0.08962265708990882,-0.01918116847941768,0.0,0.0,-0.001,0.0,0.0,0.0,0.0,0.6662250000000001,-0.6615,0.5433749999999999,-0.03737916,-0.0622986,-0.00670908
1779590494967924356,step,0.0,0.0839328837284073,1.473738567091492,-2.9149267436332895,-0.08962265708990882,-0.01918116847941768,0.0,0.0,-0.001,0.0,0.0,0.0,0.0,0.7182,-0.6615,0.515025,-0.03737916,-0.06325704,-0.00670908
1779590494967924356,step,0.0,0.0839328837284073,1.473738567091492,-2.9149267436332895,-0.08962265708990882,-0.01918116847941768,0.0,0.0,-0.001,0.0,0.0,0.0,0.0,0.7182,-0.6615,0.515025,-0.03737916,-0.06325704,-0.00670908
1779590494972934722,step,0.0,0.0839328837284073,1.473738567091492,-2.9149267436332895,-0.08962265708990882,-0.01918116847941768,0.0,0.0,0.0,0.0,0.0,0.0,0.0,0.7182,-0.562275,0.505575,-0.03162852,-0.06325704,-0.01245972
1779590494972934722,step,0.0,0.0839328837284073,1.473738567091492,-2.9149267436332895,-0.08962265708990882,-0.01918116847941768,0.0,0.0,0.0,0.0,0.0,0.0,0.0,0.7182,-0.562275,0.505575,-0.03162852,-0.06325704,-0.01245972
1779590494977936267,step,0.0,0.0839328837284073,1.473738567091492,-2.9149267436332895,-0.08962265708990882,-0.01918116847941768,0.0,0.0,0.0,0.0,0.0,0.0,0.0,0.647325,-0.6237,0.505575,-0.03737916,-0.06325704,-0.00287532
1779590494977936267,step,0.0,0.0839328837284073,1.473738567091492,-2.9149267436332895,-0.08962265708990882,-0.01918116847941768,0.0,0.0,0.0,0.0,0.0,0.0,0.0,0.647325,-0.6237,0.505575,-0.03737916,-0.06325704,-0.00287532
1779590494982939720,step,0.0,0.0839328837284073,1.473738567091492,-2.9149267436332895,-0.08962265708990882,-0.01918116847941768,0.0,0.0,0.0,0.0,0.0,0.0,0.0,0.6804,-0.65205,0.5103,-0.03737916,-0.06421548,-0.00287532
1779590494982939720,step,0.0,0.0839328837284073,1.473738567091492,-2.9149267436332895,-0.08962265708990882,-0.01918116847941768,0.0,0.0,0.0,0.0,0.0,0.0,0.0,0.6804,-0.65205,0.5103,-0.03737916,-0.06421548,-0.00287532
1779590494987937927,step,0.0,0.0839328837284073,1.473738567091492,-2.9149267436332895,-0.08962265708990882,-0.01918116847941768,0.0,0.0,0.0,0.0,0.0,0.0,0.0,0.675675,-0.65205,0.4914,-0.029711639999999997,-0.06421548,0.00095844
1779590494987937927,step,0.0,0.0839328837284073,1.473738567091492,-2.9149267436332895,-0.08962265708990882,-0.01918116847941768,0.0,0.0,0.0,0.0,0.0,0.0,0.0,0.675675,-0.65205,0.4914,-0.029711639999999997,-0.06421548,0.00095844
1779590494992938518,step,0.0,0.0839328837284073,1.473738567091492,-2.9149267436332895,-0.08962265708990882,-0.01918116847941768,0.0,0.0,0.0,0.0,0.0,0.0,0.0,0.675675,-0.6851249999999999,0.533925,-0.03258696,-0.05463108,0.00095844
1779590494992938518,step,0.0,0.0839328837284073,1.473738567091492,-2.9149267436332895,-0.08962265708990882,-0.01918116847941768,0.0,0.0,0.0,0.0,0.0,0.0,0.0,0.675675,-0.6851249999999999,0.533925,-0.03258696,-0.05463108,0.00095844
1779590494997931480,step,0.0,0.0839328837284073,1.473738567091492,-2.9149267436332895,-0.08962265708990882,-0.01918116847941768,0.0,0.0,0.0,0.0,0.0,0.0,0.0,0.7276499999999999,-0.675675,0.533925,-0.04408824,-0.06134016,-0.00862596
1779590494997931480,step,0.0,0.0839328837284073,1.473738567091492,-2.9149267436332895,-0.08962265708990882,-0.01918116847941768,0.0,0.0,0.0,0.0,0.0,0.0,0.0,0.7276499999999999,-0.675675,0.533925,-0.04408824,-0.06134016,-0.00862596
1779590495003032922,step,0.0,0.0839328837284073,1.473738567091492,-2.9149267436332895,-0.08962265708990882,-0.01918116847941768,0.0,0.0,0.0,0.0,0.0,0.0,0.0,0.675675,-0.675675,0.5197499999999999,-0.04408824,-0.06804924000000001,0.00383376
1779590495003032922,step,0.0,0.0839328837284073,1.473738567091492,-2.9149267436332895,-0.08962265708990882,-0.01918116847941768,0.0,0.0,0.0,0.0,0.0,0.0,0.0,0.675675,-0.675675,0.5197499999999999,-0.04408824,-0.06804924000000001,0.00383376
1779590495007932186,step,0.0,0.0839328837284073,1.473738567091492,-2.9149267436332895,-0.08962265708990882,-0.01918116847941768,0.0,0.0,0.0,0.0,0.0,0.0,0.0,0.675675,-0.637875,0.515025,-0.03450384,-0.06804924000000001,0.00383376
1779590495007932186,step,0.0,0.0839328837284073,1.473738567091492,-2.9149267436332895,-0.08962265708990882,-0.01918116847941768,0.0,0.0,0.0,0.0,0.0,0.0,0.0,0.675675,-0.637875,0.515025,-0.03450384,-0.06804924000000001,0.00383376
1779590495012941598,step,0.0,0.0839328837284073,1.473738567091492,-2.9149267436332895,-0.08962265708990882,-0.01918116847941768,0.0,0.0,0.0,0.0,0.0,0.0,0.0,0.6945749999999999,-0.5764499999999999,0.515025,-0.04217136,-0.06517392,0.02300256
1779590495012941598,step,0.0,0.0839328837284073,1.473738567091492,-2.9149267436332895,-0.08962265708990882,-0.01918116847941768,0.0,0.0,0.0,0.0,0.0,0.0,0.0,0.6945749999999999,-0.5764499999999999,0.515025,-0.04217136,-0.06517392,0.02300256
1779590495012941598,step,0.0,0.0839328837284073,1.473738567091492,-2.9149267436332895,-0.08962265708990882,-0.01918116847941768,0.0,0.0,0.0,0.0,0.0,0.0,0.0,0.6945749999999999,-0.5764499999999999,0.515025,-0.04217136,-0.06517392,0.02300256
1779590495012941598,step,0.0,0.0839328837284073,1.473738567091492,-2.9149267436332895,-0.08962265708990882,-0.01918116847941768,0.0,0.0,0.0,0.0,0.0,0.0,0.0,0.6945749999999999,-0.5764499999999999,0.515025,-0.04217136,-0.06517392,0.02300256
1779590495017942190,step,0.0,0.0839328837284073,1.473738567091492,-2.9149267436332895,-0.08962265708990882,-0.01918116847941768,0.0,0.0,0.0,0.0,0.0,0.0,0.0,0.713475,-0.675675,0.515025,-0.04217136,-0.059423279999999995,-0.04504668
1779590495017942190,step,0.0,0.0839328837284073,1.473738567091492,-2.9149267436332895,-0.08962265708990882,-0.01918116847941768,0.0,0.0,0.0,0.0,0.0,0.0,0.0,0.713475,-0.675675,0.515025,-0.04217136,-0.059423279999999995,-0.04504668
1779590495022933959,step,0.0,0.0839328837284073,1.473738567091492,-2.9149267436332895,-0.08962265708990882,-0.01918116847941768,0.0,0.0,0.0,0.0,0.0,0.0,0.0,0.6662250000000001,-0.675675,0.533925,-0.0383376,-0.059423279999999995,-0.04504668
1779590495022933959,step,0.0,0.0839328837284073,1.473738567091492,-2.9149267436332895,-0.08962265708990882,-0.01918116847941768,0.0,0.0,0.0,0.0,0.0,0.0,0.0,0.6662250000000001,-0.675675,0.533925,-0.0383376,-0.059423279999999995,-0.04504668
1779590495027934074,step,0.0,0.0839328837284073,1.473738567091492,-2.9149267436332895,-0.08962265708990882,-0.01918116847941768,0.0,0.0,0.0,0.0,0.0,0.0,0.0,0.6662250000000001,-0.5953499999999999,0.5197499999999999,-0.03929604,-0.08530115999999999,-0.02204412
1779590495027934074,step,0.0,0.0839328837284073,1.473738567091492,-2.9149267436332895,-0.08962265708990882,-0.01918116847941768,0.0,0.0,0.0,0.0,0.0,0.0,0.0,0.6662250000000001,-0.5953499999999999,0.5197499999999999,-0.03929604,-0.08530115999999999,-0.02204412
1779590495037945747,step,0.0,0.0839328837284073,1.473738567091492,-2.9149267436332895,-0.08962265708990882,-0.01918116847941768,0.0,0.0,0.0,0.0,0.0,0.0,0.0,0.7087499999999999,-0.6426,0.5197499999999999,-0.03067008,-0.04983888,-0.00862596
1779590495037945747,step,0.0,0.0839328837284073,1.473738567091492,-2.9149267436332895,-0.08962265708990882,-0.01918116847941768,0.0,0.0,0.0,0.0,0.0,0.0,0.0,0.7087499999999999,-0.6426,0.5197499999999999,-0.03067008,-0.04983888,-0.00862596
1779590495037945747,step,0.0,0.0839328837284073,1.473738567091492,-2.9149267436332895,-0.08962265708990882,-0.01918116847941768,0.0,0.0,0.0,0.0,0.0,0.0,0.0,0.647325,-0.6426,0.5008499999999999,-0.03067008,-0.05463108,0.00287532
1779590495037945747,step,0.0,0.0839328837284073,1.473738567091492,-2.9149267436332895,-0.08962265708990882,-0.01918116847941768,0.0,0.0,0.0,0.0,0.0,0.0,0.0,0.647325,-0.6426,0.5008499999999999,-0.03067008,-0.05463108,0.00287532
1779590495047946214,step,0.0,0.0839328837284073,1.473738567091492,-2.9149267436332895,-0.08962265708990882,-0.01918116847941768,0.0,0.0,0.0,0.0,0.0,0.0,0.0,0.647325,-0.6000749999999999,0.5292,-0.03737916,-0.05463108,0.00287532
1779590495047946214,step,0.0,0.0839328837284073,1.473738567091492,-2.9149267436332895,-0.08962265708990882,-0.01918116847941768,0.0,0.0,0.0,0.0,0.0,0.0,0.0,0.647325,-0.6000749999999999,0.5292,-0.03737916,-0.05463108,0.00287532
1779590495047946214,step,0.0,0.0839328837284073,1.473738567091492,-2.9149267436332895,-0.08962265708990882,-0.01918116847941768,0.0,0.0,0.0,0.0,0.0,0.0,0.0,0.7229249999999999,-0.628425,0.5292,-0.03546228,-0.06134016,-0.00670908
1779590495047946214,step,0.0,0.0839328837284073,1.473738567091492,-2.9149267436332895,-0.08962265708990882,-0.01918116847941768,0.0,0.0,0.0,0.0,0.0,0.0,0.0,0.7229249999999999,-0.628425,0.5292,-0.03546228,-0.06134016,-0.00670908
1779590495052956342,step,0.0,0.0839328837284073,1.473738567091492,-2.9149267436332895,-0.08962265708990882,-0.01918116847941768,0.0,0.0,0.0,0.0,0.0,0.0,0.0,0.63315,-0.65205,0.5292,-0.03546228,-0.05654796,-0.00575064
1779590495052956342,step,0.0,0.0839328837284073,1.473738567091492,-2.9149267436332895,-0.08962265708990882,-0.01918116847941768,0.0,0.0,0.0,0.0,0.0,0.0,0.0,0.63315,-0.65205,0.5292,-0.03546228,-0.05654796,-0.00575064
1779590495057953834,step,0.0,0.0839328837284073,1.473738567091492,-2.9149267436332895,-0.08962265708990882,-0.01918116847941768,0.0,0.028,0.0,0.0,0.0,0.0,0.0,0.6000749999999999,-0.65205,0.5292,-0.0335454,-0.05654796,-0.00575064
1779590495057953834,step,0.0,0.0839328837284073,1.473738567091492,-2.9149267436332895,-0.08962265708990882,-0.01918116847941768,0.0,0.028,0.0,0.0,0.0,0.0,0.0,0.6000749999999999,-0.65205,0.5292,-0.0335454,-0.05654796,-0.00575064
1779590495057953834,step,0.0,0.0839328837284073,1.473738567091492,-2.9149267436332895,-0.08962265708990882,-0.01918116847941768,0.0,0.028,0.0,0.0,0.0,0.0,0.0,0.6000749999999999,-0.65205,0.5292,-0.0335454,-0.05654796,-0.00575064
1779590495062943458,step,0.0,0.0839328837284073,1.473738567091492,-2.9149267436332895,-0.08962265708990882,-0.01918116847941768,0.0,0.028,0.0,0.0,0.0,0.0,0.0,0.6000749999999999,-0.65205,0.515025,-0.04217136,-0.0622986,-0.0095844
1779590495062943458,step,0.0,0.0839328837284073,1.473738567091492,-2.9149267436332895,-0.08962265708990882,-0.01918116847941768,0.0,0.028,0.0,0.0,0.0,0.0,0.0,0.6000749999999999,-0.65205,0.515025,-0.04217136,-0.0622986,-0.0095844
1779590495062943458,step,0.0,0.0839328837284073,1.473738567091492,-2.9149267436332895,-0.08962265708990882,-0.01918116847941768,0.0,0.028,0.0,0.0,0.0,0.0,0.0,0.6000749999999999,-0.65205,0.515025,-0.04217136,-0.0622986,-0.0095844
1779590495062943458,step,0.0,0.0839328837284073,1.473738567091492,-2.9149267436332895,-0.08962265708990882,-0.01918116847941768,0.0,0.028,0.0,0.0,0.0,0.0,0.0,0.6000749999999999,-0.65205,0.515025,-0.04217136,-0.0622986,-0.0095844
1779590495067942380,step,0.0,0.0839328837284073,1.473738567091492,-2.9149267436332895,-0.08962265708990882,-0.01918116847941768,0.0,0.028,0.0,0.0,0.0,0.0,0.0,0.6000749999999999,-0.65205,0.515025,-0.04217136,-0.0622986,-0.0095844
1779590495067942380,step,0.0,0.0839328837284073,1.473738567091492,-2.9149267436332895,-0.08962265708990882,-0.01918116847941768,0.0,0.028,0.0,0.0,0.0,0.0,0.0,0.6000749999999999,-0.65205,0.515025,-0.04217136,-0.0622986,-0.0095844
1779590495067942380,step,0.0,0.0839328837284073,1.473738567091492,-2.9149267436332895,-0.08962265708990882,-0.01918116847941768,0.0,0.028,0.0,0.0,0.0,0.0,0.0,0.6000749999999999,-0.65205,0.515025,-0.04217136,-0.0622986,-0.0095844
1779590495067942380,step,0.0,0.0839328837284073,1.473738567091492,-2.9149267436332895,-0.08962265708990882,-0.01918116847941768,0.0,0.028,0.0,0.0,0.0,0.0,0.0,0.6000749999999999,-0.65205,0.515025,-0.04217136,-0.0622986,-0.0095844
1779590495067942380,step,0.0,0.0839328837284073,1.473738567091492,-2.9149267436332895,-0.08962265708990882,-0.01918116847941768,0.0,0.028,0.0,0.0,0.0,0.0,0.0,0.6000749999999999,-0.65205,0.515025,-0.04217136,-0.0622986,-0.0095844
1779590495067942380,step,0.0,0.0839328837284073,1.473738567091492,-2.9149267436332895,-0.08962265708990882,-0.01918116847941768,0.0,0.028,0.0,0.0,0.0,0.0,0.0,0.6000749999999999,-0.65205,0.515025,-0.04217136,-0.0622986,-0.0095844
1779590495067942380,step,0.0,0.0839328837284073,1.473738567091492,-2.9149267436332895,-0.08962265708990882,-0.01918116847941768,0.0,0.0,0.0,0.0,0.0,0.0,0.0,0.628425,-0.656775,0.515025,-0.04217136,-0.0622986,-0.0095844
1779590495067942380,step,0.0,0.0839328837284073,1.473738567091492,-2.9149267436332895,-0.08962265708990882,-0.01918116847941768,0.0,0.0,0.0,0.0,0.0,0.0,0.0,0.628425,-0.656775,0.515025,-0.04217136,-0.0622986,-0.0095844
1779590495067942380,step,0.0,0.0839328837284073,1.473738567091492,-2.9149267436332895,-0.08962265708990882,-0.01918116847941768,0.0,0.0,0.0,0.0,0.0,0.0,0.0,0.628425,-0.656775,0.515025,-0.04217136,-0.0622986,-0.0095844
1779590495072982788,step,0.0,0.0839328837284073,1.473738567091492,-2.9149267436332895,-0.08962265708990882,-0.01918116847941768,0.0,0.0,0.0,0.0,0.0,0.0,0.0,0.7087499999999999,-0.656775,0.5197499999999999,-0.0335454,-0.06900768,-0.00383376
1779590495072982788,step,0.0,0.0839328837284073,1.473738567091492,-2.9149267436332895,-0.08962265708990882,-0.01918116847941768,0.0,0.0,0.0,0.0,0.0,0.0,0.0,0.7087499999999999,-0.656775,0.5197499999999999,-0.0335454,-0.06900768,-0.00383376
1779590495072982788,step,0.0,0.0839328837284073,1.473738567091492,-2.9149267436332895,-0.08962265708990882,-0.01918116847941768,0.0,0.0,0.0,0.0,0.0,0.0,0.0,0.7087499999999999,-0.656775,0.5197499999999999,-0.0335454,-0.059423279999999995,-0.00383376
1779590495072982788,step,0.0,0.0839328837284073,1.473738567091492,-2.9149267436332895,-0.08962265708990882,-0.01918116847941768,0.0,0.0,0.0,0.0,0.0,0.0,0.0,0.7087499999999999,-0.656775,0.5197499999999999,-0.0335454,-0.059423279999999995,-0.00383376
1779590495072982788,step,0.0,0.0839328837284073,1.473738567091492,-2.9149267436332895,-0.08962265708990882,-0.01918116847941768,0.0,0.0,0.0,0.0,0.0,0.0,0.0,0.7087499999999999,-0.656775,0.5197499999999999,-0.0335454,-0.059423279999999995,-0.00766752
1779590495072982788,step,0.0,0.0839328837284073,1.473738567091492,-2.9149267436332895,-0.08962265708990882,-0.01918116847941768,0.0,0.0,0.0,0.0,0.0,0.0,0.0,0.7087499999999999,-0.656775,0.5197499999999999,-0.0335454,-0.059423279999999995,-0.00766752
1779590495077938318,step,0.0,0.0839328837284073,1.473738567091492,-2.9149267436332895,-0.08962265708990882,-0.01918116847941768,0.0,0.0,0.0,0.0,0.0,0.0,0.0,0.7087499999999999,-0.656775,0.5197499999999999,-0.0335454,-0.059423279999999995,-0.00766752
1779590495077938318,step,0.0,0.0839328837284073,1.473738567091492,-2.9149267436332895,-0.08962265708990882,-0.01918116847941768,0.0,0.0,0.0,0.0,0.0,0.0,0.0,0.7087499999999999,-0.656775,0.5197499999999999,-0.0335454,-0.059423279999999995,-0.00766752
1779590495082942962,step,0.0,0.0839328837284073,1.473738567091492,-2.9149267436332895,-0.08962265708990882,-0.01918116847941768,0.0,0.0,0.0,0.0,0.0,0.0,0.0,0.713475,-0.6662250000000001,0.5433749999999999,-0.04217136,-0.0670908,-0.00766752
1779590495082942962,step,0.0,0.0839328837284073,1.473738567091492,-2.9149267436332895,-0.08962265708990882,-0.01918116847941768,0.0,0.0,0.0,0.0,0.0,0.0,0.0,0.713475,-0.6662250000000001,0.5433749999999999,-0.04217136,-0.0670908,-0.00766752
1779590495082942962,step,0.0,0.0839328837284073,1.473738567091492,-2.9149267436332895,-0.08962265708990882,-0.01918116847941768,0.0,0.0,0.0,0.0,0.0,0.0,0.0,0.713475,-0.6662250000000001,0.5433749999999999,-0.04217136,-0.0670908,-0.00766752
1779590495087953090,step,0.0,0.0839328837284073,1.473738567091492,-2.9149267436332895,-0.08962265708990882,-0.01918116847941768,0.0,0.0,0.029,0.0,0.0,0.0,0.0,0.6662250000000001,-0.8127,0.533925,-0.04217136,-0.06325704,-0.0095844
1779590495087953090,step,0.0,0.0839328837284073,1.473738567091492,-2.9149267436332895,-0.08962265708990882,-0.01918116847941768,0.0,0.0,0.029,0.0,0.0,0.0,0.0,0.6662250000000001,-0.8127,0.533925,-0.04217136,-0.06325704,-0.0095844
1779590495092946290,step,0.0,0.0839328837284073,1.473738567091492,-2.9149267436332895,-0.08962265708990882,-0.01918116847941768,0.0,0.0,0.029,0.0,0.0,0.0,0.0,0.675675,-0.8127,0.5292,-0.0335454,-0.06325704,-0.0095844
1779590495092946290,step,0.0,0.0839328837284073,1.473738567091492,-2.9149267436332895,-0.08962265708990882,-0.01918116847941768,0.0,0.0,0.029,0.0,0.0,0.0,0.0,0.675675,-0.8127,0.5292,-0.0335454,-0.06325704,-0.0095844
1779590495097966194,step,0.0,0.0839328837284073,1.473738567091492,-2.9149267436332895,-0.08962265708990882,-0.01918116847941768,0.0,0.0,0.029,0.0,0.0,0.0,0.0,0.675675,-0.8127,0.5292,-0.0335454,-0.06325704,-0.0095844
1779590495097966194,step,0.0,0.0839328837284073,1.473738567091492,-2.9149267436332895,-0.08962265708990882,-0.01918116847941768,0.0,0.0,0.029,0.0,0.0,0.0,0.0,0.675675,-0.8127,0.5292,-0.0335454,-0.06325704,-0.0095844
1779590495097966194,step,0.0,0.0839328837284073,1.473738567091492,-2.9149267436332895,-0.08962265708990882,-0.01918116847941768,0.0,0.0,-0.005,0.0,0.0,0.0,0.0,0.675675,-0.647325,0.5008499999999999,-0.04121292,-0.06900768,-0.00191688
1779590495097966194,step,0.0,0.0839328837284073,1.473738567091492,-2.9149267436332895,-0.08962265708990882,-0.01918116847941768,0.0,0.0,-0.005,0.0,0.0,0.0,0.0,0.675675,-0.647325,0.5008499999999999,-0.04121292,-0.06900768,-0.00191688
1779590495097966194,step,0.0,0.0839328837284073,1.473738567091492,-2.9149267436332895,-0.08962265708990882,-0.01918116847941768,0.0,0.0,-0.005,0.0,0.0,0.0,0.0,0.675675,-0.647325,0.5008499999999999,-0.04121292,-0.06900768,-0.00191688
1779590495102957725,step,0.0,0.0839328837284073,1.473738567091492,-2.9149267436332895,-0.08962265708990882,-0.01918116847941768,0.0,0.0,0.002,0.0,0.0,0.0,0.0,0.6662250000000001,-0.760725,0.5008499999999999,-0.0335454,-0.0622986,-0.00575064
1779590495102957725,step,0.0,0.0839328837284073,1.473738567091492,-2.9149267436332895,-0.08962265708990882,-0.01918116847941768,0.0,0.0,0.002,0.0,0.0,0.0,0.0,0.6662250000000001,-0.760725,0.5008499999999999,-0.0335454,-0.0622986,-0.00575064
1779590495107954978,step,0.0,0.0839328837284073,1.473738567091492,-2.9149267436332895,-0.08962265708990882,-0.01918116847941768,0.0,0.0,0.002,0.0,0.0,0.0,0.0,0.6992999999999999,-0.760725,0.5292,-0.0335454,-0.06900768,-0.01150128
1779590495107954978,step,0.0,0.0839328837284073,1.473738567091492,-2.9149267436332895,-0.08962265708990882,-0.01918116847941768,0.0,0.0,0.002,0.0,0.0,0.0,0.0,0.6992999999999999,-0.760725,0.5292,-0.0335454,-0.06900768,-0.01150128
1779590495112956285,step,0.0,0.0839328837284073,1.473738567091492,-2.9149267436332895,-0.08962265708990882,-0.01918116847941768,0.0,0.0,0.034,0.0,0.0,0.0,0.0,0.6992999999999999,-0.9024749999999999,0.5481,-0.03642072,-0.06900768,-0.01150128
1779590495112956285,step,0.0,0.0839328837284073,1.473738567091492,-2.9149267436332895,-0.08962265708990882,-0.01918116847941768,0.0,0.0,0.034,0.0,0.0,0.0,0.0,0.6992999999999999,-0.9024749999999999,0.5481,-0.03642072,-0.06900768,-0.01150128
1779590495117958068,step,0.0,0.0839328837284073,1.473738567091492,-2.9149267436332895,-0.08962265708990882,-0.01918116847941768,0.0,0.0,-0.028,0.0,0.0,0.0,0.0,0.6898499999999999,-0.590625,0.5481,-0.03737916,-0.0622986,-0.00575064
1779590495117958068,step,0.0,0.0839328837284073,1.473738567091492,-2.9149267436332895,-0.08962265708990882,-0.01918116847941768,0.0,0.0,-0.028,0.0,0.0,0.0,0.0,0.6898499999999999,-0.590625,0.5481,-0.03737916,-0.0622986,-0.00575064
1779590495127952814,step,0.0,0.0839328837284073,1.473738567091492,-2.9149267436332895,-0.08962265708990882,-0.01918116847941768,0.0,0.0,0.008,0.0,0.0,0.0,0.0,0.675675,-0.760725,0.53865,-0.03737916,-0.06517392,-0.0095844
1779590495127952814,step,0.0,0.0839328837284073,1.473738567091492,-2.9149267436332895,-0.08962265708990882,-0.01918116847941768,0.0,0.0,0.008,0.0,0.0,0.0,0.0,0.675675,-0.760725,0.53865,-0.03737916,-0.06517392,-0.0095844
1779590495132955074,step,0.0,0.0839328837284073,1.473738567091492,-2.9149267436332895,-0.08962265708990882,-0.01918116847941768,0.0,0.0,-0.007,0.0,0.0,0.0,0.0,0.675675,-0.5859,0.5103,-0.03162852,-0.06421548,-0.0047922
1779590495132955074,step,0.0,0.0839328837284073,1.473738567091492,-2.9149267436332895,-0.08962265708990882,-0.01918116847941768,0.0,0.0,-0.007,0.0,0.0,0.0,0.0,0.675675,-0.5859,0.5103,-0.03162852,-0.06421548,-0.0047922
1779590495142976284,step,0.0,0.0839328837284073,1.473738567091492,-2.9149267436332895,-0.08962265708990882,-0.01918116847941768,0.0,0.0,0.001,0.0,0.0,0.0,0.0,0.6851249999999999,-0.741825,0.5103,-0.04121292,-0.06421548,-0.00191688
1779590495142976284,step,0.0,0.0839328837284073,1.473738567091492,-2.9149267436332895,-0.08962265708990882,-0.01918116847941768,0.0,0.0,0.001,0.0,0.0,0.0,0.0,0.6851249999999999,-0.741825,0.5103,-0.04121292,-0.06421548,-0.00191688
1779590495142976284,step,0.0,0.0839328837284073,1.473738567091492,-2.9149267436332895,-0.08962265708990882,-0.01918116847941768,0.0,0.0,0.001,0.0,0.0,0.0,0.0,0.6992999999999999,-0.741825,0.515025,-0.04121292,-0.0670908,-0.00191688
1779590495142976284,step,0.0,0.0839328837284073,1.473738567091492,-2.9149267436332895,-0.08962265708990882,-0.01918116847941768,0.0,0.0,0.001,0.0,0.0,0.0,0.0,0.6992999999999999,-0.741825,0.515025,-0.04121292,-0.0670908,-0.00191688
1779590495152959346,step,0.0,0.0839328837284073,1.473738567091492,-2.9149267436332895,-0.08962265708990882,-0.01918116847941768,0.0,0.0,-0.032,0.0,0.0,0.0,0.0,0.6992999999999999,-0.6804,0.515025,-0.03546228,-0.0670908,0.00287532
1779590495152959346,step,0.0,0.0839328837284073,1.473738567091492,-2.9149267436332895,-0.08962265708990882,-0.01918116847941768,0.0,0.0,-0.032,0.0,0.0,0.0,0.0,0.6992999999999999,-0.6804,0.515025,-0.03546228,-0.0670908,0.00287532
1779590495152959346,step,0.0,0.0839328837284073,1.473738567091492,-2.9149267436332895,-0.08962265708990882,-0.01918116847941768,0.0,0.0,-0.032,0.0,0.0,0.0,0.0,0.6992999999999999,-0.6804,0.515025,-0.03546228,-0.0670908,0.00287532
1779590495157961130,step,0.0,0.0839328837284073,1.473738567091492,-2.9149267436332895,-0.08962265708990882,-0.01918116847941768,0.0,0.0,-0.021,0.0,0.0,0.0,0.0,0.7182,-0.486675,0.5292,-0.03546228,-0.0622986,-0.00095844
1779590495157961130,step,0.0,0.0839328837284073,1.473738567091492,-2.9149267436332895,-0.08962265708990882,-0.01918116847941768,0.0,0.0,-0.021,0.0,0.0,0.0,0.0,0.7182,-0.486675,0.5292,-0.03546228,-0.0622986,-0.00095844
1779590495162951946,step,0.0,0.0839328837284073,1.473738567091492,-2.9149267436332895,-0.08962265708990882,-0.01918116847941768,0.0,0.0,-0.021,0.0,0.0,0.0,0.0,0.675675,-0.486675,0.5244749999999999,-0.03546228,-0.0622986,-0.00095844
1779590495162951946,step,0.0,0.0839328837284073,1.473738567091492,-2.9149267436332895,-0.08962265708990882,-0.01918116847941768,0.0,0.0,-0.021,0.0,0.0,0.0,0.0,0.675675,-0.486675,0.5244749999999999,-0.03546228,-0.0622986,-0.00095844
1779590495167960882,step,0.0,0.0839328837284073,1.473738567091492,-2.9149267436332895,-0.08962265708990882,-0.01918116847941768,0.0,0.0,0.003,0.0,0.0,0.0,0.0,0.675675,-0.7087499999999999,0.505575,-0.043129799999999996,-0.048880440000000004,-0.00383376
1779590495167960882,step,0.0,0.0839328837284073,1.473738567091492,-2.9149267436332895,-0.08962265708990882,-0.01918116847941768,0.0,0.0,0.003,0.0,0.0,0.0,0.0,0.675675,-0.7087499999999999,0.505575,-0.043129799999999996,-0.048880440000000004,-0.00383376
1779590495167960882,step,0.0,0.0839328837284073,1.473738567091492,-2.9149267436332895,-0.08962265708990882,-0.01918116847941768,0.0,0.0,0.003,0.0,0.0,0.0,0.0,0.675675,-0.7087499999999999,0.505575,-0.043129799999999996,-0.048880440000000004,-0.00383376
1779590495172953128,step,0.0,0.0839328837284073,1.473738567091492,-2.9149267436332895,-0.08962265708990882,-0.01918116847941768,0.0,0.0,0.003,0.0,0.0,0.0,0.0,0.6237,-0.7087499999999999,0.505575,-0.043129799999999996,-0.048880440000000004,-0.00383376
1779590495172953128,step,0.0,0.0839328837284073,1.473738567091492,-2.9149267436332895,-0.08962265708990882,-0.01918116847941768,0.0,0.0,0.003,0.0,0.0,0.0,0.0,0.6237,-0.7087499999999999,0.505575,-0.043129799999999996,-0.048880440000000004,-0.00383376
1779590495172953128,step,0.0,0.0839328837284073,1.473738567091492,-2.9149267436332895,-0.08962265708990882,-0.01918116847941768,0.0,0.0,0.035,0.0,0.0,0.0,0.0,0.6237,-0.7748999999999999,0.505575,-0.043129799999999996,-0.048880440000000004,-0.00383376
1779590495172953128,step,0.0,0.0839328837284073,1.473738567091492,-2.9149267436332895,-0.08962265708990882,-0.01918116847941768,0.0,0.0,0.035,0.0,0.0,0.0,0.0,0.6237,-0.7748999999999999,0.505575,-0.043129799999999996,-0.048880440000000004,-0.00383376
1779590495172953128,step,0.0,0.0839328837284073,1.473738567091492,-2.9149267436332895,-0.08962265708990882,-0.01918116847941768,0.0,0.0,0.035,0.0,0.0,0.0,0.0,0.6237,-0.7748999999999999,0.505575,-0.03642072,-0.048880440000000004,-0.00383376
1779590495172953128,step,0.0,0.0839328837284073,1.473738567091492,-2.9149267436332895,-0.08962265708990882,-0.01918116847941768,0.0,0.0,0.035,0.0,0.0,0.0,0.0,0.6237,-0.7748999999999999,0.505575,-0.03642072,-0.048880440000000004,-0.00383376
1779590495172953128,step,0.0,0.0839328837284073,1.473738567091492,-2.9149267436332895,-0.08962265708990882,-0.01918116847941768,0.0,0.0,0.035,0.0,0.0,0.0,0.0,0.6237,-0.7748999999999999,0.505575,-0.03642072,-0.06517392,-0.00575064
1779590495172953128,step,0.0,0.0839328837284073,1.473738567091492,-2.9149267436332895,-0.08962265708990882,-0.01918116847941768,0.0,0.0,0.035,0.0,0.0,0.0,0.0,0.6237,-0.7748999999999999,0.505575,-0.03642072,-0.06517392,-0.00575064
1779590495172953128,step,0.0,0.0839328837284073,1.473738567091492,-2.9149267436332895,-0.08962265708990882,-0.01918116847941768,0.0,0.0,0.035,0.0,0.0,0.0,0.0,0.6237,-0.7748999999999999,0.505575,-0.03642072,-0.06517392,-0.00575064
1779590495172953128,step,0.0,0.0839328837284073,1.473738567091492,-2.9149267436332895,-0.08962265708990882,-0.01918116847941768,0.0,0.0,0.035,0.0,0.0,0.0,0.0,0.6237,-0.7748999999999999,0.505575,-0.03642072,-0.06517392,-0.00575064
1779590495177945613,step,0.0,0.0839328837284073,1.473738567091492,-2.9149267436332895,-0.08962265708990882,-0.01918116847941768,0.0,0.0,0.035,0.0,0.0,0.0,0.0,0.6237,-0.7748999999999999,0.505575,-0.03642072,-0.06517392,-0.00575064
1779590495177945613,step,0.0,0.0839328837284073,1.473738567091492,-2.9149267436332895,-0.08962265708990882,-0.01918116847941768,0.0,0.0,0.035,0.0,0.0,0.0,0.0,0.6237,-0.7748999999999999,0.505575,-0.03642072,-0.06517392,-0.00575064
1779590495177945613,step,0.0,0.0839328837284073,1.473738567091492,-2.9149267436332895,-0.08962265708990882,-0.01918116847941768,0.0,0.0,0.035,0.0,0.0,0.0,0.0,0.7182,-0.7748999999999999,0.505575,-0.03642072,-0.06517392,-0.00575064
1779590495177945613,step,0.0,0.0839328837284073,1.473738567091492,-2.9149267436332895,-0.08962265708990882,-0.01918116847941768,0.0,0.0,0.035,0.0,0.0,0.0,0.0,0.7182,-0.7748999999999999,0.505575,-0.03642072,-0.06517392,-0.00575064
1779590495177945613,step,0.0,0.0839328837284073,1.473738567091492,-2.9149267436332895,-0.08962265708990882,-0.01918116847941768,0.0,0.0,0.035,0.0,0.0,0.0,0.0,0.7182,-0.7748999999999999,0.5244749999999999,-0.03642072,-0.0670908,-0.00287532
1779590495177945613,step,0.0,0.0839328837284073,1.473738567091492,-2.9149267436332895,-0.08962265708990882,-0.01918116847941768,0.0,0.0,0.035,0.0,0.0,0.0,0.0,0.7182,-0.7748999999999999,0.5244749999999999,-0.03642072,-0.0670908,-0.00287532
1779590495182963371,step,0.0,0.0839328837284073,1.473738567091492,-2.9149267436332895,-0.08962265708990882,-0.01918116847941768,0.0,0.0,-0.026000000000000002,0.0,0.0,0.0,0.0,0.7182,-0.467775,0.5197499999999999,-0.043129799999999996,-0.0670908,-0.00287532
1779590495182963371,step,0.0,0.0839328837284073,1.473738567091492,-2.9149267436332895,-0.08962265708990882,-0.01918116847941768,0.0,0.0,-0.026000000000000002,0.0,0.0,0.0,0.0,0.7182,-0.467775,0.5197499999999999,-0.043129799999999996,-0.0670908,-0.00287532
1779590495187964200,step,0.0,0.0839328837284073,1.473738567091492,-2.9149267436332895,-0.08962265708990882,-0.01918116847941768,0.0,0.0,0.01,0.0,0.0,0.0,0.0,0.6662250000000001,-0.7938,0.5197499999999999,-0.04025448,-0.06421548,-0.0047922
1779590495187964200,step,0.0,0.0839328837284073,1.473738567091492,-2.9149267436332895,-0.08962265708990882,-0.01918116847941768,0.0,0.0,0.01,0.0,0.0,0.0,0.0,0.6662250000000001,-0.7938,0.5197499999999999,-0.04025448,-0.06421548,-0.0047922
1779590495197957038,step,0.0,0.0839328837284073,1.473738567091492,-2.9149267436332895,-0.08962265708990882,-0.01918116847941768,0.0,0.0,-0.004,0.0,0.0,0.0,0.0,0.65205,-0.637875,0.5197499999999999,-0.0383376,-0.06325704,-0.00575064
1779590495197957038,step,0.0,0.0839328837284073,1.473738567091492,-2.9149267436332895,-0.08962265708990882,-0.01918116847941768,0.0,0.0,-0.004,0.0,0.0,0.0,0.0,0.65205,-0.637875,0.5197499999999999,-0.0383376,-0.06325704,-0.00575064
1779590495202970504,step,0.0,0.0839328837284073,1.473738567091492,-2.9149267436332895,-0.08962265708990882,-0.01918116847941768,0.0,0.0,-0.028,0.0,0.0,0.0,0.0,0.7040249999999999,-0.7323749999999999,0.5244749999999999,-0.0383376,-0.06325704,-0.00575064
1779590495202970504,step,0.0,0.0839328837284073,1.473738567091492,-2.9149267436332895,-0.08962265708990882,-0.01918116847941768,0.0,0.0,-0.028,0.0,0.0,0.0,0.0,0.7040249999999999,-0.7323749999999999,0.5244749999999999,-0.0383376,-0.06325704,-0.00575064
1779590495207962274,step,0.0,0.0839328837284073,1.473738567091492,-2.9149267436332895,-0.08962265708990882,-0.01918116847941768,0.0,0.0,0.024,0.0,0.0,0.0,0.0,0.675675,-0.6000749999999999,0.5433749999999999,-0.029711639999999997,-0.048880440000000004,-0.00670908
1779590495207962274,step,0.0,0.0839328837284073,1.473738567091492,-2.9149267436332895,-0.08962265708990882,-0.01918116847941768,0.0,0.0,0.024,0.0,0.0,0.0,0.0,0.675675,-0.6000749999999999,0.5433749999999999,-0.029711639999999997,-0.048880440000000004,-0.00670908
1779590495207962274,step,0.0,0.0839328837284073,1.473738567091492,-2.9149267436332895,-0.08962265708990882,-0.01918116847941768,0.0,0.0,0.024,0.0,0.0,0.0,0.0,0.675675,-0.6000749999999999,0.5433749999999999,-0.03450384,-0.07188299999999999,0.0
1779590495207962274,step,0.0,0.0839328837284073,1.473738567091492,-2.9149267436332895,-0.08962265708990882,-0.01918116847941768,0.0,0.0,0.024,0.0,0.0,0.0,0.0,0.675675,-0.6000749999999999,0.5433749999999999,-0.03450384,-0.07188299999999999,0.0
1779590495212962627,step,0.0,0.0839328837284073,1.473738567091492,-2.9149267436332895,-0.08962265708990882,-0.01918116847941768,0.0,0.0,0.024,0.0,0.0,0.0,0.0,0.6898499999999999,-0.6000749999999999,0.5292,-0.03450384,-0.07092456,0.0
1779590495212962627,step,0.0,0.0839328837284073,1.473738567091492,-2.9149267436332895,-0.08962265708990882,-0.01918116847941768,0.0,0.0,0.024,0.0,0.0,0.0,0.0,0.6898499999999999,-0.6000749999999999,0.5292,-0.03450384,-0.07092456,0.0
1779590495212962627,step,0.0,0.0839328837284073,1.473738567091492,-2.9149267436332895,-0.08962265708990882,-0.01918116847941768,0.0,0.0,0.024,0.0,0.0,0.0,0.0,0.6898499999999999,-0.6000749999999999,0.5292,-0.03450384,-0.07092456,-0.00287532
1779590495212962627,step,0.0,0.0839328837284073,1.473738567091492,-2.9149267436332895,-0.08962265708990882,-0.01918116847941768,0.0,0.0,0.024,0.0,0.0,0.0,0.0,0.6898499999999999,-0.6000749999999999,0.5292,-0.03450384,-0.07092456,-0.00287532
1779590495217997074,step,0.0,0.0839328837284073,1.473738567091492,-2.9149267436332895,-0.08962265708990882,-0.01918116847941768,0.0,0.0,0.024,0.0,0.0,0.0,0.0,0.6898499999999999,-0.6000749999999999,0.5292,-0.03450384,-0.07092456,-0.00287532
1779590495217997074,step,0.0,0.0839328837284073,1.473738567091492,-2.9149267436332895,-0.08962265708990882,-0.01918116847941768,0.0,0.0,0.024,0.0,0.0,0.0,0.0,0.6898499999999999,-0.6000749999999999,0.5292,-0.03450384,-0.07092456,-0.00287532
1779590495217997074,step,0.0,0.0839328837284073,1.473738567091492,-2.9149267436332895,-0.08962265708990882,-0.01918116847941768,0.0,0.0,-0.019,0.0,0.0,0.0,0.0,0.6898499999999999,-0.515025,0.4961249999999999,-0.03642072,-0.07092456,-0.00287532
1779590495217997074,step,0.0,0.0839328837284073,1.473738567091492,-2.9149267436332895,-0.08962265708990882,-0.01918116847941768,0.0,0.0,-0.019,0.0,0.0,0.0,0.0,0.6898499999999999,-0.515025,0.4961249999999999,-0.03642072,-0.07092456,-0.00287532
1779590495228072404,step,0.0,0.0839328837284073,1.473738567091492,-2.9149267436332895,-0.08962265708990882,-0.01918116847941768,0.0,0.0,0.031,0.0,0.0,0.0,0.0,0.6945749999999999,-0.8883,0.4961249999999999,-0.0383376,-0.07188299999999999,-0.0095844
1779590495228072404,step,0.0,0.0839328837284073,1.473738567091492,-2.9149267436332895,-0.08962265708990882,-0.01918116847941768,0.0,0.0,0.031,0.0,0.0,0.0,0.0,0.6945749999999999,-0.8883,0.4961249999999999,-0.0383376,-0.07188299999999999,-0.0095844
1779590495232954978,step,0.0,0.0839328837284073,1.473738567091492,-2.9149267436332895,-0.08962265708990882,-0.01918116847941768,0.0,0.0,-0.005,0.0,0.0,0.0,0.0,0.6804,-0.6615,0.5244749999999999,-0.03737916,-0.06804924000000001,-0.00766752
1779590495232954978,step,0.0,0.0839328837284073,1.473738567091492,-2.9149267436332895,-0.08962265708990882,-0.01918116847941768,0.0,0.0,-0.005,0.0,0.0,0.0,0.0,0.6804,-0.6615,0.5244749999999999,-0.03737916,-0.06804924000000001,-0.00766752
1779590495247965335,step,0.0,0.0839328837284073,1.473738567091492,-2.9149267436332895,-0.08962265708990882,-0.01918116847941768,0.0,0.0,-0.001,0.0,0.0,0.0,0.0,0.6662250000000001,-0.6237,0.5433749999999999,-0.014376599999999998,-0.07379988,-0.00862596
1779590495247965335,step,0.0,0.0839328837284073,1.473738567091492,-2.9149267436332895,-0.08962265708990882,-0.01918116847941768,0.0,0.0,-0.001,0.0,0.0,0.0,0.0,0.6662250000000001,-0.6237,0.5433749999999999,-0.014376599999999998,-0.07379988,-0.00862596
1779590495272986412,step,0.0,0.0839328837284073,1.473738567091492,-2.9149267436332895,-0.08962265708990882,-0.01918116847941768,0.0,0.0,-0.023,0.0,0.0,0.0,0.0,0.6426,-0.43942499999999995,0.5008499999999999,-0.0383376,-0.07763364,-0.0047922
1779590495272986412,step,0.0,0.0839328837284073,1.473738567091492,-2.9149267436332895,-0.08962265708990882,-0.01918116847941768,0.0,0.0,-0.023,0.0,0.0,0.0,0.0,0.6426,-0.43942499999999995,0.5008499999999999,-0.0383376,-0.07763364,-0.0047922
1779590495282969236,step,0.0,0.0839328837284073,1.473738567091492,-2.9149267436332895,-0.08962265708990882,-0.01918116847941768,0.0,0.0,-0.003,0.0,0.0,0.0,0.0,0.6615,-0.6426,0.5481,-0.0335454,-0.05654796,0.00095844
1779590495282969236,step,0.0,0.0839328837284073,1.473738567091492,-2.9149267436332895,-0.08962265708990882,-0.01918116847941768,0.0,0.0,-0.003,0.0,0.0,0.0,0.0,0.6615,-0.6426,0.5481,-0.0335454,-0.05654796,0.00095844
1779590495297978878,step,0.0,0.0839328837284073,1.473738567091492,-2.9149267436332895,-0.08962265708990882,-0.01918116847941768,0.0,0.0,0.033,0.0,0.0,0.0,0.0,0.6945749999999999,-0.7465499999999999,0.5197499999999999,-0.04121292,-0.06900768,-0.00287532
1779590495297978878,step,0.0,0.0839328837284073,1.473738567091492,-2.9149267436332895,-0.08962265708990882,-0.01918116847941768,0.0,0.0,0.033,0.0,0.0,0.0,0.0,0.6945749999999999,-0.7465499999999999,0.5197499999999999,-0.04121292,-0.06900768,-0.00287532
1779590495312980890,step,0.0,0.0839328837284073,1.473738567091492,-2.9149267436332895,-0.08962265708990882,-0.01918116847941768,0.0,0.0,-0.004,0.0,0.0,0.0,0.0,0.6992999999999999,-0.63315,0.5244749999999999,-0.04217136,-0.06517392,-0.00383376
1779590495312980890,step,0.0,0.0839328837284073,1.473738567091492,-2.9149267436332895,-0.08962265708990882,-0.01918116847941768,0.0,0.0,-0.004,0.0,0.0,0.0,0.0,0.6992999999999999,-0.63315,0.5244749999999999,-0.04217136,-0.06517392,-0.00383376
1779590495327997446,step,0.0,0.0839328837284073,1.473738567091492,-2.9149267436332895,-0.08962265708990882,-0.01918116847941768,0.0,0.0,0.034,0.0,0.0,0.0,0.0,0.6851249999999999,-0.78435,0.5197499999999999,-0.03258696,-0.06900768,-0.00287532
1779590495327997446,step,0.0,0.0839328837284073,1.473738567091492,-2.9149267436332895,-0.08962265708990882,-0.01918116847941768,0.0,0.0,0.034,0.0,0.0,0.0,0.0,0.6851249999999999,-0.78435,0.5197499999999999,-0.03258696,-0.06900768,-0.00287532
1779590495332967281,step,0.0,0.0839328837284073,1.473738567091492,-2.9149267436332895,-0.08962265708990882,-0.01918116847941768,0.0,0.0,-0.029,0.0,0.0,0.0,0.0,0.6992999999999999,-0.5433749999999999,0.5244749999999999,-0.03546228,-0.0670908,0.0
1779590495332967281,step,0.0,0.0839328837284073,1.473738567091492,-2.9149267436332895,-0.08962265708990882,-0.01918116847941768,0.0,0.0,-0.029,0.0,0.0,0.0,0.0,0.6992999999999999,-0.5433749999999999,0.5244749999999999,-0.03546228,-0.0670908,0.0
1779590495337983846,step,0.0,0.0839328837284073,1.473738567091492,-2.9149267436332895,-0.08962265708990882,-0.01918116847941768,0.0,0.0,-0.029,0.0,0.0,0.0,0.0,0.6662250000000001,-0.5433749999999999,0.515025,-0.03546228,-0.0670908,0.0
1779590495337983846,step,0.0,0.0839328837284073,1.473738567091492,-2.9149267436332895,-0.08962265708990882,-0.01918116847941768,0.0,0.0,-0.029,0.0,0.0,0.0,0.0,0.6662250000000001,-0.5433749999999999,0.515025,-0.03546228,-0.0670908,0.0
1779590495342984199,step,0.0,0.0839328837284073,1.473738567091492,-2.9149267436332895,-0.08962265708990882,-0.01918116847941768,0.0,0.0,0.021,0.0,0.0,0.0,0.0,0.6662250000000001,-0.95445,0.5433749999999999,-0.04121292,-0.06134016,-0.01054284
1779590495342984199,step,0.0,0.0839328837284073,1.473738567091492,-2.9149267436332895,-0.08962265708990882,-0.01918116847941768,0.0,0.0,0.021,0.0,0.0,0.0,0.0,0.6662250000000001,-0.95445,0.5433749999999999,-0.04121292,-0.06134016,-0.01054284
1779590495348030567,step,0.0,0.0839328837284073,1.473738567091492,-2.9149267436332895,-0.08962265708990882,-0.01918116847941768,0.0,0.0,0.021,0.0,0.0,0.0,0.0,0.6898499999999999,-0.95445,0.5433749999999999,-0.04121292,-0.06134016,-0.01054284
1779590495348030567,step,0.0,0.0839328837284073,1.473738567091492,-2.9149267436332895,-0.08962265708990882,-0.01918116847941768,0.0,0.0,0.021,0.0,0.0,0.0,0.0,0.6898499999999999,-0.95445,0.5433749999999999,-0.04121292,-0.06134016,-0.01054284
1779590495348030567,step,0.0,0.0839328837284073,1.473738567091492,-2.9149267436332895,-0.08962265708990882,-0.01918116847941768,0.0,0.0,-0.004,0.0,0.0,0.0,0.0,0.6898499999999999,-0.628425,0.5433749999999999,-0.03450384,-0.06421548,-0.00575064
1779590495348030567,step,0.0,0.0839328837284073,1.473738567091492,-2.9149267436332895,-0.08962265708990882,-0.01918116847941768,0.0,0.0,-0.004,0.0,0.0,0.0,0.0,0.6898499999999999,-0.628425,0.5433749999999999,-0.03450384,-0.06421548,-0.00575064
1779590495352980375,step,0.0,0.0839328837284073,1.473738567091492,-2.9149267436332895,-0.08962265708990882,-0.01918116847941768,0.0,0.0,-0.004,0.0,0.0,0.0,0.0,0.6945749999999999,-0.628425,0.5008499999999999,-0.03450384,-0.0622986,-0.0095844
1779590495352980375,step,0.0,0.0839328837284073,1.473738567091492,-2.9149267436332895,-0.08962265708990882,-0.01918116847941768,0.0,0.0,-0.004,0.0,0.0,0.0,0.0,0.6945749999999999,-0.628425,0.5008499999999999,-0.03450384,-0.0622986,-0.0095844
1779590495362991094,step,0.0,0.0839328837284073,1.473738567091492,-2.9149267436332895,-0.08962265708990882,-0.01918116847941768,0.0,0.0,0.027,0.0,0.0,0.0,0.0,0.6898499999999999,-0.61425,0.5008499999999999,-0.04121292,-0.0622986,-0.0095844
1779590495362991094,step,0.0,0.0839328837284073,1.473738567091492,-2.9149267436332895,-0.08962265708990882,-0.01918116847941768,0.0,0.0,0.027,0.0,0.0,0.0,0.0,0.6898499999999999,-0.61425,0.5008499999999999,-0.04121292,-0.0622986,-0.0095844
1779590495367991924,step,0.0,0.0839328837284073,1.473738567091492,-2.9149267436332895,-0.08962265708990882,-0.01918116847941768,0.0,0.0,-0.017,0.0,0.0,0.0,0.0,0.6992999999999999,-0.48195,0.5103,-0.03162852,-0.06613236,-0.01054284
1779590495367991924,step,0.0,0.0839328837284073,1.473738567091492,-2.9149267436332895,-0.08962265708990882,-0.01918116847941768,0.0,0.0,-0.017,0.0,0.0,0.0,0.0,0.6992999999999999,-0.48195,0.5103,-0.03162852,-0.06613236,-0.01054284
1779590495373094081,step,0.0,0.0839328837284073,1.473738567091492,-2.9149267436332895,-0.08962265708990882,-0.01918116847941768,0.0,0.0,-0.017,0.0,0.0,0.0,0.0,0.6851249999999999,-0.48195,0.515025,-0.03162852,-0.06421548,-0.00383376
1779590495373094081,step,0.0,0.0839328837284073,1.473738567091492,-2.9149267436332895,-0.08962265708990882,-0.01918116847941768,0.0,0.0,-0.017,0.0,0.0,0.0,0.0,0.6851249999999999,-0.48195,0.515025,-0.03162852,-0.06421548,-0.00383376
1779590495377985239,step,0.0,0.0839328837284073,1.473738567091492,-2.9149267436332895,-0.08962265708990882,-0.01918116847941768,0.0,0.0,0.014,0.0,0.0,0.0,0.0,0.6851249999999999,-0.8504999999999999,0.515025,-0.04217136,-0.0670908,-0.00766752
1779590495377985239,step,0.0,0.0839328837284073,1.473738567091492,-2.9149267436332895,-0.08962265708990882,-0.01918116847941768,0.0,0.0,0.014,0.0,0.0,0.0,0.0,0.6851249999999999,-0.8504999999999999,0.515025,-0.04217136,-0.0670908,-0.00766752
1779590495382984876,step,0.0,0.0839328837284073,1.473738567091492,-2.9149267436332895,-0.08962265708990882,-0.01918116847941768,0.0,0.0,-0.003,0.0,0.0,0.0,0.0,0.6851249999999999,-0.628425,0.515025,-0.028753199999999996,-0.06517392,-0.00766752
1779590495382984876,step,0.0,0.0839328837284073,1.473738567091492,-2.9149267436332895,-0.08962265708990882,-0.01918116847941768,0.0,0.0,-0.003,0.0,0.0,0.0,0.0,0.6851249999999999,-0.628425,0.515025,-0.028753199999999996,-0.06517392,-0.00766752
1779590495387985229,step,0.0,0.0839328837284073,1.473738567091492,-2.9149267436332895,-0.08962265708990882,-0.01918116847941768,0.0,0.0,-0.003,0.0,0.0,0.0,0.0,0.7040249999999999,-0.628425,0.5103,-0.028753199999999996,-0.05750639999999999,-0.00383376
1779590495387985229,step,0.0,0.0839328837284073,1.473738567091492,-2.9149267436332895,-0.08962265708990882,-0.01918116847941768,0.0,0.0,-0.003,0.0,0.0,0.0,0.0,0.7040249999999999,-0.628425,0.5103,-0.028753199999999996,-0.05750639999999999,-0.00383376
1779590495392986297,step,0.0,0.0839328837284073,1.473738567091492,-2.9149267436332895,-0.08962265708990882,-0.01918116847941768,0.0,0.0,0.001,0.0,0.0,0.0,0.0,0.7040249999999999,-0.7276499999999999,0.5197499999999999,-0.0383376,-0.05750639999999999,-0.00383376
1779590495392986297,step,0.0,0.0839328837284073,1.473738567091492,-2.9149267436332895,-0.08962265708990882,-0.01918116847941768,0.0,0.0,0.001,0.0,0.0,0.0,0.0,0.7040249999999999,-0.7276499999999999,0.5197499999999999,-0.0383376,-0.05750639999999999,-0.00383376
1779590495397995710,step,0.0,0.0839328837284073,1.473738567091492,-2.9149267436332895,-0.08962265708990882,-0.01918116847941768,0.0,0.0,0.026000000000000002,0.0,0.0,0.0,0.0,0.6615,-0.9639,0.5197499999999999,-0.04600512,-0.06421548,-0.00383376
1779590495397995710,step,0.0,0.0839328837284073,1.473738567091492,-2.9149267436332895,-0.08962265708990882,-0.01918116847941768,0.0,0.0,0.026000000000000002,0.0,0.0,0.0,0.0,0.6615,-0.9639,0.5197499999999999,-0.04600512,-0.06421548,-0.00383376
1779590495402992010,step,0.0,0.0839328837284073,1.473738567091492,-2.9149267436332895,-0.08962265708990882,-0.01918116847941768,0.0,0.0,-0.013000000000000001,0.0,0.0,0.0,0.0,0.7182,-0.5197499999999999,0.5197499999999999,-0.04600512,-0.06421548,-0.00670908
1779590495402992010,step,0.0,0.0839328837284073,1.473738567091492,-2.9149267436332895,-0.08962265708990882,-0.01918116847941768,0.0,0.0,-0.013000000000000001,0.0,0.0,0.0,0.0,0.7182,-0.5197499999999999,0.5197499999999999,-0.04600512,-0.06421548,-0.00670908
1779590495408095121,step,0.0,0.0839328837284073,1.473738567091492,-2.9149267436332895,-0.08962265708990882,-0.01918116847941768,0.0,0.0,-0.013000000000000001,0.0,0.0,0.0,0.0,0.6898499999999999,-0.5197499999999999,0.5197499999999999,-0.0335454,-0.0670908,-0.00862596
1779590495408095121,step,0.0,0.0839328837284073,1.473738567091492,-2.9149267436332895,-0.08962265708990882,-0.01918116847941768,0.0,0.0,-0.013000000000000001,0.0,0.0,0.0,0.0,0.6898499999999999,-0.5197499999999999,0.5197499999999999,-0.0335454,-0.0670908,-0.00862596
1779590495412976264,step,0.0,0.0839328837284073,1.473738567091492,-2.9149267436332895,-0.08962265708990882,-0.01918116847941768,0.0,0.0,-0.02,0.0,0.0,0.0,0.0,0.6898499999999999,-0.7276499999999999,0.533925,-0.03450384,-0.05750639999999999,0.00191688
1779590495412976264,step,0.0,0.0839328837284073,1.473738567091492,-2.9149267436332895,-0.08962265708990882,-0.01918116847941768,0.0,0.0,-0.02,0.0,0.0,0.0,0.0,0.6898499999999999,-0.7276499999999999,0.533925,-0.03450384,-0.05750639999999999,0.00191688
1779590495417996406,step,0.0,0.0839328837284073,1.473738567091492,-2.9149267436332895,-0.08962265708990882,-0.01918116847941768,0.0,0.0,0.019,0.0,0.0,0.0,0.0,0.65205,-0.940275,0.533925,-0.03450384,-0.06421548,-0.01821036
1779590495417996406,step,0.0,0.0839328837284073,1.473738567091492,-2.9149267436332895,-0.08962265708990882,-0.01918116847941768,0.0,0.0,0.019,0.0,0.0,0.0,0.0,0.65205,-0.940275,0.533925,-0.03450384,-0.06421548,-0.01821036
1779590495423015594,step,0.0,0.0839328837284073,1.473738567091492,-2.9149267436332895,-0.08962265708990882,-0.01918116847941768,0.0,0.0,0.019,0.0,0.0,0.0,0.0,0.6804,-0.940275,0.5244749999999999,-0.03450384,-0.052714199999999996,-0.01821036
1779590495423015594,step,0.0,0.0839328837284073,1.473738567091492,-2.9149267436332895,-0.08962265708990882,-0.01918116847941768,0.0,0.0,0.019,0.0,0.0,0.0,0.0,0.6804,-0.940275,0.5244749999999999,-0.03450384,-0.052714199999999996,-0.01821036
1779590495427986621,step,0.0,0.0839328837284073,1.473738567091492,-2.9149267436332895,-0.08962265708990882,-0.01918116847941768,0.0,0.0,-0.016,0.0,0.0,0.0,0.0,0.6804,-0.515025,0.515025,-0.029711639999999997,-0.052714199999999996,-0.00095844
1779590495427986621,step,0.0,0.0839328837284073,1.473738567091492,-2.9149267436332895,-0.08962265708990882,-0.01918116847941768,0.0,0.0,-0.016,0.0,0.0,0.0,0.0,0.6804,-0.515025,0.515025,-0.029711639999999997,-0.052714199999999996,-0.00095844
1779590495432988643,step,0.0,0.0839328837284073,1.473738567091492,-2.9149267436332895,-0.08962265708990882,-0.01918116847941768,0.0,0.0,0.003,0.0,0.0,0.0,0.0,0.6237,-0.7182,0.515025,-0.03642072,-0.06134016,-0.00095844
1779590495432988643,step,0.0,0.0839328837284073,1.473738567091492,-2.9149267436332895,-0.08962265708990882,-0.01918116847941768,0.0,0.0,0.003,0.0,0.0,0.0,0.0,0.6237,-0.7182,0.515025,-0.03642072,-0.06134016,-0.00095844
