deepaktalwardt/rage-cage-arm-hackstorm/ros2/ws/sysid/runs/step_20260524_024119/raw/joint1_amp5_kp10.0_kd0.5.csv
t_ns,phase,tau_cmd,q1,q2,q3,q4,q5,q6,qd1,qd2,qd3,qd4,qd5,qd6,tau1,tau2,tau3,tau4,tau5,tau6
1779590485756823062,step,0.0,-0.04303981935418017,1.4746810448875687,-2.9156772352116476,-0.09571385617936903,-0.018500490071139894,0.0,0.0,0.032,0.0,0.0,0.0,0.0,-0.28822499999999995,-0.6992999999999999,0.486675,0.10734528,-0.05463108,-0.00766752
1779590485756823062,step,0.0,-0.04303981935418017,1.4746810448875687,-2.9156772352116476,-0.09571385617936903,-0.018500490071139894,0.0,0.0,0.032,0.0,0.0,0.0,0.0,-0.28822499999999995,-0.6992999999999999,0.486675,0.10734528,-0.05463108,-0.00766752
1779590485761823415,step,0.0,-0.04303981935418017,1.4746810448875687,-2.9156772352116476,-0.09571385617936903,-0.018500490071139894,0.0,0.0,-0.017,0.0,0.0,0.0,0.0,-0.28822499999999995,-0.5244749999999999,0.486675,0.1006362,-0.05175576,-0.01245972
1779590485761823415,step,0.0,-0.04303981935418017,1.4746810448875687,-2.9156772352116476,-0.09571385617936903,-0.018500490071139894,0.0,0.0,-0.017,0.0,0.0,0.0,0.0,-0.28822499999999995,-0.5244749999999999,0.486675,0.1006362,-0.05175576,-0.01245972
1779590485766831874,step,0.0,-0.04303981935418017,1.4746810448875687,-2.9156772352116476,-0.09571385617936903,-0.018500490071139894,0.0,0.0,0.009000000000000001,0.0,0.0,0.0,0.0,-0.23625,-0.779625,0.515025,0.1006362,-0.05750639999999999,0.00095844
1779590485766831874,step,0.0,-0.04303981935418017,1.4746810448875687,-2.9156772352116476,-0.09571385617936903,-0.018500490071139894,0.0,0.0,0.009000000000000001,0.0,0.0,0.0,0.0,-0.23625,-0.779625,0.515025,0.1006362,-0.05750639999999999,0.00095844
1779590485771830797,step,0.0,-0.04303981935418017,1.4746810448875687,-2.9156772352116476,-0.09571385617936903,-0.018500490071139894,0.0,0.0,0.009000000000000001,0.0,0.0,0.0,0.0,-0.2457,-0.779625,0.515025,0.10830371999999999,-0.05750639999999999,0.00095844
1779590485771830797,step,0.0,-0.04303981935418017,1.4746810448875687,-2.9156772352116476,-0.09571385617936903,-0.018500490071139894,0.0,0.0,0.009000000000000001,0.0,0.0,0.0,0.0,-0.2457,-0.779625,0.515025,0.10830371999999999,-0.05750639999999999,0.00095844
1779590485776829481,step,0.0,-0.04303981935418017,1.4746810448875687,-2.9156772352116476,-0.09571385617936903,-0.018500490071139894,0.0,0.0,-0.008,0.0,0.0,0.0,0.0,-0.2457,-0.65205,0.4961249999999999,0.10351152,-0.05367264,-0.01821036
1779590485776829481,step,0.0,-0.04303981935418017,1.4746810448875687,-2.9156772352116476,-0.09571385617936903,-0.018500490071139894,0.0,0.0,-0.008,0.0,0.0,0.0,0.0,-0.2457,-0.65205,0.4961249999999999,0.10351152,-0.05367264,-0.01821036
1779590485781831264,step,0.0,-0.04303981935418017,1.4746810448875687,-2.9156772352116476,-0.09571385617936903,-0.018500490071139894,0.0,0.0,0.002,0.0,0.0,0.0,0.0,-0.21262499999999998,-0.7040249999999999,0.4961249999999999,0.10159463999999999,-0.05079731999999999,-0.00766752
1779590485781831264,step,0.0,-0.04303981935418017,1.4746810448875687,-2.9156772352116476,-0.09571385617936903,-0.018500490071139894,0.0,0.0,0.002,0.0,0.0,0.0,0.0,-0.21262499999999998,-0.7040249999999999,0.4961249999999999,0.10159463999999999,-0.05079731999999999,-0.00766752
1779590485786910772,step,0.0,-0.04303981935418017,1.4746810448875687,-2.9156772352116476,-0.09571385617936903,-0.018500490071139894,0.0,0.0,0.002,0.0,0.0,0.0,0.0,-0.25042499999999995,-0.7040249999999999,0.505575,0.10159463999999999,-0.05558952,-0.02300256
1779590485786910772,step,0.0,-0.04303981935418017,1.4746810448875687,-2.9156772352116476,-0.09571385617936903,-0.018500490071139894,0.0,0.0,0.002,0.0,0.0,0.0,0.0,-0.25042499999999995,-0.7040249999999999,0.505575,0.10159463999999999,-0.05558952,-0.02300256
1779590485786910772,step,0.0,-0.04303981935418017,1.4746810448875687,-2.9156772352116476,-0.09571385617936903,-0.018500490071139894,0.0,0.0,0.002,0.0,0.0,0.0,0.0,-0.25042499999999995,-0.7040249999999999,0.505575,0.10159463999999999,-0.05558952,-0.02300256
1779590485791827440,step,0.0,-0.04303981935418017,1.4746810448875687,-2.9156772352116476,-0.09571385617936903,-0.018500490071139894,0.0,0.0,0.018000000000000002,0.0,0.0,0.0,0.0,-0.2646,-0.656775,0.48195,0.10159463999999999,-0.05558952,-0.02300256
1779590485791827440,step,0.0,-0.04303981935418017,1.4746810448875687,-2.9156772352116476,-0.09571385617936903,-0.018500490071139894,0.0,0.0,0.018000000000000002,0.0,0.0,0.0,0.0,-0.2646,-0.656775,0.48195,0.10159463999999999,-0.05558952,-0.02300256
1779590485796828985,step,0.0,-0.04303981935418017,1.4746810448875687,-2.9156772352116476,-0.09571385617936903,-0.018500490071139894,0.0,0.0,0.018000000000000002,0.0,0.0,0.0,0.0,-0.2646,-0.656775,0.48195,0.10159463999999999,-0.05558952,-0.02300256
1779590485796828985,step,0.0,-0.04303981935418017,1.4746810448875687,-2.9156772352116476,-0.09571385617936903,-0.018500490071139894,0.0,0.0,0.018000000000000002,0.0,0.0,0.0,0.0,-0.2646,-0.656775,0.48195,0.10159463999999999,-0.05558952,-0.02300256
1779590485801833391,step,0.0,-0.04303981935418017,1.4746810448875687,-2.9156772352116476,-0.09571385617936903,-0.018500490071139894,0.0,0.0,-0.029,0.0,0.0,0.0,0.0,-0.2646,-0.477225,0.48195,0.10255307999999999,-0.06134016,0.0
1779590485801833391,step,0.0,-0.04303981935418017,1.4746810448875687,-2.9156772352116476,-0.09571385617936903,-0.018500490071139894,0.0,0.0,-0.029,0.0,0.0,0.0,0.0,-0.2646,-0.477225,0.48195,0.10255307999999999,-0.06134016,0.0
1779590485806829690,step,0.0,-0.04303981935418017,1.4746810448875687,-2.9156772352116476,-0.09571385617936903,-0.018500490071139894,0.0,0.0,0.012,0.0,0.0,0.0,0.0,-0.25987499999999997,-0.807975,0.515025,0.10255307999999999,-0.05750639999999999,-0.00575064
1779590485806829690,step,0.0,-0.04303981935418017,1.4746810448875687,-2.9156772352116476,-0.09571385617936903,-0.018500490071139894,0.0,0.0,0.012,0.0,0.0,0.0,0.0,-0.25987499999999997,-0.807975,0.515025,0.10255307999999999,-0.05750639999999999,-0.00575064
1779590485811831235,step,0.0,-0.04303981935418017,1.4746810448875687,-2.9156772352116476,-0.09571385617936903,-0.018500490071139894,0.0,0.0,0.012,0.0,0.0,0.0,0.0,-0.25987499999999997,-0.807975,0.533925,0.1006362,-0.05750639999999999,-0.00575064
1779590485811831235,step,0.0,-0.04303981935418017,1.4746810448875687,-2.9156772352116476,-0.09571385617936903,-0.018500490071139894,0.0,0.0,0.012,0.0,0.0,0.0,0.0,-0.25987499999999997,-0.807975,0.533925,0.1006362,-0.05750639999999999,-0.00575064
1779590485811831235,step,0.0,-0.04303981935418017,1.4746810448875687,-2.9156772352116476,-0.09571385617936903,-0.018500490071139894,0.0,0.0,-0.003,0.0,0.0,0.0,0.0,-0.25987499999999997,-0.6851249999999999,0.505575,0.10638684,-0.04504668,-0.00383376
1779590485811831235,step,0.0,-0.04303981935418017,1.4746810448875687,-2.9156772352116476,-0.09571385617936903,-0.018500490071139894,0.0,0.0,-0.003,0.0,0.0,0.0,0.0,-0.25987499999999997,-0.6851249999999999,0.505575,0.10638684,-0.04504668,-0.00383376
1779590485816846132,step,0.0,-0.04303981935418017,1.4746810448875687,-2.9156772352116476,-0.09571385617936903,-0.018500490071139894,0.0,0.0,-0.034,0.0,0.0,0.0,0.0,-0.23152499999999998,-0.656775,0.505575,0.10159463999999999,-0.05463108,-0.00383376
1779590485816846132,step,0.0,-0.04303981935418017,1.4746810448875687,-2.9156772352116476,-0.09571385617936903,-0.018500490071139894,0.0,0.0,-0.034,0.0,0.0,0.0,0.0,-0.23152499999999998,-0.656775,0.505575,0.10159463999999999,-0.05463108,-0.00383376
1779590485821834564,step,0.0,-0.04303981935418017,1.4746810448875687,-2.9156772352116476,-0.09571385617936903,-0.018500490071139894,0.0,0.0,-0.034,0.0,0.0,0.0,0.0,-0.23152499999999998,-0.656775,0.505575,0.10159463999999999,-0.05463108,-0.00575064
1779590485821834564,step,0.0,-0.04303981935418017,1.4746810448875687,-2.9156772352116476,-0.09571385617936903,-0.018500490071139894,0.0,0.0,-0.034,0.0,0.0,0.0,0.0,-0.23152499999999998,-0.656775,0.505575,0.10159463999999999,-0.05463108,-0.00575064
1779590485821834564,step,0.0,-0.04303981935418017,1.4746810448875687,-2.9156772352116476,-0.09571385617936903,-0.018500490071139894,0.0,0.0,-0.034,0.0,0.0,0.0,0.0,-0.23152499999999998,-0.656775,0.505575,0.10159463999999999,-0.05463108,-0.00575064
1779590485821834564,step,0.0,-0.04303981935418017,1.4746810448875687,-2.9156772352116476,-0.09571385617936903,-0.018500490071139894,0.0,0.0,-0.034,0.0,0.0,0.0,0.0,-0.20789999999999997,-0.656775,0.505575,0.10159463999999999,-0.0622986,-0.00383376
1779590485821834564,step,0.0,-0.04303981935418017,1.4746810448875687,-2.9156772352116476,-0.09571385617936903,-0.018500490071139894,0.0,0.0,-0.034,0.0,0.0,0.0,0.0,-0.20789999999999997,-0.656775,0.505575,0.10159463999999999,-0.0622986,-0.00383376
1779590485826836347,step,0.0,-0.04303981935418017,1.4746810448875687,-2.9156772352116476,-0.09571385617936903,-0.018500490071139894,0.0,0.0,0.015,0.0,0.0,0.0,0.0,-0.25987499999999997,-0.826875,0.5197499999999999,0.10159463999999999,-0.0622986,-0.00383376
1779590485826836347,step,0.0,-0.04303981935418017,1.4746810448875687,-2.9156772352116476,-0.09571385617936903,-0.018500490071139894,0.0,0.0,0.015,0.0,0.0,0.0,0.0,-0.25987499999999997,-0.826875,0.5197499999999999,0.10159463999999999,-0.0622986,-0.00383376
1779590485831840515,step,0.0,-0.04303981935418017,1.4746810448875687,-2.9156772352116476,-0.09571385617936903,-0.018500490071139894,0.0,0.0,0.015,0.0,0.0,0.0,0.0,-0.25987499999999997,-0.826875,0.5197499999999999,0.11405436000000001,-0.0622986,-0.00383376
1779590485831840515,step,0.0,-0.04303981935418017,1.4746810448875687,-2.9156772352116476,-0.09571385617936903,-0.018500490071139894,0.0,0.0,0.015,0.0,0.0,0.0,0.0,-0.25987499999999997,-0.826875,0.5197499999999999,0.11405436000000001,-0.0622986,-0.00383376
1779590485831840515,step,0.0,-0.04303981935418017,1.4746810448875687,-2.9156772352116476,-0.09571385617936903,-0.018500490071139894,0.0,0.0,-0.022,0.0,0.0,0.0,0.0,-0.25987499999999997,-0.4914,0.515025,0.11788812,-0.05558952,-0.00575064
1779590485831840515,step,0.0,-0.04303981935418017,1.4746810448875687,-2.9156772352116476,-0.09571385617936903,-0.018500490071139894,0.0,0.0,-0.022,0.0,0.0,0.0,0.0,-0.25987499999999997,-0.4914,0.515025,0.11788812,-0.05558952,-0.00575064
1779590485836843252,step,0.0,-0.04303981935418017,1.4746810448875687,-2.9156772352116476,-0.09571385617936903,-0.018500490071139894,0.0,0.0,-0.022,0.0,0.0,0.0,0.0,-0.25987499999999997,-0.4914,0.515025,0.11788812,-0.05558952,-0.00575064
1779590485836843252,step,0.0,-0.04303981935418017,1.4746810448875687,-2.9156772352116476,-0.09571385617936903,-0.018500490071139894,0.0,0.0,-0.022,0.0,0.0,0.0,0.0,-0.25987499999999997,-0.4914,0.515025,0.11788812,-0.05558952,-0.00575064
1779590485841843605,step,0.0,-0.04303981935418017,1.4746810448875687,-2.9156772352116476,-0.09571385617936903,-0.018500490071139894,0.0,0.0,0.003,0.0,0.0,0.0,0.0,-0.2457,-0.713475,0.5008499999999999,0.11788812,-0.05367264,-0.01150128
1779590485841843605,step,0.0,-0.04303981935418017,1.4746810448875687,-2.9156772352116476,-0.09571385617936903,-0.018500490071139894,0.0,0.0,0.003,0.0,0.0,0.0,0.0,-0.2457,-0.713475,0.5008499999999999,0.11788812,-0.05367264,-0.01150128
1779590485841843605,step,0.0,-0.04303981935418017,1.4746810448875687,-2.9156772352116476,-0.09571385617936903,-0.018500490071139894,0.0,0.0,0.003,0.0,0.0,0.0,0.0,-0.2457,-0.713475,0.5008499999999999,0.10351152,-0.05367264,-0.01150128
1779590485841843605,step,0.0,-0.04303981935418017,1.4746810448875687,-2.9156772352116476,-0.09571385617936903,-0.018500490071139894,0.0,0.0,0.003,0.0,0.0,0.0,0.0,-0.2457,-0.713475,0.5008499999999999,0.10351152,-0.05367264,-0.01150128
1779590485846861124,step,0.0,-0.04303981935418017,1.4746810448875687,-2.9156772352116476,-0.09571385617936903,-0.018500490071139894,0.0,0.0,-0.004,0.0,0.0,0.0,0.0,-0.2457,-0.581175,0.505575,0.1006362,-0.07188299999999999,0.00191688
1779590485846861124,step,0.0,-0.04303981935418017,1.4746810448875687,-2.9156772352116476,-0.09571385617936903,-0.018500490071139894,0.0,0.0,-0.004,0.0,0.0,0.0,0.0,-0.2457,-0.581175,0.505575,0.1006362,-0.07188299999999999,0.00191688
1779590485851837873,step,0.0,-0.04303981935418017,1.4746810448875687,-2.9156772352116476,-0.09571385617936903,-0.018500490071139894,0.0,0.0,-0.032,0.0,0.0,0.0,0.0,-0.240975,-0.48195,0.505575,0.10255307999999999,-0.059423279999999995,0.00191688
1779590485851837873,step,0.0,-0.04303981935418017,1.4746810448875687,-2.9156772352116476,-0.09571385617936903,-0.018500490071139894,0.0,0.0,-0.032,0.0,0.0,0.0,0.0,-0.240975,-0.48195,0.505575,0.10255307999999999,-0.059423279999999995,0.00191688
1779590485851837873,step,0.0,-0.04303981935418017,1.4746810448875687,-2.9156772352116476,-0.09571385617936903,-0.018500490071139894,0.0,0.0,-0.032,0.0,0.0,0.0,0.0,-0.240975,-0.48195,0.505575,0.10255307999999999,-0.059423279999999995,-0.00383376
1779590485851837873,step,0.0,-0.04303981935418017,1.4746810448875687,-2.9156772352116476,-0.09571385617936903,-0.018500490071139894,0.0,0.0,-0.032,0.0,0.0,0.0,0.0,-0.240975,-0.48195,0.505575,0.10255307999999999,-0.059423279999999995,-0.00383376
1779590485856841564,step,0.0,-0.04303981935418017,1.4746810448875687,-2.9156772352116476,-0.09571385617936903,-0.018500490071139894,0.0,0.0,0.044,0.0,0.0,0.0,0.0,-0.2646,-1.0867499999999999,0.46304999999999996,0.10255307999999999,-0.05175576,-0.0047922
1779590485856841564,step,0.0,-0.04303981935418017,1.4746810448875687,-2.9156772352116476,-0.09571385617936903,-0.018500490071139894,0.0,0.0,0.044,0.0,0.0,0.0,0.0,-0.2646,-1.0867499999999999,0.46304999999999996,0.10255307999999999,-0.05175576,-0.0047922
1779590485861910581,step,0.0,-0.04303981935418017,1.4746810448875687,-2.9156772352116476,-0.09571385617936903,-0.018500490071139894,0.0,0.0,0.044,0.0,0.0,0.0,0.0,-0.2457,-1.0867499999999999,0.46304999999999996,0.10255307999999999,-0.05175576,-0.0047922
1779590485861910581,step,0.0,-0.04303981935418017,1.4746810448875687,-2.9156772352116476,-0.09571385617936903,-0.018500490071139894,0.0,0.0,0.044,0.0,0.0,0.0,0.0,-0.2457,-1.0867499999999999,0.46304999999999996,0.10255307999999999,-0.05175576,-0.0047922
1779590485866837501,step,0.0,-0.04303981935418017,1.4746810448875687,-2.9156772352116476,-0.09571385617936903,-0.018500490071139894,0.0,0.0,-0.008,0.0,0.0,0.0,0.0,-0.2457,-0.5859,0.515025,0.10830371999999999,-0.05175576,-0.0047922
1779590485866837501,step,0.0,-0.04303981935418017,1.4746810448875687,-2.9156772352116476,-0.09571385617936903,-0.018500490071139894,0.0,0.0,-0.008,0.0,0.0,0.0,0.0,-0.2457,-0.5859,0.515025,0.10830371999999999,-0.05175576,-0.0047922
1779590485871837615,step,0.0,-0.04303981935418017,1.4746810448875687,-2.9156772352116476,-0.09571385617936903,-0.018500490071139894,0.0,0.0,0.002,0.0,0.0,0.0,0.0,-0.23152499999999998,-0.7182,0.515025,0.10351152,-0.05558952,-0.00383376
1779590485871837615,step,0.0,-0.04303981935418017,1.4746810448875687,-2.9156772352116476,-0.09571385617936903,-0.018500490071139894,0.0,0.0,0.002,0.0,0.0,0.0,0.0,-0.23152499999999998,-0.7182,0.515025,0.10351152,-0.05558952,-0.00383376
1779590485876846551,step,0.0,-0.04303981935418017,1.4746810448875687,-2.9156772352116476,-0.09571385617936903,-0.018500490071139894,0.0,0.0,0.002,0.0,0.0,0.0,0.0,-0.2457,-0.7182,0.5103,0.10159463999999999,-0.05558952,-0.00383376
1779590485876846551,step,0.0,-0.04303981935418017,1.4746810448875687,-2.9156772352116476,-0.09571385617936903,-0.018500490071139894,0.0,0.0,0.002,0.0,0.0,0.0,0.0,-0.2457,-0.7182,0.5103,0.10159463999999999,-0.05558952,-0.00383376
1779590485881847858,step,0.0,-0.04303981935418017,1.4746810448875687,-2.9156772352116476,-0.09571385617936903,-0.018500490071139894,0.0,0.0,0.009000000000000001,0.0,0.0,0.0,0.0,-0.2457,-0.647325,0.5103,0.10159463999999999,-0.05558952,-0.00383376
1779590485881847858,step,0.0,-0.04303981935418017,1.4746810448875687,-2.9156772352116476,-0.09571385617936903,-0.018500490071139894,0.0,0.0,0.009000000000000001,0.0,0.0,0.0,0.0,-0.2457,-0.647325,0.5103,0.10159463999999999,-0.05558952,-0.00383376
1779590485881847858,step,0.0,-0.04303981935418017,1.4746810448875687,-2.9156772352116476,-0.09571385617936903,-0.018500490071139894,0.0,0.0,0.009000000000000001,0.0,0.0,0.0,0.0,-0.2457,-0.647325,0.4914,0.10734528,-0.04696356,-0.01245972
1779590485881847858,step,0.0,-0.04303981935418017,1.4746810448875687,-2.9156772352116476,-0.09571385617936903,-0.018500490071139894,0.0,0.0,0.009000000000000001,0.0,0.0,0.0,0.0,-0.2457,-0.647325,0.4914,0.10734528,-0.04696356,-0.01245972
1779590485886844396,step,0.0,-0.04303981935418017,1.4746810448875687,-2.9156772352116476,-0.09571385617936903,-0.018500490071139894,0.0,0.0,-0.025,0.0,0.0,0.0,0.0,-0.240975,-0.46304999999999996,0.4914,0.10255307999999999,-0.05654796,-0.01245972
1779590485886844396,step,0.0,-0.04303981935418017,1.4746810448875687,-2.9156772352116476,-0.09571385617936903,-0.018500490071139894,0.0,0.0,-0.025,0.0,0.0,0.0,0.0,-0.240975,-0.46304999999999996,0.4914,0.10255307999999999,-0.05654796,-0.01245972
1779590485896840572,step,0.0,-0.04303981935418017,1.4746810448875687,-2.9156772352116476,-0.09571385617936903,-0.018500490071139894,0.0,0.0,0.017,0.0,0.0,0.0,0.0,-0.23152499999999998,-0.8883,0.5244749999999999,0.12076344,-0.05846484,0.0
1779590485896840572,step,0.0,-0.04303981935418017,1.4746810448875687,-2.9156772352116476,-0.09571385617936903,-0.018500490071139894,0.0,0.0,0.017,0.0,0.0,0.0,0.0,-0.23152499999999998,-0.8883,0.5244749999999999,0.12076344,-0.05846484,0.0
1779590485906853199,step,0.0,-0.04303981935418017,1.4746810448875687,-2.9156772352116476,-0.09571385617936903,-0.018500490071139894,0.0,0.0,0.002,0.0,0.0,0.0,0.0,-0.25042499999999995,-0.7087499999999999,0.486675,0.10926216,-0.04504668,-0.00575064
1779590485906853199,step,0.0,-0.04303981935418017,1.4746810448875687,-2.9156772352116476,-0.09571385617936903,-0.018500490071139894,0.0,0.0,0.002,0.0,0.0,0.0,0.0,-0.25042499999999995,-0.7087499999999999,0.486675,0.10926216,-0.04504668,-0.00575064
1779590485916995525,step,0.0,-0.04303981935418017,1.4746810448875687,-2.9156772352116476,-0.09571385617936903,-0.018500490071139894,0.0,0.0,0.033,0.0,0.0,0.0,0.0,-0.22679999999999997,-0.864675,0.4961249999999999,0.10926216,-0.04504668,-0.00575064
1779590485916995525,step,0.0,-0.04303981935418017,1.4746810448875687,-2.9156772352116476,-0.09571385617936903,-0.018500490071139894,0.0,0.0,0.033,0.0,0.0,0.0,0.0,-0.22679999999999997,-0.864675,0.4961249999999999,0.10926216,-0.04504668,-0.00575064
1779590485926945924,step,0.0,-0.04303981935418017,1.4746810448875687,-2.9156772352116476,-0.09571385617936903,-0.018500490071139894,0.0,0.0,0.008,0.0,0.0,0.0,0.0,-0.222075,-0.756,0.5244749999999999,0.10351152,-0.05079731999999999,-0.0047922
1779590485926945924,step,0.0,-0.04303981935418017,1.4746810448875687,-2.9156772352116476,-0.09571385617936903,-0.018500490071139894,0.0,0.0,0.008,0.0,0.0,0.0,0.0,-0.222075,-0.756,0.5244749999999999,0.10351152,-0.05079731999999999,-0.0047922
1779590485941893100,step,0.0,-0.04303981935418017,1.4746810448875687,-2.9156772352116476,-0.09571385617936903,-0.018500490071139894,0.0,0.0,0.001,0.0,0.0,0.0,0.0,-0.23152499999999998,-0.741825,0.5103,0.10159463999999999,-0.05558952,-0.00383376
1779590485941893100,step,0.0,-0.04303981935418017,1.4746810448875687,-2.9156772352116476,-0.09571385617936903,-0.018500490071139894,0.0,0.0,0.001,0.0,0.0,0.0,0.0,-0.23152499999999998,-0.741825,0.5103,0.10159463999999999,-0.05558952,-0.00383376
1779590485946846723,step,0.0,-0.04303981935418017,1.4746810448875687,-2.9156772352116476,-0.09571385617936903,-0.018500490071139894,0.0,0.0,0.001,0.0,0.0,0.0,0.0,-0.20789999999999997,-0.741825,0.505575,0.10159463999999999,-0.05750639999999999,-0.0047922
1779590485946846723,step,0.0,-0.04303981935418017,1.4746810448875687,-2.9156772352116476,-0.09571385617936903,-0.018500490071139894,0.0,0.0,0.001,0.0,0.0,0.0,0.0,-0.20789999999999997,-0.741825,0.505575,0.10159463999999999,-0.05750639999999999,-0.0047922
1779590485951849460,step,0.0,-0.04303981935418017,1.4746810448875687,-2.9156772352116476,-0.09571385617936903,-0.018500490071139894,0.0,0.0,0.025,0.0,0.0,0.0,0.0,-0.20789999999999997,-0.8977499999999999,0.5292,0.10542839999999999,-0.05750639999999999,-0.00287532
1779590485951849460,step,0.0,-0.04303981935418017,1.4746810448875687,-2.9156772352116476,-0.09571385617936903,-0.018500490071139894,0.0,0.0,0.025,0.0,0.0,0.0,0.0,-0.20789999999999997,-0.8977499999999999,0.5292,0.10542839999999999,-0.05750639999999999,-0.00287532
1779590485956856966,step,0.0,-0.04303981935418017,1.4746810448875687,-2.9156772352116476,-0.09571385617936903,-0.018500490071139894,0.0,0.0,0.0,0.0,0.0,0.0,0.0,-0.23152499999999998,-0.8410499999999999,0.5292,0.10159463999999999,-0.05750639999999999,-0.00287532
1779590485956856966,step,0.0,-0.04303981935418017,1.4746810448875687,-2.9156772352116476,-0.09571385617936903,-0.018500490071139894,0.0,0.0,0.0,0.0,0.0,0.0,0.0,-0.23152499999999998,-0.8410499999999999,0.5292,0.10159463999999999,-0.05750639999999999,-0.00287532
1779590485961855888,step,0.0,-0.04303981935418017,1.4746810448875687,-2.9156772352116476,-0.09571385617936903,-0.018500490071139894,0.0,0.0,0.023,0.0,0.0,0.0,0.0,-0.27405,-0.9213749999999999,0.5197499999999999,0.10159463999999999,-0.06517392,-0.00287532
1779590485961855888,step,0.0,-0.04303981935418017,1.4746810448875687,-2.9156772352116476,-0.09571385617936903,-0.018500490071139894,0.0,0.0,0.023,0.0,0.0,0.0,0.0,-0.27405,-0.9213749999999999,0.5197499999999999,0.10159463999999999,-0.06517392,-0.00287532
1779590485966991186,step,0.0,-0.04303981935418017,1.4746810448875687,-2.9156772352116476,-0.09571385617936903,-0.018500490071139894,0.0,0.0,0.023,0.0,0.0,0.0,0.0,-0.203175,-0.9213749999999999,0.5008499999999999,0.10926216,-0.06517392,-0.00287532
1779590485966991186,step,0.0,-0.04303981935418017,1.4746810448875687,-2.9156772352116476,-0.09571385617936903,-0.018500490071139894,0.0,0.0,0.023,0.0,0.0,0.0,0.0,-0.203175,-0.9213749999999999,0.5008499999999999,0.10926216,-0.06517392,-0.00287532
1779590485971857309,step,0.0,-0.04303981935418017,1.4746810448875687,-2.9156772352116476,-0.09571385617936903,-0.018500490071139894,0.0,0.0,-0.016,0.0,0.0,0.0,0.0,-0.203175,-0.53865,0.5008499999999999,0.10638684,-0.059423279999999995,-0.00383376
1779590485971857309,step,0.0,-0.04303981935418017,1.4746810448875687,-2.9156772352116476,-0.09571385617936903,-0.018500490071139894,0.0,0.0,-0.016,0.0,0.0,0.0,0.0,-0.203175,-0.53865,0.5008499999999999,0.10638684,-0.059423279999999995,-0.00383376
1779590485976857423,step,0.0,-0.04303981935418017,1.4746810448875687,-2.9156772352116476,-0.09571385617936903,-0.018500490071139894,0.0,0.0,0.01,0.0,0.0,0.0,0.0,4.9990499999999995,-0.82215,0.5008499999999999,0.10446996,-0.05079731999999999,-0.01629348
1779590485976857423,step,0.0,-0.04303981935418017,1.4746810448875687,-2.9156772352116476,-0.09571385617936903,-0.018500490071139894,0.0,0.0,0.01,0.0,0.0,0.0,0.0,4.9990499999999995,-0.82215,0.5008499999999999,0.10446996,-0.05079731999999999,-0.01629348
1779590485981856822,step,0.0,-0.03536037064540512,1.4746810448875687,-2.9156772352116476,-0.09571385617936903,-0.018500490071139894,0.0,1.522,0.01,0.0,0.0,0.0,0.0,1.63485,-0.82215,0.5103,0.10446996,-0.06804924000000001,-0.01629348
1779590485981856822,step,0.0,-0.03536037064540512,1.4746810448875687,-2.9156772352116476,-0.09571385617936903,-0.018500490071139894,0.0,1.522,0.01,0.0,0.0,0.0,0.0,1.63485,-0.82215,0.5103,0.10446996,-0.06804924000000001,-0.01629348
1779590485986859560,step,0.0,-0.03536037064540512,1.4746810448875687,-2.9156772352116476,-0.09571385617936903,-0.018500490071139894,0.0,1.522,-0.002,0.0,-0.429,0.0,-0.17200000000000001,1.63485,-0.65205,0.44415,0.42746424,-0.06804924000000001,0.04025448
1779590485986859560,step,0.0,-0.03536037064540512,1.4746810448875687,-2.9156772352116476,-0.09571385617936903,-0.018500490071139894,0.0,1.522,-0.002,0.0,-0.429,0.0,-0.17200000000000001,1.63485,-0.65205,0.44415,0.42746424,-0.06804924000000001,0.04025448
1779590485991868257,step,0.0,-0.02504547476611863,1.4746810448875687,-2.9156772352116476,-0.09375908741713539,-0.018500490071139894,0.0,1.426,-0.035,0.0,0.393,0.0,0.21,0.31185,-0.647325,0.44415,-0.06804924000000001,-0.05367264,0.04025448
1779590485991868257,step,0.0,-0.02504547476611863,1.4746810448875687,-2.9156772352116476,-0.09375908741713539,-0.018500490071139894,0.0,1.426,-0.035,0.0,0.393,0.0,0.21,0.31185,-0.647325,0.44415,-0.06804924000000001,-0.05367264,0.04025448
1779590485996859312,step,0.0,-0.016126842288427607,1.4746810448875687,-2.9156772352116476,-0.09375908741713539,-0.018500490071139894,0.0,1.229,0.028,0.0,0.393,0.0,0.023,0.2646,-0.864675,0.5008499999999999,-0.06804924000000001,-0.05846484,-0.10926216
1779590485996859312,step,0.0,-0.016126842288427607,1.4746810448875687,-2.9156772352116476,-0.09375908741713539,-0.018500490071139894,0.0,1.229,0.028,0.0,0.393,0.0,0.023,0.2646,-0.864675,0.5008499999999999,-0.06804924000000001,-0.05846484,-0.10926216
1779590486001858234,step,0.0,-0.008429940287132611,1.4746810448875687,-2.9156772352116476,-0.0936020077844559,-0.018500490071139894,0.0,1.095,0.028,0.0,0.024,0.0,0.023,0.11339999999999999,-0.864675,0.533925,-0.08721804,-0.05846484,-0.10926216
1779590486001858234,step,0.0,-0.008429940287132611,1.4746810448875687,-2.9156772352116476,-0.0936020077844559,-0.018500490071139894,0.0,1.095,0.028,0.0,0.024,0.0,0.023,0.11339999999999999,-0.864675,0.533925,-0.08721804,-0.05846484,-0.10926216
1779590486006862640,step,0.0,-0.008429940287132611,1.4746810448875687,-2.9156772352116476,-0.0936020077844559,-0.018500490071139894,0.0,1.095,-0.02,0.0,0.0,0.0,0.0,0.11339999999999999,-0.467775,0.515025,-0.014376599999999998,-0.06038172,-0.06421548
1779590486006862640,step,0.0,-0.008429940287132611,1.4746810448875687,-2.9156772352116476,-0.0936020077844559,-0.018500490071139894,0.0,1.095,-0.02,0.0,0.0,0.0,0.0,0.11339999999999999,-0.467775,0.515025,-0.014376599999999998,-0.06038172,-0.06421548
1779590486011856079,step,0.0,-0.0017278759594743863,1.4746810448875687,-2.9156772352116476,-0.0936020077844559,-0.018500490071139894,0.0,0.902,0.003,0.0,0.0,0.0,-0.147,0.467775,-0.7087499999999999,0.515025,0.029711639999999997,-0.05654796,-0.01150128
1779590486011856079,step,0.0,-0.0017278759594743863,1.4746810448875687,-2.9156772352116476,-0.0936020077844559,-0.018500490071139894,0.0,0.902,0.003,0.0,0.0,0.0,-0.147,0.467775,-0.7087499999999999,0.515025,0.029711639999999997,-0.05654796,-0.01150128
1779590486016855955,step,0.0,0.004014257279586958,1.4746810448875687,-2.9156772352116476,-0.0936020077844559,-0.018500490071139894,0.0,0.801,0.003,0.0,0.0,0.0,-0.147,0.3969,-0.7087499999999999,0.5197499999999999,0.029711639999999997,-0.052714199999999996,-0.01150128
1779590486016855955,step,0.0,0.004014257279586958,1.4746810448875687,-2.9156772352116476,-0.0936020077844559,-0.018500490071139894,0.0,0.801,0.003,0.0,0.0,0.0,-0.147,0.3969,-0.7087499999999999,0.5197499999999999,0.029711639999999997,-0.052714199999999996,-0.01150128
1779590486021864414,step,0.0,0.004014257279586958,1.4746810448875687,-2.9156772352116476,-0.0936020077844559,-0.018500490071139894,0.0,0.801,-0.025,0.0,0.0,0.0,-0.003,0.3969,-0.46304999999999996,0.486675,0.043129799999999996,-0.052714199999999996,-0.01533504
1779590486021864414,step,0.0,0.004014257279586958,1.4746810448875687,-2.9156772352116476,-0.0936020077844559,-0.018500490071139894,0.0,0.801,-0.025,0.0,0.0,0.0,-0.003,0.3969,-0.46304999999999996,0.486675,0.043129799999999996,-0.052714199999999996,-0.01533504
1779590486026858091,step,0.0,0.008936085770210968,1.4746810448875687,-2.9156772352116476,-0.0936020077844559,-0.018500490071139894,0.0,0.687,0.004,0.0,0.0,0.0,0.0,0.36855,-0.807975,0.486675,0.04408824,-0.06134016,0.02012724
1779590486026858091,step,0.0,0.008936085770210968,1.4746810448875687,-2.9156772352116476,-0.0936020077844559,-0.018500490071139894,0.0,0.687,0.004,0.0,0.0,0.0,0.0,0.36855,-0.807975,0.486675,0.04408824,-0.06134016,0.02012724
1779590486031858444,step,0.0,0.013473941825396225,1.4746810448875687,-2.9156772352116476,-0.0936020077844559,-0.018500490071139894,0.0,0.619,0.03,0.0,0.0,0.0,0.0,0.335475,-0.6426,0.4961249999999999,0.04408824,-0.02779476,0.01150128
1779590486031858444,step,0.0,0.013473941825396225,1.4746810448875687,-2.9156772352116476,-0.0936020077844559,-0.018500490071139894,0.0,0.619,0.03,0.0,0.0,0.0,0.0,0.335475,-0.6426,0.4961249999999999,0.04408824,-0.02779476,0.01150128
1779590486036858558,step,0.0,0.0170518667919846,1.4746810448875687,-2.9156772352116476,-0.0936020077844559,-0.018500490071139894,0.0,0.509,0.03,0.0,0.0,0.0,0.0,0.4205249999999999,-0.6426,0.505575,0.052714199999999996,-0.02779476,0.01150128
1779590486036858558,step,0.0,0.0170518667919846,1.4746810448875687,-2.9156772352116476,-0.0936020077844559,-0.018500490071139894,0.0,0.509,0.03,0.0,0.0,0.0,0.0,0.4205249999999999,-0.6426,0.505575,0.052714199999999996,-0.02779476,0.01150128
1779590486041861057,step,0.0,0.0170518667919846,1.4746810448875687,-2.9156772352116476,-0.0936020077844559,-0.018500490071139894,0.0,0.509,-0.02,0.0,0.019,0.0,0.0,0.4205249999999999,-0.48195,0.5481,0.059423279999999995,-0.0670908,0.00095844
1779590486041861057,step,0.0,0.0170518667919846,1.4746810448875687,-2.9156772352116476,-0.0936020077844559,-0.018500490071139894,0.0,0.509,-0.02,0.0,0.019,0.0,0.0,0.4205249999999999,-0.48195,0.5481,0.059423279999999995,-0.0670908,0.00095844
1779590486046869277,step,0.0,0.020402898955813712,1.4746810448875687,-2.9156772352116476,-0.0936020077844559,-0.018500490071139894,0.0,0.509,-0.02,0.0,0.019,0.0,0.0,0.4205249999999999,-0.48195,0.5481,0.059423279999999995,-0.0670908,0.00095844
1779590486046869277,step,0.0,0.020402898955813712,1.4746810448875687,-2.9156772352116476,-0.0936020077844559,-0.018500490071139894,0.0,0.509,-0.02,0.0,0.019,0.0,0.0,0.4205249999999999,-0.48195,0.5481,0.059423279999999995,-0.0670908,0.00095844
1779590486051892042,step,0.0,0.023335052099164186,1.4746810448875687,-2.9156772352116476,-0.0936020077844559,-0.018500490071139894,0.0,0.46900000000000003,0.012,0.0,0.001,0.0,0.0,0.146475,-0.80325,0.5481,0.043129799999999996,-0.06517392,-0.00862596
1779590486051892042,step,0.0,0.023335052099164186,1.4746810448875687,-2.9156772352116476,-0.0936020077844559,-0.018500490071139894,0.0,0.46900000000000003,0.012,0.0,0.001,0.0,0.0,0.146475,-0.80325,0.5481,0.043129799999999996,-0.06517392,-0.00862596
1779590486056863069,step,0.0,0.023335052099164186,1.4746810448875687,-2.9156772352116476,-0.0936020077844559,-0.018500490071139894,0.0,0.421,-0.002,0.0,0.0,0.0,0.0,0.004725,-0.647325,0.515025,0.05367264,-0.05846484,-0.00862596
1779590486056863069,step,0.0,0.023335052099164186,1.4746810448875687,-2.9156772352116476,-0.0936020077844559,-0.018500490071139894,0.0,0.421,-0.002,0.0,0.0,0.0,0.0,0.004725,-0.647325,0.515025,0.05367264,-0.05846484,-0.00862596
1779590486061865806,step,0.0,0.025603980126756815,1.4746810448875687,-2.9156772352116476,-0.0936020077844559,-0.018500490071139894,0.0,0.292,-0.027,0.0,0.0,0.0,0.023,0.7938,-0.533925,0.515025,0.052714199999999996,-0.05846484,-0.048880440000000004
1779590486061865806,step,0.0,0.025603980126756815,1.4746810448875687,-2.9156772352116476,-0.0936020077844559,-0.018500490071139894,0.0,0.292,-0.027,0.0,0.0,0.0,0.023,0.7938,-0.533925,0.515025,0.052714199999999996,-0.05846484,-0.048880440000000004
1779590486066866636,step,0.0,0.027820548276789616,1.4746810448875687,-2.9156772352116476,-0.0936020077844559,-0.018500490071139894,0.0,0.292,0.025,0.0,0.0,0.0,-0.034,0.35437499999999994,-0.9260999999999999,0.4961249999999999,0.052714199999999996,-0.05367264,0.00191688
1779590486066866636,step,0.0,0.027820548276789616,1.4746810448875687,-2.9156772352116476,-0.0936020077844559,-0.018500490071139894,0.0,0.292,0.025,0.0,0.0,0.0,-0.034,0.35437499999999994,-0.9260999999999999,0.4961249999999999,0.052714199999999996,-0.05367264,0.00191688
1779590486071871757,step,0.0,0.02982767691658309,1.4746810448875687,-2.9156772352116476,-0.0936020077844559,-0.018500490071139894,0.0,0.289,0.025,0.0,0.0,0.0,-0.034,0.19372499999999998,-0.9260999999999999,0.505575,0.05558952,-0.05367264,0.00191688
1779590486071871757,step,0.0,0.02982767691658309,1.4746810448875687,-2.9156772352116476,-0.0936020077844559,-0.018500490071139894,0.0,0.289,0.025,0.0,0.0,0.0,-0.034,0.19372499999999998,-0.9260999999999999,0.505575,0.05558952,-0.05367264,0.00191688
1779590486076872110,step,0.0,0.02982767691658309,1.4746810448875687,-2.9156772352116476,-0.0936020077844559,-0.018500490071139894,0.0,0.289,-0.006,0.0,0.0,0.0,0.0,0.19372499999999998,-0.647325,0.515025,0.05846484,-0.06421548,0.01150128
1779590486076872110,step,0.0,0.02982767691658309,1.4746810448875687,-2.9156772352116476,-0.0936020077844559,-0.018500490071139894,0.0,0.289,-0.006,0.0,0.0,0.0,0.0,0.19372499999999998,-0.647325,0.515025,0.05846484,-0.06421548,0.01150128
1779590486081867933,step,0.0,0.02998475654926258,1.4746810448875687,-2.9156772352116476,-0.0936020077844559,-0.018500490071139894,0.0,0.23,0.002,0.0,0.0,0.0,0.0,0.20789999999999997,-0.6804,0.515025,0.06421548,-0.04983888,-0.00575064
1779590486081867933,step,0.0,0.02998475654926258,1.4746810448875687,-2.9156772352116476,-0.0936020077844559,-0.018500490071139894,0.0,0.23,0.002,0.0,0.0,0.0,0.0,0.20789999999999997,-0.6804,0.515025,0.06421548,-0.04983888,-0.00575064
1779590486086873054,step,0.0,0.03270747018237374,1.4746810448875687,-2.9156772352116476,-0.0936020077844559,-0.018500490071139894,0.0,0.171,0.002,0.0,0.0,0.0,0.0,0.458325,-0.6804,0.4961249999999999,0.06421548,-0.05175576,-0.00862596
1779590486086873054,step,0.0,0.03270747018237374,1.4746810448875687,-2.9156772352116476,-0.0936020077844559,-0.018500490071139894,0.0,0.171,0.002,0.0,0.0,0.0,0.0,0.458325,-0.6804,0.4961249999999999,0.06421548,-0.05175576,-0.00862596
1779590486091875314,step,0.0,0.03270747018237374,1.4746810448875687,-2.9156772352116476,-0.0936020077844559,-0.018500490071139894,0.0,0.171,0.03,0.0,0.0,0.0,0.0,0.458325,-0.8835749999999999,0.5103,0.05558952,-0.05175576,-0.00862596
1779590486091875314,step,0.0,0.03270747018237374,1.4746810448875687,-2.9156772352116476,-0.0936020077844559,-0.018500490071139894,0.0,0.171,0.03,0.0,0.0,0.0,0.0,0.458325,-0.8835749999999999,0.5103,0.05558952,-0.05175576,-0.00862596
1779590486096874713,step,0.0,0.032951816277652944,1.4746810448875687,-2.9156772352116476,-0.0936020077844559,-0.018500490071139894,0.0,0.167,-0.029,0.0,0.0,0.0,0.0,0.14175,-0.7276499999999999,0.5103,0.05750639999999999,-0.05079731999999999,-0.0047922
1779590486096874713,step,0.0,0.032951816277652944,1.4746810448875687,-2.9156772352116476,-0.0936020077844559,-0.018500490071139894,0.0,0.167,-0.029,0.0,0.0,0.0,0.0,0.14175,-0.7276499999999999,0.5103,0.05750639999999999,-0.05079731999999999,-0.0047922
1779590486101874113,step,0.0,0.035238197597765517,1.4746810448875687,-2.9156772352116476,-0.0936020077844559,-0.018500490071139894,0.0,0.134,0.014,0.0,0.0,0.0,0.0,0.5103,-0.8552249999999999,0.505575,0.05750639999999999,-0.05175576,-0.0047922
1779590486101874113,step,0.0,0.035238197597765517,1.4746810448875687,-2.9156772352116476,-0.0936020077844559,-0.018500490071139894,0.0,0.134,0.014,0.0,0.0,0.0,0.0,0.5103,-0.8552249999999999,0.505575,0.05750639999999999,-0.05175576,-0.0047922
1779590486106873989,step,0.0,0.03497639820996636,1.4746810448875687,-2.9156772352116476,-0.0936020077844559,-0.018500490071139894,0.0,0.054,0.014,0.0,0.0,0.0,0.0,1.119825,-0.8552249999999999,0.5197499999999999,0.05558952,-0.05175576,-0.0047922
1779590486106873989,step,0.0,0.03497639820996636,1.4746810448875687,-2.9156772352116476,-0.0936020077844559,-0.018500490071139894,0.0,0.054,0.014,0.0,0.0,0.0,0.0,1.119825,-0.8552249999999999,0.5197499999999999,0.05558952,-0.05175576,-0.0047922
1779590486111876964,step,0.0,0.03497639820996636,1.4746810448875687,-2.9156772352116476,-0.0936020077844559,-0.018500490071139894,0.0,0.054,-0.003,0.0,0.07,0.0,0.0,1.119825,-0.6662250000000001,0.533925,0.03258696,-0.05558952,-0.00095844
1779590486111876964,step,0.0,0.03497639820996636,1.4746810448875687,-2.9156772352116476,-0.0936020077844559,-0.018500490071139894,0.0,0.054,-0.003,0.0,0.07,0.0,0.0,1.119825,-0.6662250000000001,0.533925,0.03258696,-0.05558952,-0.00095844
1779590486111876964,step,0.0,0.03497639820996636,1.4746810448875687,-2.9156772352116476,-0.0936020077844559,-0.018500490071139894,0.0,0.054,-0.003,0.0,0.07,0.0,0.0,1.119825,-0.6662250000000001,0.533925,0.03258696,-0.05558952,-0.00095844
1779590486111876964,step,0.0,0.03497639820996636,1.4746810448875687,-2.9156772352116476,-0.0936020077844559,-0.018500490071139894,0.0,0.054,-0.003,0.0,0.07,0.0,0.0,1.119825,-0.6662250000000001,0.533925,0.03258696,-0.05558952,-0.00095844
1779590486111876964,step,0.0,0.03497639820996636,1.4746810448875687,-2.9156772352116476,-0.0936020077844559,-0.018500490071139894,0.0,0.054,-0.003,0.0,0.07,0.0,0.0,1.119825,-0.6662250000000001,0.533925,0.03258696,-0.05558952,-0.00095844
1779590486111876964,step,0.0,0.03497639820996636,1.4746810448875687,-2.9156772352116476,-0.0936020077844559,-0.018500490071139894,0.0,0.054,-0.003,0.0,0.07,0.0,0.0,1.119825,-0.6662250000000001,0.533925,0.03258696,-0.05558952,-0.00095844
1779590486116903781,step,0.0,0.03497639820996636,1.4746810448875687,-2.9156772352116476,-0.0936020077844559,-0.018500490071139894,0.0,0.129,-0.034,0.0,0.07,0.0,0.0,0.42997499999999994,-0.741825,0.533925,0.03258696,-0.05558952,-0.00095844
1779590486116903781,step,0.0,0.03497639820996636,1.4746810448875687,-2.9156772352116476,-0.0936020077844559,-0.018500490071139894,0.0,0.129,-0.034,0.0,0.07,0.0,0.0,0.42997499999999994,-0.741825,0.533925,0.03258696,-0.05558952,-0.00095844
1779590486116903781,step,0.0,0.03497639820996636,1.4746810448875687,-2.9156772352116476,-0.0936020077844559,-0.018500490071139894,0.0,0.129,-0.034,0.0,0.001,0.0,0.0,0.42997499999999994,-0.741825,0.533925,0.0383376,-0.052714199999999996,-0.0047922
1779590486116903781,step,0.0,0.03497639820996636,1.4746810448875687,-2.9156772352116476,-0.0936020077844559,-0.018500490071139894,0.0,0.129,-0.034,0.0,0.001,0.0,0.0,0.42997499999999994,-0.741825,0.533925,0.0383376,-0.052714199999999996,-0.0047922
1779590486126873731,step,0.0,0.037035886727319674,1.4746810448875687,-2.9156772352116476,-0.0936020077844559,-0.018500490071139894,0.0,0.106,-0.034,0.0,0.001,0.0,0.0,0.2835,-0.741825,0.4914,0.0383376,-0.06038172,0.00575064
1779590486126873731,step,0.0,0.037035886727319674,1.4746810448875687,-2.9156772352116476,-0.0936020077844559,-0.018500490071139894,0.0,0.106,-0.034,0.0,0.001,0.0,0.0,0.2835,-0.741825,0.4914,0.0383376,-0.06038172,0.00575064
1779590486131896495,step,0.0,0.03712315318991939,1.4746810448875687,-2.9156772352116476,-0.0936020077844559,-0.018500490071139894,0.0,0.159,0.0,0.0,0.0,0.0,0.0,-0.061425,-0.864675,0.505575,0.03737916,-0.05367264,-0.00670908
1779590486131896495,step,0.0,0.03712315318991939,1.4746810448875687,-2.9156772352116476,-0.0936020077844559,-0.018500490071139894,0.0,0.159,0.0,0.0,0.0,0.0,0.0,-0.061425,-0.864675,0.505575,0.03737916,-0.05367264,-0.00670908
1779590486141879796,step,0.0,0.03712315318991939,1.4746810448875687,-2.9156772352116476,-0.0936020077844559,-0.018500490071139894,0.0,0.034,0.029,0.0,0.0,0.0,0.0,0.647325,-0.9024749999999999,0.505575,0.04504668,-0.06325704,-0.014376599999999998
1779590486141879796,step,0.0,0.03712315318991939,1.4746810448875687,-2.9156772352116476,-0.0936020077844559,-0.018500490071139894,0.0,0.034,0.029,0.0,0.0,0.0,0.0,0.647325,-0.9024749999999999,0.505575,0.04504668,-0.06325704,-0.014376599999999998
1779590486151882171,step,0.0,0.039095375244672985,1.4746810448875687,-2.9156772352116476,-0.0936020077844559,-0.018500490071139894,0.0,0.07200000000000001,0.019,0.0,0.0,0.0,0.0,0.165375,-0.8835749999999999,0.5008499999999999,0.04983888,-0.05463108,-0.00575064
1779590486151882171,step,0.0,0.039095375244672985,1.4746810448875687,-2.9156772352116476,-0.0936020077844559,-0.018500490071139894,0.0,0.07200000000000001,0.019,0.0,0.0,0.0,0.0,0.165375,-0.8835749999999999,0.5008499999999999,0.04983888,-0.05463108,-0.00575064
1779590486156882524,step,0.0,0.039269908169872414,1.4746810448875687,-2.9156772352116476,-0.0936020077844559,-0.018500490071139894,0.0,0.113,0.019,0.0,0.0,0.0,0.0,-0.137025,-0.8835749999999999,0.5008499999999999,0.04983888,-0.05463108,-0.01054284
1779590486156882524,step,0.0,0.039269908169872414,1.4746810448875687,-2.9156772352116476,-0.0936020077844559,-0.018500490071139894,0.0,0.113,0.019,0.0,0.0,0.0,0.0,-0.137025,-0.8835749999999999,0.5008499999999999,0.04983888,-0.05463108,-0.01054284
1779590486161882877,step,0.0,0.039269908169872414,1.4746810448875687,-2.9156772352116476,-0.0936020077844559,-0.018500490071139894,0.0,0.113,-0.004,0.0,0.0,0.0,0.0,-0.137025,-0.656775,0.5244749999999999,0.047922,-0.05463108,-0.01054284
1779590486161882877,step,0.0,0.039269908169872414,1.4746810448875687,-2.9156772352116476,-0.0936020077844559,-0.018500490071139894,0.0,0.113,-0.004,0.0,0.0,0.0,0.0,-0.137025,-0.656775,0.5244749999999999,0.047922,-0.05463108,-0.01054284
1779590486166880607,step,0.0,0.039269908169872414,1.4746810448875687,-2.9156772352116476,-0.0936020077844559,-0.018500490071139894,0.0,0.014,-0.011,0.0,0.0,0.0,0.0,0.23625,-0.76545,0.5244749999999999,0.048880440000000004,-0.05654796,-0.00383376
1779590486166880607,step,0.0,0.039269908169872414,1.4746810448875687,-2.9156772352116476,-0.0936020077844559,-0.018500490071139894,0.0,0.014,-0.011,0.0,0.0,0.0,0.0,0.23625,-0.76545,0.5244749999999999,0.048880440000000004,-0.05654796,-0.00383376
1779590486171882629,step,0.0,0.039269908169872414,1.4746810448875687,-2.9156772352116476,-0.0936020077844559,-0.018500490071139894,0.0,0.054,0.02,0.0,0.0,0.0,0.0,0.2835,-0.7512749999999999,0.4914,0.048880440000000004,-0.06325704,-0.0095844
1779590486171882629,step,0.0,0.039269908169872414,1.4746810448875687,-2.9156772352116476,-0.0936020077844559,-0.018500490071139894,0.0,0.054,0.02,0.0,0.0,0.0,0.0,0.2835,-0.7512749999999999,0.4914,0.048880440000000004,-0.06325704,-0.0095844
1779590486176881551,step,0.0,0.039269908169872414,1.4746810448875687,-2.9156772352116476,-0.0936020077844559,-0.018500490071139894,0.0,0.023,0.02,0.0,0.0,0.0,0.0,0.17955,-0.7512749999999999,0.5103,0.04408824,-0.06325704,-0.0095844
1779590486176881551,step,0.0,0.039269908169872414,1.4746810448875687,-2.9156772352116476,-0.0936020077844559,-0.018500490071139894,0.0,0.023,0.02,0.0,0.0,0.0,0.0,0.17955,-0.7512749999999999,0.5103,0.04408824,-0.06325704,-0.0095844
1779590486181977033,step,0.0,0.039269908169872414,1.4746810448875687,-2.9156772352116476,-0.0936020077844559,-0.018500490071139894,0.0,0.023,0.02,0.0,0.0,0.0,0.0,0.17955,-0.7512749999999999,0.5103,0.04408824,-0.06325704,-0.0095844
1779590486181977033,step,0.0,0.039269908169872414,1.4746810448875687,-2.9156772352116476,-0.0936020077844559,-0.018500490071139894,0.0,0.023,0.02,0.0,0.0,0.0,0.0,0.17955,-0.7512749999999999,0.5103,0.04408824,-0.06325704,-0.0095844
1779590486186886310,step,0.0,0.04105014400690663,1.4746810448875687,-2.9156772352116476,-0.0936020077844559,-0.018500490071139894,0.0,0.07,0.02,0.0,0.0,0.0,0.0,0.089775,-0.9213749999999999,0.5008499999999999,0.05654796,-0.059423279999999995,-0.00766752
1779590486186886310,step,0.0,0.04105014400690663,1.4746810448875687,-2.9156772352116476,-0.0936020077844559,-0.018500490071139894,0.0,0.07,0.02,0.0,0.0,0.0,0.0,0.089775,-0.9213749999999999,0.5008499999999999,0.05654796,-0.059423279999999995,-0.00766752
1779590486191887140,step,0.0,0.04084070449666731,1.4746810448875687,-2.9156772352116476,-0.0936020077844559,-0.018500490071139894,0.0,0.004,0.02,0.0,0.0,0.0,0.0,0.23152499999999998,-0.9213749999999999,0.5103,0.04983888,-0.059423279999999995,-0.01245972
1779590486191887140,step,0.0,0.04084070449666731,1.4746810448875687,-2.9156772352116476,-0.0936020077844559,-0.018500490071139894,0.0,0.004,0.02,0.0,0.0,0.0,0.0,0.23152499999999998,-0.9213749999999999,0.5103,0.04983888,-0.059423279999999995,-0.01245972
1779590486196886062,step,0.0,0.04084070449666731,1.4746810448875687,-2.9156772352116476,-0.0936020077844559,-0.018500490071139894,0.0,0.004,-0.005,0.0,0.0,0.0,0.0,0.23152499999999998,-0.609525,0.4725,0.04504668,-0.059423279999999995,-0.01245972
1779590486196886062,step,0.0,0.04084070449666731,1.4746810448875687,-2.9156772352116476,-0.0936020077844559,-0.018500490071139894,0.0,0.004,-0.005,0.0,0.0,0.0,0.0,0.23152499999999998,-0.609525,0.4725,0.04504668,-0.059423279999999995,-0.01245972
1779590486201888322,step,0.0,0.04084070449666731,1.4746810448875687,-2.9156772352116476,-0.0936020077844559,-0.018500490071139894,0.0,0.0,0.002,0.0,0.0,0.0,0.0,0.37327499999999997,-0.7323749999999999,0.4725,0.04600512,-0.04504668,-0.00287532
1779590486201888322,step,0.0,0.04084070449666731,1.4746810448875687,-2.9156772352116476,-0.0936020077844559,-0.018500490071139894,0.0,0.0,0.002,0.0,0.0,0.0,0.0,0.37327499999999997,-0.7323749999999999,0.4725,0.04600512,-0.04504668,-0.00287532
1779590486206887960,step,0.0,0.04084070449666731,1.4746810448875687,-2.9156772352116476,-0.0936020077844559,-0.018500490071139894,0.0,0.014,0.037,0.0,0.0,0.0,0.0,0.3591,-0.7701749999999999,0.5244749999999999,0.04600512,-0.05750639999999999,-0.01054284
1779590486206887960,step,0.0,0.04084070449666731,1.4746810448875687,-2.9156772352116476,-0.0936020077844559,-0.018500490071139894,0.0,0.014,0.037,0.0,0.0,0.0,0.0,0.3591,-0.7701749999999999,0.5244749999999999,0.04600512,-0.05750639999999999,-0.01054284
1779590486211889505,step,0.0,0.04084070449666731,1.4746810448875687,-2.9156772352116476,-0.0936020077844559,-0.018500490071139894,0.0,0.0,0.037,0.0,0.0,0.0,0.0,0.5481,-0.7701749999999999,0.4961249999999999,0.04600512,-0.05750639999999999,-0.01054284
1779590486211889505,step,0.0,0.04084070449666731,1.4746810448875687,-2.9156772352116476,-0.0936020077844559,-0.018500490071139894,0.0,0.0,0.037,0.0,0.0,0.0,0.0,0.5481,-0.7701749999999999,0.4961249999999999,0.04600512,-0.05750639999999999,-0.01054284
1779590486216887950,step,0.0,0.04084070449666731,1.4746810448875687,-2.9156772352116476,-0.0936020077844559,-0.018500490071139894,0.0,0.0,-0.017,0.0,0.0,0.0,0.0,0.5481,-0.53865,0.486675,0.04696356,-0.06421548,-0.0047922
1779590486216887950,step,0.0,0.04084070449666731,1.4746810448875687,-2.9156772352116476,-0.0936020077844559,-0.018500490071139894,0.0,0.0,-0.017,0.0,0.0,0.0,0.0,0.5481,-0.53865,0.486675,0.04696356,-0.06421548,-0.0047922
1779590486221889257,step,0.0,0.04084070449666731,1.4746810448875687,-2.9156772352116476,-0.0936020077844559,-0.018500490071139894,0.0,0.005,0.009000000000000001,0.0,0.0,0.0,0.0,0.5008499999999999,-0.760725,0.486675,0.047922,-0.05367264,-0.0047922
1779590486221889257,step,0.0,0.04084070449666731,1.4746810448875687,-2.9156772352116476,-0.0936020077844559,-0.018500490071139894,0.0,0.005,0.009000000000000001,0.0,0.0,0.0,0.0,0.5008499999999999,-0.760725,0.486675,0.047922,-0.05367264,-0.0047922
1779590486226889848,step,0.0,0.04084070449666731,1.4746810448875687,-2.9156772352116476,-0.0936020077844559,-0.018500490071139894,0.0,0.0,0.009000000000000001,0.0,0.0,0.0,0.0,0.4961249999999999,-0.760725,0.515025,0.047922,-0.059423279999999995,-0.00766752
1779590486226889848,step,0.0,0.04084070449666731,1.4746810448875687,-2.9156772352116476,-0.0936020077844559,-0.018500490071139894,0.0,0.0,0.009000000000000001,0.0,0.0,0.0,0.0,0.4961249999999999,-0.760725,0.515025,0.047922,-0.059423279999999995,-0.00766752
1779590486231893539,step,0.0,0.04084070449666731,1.4746810448875687,-2.9156772352116476,-0.0936020077844559,-0.018500490071139894,0.0,0.0,0.017,0.0,0.0,0.0,0.0,0.4961249999999999,-0.647325,0.505575,0.048880440000000004,-0.059423279999999995,-0.00766752
1779590486231893539,step,0.0,0.04084070449666731,1.4746810448875687,-2.9156772352116476,-0.0936020077844559,-0.018500490071139894,0.0,0.0,0.017,0.0,0.0,0.0,0.0,0.4961249999999999,-0.647325,0.505575,0.048880440000000004,-0.059423279999999995,-0.00766752
1779590486236894130,step,0.0,0.04084070449666731,1.4746810448875687,-2.9156772352116476,-0.0936020077844559,-0.018500490071139894,0.0,0.0,-0.02,0.0,0.0,0.0,0.0,0.5197499999999999,-0.5008499999999999,0.505575,0.05558952,-0.05558952,-0.00766752
1779590486236894130,step,0.0,0.04084070449666731,1.4746810448875687,-2.9156772352116476,-0.0936020077844559,-0.018500490071139894,0.0,0.0,-0.02,0.0,0.0,0.0,0.0,0.5197499999999999,-0.5008499999999999,0.505575,0.05558952,-0.05558952,-0.00766752
1779590486241893053,step,0.0,0.04084070449666731,1.4746810448875687,-2.9156772352116476,-0.0936020077844559,-0.018500490071139894,0.0,0.0,0.027,0.0,0.0,0.0,0.0,0.55755,-0.8504999999999999,0.5197499999999999,0.05558952,-0.05750639999999999,-0.00670908
1779590486241893053,step,0.0,0.04084070449666731,1.4746810448875687,-2.9156772352116476,-0.0936020077844559,-0.018500490071139894,0.0,0.0,0.027,0.0,0.0,0.0,0.0,0.55755,-0.8504999999999999,0.5197499999999999,0.05558952,-0.05750639999999999,-0.00670908
1779590486246891021,step,0.0,0.04084070449666731,1.4746810448875687,-2.9156772352116476,-0.0936020077844559,-0.018500490071139894,0.0,0.0,0.027,0.0,0.0,0.0,0.0,0.5433749999999999,-0.8504999999999999,0.5197499999999999,0.05558952,-0.05750639999999999,-0.00670908
1779590486246891021,step,0.0,0.04084070449666731,1.4746810448875687,-2.9156772352116476,-0.0936020077844559,-0.018500490071139894,0.0,0.0,0.027,0.0,0.0,0.0,0.0,0.5433749999999999,-0.8504999999999999,0.5197499999999999,0.05558952,-0.05750639999999999,-0.00670908
1779590486251891374,step,0.0,0.04084070449666731,1.4746810448875687,-2.9156772352116476,-0.0936020077844559,-0.018500490071139894,0.0,0.0,-0.005,0.0,0.0,0.0,0.0,0.5433749999999999,-0.61425,0.515025,0.05175576,-0.05750639999999999,-0.00670908
1779590486251891374,step,0.0,0.04084070449666731,1.4746810448875687,-2.9156772352116476,-0.0936020077844559,-0.018500490071139894,0.0,0.0,-0.005,0.0,0.0,0.0,0.0,0.5433749999999999,-0.61425,0.515025,0.05175576,-0.05750639999999999,-0.00670908
1779590486256890058,step,0.0,0.04084070449666731,1.4746810448875687,-2.9156772352116476,-0.0936020077844559,-0.018500490071139894,0.0,0.0,-0.008,0.0,0.0,0.0,0.0,0.552825,-0.7276499999999999,0.515025,0.05367264,-0.05846484,-0.00575064
1779590486256890058,step,0.0,0.04084070449666731,1.4746810448875687,-2.9156772352116476,-0.0936020077844559,-0.018500490071139894,0.0,0.0,-0.008,0.0,0.0,0.0,0.0,0.552825,-0.7276499999999999,0.515025,0.05367264,-0.05846484,-0.00575064
1779590486261890172,step,0.0,0.04084070449666731,1.4746810448875687,-2.9156772352116476,-0.0936020077844559,-0.018500490071139894,0.0,0.0,-0.008,0.0,0.0,0.0,0.0,0.552825,-0.7276499999999999,0.515025,0.05367264,-0.05846484,0.00287532
1779590486261890172,step,0.0,0.04084070449666731,1.4746810448875687,-2.9156772352116476,-0.0936020077844559,-0.018500490071139894,0.0,0.0,-0.008,0.0,0.0,0.0,0.0,0.552825,-0.7276499999999999,0.515025,0.05367264,-0.05846484,0.00287532
1779590486266889572,step,0.0,0.04084070449666731,1.4746810448875687,-2.9156772352116476,-0.0936020077844559,-0.018500490071139894,0.0,0.0,-0.008,0.0,0.0,0.0,0.0,0.5433749999999999,-0.7276499999999999,0.5008499999999999,0.05367264,-0.05654796,0.00287532
1779590486266889572,step,0.0,0.04084070449666731,1.4746810448875687,-2.9156772352116476,-0.0936020077844559,-0.018500490071139894,0.0,0.0,-0.008,0.0,0.0,0.0,0.0,0.5433749999999999,-0.7276499999999999,0.5008499999999999,0.05367264,-0.05654796,0.00287532
1779590486271889925,step,0.0,0.04084070449666731,1.4746810448875687,-2.9156772352116476,-0.0936020077844559,-0.018500490071139894,0.0,0.0,-0.015,0.0,0.0,0.0,0.0,0.5244749999999999,-0.5292,0.515025,0.02204412,-0.05654796,0.00287532
1779590486271889925,step,0.0,0.04084070449666731,1.4746810448875687,-2.9156772352116476,-0.0936020077844559,-0.018500490071139894,0.0,0.0,-0.015,0.0,0.0,0.0,0.0,0.5244749999999999,-0.5292,0.515025,0.02204412,-0.05654796,0.00287532
1779590486276891708,step,0.0,0.04084070449666731,1.4746810448875687,-2.9156772352116476,-0.0936020077844559,-0.018500490071139894,0.0,0.0,0.006,0.0,0.0,0.0,0.0,0.5197499999999999,-0.7701749999999999,0.5008499999999999,0.02204412,-0.06038172,-0.00766752
1779590486276891708,step,0.0,0.04084070449666731,1.4746810448875687,-2.9156772352116476,-0.0936020077844559,-0.018500490071139894,0.0,0.0,0.006,0.0,0.0,0.0,0.0,0.5197499999999999,-0.7701749999999999,0.5008499999999999,0.02204412,-0.06038172,-0.00766752
1779590486281892061,step,0.0,0.04084070449666731,1.4746810448875687,-2.9156772352116476,-0.0936020077844559,-0.018500490071139894,0.0,0.0,0.006,0.0,0.0,0.0,0.0,0.55755,-0.7701749999999999,0.4961249999999999,0.07092456,-0.06038172,-0.00766752
1779590486281892061,step,0.0,0.04084070449666731,1.4746810448875687,-2.9156772352116476,-0.0936020077844559,-0.018500490071139894,0.0,0.0,0.006,0.0,0.0,0.0,0.0,0.55755,-0.7701749999999999,0.4961249999999999,0.07092456,-0.06038172,-0.00766752
1779590486286896944,step,0.0,0.04084070449666731,1.4746810448875687,-2.9156772352116476,-0.0936020077844559,-0.018500490071139894,0.0,0.0,-0.002,0.0,0.0,0.0,0.0,0.55755,-0.6426,0.53865,0.05079731999999999,-0.04121292,-0.0047922
1779590486286896944,step,0.0,0.04084070449666731,1.4746810448875687,-2.9156772352116476,-0.0936020077844559,-0.018500490071139894,0.0,0.0,-0.002,0.0,0.0,0.0,0.0,0.55755,-0.6426,0.53865,0.05079731999999999,-0.04121292,-0.0047922
1779590486291891098,step,0.0,0.04084070449666731,1.4746810448875687,-2.9156772352116476,-0.0936020077844559,-0.018500490071139894,0.0,0.0,-0.025,0.0,0.0,0.0,0.0,0.5244749999999999,-0.458325,0.53865,0.05367264,-0.04600512,-0.00383376
1779590486291891098,step,0.0,0.04084070449666731,1.4746810448875687,-2.9156772352116476,-0.0936020077844559,-0.018500490071139894,0.0,0.0,-0.025,0.0,0.0,0.0,0.0,0.5244749999999999,-0.458325,0.53865,0.05367264,-0.04600512,-0.00383376
1779590486296893119,step,0.0,0.04084070449666731,1.4746810448875687,-2.9156772352116476,-0.0936020077844559,-0.018500490071139894,0.0,0.0,-0.025,0.0,0.0,0.0,0.0,0.567,-0.458325,0.4914,0.05367264,-0.06134016,-0.0095844
1779590486296893119,step,0.0,0.04084070449666731,1.4746810448875687,-2.9156772352116476,-0.0936020077844559,-0.018500490071139894,0.0,0.0,-0.025,0.0,0.0,0.0,0.0,0.567,-0.458325,0.4914,0.05367264,-0.06134016,-0.0095844
1779590486301893472,step,0.0,0.04084070449666731,1.4746810448875687,-2.9156772352116476,-0.0936020077844559,-0.018500490071139894,0.0,0.0,0.008,0.0,0.0,0.0,0.0,0.567,-0.7465499999999999,0.4914,0.047922,-0.06134016,-0.0095844
1779590486301893472,step,0.0,0.04084070449666731,1.4746810448875687,-2.9156772352116476,-0.0936020077844559,-0.018500490071139894,0.0,0.0,0.008,0.0,0.0,0.0,0.0,0.567,-0.7465499999999999,0.4914,0.047922,-0.06134016,-0.0095844
1779590486306895017,step,0.0,0.04084070449666731,1.4746810448875687,-2.9156772352116476,-0.0936020077844559,-0.018500490071139894,0.0,0.0,-0.007,0.0,0.0,0.0,0.0,0.5244749999999999,-0.609525,0.4914,0.047922,-0.06900768,-0.00095844
1779590486306895017,step,0.0,0.04084070449666731,1.4746810448875687,-2.9156772352116476,-0.0936020077844559,-0.018500490071139894,0.0,0.0,-0.007,0.0,0.0,0.0,0.0,0.5244749999999999,-0.609525,0.4914,0.047922,-0.06900768,-0.00095844
1779590486311907052,step,0.0,0.04084070449666731,1.4746810448875687,-2.9156772352116476,-0.0936020077844559,-0.018500490071139894,0.0,0.0,0.002,0.0,0.0,0.0,0.0,0.5292,-0.7276499999999999,0.5008499999999999,0.047922,-0.06900768,-0.00095844
1779590486311907052,step,0.0,0.04084070449666731,1.4746810448875687,-2.9156772352116476,-0.0936020077844559,-0.018500490071139894,0.0,0.0,0.002,0.0,0.0,0.0,0.0,0.5292,-0.7276499999999999,0.5008499999999999,0.047922,-0.06900768,-0.00095844
1779590486311907052,step,0.0,0.04084070449666731,1.4746810448875687,-2.9156772352116476,-0.0936020077844559,-0.018500490071139894,0.0,0.0,0.002,0.0,0.0,0.0,0.0,0.5292,-0.7276499999999999,0.5008499999999999,0.047922,-0.059423279999999995,-0.00766752
1779590486311907052,step,0.0,0.04084070449666731,1.4746810448875687,-2.9156772352116476,-0.0936020077844559,-0.018500490071139894,0.0,0.0,0.002,0.0,0.0,0.0,0.0,0.5292,-0.7276499999999999,0.5008499999999999,0.047922,-0.059423279999999995,-0.00766752
1779590486321923732,step,0.0,0.04084070449666731,1.4746810448875687,-2.9156772352116476,-0.0936020077844559,-0.018500490071139894,0.0,0.0,0.023,0.0,0.0,0.0,0.0,0.552825,-0.91665,0.515025,0.04504668,-0.059423279999999995,-0.00766752
1779590486321923732,step,0.0,0.04084070449666731,1.4746810448875687,-2.9156772352116476,-0.0936020077844559,-0.018500490071139894,0.0,0.0,0.023,0.0,0.0,0.0,0.0,0.552825,-0.91665,0.515025,0.04504668,-0.059423279999999995,-0.00766752
1779590486326901674,step,0.0,0.04084070449666731,1.4746810448875687,-2.9156772352116476,-0.0936020077844559,-0.018500490071139894,0.0,0.0,-0.015,0.0,0.0,0.0,0.0,0.562275,-0.5859,0.48195,0.04983888,-0.0670908,-0.0047922
1779590486326901674,step,0.0,0.04084070449666731,1.4746810448875687,-2.9156772352116476,-0.0936020077844559,-0.018500490071139894,0.0,0.0,-0.015,0.0,0.0,0.0,0.0,0.562275,-0.5859,0.48195,0.04983888,-0.0670908,-0.0047922
1779590486331902503,step,0.0,0.04084070449666731,1.4746810448875687,-2.9156772352116476,-0.0936020077844559,-0.018500490071139894,0.0,0.0,-0.015,0.0,0.0,0.0,0.0,0.562275,-0.5859,0.5197499999999999,0.048880440000000004,-0.05558952,-0.00862596
1779590486331902503,step,0.0,0.04084070449666731,1.4746810448875687,-2.9156772352116476,-0.0936020077844559,-0.018500490071139894,0.0,0.0,-0.015,0.0,0.0,0.0,0.0,0.562275,-0.5859,0.5197499999999999,0.048880440000000004,-0.05558952,-0.00862596
1779590486336903572,step,0.0,0.04084070449666731,1.4746810448875687,-2.9156772352116476,-0.0936020077844559,-0.018500490071139894,0.0,0.0,0.004,0.0,0.0,0.0,0.0,0.562275,-0.6898499999999999,0.4914,0.04600512,-0.05558952,-0.01150128
1779590486336903572,step,0.0,0.04084070449666731,1.4746810448875687,-2.9156772352116476,-0.0936020077844559,-0.018500490071139894,0.0,0.0,0.004,0.0,0.0,0.0,0.0,0.562275,-0.6898499999999999,0.4914,0.04600512,-0.05558952,-0.01150128
1779590486341903686,step,0.0,0.04084070449666731,1.4746810448875687,-2.9156772352116476,-0.0936020077844559,-0.018500490071139894,0.0,0.0,-0.002,0.0,0.0,0.0,0.0,0.533925,-0.656775,0.4914,0.05558952,-0.05750639999999999,-0.0047922
1779590486341903686,step,0.0,0.04084070449666731,1.4746810448875687,-2.9156772352116476,-0.0936020077844559,-0.018500490071139894,0.0,0.0,-0.002,0.0,0.0,0.0,0.0,0.533925,-0.656775,0.4914,0.05558952,-0.05750639999999999,-0.0047922
1779590486346900463,step,0.0,0.04084070449666731,1.4746810448875687,-2.9156772352116476,-0.0936020077844559,-0.018500490071139894,0.0,0.0,-0.014,0.0,0.0,0.0,0.0,0.53865,-0.7748999999999999,0.5008499999999999,0.05558952,-0.05367264,-0.00575064
1779590486346900463,step,0.0,0.04084070449666731,1.4746810448875687,-2.9156772352116476,-0.0936020077844559,-0.018500490071139894,0.0,0.0,-0.014,0.0,0.0,0.0,0.0,0.53865,-0.7748999999999999,0.5008499999999999,0.05558952,-0.05367264,-0.00575064
1779590486351908683,step,0.0,0.04084070449666731,1.4746810448875687,-2.9156772352116476,-0.0936020077844559,-0.018500490071139894,0.0,0.0,-0.014,0.0,0.0,0.0,0.0,0.5197499999999999,-0.7748999999999999,0.5244749999999999,0.052714199999999996,-0.05367264,-0.00575064
1779590486351908683,step,0.0,0.04084070449666731,1.4746810448875687,-2.9156772352116476,-0.0936020077844559,-0.018500490071139894,0.0,0.0,-0.014,0.0,0.0,0.0,0.0,0.5197499999999999,-0.7748999999999999,0.5244749999999999,0.052714199999999996,-0.05367264,-0.00575064
1779590486356909751,step,0.0,0.04084070449666731,1.4746810448875687,-2.9156772352116476,-0.0936020077844559,-0.018500490071139894,0.0,0.0,0.033,0.0,0.0,0.0,0.0,0.5197499999999999,-0.9639,0.5103,0.04217136,-0.052714199999999996,-0.01245972
1779590486356909751,step,0.0,0.04084070449666731,1.4746810448875687,-2.9156772352116476,-0.0936020077844559,-0.018500490071139894,0.0,0.0,0.033,0.0,0.0,0.0,0.0,0.5197499999999999,-0.9639,0.5103,0.04217136,-0.052714199999999996,-0.01245972
1779590486361906766,step,0.0,0.04084070449666731,1.4746810448875687,-2.9156772352116476,-0.0936020077844559,-0.018500490071139894,0.0,0.0,-0.013000000000000001,0.0,0.0,0.0,0.0,0.5292,-0.562275,0.5103,0.05079731999999999,-0.04983888,-0.02012724
1779590486361906766,step,0.0,0.04084070449666731,1.4746810448875687,-2.9156772352116476,-0.0936020077844559,-0.018500490071139894,0.0,0.0,-0.013000000000000001,0.0,0.0,0.0,0.0,0.5292,-0.562275,0.5103,0.05079731999999999,-0.04983888,-0.02012724
1779590486366903066,step,0.0,0.04084070449666731,1.4746810448875687,-2.9156772352116476,-0.0936020077844559,-0.018500490071139894,0.0,0.0,-0.013000000000000001,0.0,0.0,0.0,0.0,0.515025,-0.562275,0.5103,0.05079731999999999,-0.06134016,0.0
1779590486366903066,step,0.0,0.04084070449666731,1.4746810448875687,-2.9156772352116476,-0.0936020077844559,-0.018500490071139894,0.0,0.0,-0.013000000000000001,0.0,0.0,0.0,0.0,0.515025,-0.562275,0.5103,0.05079731999999999,-0.06134016,0.0
1779590486371903181,step,0.0,0.04084070449666731,1.4746810448875687,-2.9156772352116476,-0.0936020077844559,-0.018500490071139894,0.0,0.0,0.003,0.0,0.0,0.0,0.0,0.515025,-0.7276499999999999,0.5197499999999999,0.047922,-0.06134016,0.0
1779590486371903181,step,0.0,0.04084070449666731,1.4746810448875687,-2.9156772352116476,-0.0936020077844559,-0.018500490071139894,0.0,0.0,0.003,0.0,0.0,0.0,0.0,0.515025,-0.7276499999999999,0.5197499999999999,0.047922,-0.06134016,0.0
1779590486376904010,step,0.0,0.04084070449666731,1.4746810448875687,-2.9156772352116476,-0.0936020077844559,-0.018500490071139894,0.0,0.0,0.012,0.0,0.0,0.0,0.0,0.5292,-0.628425,0.5197499999999999,0.048880440000000004,-0.048880440000000004,-0.00575064
1779590486376904010,step,0.0,0.04084070449666731,1.4746810448875687,-2.9156772352116476,-0.0936020077844559,-0.018500490071139894,0.0,0.0,0.012,0.0,0.0,0.0,0.0,0.5292,-0.628425,0.5197499999999999,0.048880440000000004,-0.048880440000000004,-0.00575064
1779590486381907701,step,0.0,0.04084070449666731,1.4746810448875687,-2.9156772352116476,-0.0936020077844559,-0.018500490071139894,0.0,0.0,-0.034,0.0,0.0,0.0,0.0,0.5197499999999999,-0.5292,0.5103,0.048880440000000004,-0.048880440000000004,-0.00575064
1779590486381907701,step,0.0,0.04084070449666731,1.4746810448875687,-2.9156772352116476,-0.0936020077844559,-0.018500490071139894,0.0,0.0,-0.034,0.0,0.0,0.0,0.0,0.5197499999999999,-0.5292,0.5103,0.048880440000000004,-0.048880440000000004,-0.00575064
1779590486386966228,step,0.0,0.04084070449666731,1.4746810448875687,-2.9156772352116476,-0.0936020077844559,-0.018500490071139894,0.0,0.0,-0.034,0.0,0.0,0.0,0.0,0.505575,-0.5292,0.4914,0.043129799999999996,-0.05463108,-0.00575064
1779590486386966228,step,0.0,0.04084070449666731,1.4746810448875687,-2.9156772352116476,-0.0936020077844559,-0.018500490071139894,0.0,0.0,-0.034,0.0,0.0,0.0,0.0,0.505575,-0.5292,0.4914,0.043129799999999996,-0.05463108,-0.00575064
1779590486391910076,step,0.0,0.04084070449666731,1.4746810448875687,-2.9156772352116476,-0.0936020077844559,-0.018500490071139894,0.0,0.0,0.023,0.0,0.0,0.0,0.0,0.505575,-0.911925,0.5103,0.05175576,-0.052714199999999996,-0.0095844
1779590486391910076,step,0.0,0.04084070449666731,1.4746810448875687,-2.9156772352116476,-0.0936020077844559,-0.018500490071139894,0.0,0.0,0.023,0.0,0.0,0.0,0.0,0.505575,-0.911925,0.5103,0.05175576,-0.052714199999999996,-0.0095844
1779590486396912813,step,0.0,0.04084070449666731,1.4746810448875687,-2.9156772352116476,-0.0936020077844559,-0.018500490071139894,0.0,0.0,-0.006,0.0,0.0,0.0,0.0,0.53865,-0.65205,0.5103,0.052714199999999996,-0.04504668,-0.01245972
1779590486396912813,step,0.0,0.04084070449666731,1.4746810448875687,-2.9156772352116476,-0.0936020077844559,-0.018500490071139894,0.0,0.0,-0.006,0.0,0.0,0.0,0.0,0.53865,-0.65205,0.5103,0.052714199999999996,-0.04504668,-0.01245972
1779590486401910543,step,0.0,0.04084070449666731,1.4746810448875687,-2.9156772352116476,-0.0936020077844559,-0.018500490071139894,0.0,0.0,-0.006,0.0,0.0,0.0,0.0,0.5481,-0.65205,0.5244749999999999,0.052714199999999996,-0.06517392,-0.00191688
1779590486401910543,step,0.0,0.04084070449666731,1.4746810448875687,-2.9156772352116476,-0.0936020077844559,-0.018500490071139894,0.0,0.0,-0.006,0.0,0.0,0.0,0.0,0.5481,-0.65205,0.5244749999999999,0.052714199999999996,-0.06517392,-0.00191688
1779590486406911849,step,0.0,0.04084070449666731,1.4746810448875687,-2.9156772352116476,-0.0936020077844559,-0.018500490071139894,0.0,0.0,0.003,0.0,0.0,0.0,0.0,0.5481,-0.7701749999999999,0.515025,0.04600512,-0.06517392,-0.00191688
1779590486406911849,step,0.0,0.04084070449666731,1.4746810448875687,-2.9156772352116476,-0.0936020077844559,-0.018500490071139894,0.0,0.0,0.003,0.0,0.0,0.0,0.0,0.5481,-0.7701749999999999,0.515025,0.04600512,-0.06517392,-0.00191688
1779590486411913156,step,0.0,0.04084070449666731,1.4746810448875687,-2.9156772352116476,-0.0936020077844559,-0.018500490071139894,0.0,0.0,0.032,0.0,0.0,0.0,0.0,0.533925,-0.7040249999999999,0.515025,0.048880440000000004,-0.052714199999999996,-0.014376599999999998
1779590486411913156,step,0.0,0.04084070449666731,1.4746810448875687,-2.9156772352116476,-0.0936020077844559,-0.018500490071139894,0.0,0.0,0.032,0.0,0.0,0.0,0.0,0.533925,-0.7040249999999999,0.515025,0.048880440000000004,-0.052714199999999996,-0.014376599999999998
1779590486416912078,step,0.0,0.04084070449666731,1.4746810448875687,-2.9156772352116476,-0.0936020077844559,-0.018500490071139894,0.0,0.0,-0.019,0.0,0.0,0.0,0.0,0.55755,-0.533925,0.5008499999999999,0.048880440000000004,-0.05750639999999999,-0.00862596
1779590486416912078,step,0.0,0.04084070449666731,1.4746810448875687,-2.9156772352116476,-0.0936020077844559,-0.018500490071139894,0.0,0.0,-0.019,0.0,0.0,0.0,0.0,0.55755,-0.533925,0.5008499999999999,0.048880440000000004,-0.05750639999999999,-0.00862596
1779590486421910285,step,0.0,0.04084070449666731,1.4746810448875687,-2.9156772352116476,-0.0936020077844559,-0.018500490071139894,0.0,0.0,-0.019,0.0,0.0,0.0,0.0,0.5197499999999999,-0.533925,0.4961249999999999,0.047922,-0.05750639999999999,-0.00862596
1779590486421910285,step,0.0,0.04084070449666731,1.4746810448875687,-2.9156772352116476,-0.0936020077844559,-0.018500490071139894,0.0,0.0,-0.019,0.0,0.0,0.0,0.0,0.5197499999999999,-0.533925,0.4961249999999999,0.047922,-0.05750639999999999,-0.00862596
1779590486426914930,step,0.0,0.04084070449666731,1.4746810448875687,-2.9156772352116476,-0.0936020077844559,-0.018500490071139894,0.0,0.0,0.01,0.0,0.0,0.0,0.0,0.5197499999999999,-0.789075,0.477225,0.048880440000000004,-0.06038172,-0.01725192
1779590486426914930,step,0.0,0.04084070449666731,1.4746810448875687,-2.9156772352116476,-0.0936020077844559,-0.018500490071139894,0.0,0.0,0.01,0.0,0.0,0.0,0.0,0.5197499999999999,-0.789075,0.477225,0.048880440000000004,-0.06038172,-0.01725192
1779590486431912660,step,0.0,0.04084070449666731,1.4746810448875687,-2.9156772352116476,-0.0936020077844559,-0.018500490071139894,0.0,0.0,-0.003,0.0,0.0,0.0,0.0,0.53865,-0.6851249999999999,0.477225,0.04600512,-0.059423279999999995,-0.01821036
1779590486431912660,step,0.0,0.04084070449666731,1.4746810448875687,-2.9156772352116476,-0.0936020077844559,-0.018500490071139894,0.0,0.0,-0.003,0.0,0.0,0.0,0.0,0.53865,-0.6851249999999999,0.477225,0.04600512,-0.059423279999999995,-0.01821036
1779590486436913967,step,0.0,0.04084070449666731,1.4746810448875687,-2.9156772352116476,-0.0936020077844559,-0.018500490071139894,0.0,0.0,-0.003,0.0,0.0,0.0,0.0,0.5197499999999999,-0.6851249999999999,0.5292,0.04600512,-0.05558952,-0.00670908
1779590486436913967,step,0.0,0.04084070449666731,1.4746810448875687,-2.9156772352116476,-0.0936020077844559,-0.018500490071139894,0.0,0.0,-0.003,0.0,0.0,0.0,0.0,0.5197499999999999,-0.6851249999999999,0.5292,0.04600512,-0.05558952,-0.00670908
1779590486441912651,step,0.0,0.04084070449666731,1.4746810448875687,-2.9156772352116476,-0.0936020077844559,-0.018500490071139894,0.0,0.0,-0.011,0.0,0.0,0.0,0.0,0.5197499999999999,-0.741825,0.505575,0.05175576,-0.05558952,-0.00670908
1779590486441912651,step,0.0,0.04084070449666731,1.4746810448875687,-2.9156772352116476,-0.0936020077844559,-0.018500490071139894,0.0,0.0,-0.011,0.0,0.0,0.0,0.0,0.5197499999999999,-0.741825,0.505575,0.05175576,-0.05558952,-0.00670908
1779590486441912651,step,0.0,0.04084070449666731,1.4746810448875687,-2.9156772352116476,-0.0936020077844559,-0.018500490071139894,0.0,0.0,-0.011,0.0,0.0,0.0,0.0,0.5197499999999999,-0.741825,0.505575,0.05175576,-0.05558952,-0.00670908
1779590486441912651,step,0.0,0.04084070449666731,1.4746810448875687,-2.9156772352116476,-0.0936020077844559,-0.018500490071139894,0.0,0.0,-0.011,0.0,0.0,0.0,0.0,0.5197499999999999,-0.741825,0.505575,0.05175576,-0.05558952,-0.00670908
1779590486446919202,step,0.0,0.04084070449666731,1.4746810448875687,-2.9156772352116476,-0.0936020077844559,-0.018500490071139894,0.0,0.0,-0.011,0.0,0.0,0.0,0.0,0.5197499999999999,-0.741825,0.505575,0.05175576,-0.05558952,-0.00670908
1779590486446919202,step,0.0,0.04084070449666731,1.4746810448875687,-2.9156772352116476,-0.0936020077844559,-0.018500490071139894,0.0,0.0,-0.011,0.0,0.0,0.0,0.0,0.5197499999999999,-0.741825,0.505575,0.05175576,-0.05558952,-0.00670908
1779590486446919202,step,0.0,0.04084070449666731,1.4746810448875687,-2.9156772352116476,-0.0936020077844559,-0.018500490071139894,0.0,0.0,-0.011,0.0,0.0,0.0,0.0,0.5197499999999999,-0.741825,0.505575,0.05175576,-0.05558952,-0.00670908
1779590486461923837,step,0.0,0.04084070449666731,1.4746810448875687,-2.9156772352116476,-0.0936020077844559,-0.018500490071139894,0.0,0.0,0.0,0.0,0.0,0.0,0.0,0.5481,-0.82215,0.505575,0.04600512,-0.06613236,0.00575064
1779590486461923837,step,0.0,0.04084070449666731,1.4746810448875687,-2.9156772352116476,-0.0936020077844559,-0.018500490071139894,0.0,0.0,0.0,0.0,0.0,0.0,0.0,0.5481,-0.82215,0.505575,0.04600512,-0.06613236,0.00575064
1779590486461923837,step,0.0,0.04084070449666731,1.4746810448875687,-2.9156772352116476,-0.0936020077844559,-0.018500490071139894,0.0,0.0,0.0,0.0,0.0,0.0,0.0,0.5481,-0.82215,0.505575,0.04600512,-0.06613236,0.00575064
1779590486461923837,step,0.0,0.04084070449666731,1.4746810448875687,-2.9156772352116476,-0.0936020077844559,-0.018500490071139894,0.0,0.0,0.0,0.0,0.0,0.0,0.0,0.5481,-0.82215,0.505575,0.04600512,-0.06613236,0.00575064
1779590486461923837,step,0.0,0.04084070449666731,1.4746810448875687,-2.9156772352116476,-0.0936020077844559,-0.018500490071139894,0.0,0.0,0.022,0.0,0.0,0.0,0.0,0.5481,-0.959175,0.5103,0.05750639999999999,-0.04983888,0.0
1779590486461923837,step,0.0,0.04084070449666731,1.4746810448875687,-2.9156772352116476,-0.0936020077844559,-0.018500490071139894,0.0,0.0,0.022,0.0,0.0,0.0,0.0,0.5481,-0.959175,0.5103,0.05750639999999999,-0.04983888,0.0
1779590486471917152,step,0.0,0.04084070449666731,1.4746810448875687,-2.9156772352116476,-0.0936020077844559,-0.018500490071139894,0.0,0.0,-0.005,0.0,0.0,0.0,0.0,0.515025,-0.7276499999999999,0.5244749999999999,0.07955052,-0.06996611999999999,0.0
1779590486471917152,step,0.0,0.04084070449666731,1.4746810448875687,-2.9156772352116476,-0.0936020077844559,-0.018500490071139894,0.0,0.0,-0.005,0.0,0.0,0.0,0.0,0.515025,-0.7276499999999999,0.5244749999999999,0.07955052,-0.06996611999999999,0.0
1779590486476917743,step,0.0,0.04084070449666731,1.4746810448875687,-2.9156772352116476,-0.0936020077844559,-0.018500490071139894,0.0,0.0,0.002,0.0,0.0,0.0,0.0,0.53865,-0.7229249999999999,0.5103,0.06517392,-0.052714199999999996,-0.00670908
1779590486476917743,step,0.0,0.04084070449666731,1.4746810448875687,-2.9156772352116476,-0.0936020077844559,-0.018500490071139894,0.0,0.0,0.002,0.0,0.0,0.0,0.0,0.53865,-0.7229249999999999,0.5103,0.06517392,-0.052714199999999996,-0.00670908
1779590486481932640,step,0.0,0.04084070449666731,1.4746810448875687,-2.9156772352116476,-0.0936020077844559,-0.018500490071139894,0.0,0.0,0.034,0.0,0.0,0.0,0.0,0.53865,-0.63315,0.5103,0.04983888,-0.05846484,-0.00095844
1779590486481932640,step,0.0,0.04084070449666731,1.4746810448875687,-2.9156772352116476,-0.0936020077844559,-0.018500490071139894,0.0,0.0,0.034,0.0,0.0,0.0,0.0,0.53865,-0.63315,0.5103,0.04983888,-0.05846484,-0.00095844
1779590486486922740,step,0.0,0.04084070449666731,1.4746810448875687,-2.9156772352116476,-0.0936020077844559,-0.018500490071139894,0.0,0.0,-0.019,0.0,0.0,0.0,0.0,0.533925,-0.477225,0.5197499999999999,0.04983888,-0.05367264,-0.00287532
1779590486486922740,step,0.0,0.04084070449666731,1.4746810448875687,-2.9156772352116476,-0.0936020077844559,-0.018500490071139894,0.0,0.0,-0.019,0.0,0.0,0.0,0.0,0.533925,-0.477225,0.5197499999999999,0.04983888,-0.05367264,-0.00287532
1779590486491922616,step,0.0,0.04084070449666731,1.4746810448875687,-2.9156772352116476,-0.0936020077844559,-0.018500490071139894,0.0,0.0,-0.019,0.0,0.0,0.0,0.0,0.5433749999999999,-0.477225,0.5008499999999999,0.04504668,-0.05367264,-0.00287532
1779590486491922616,step,0.0,0.04084070449666731,1.4746810448875687,-2.9156772352116476,-0.0936020077844559,-0.018500490071139894,0.0,0.0,-0.019,0.0,0.0,0.0,0.0,0.5433749999999999,-0.477225,0.5008499999999999,0.04504668,-0.05367264,-0.00287532
1779590486496924638,step,0.0,0.04084070449666731,1.4746810448875687,-2.9156772352116476,-0.0936020077844559,-0.018500490071139894,0.0,0.0,0.026000000000000002,0.0,0.0,0.0,0.0,0.5433749999999999,-0.9213749999999999,0.5008499999999999,0.0383376,-0.06038172,-0.00287532
1779590486496924638,step,0.0,0.04084070449666731,1.4746810448875687,-2.9156772352116476,-0.0936020077844559,-0.018500490071139894,0.0,0.0,0.026000000000000002,0.0,0.0,0.0,0.0,0.5433749999999999,-0.9213749999999999,0.5008499999999999,0.0383376,-0.06038172,-0.00287532
1779590486501924276,step,0.0,0.04084070449666731,1.4746810448875687,-2.9156772352116476,-0.0936020077844559,-0.018500490071139894,0.0,0.0,-0.003,0.0,0.0,0.0,0.0,0.567,-0.6851249999999999,0.5008499999999999,0.03737916,-0.05367264,-0.00575064
1779590486501924276,step,0.0,0.04084070449666731,1.4746810448875687,-2.9156772352116476,-0.0936020077844559,-0.018500490071139894,0.0,0.0,-0.003,0.0,0.0,0.0,0.0,0.567,-0.6851249999999999,0.5008499999999999,0.03737916,-0.05367264,-0.00575064
1779590486506922006,step,0.0,0.04084070449666731,1.4746810448875687,-2.9156772352116476,-0.0936020077844559,-0.018500490071139894,0.0,0.0,-0.003,0.0,0.0,0.0,0.0,0.567,-0.6851249999999999,0.5008499999999999,0.03737916,-0.05367264,-0.00575064
1779590486506922006,step,0.0,0.04084070449666731,1.4746810448875687,-2.9156772352116476,-0.0936020077844559,-0.018500490071139894,0.0,0.0,-0.003,0.0,0.0,0.0,0.0,0.567,-0.6851249999999999,0.5008499999999999,0.03737916,-0.05367264,-0.00575064
1779590486511926412,step,0.0,0.04084070449666731,1.4746810448875687,-2.9156772352116476,-0.0936020077844559,-0.018500490071139894,0.0,0.0,-0.003,0.0,0.0,0.0,0.0,0.5197499999999999,-0.6851249999999999,0.505575,0.03737916,-0.04696356,-0.00766752
1779590486511926412,step,0.0,0.04084070449666731,1.4746810448875687,-2.9156772352116476,-0.0936020077844559,-0.018500490071139894,0.0,0.0,-0.003,0.0,0.0,0.0,0.0,0.5197499999999999,-0.6851249999999999,0.505575,0.03737916,-0.04696356,-0.00766752
1779590486511926412,step,0.0,0.04084070449666731,1.4746810448875687,-2.9156772352116476,-0.0936020077844559,-0.018500490071139894,0.0,0.0,-0.003,0.0,0.0,0.0,0.0,0.5197499999999999,-0.6851249999999999,0.505575,0.03737916,-0.04696356,-0.00766752
1779590486511926412,step,0.0,0.04084070449666731,1.4746810448875687,-2.9156772352116476,-0.0936020077844559,-0.018500490071139894,0.0,0.0,0.0,0.0,0.0,0.0,0.0,0.5244749999999999,-0.779625,0.5103,0.03737916,-0.04696356,-0.00766752
1779590486511926412,step,0.0,0.04084070449666731,1.4746810448875687,-2.9156772352116476,-0.0936020077844559,-0.018500490071139894,0.0,0.0,0.0,0.0,0.0,0.0,0.0,0.5244749999999999,-0.779625,0.5103,0.03737916,-0.04696356,-0.00766752
1779590486516924142,step,0.0,0.04084070449666731,1.4746810448875687,-2.9156772352116476,-0.0936020077844559,-0.018500490071139894,0.0,0.0,0.034,0.0,0.0,0.0,0.0,0.5244749999999999,-0.7323749999999999,0.5103,0.04121292,-0.05367264,-0.00287532
1779590486516924142,step,0.0,0.04084070449666731,1.4746810448875687,-2.9156772352116476,-0.0936020077844559,-0.018500490071139894,0.0,0.0,0.034,0.0,0.0,0.0,0.0,0.5244749999999999,-0.7323749999999999,0.5103,0.04121292,-0.05367264,-0.00287532
1779590486516924142,step,0.0,0.04084070449666731,1.4746810448875687,-2.9156772352116476,-0.0936020077844559,-0.018500490071139894,0.0,0.0,0.034,0.0,0.0,0.0,0.0,0.5244749999999999,-0.7323749999999999,0.5103,0.04121292,-0.05367264,-0.00287532
1779590486526931762,step,0.0,0.04084070449666731,1.4746810448875687,-2.9156772352116476,-0.0936020077844559,-0.018500490071139894,0.0,0.0,-0.017,0.0,0.0,0.0,0.0,0.533925,-0.5433749999999999,0.477225,0.04121292,-0.052714199999999996,0.00095844
1779590486526931762,step,0.0,0.04084070449666731,1.4746810448875687,-2.9156772352116476,-0.0936020077844559,-0.018500490071139894,0.0,0.0,-0.017,0.0,0.0,0.0,0.0,0.533925,-0.5433749999999999,0.477225,0.04121292,-0.052714199999999996,0.00095844
1779590486526931762,step,0.0,0.04084070449666731,1.4746810448875687,-2.9156772352116476,-0.0936020077844559,-0.018500490071139894,0.0,0.0,-0.017,0.0,0.0,0.0,0.0,0.5244749999999999,-0.5433749999999999,0.515025,0.04600512,-0.052714199999999996,0.00095844
1779590486526931762,step,0.0,0.04084070449666731,1.4746810448875687,-2.9156772352116476,-0.0936020077844559,-0.018500490071139894,0.0,0.0,-0.017,0.0,0.0,0.0,0.0,0.5244749999999999,-0.5433749999999999,0.515025,0.04600512,-0.052714199999999996,0.00095844
1779590486536926269,step,0.0,0.04084070449666731,1.4746810448875687,-2.9156772352116476,-0.0936020077844559,-0.018500490071139894,0.0,0.0,-0.002,0.0,0.0,0.0,0.0,0.53865,-0.637875,0.533925,0.05079731999999999,-0.05654796,-0.00383376
1779590486536926269,step,0.0,0.04084070449666731,1.4746810448875687,-2.9156772352116476,-0.0936020077844559,-0.018500490071139894,0.0,0.0,-0.002,0.0,0.0,0.0,0.0,0.53865,-0.637875,0.533925,0.05079731999999999,-0.05654796,-0.00383376
1779590486542030096,step,0.0,0.04084070449666731,1.4746810448875687,-2.9156772352116476,-0.0936020077844559,-0.018500490071139894,0.0,0.0,-0.002,0.0,0.0,0.0,0.0,0.5481,-0.637875,0.5292,0.05079731999999999,-0.05654796,-0.00862596
1779590486542030096,step,0.0,0.04084070449666731,1.4746810448875687,-2.9156772352116476,-0.0936020077844559,-0.018500490071139894,0.0,0.0,-0.002,0.0,0.0,0.0,0.0,0.5481,-0.637875,0.5292,0.05079731999999999,-0.05654796,-0.00862596
1779590486546926975,step,0.0,0.04084070449666731,1.4746810448875687,-2.9156772352116476,-0.0936020077844559,-0.018500490071139894,0.0,0.0,-0.033,0.0,0.0,0.0,0.0,0.55755,-0.7040249999999999,0.5008499999999999,0.04504668,-0.05654796,-0.00862596
1779590486546926975,step,0.0,0.04084070449666731,1.4746810448875687,-2.9156772352116476,-0.0936020077844559,-0.018500490071139894,0.0,0.0,-0.033,0.0,0.0,0.0,0.0,0.55755,-0.7040249999999999,0.5008499999999999,0.04504668,-0.05654796,-0.00862596
1779590486551927566,step,0.0,0.04084070449666731,1.4746810448875687,-2.9156772352116476,-0.0936020077844559,-0.018500490071139894,0.0,0.0,0.03,0.0,0.0,0.0,0.0,0.55755,-0.9213749999999999,0.5008499999999999,0.05079731999999999,-0.06134016,-0.00670908
1779590486551927566,step,0.0,0.04084070449666731,1.4746810448875687,-2.9156772352116476,-0.0936020077844559,-0.018500490071139894,0.0,0.0,0.03,0.0,0.0,0.0,0.0,0.55755,-0.9213749999999999,0.5008499999999999,0.05079731999999999,-0.06134016,-0.00670908
1779590486556927442,step,0.0,0.04084070449666731,1.4746810448875687,-2.9156772352116476,-0.0936020077844559,-0.018500490071139894,0.0,0.0,-0.008,0.0,0.0,0.0,0.0,0.5433749999999999,-0.5859,0.515025,0.05079731999999999,-0.059423279999999995,-0.00575064
1779590486556927442,step,0.0,0.04084070449666731,1.4746810448875687,-2.9156772352116476,-0.0936020077844559,-0.018500490071139894,0.0,0.0,-0.008,0.0,0.0,0.0,0.0,0.5433749999999999,-0.5859,0.515025,0.05079731999999999,-0.059423279999999995,-0.00575064
1779590486561928987,step,0.0,0.04084070449666731,1.4746810448875687,-2.9156772352116476,-0.0936020077844559,-0.018500490071139894,0.0,0.0,-0.008,0.0,0.0,0.0,0.0,0.5481,-0.5859,0.5103,0.04504668,-0.059423279999999995,-0.00575064
1779590486561928987,step,0.0,0.04084070449666731,1.4746810448875687,-2.9156772352116476,-0.0936020077844559,-0.018500490071139894,0.0,0.0,-0.008,0.0,0.0,0.0,0.0,0.5481,-0.5859,0.5103,0.04504668,-0.059423279999999995,-0.00575064
1779590486566929101,step,0.0,0.04084070449666731,1.4746810448875687,-2.9156772352116476,-0.0936020077844559,-0.018500490071139894,0.0,0.0,0.004,0.0,0.0,0.0,0.0,0.5481,-0.7371,0.5244749999999999,0.05367264,-0.05654796,-0.00766752
1779590486566929101,step,0.0,0.04084070449666731,1.4746810448875687,-2.9156772352116476,-0.0936020077844559,-0.018500490071139894,0.0,0.0,0.004,0.0,0.0,0.0,0.0,0.5481,-0.7371,0.5244749999999999,0.05367264,-0.05654796,-0.00766752
1779590486571929931,step,0.0,0.04084070449666731,1.4746810448875687,-2.9156772352116476,-0.0936020077844559,-0.018500490071139894,0.0,0.0,0.032,0.0,0.0,0.0,0.0,0.552825,-0.675675,0.5244749999999999,0.05079731999999999,-0.05367264,-0.00670908
1779590486571929931,step,0.0,0.04084070449666731,1.4746810448875687,-2.9156772352116476,-0.0936020077844559,-0.018500490071139894,0.0,0.0,0.032,0.0,0.0,0.0,0.0,0.552825,-0.675675,0.5244749999999999,0.05079731999999999,-0.05367264,-0.00670908
1779590486576928853,step,0.0,0.04084070449666731,1.4746810448875687,-2.9156772352116476,-0.0936020077844559,-0.018500490071139894,0.0,0.0,0.032,0.0,0.0,0.0,0.0,0.5244749999999999,-0.675675,0.5292,0.05079731999999999,-0.05558952,-0.00383376
1779590486576928853,step,0.0,0.04084070449666731,1.4746810448875687,-2.9156772352116476,-0.0936020077844559,-0.018500490071139894,0.0,0.0,0.032,0.0,0.0,0.0,0.0,0.5244749999999999,-0.675675,0.5292,0.05079731999999999,-0.05558952,-0.00383376
1779590486581939220,step,0.0,0.04084070449666731,1.4746810448875687,-2.9156772352116476,-0.0936020077844559,-0.018500490071139894,0.0,0.0,-0.025,0.0,0.0,0.0,0.0,0.533925,-0.515025,0.5292,0.04983888,-0.05558952,-0.00383376
1779590486581939220,step,0.0,0.04084070449666731,1.4746810448875687,-2.9156772352116476,-0.0936020077844559,-0.018500490071139894,0.0,0.0,-0.025,0.0,0.0,0.0,0.0,0.533925,-0.515025,0.5292,0.04983888,-0.05558952,-0.00383376
1779590486586936712,step,0.0,0.04084070449666731,1.4746810448875687,-2.9156772352116476,-0.0936020077844559,-0.018500490071139894,0.0,0.0,0.015,0.0,0.0,0.0,0.0,0.533925,-0.8883,0.5292,0.043129799999999996,-0.05750639999999999,-0.00191688
1779590486586936712,step,0.0,0.04084070449666731,1.4746810448875687,-2.9156772352116476,-0.0936020077844559,-0.018500490071139894,0.0,0.0,0.015,0.0,0.0,0.0,0.0,0.533925,-0.8883,0.5292,0.043129799999999996,-0.05750639999999999,-0.00191688
1779590486591938018,step,0.0,0.04084070449666731,1.4746810448875687,-2.9156772352116476,-0.0936020077844559,-0.018500490071139894,0.0,0.0,-0.002,0.0,0.0,0.0,0.0,0.5244749999999999,-0.6615,0.5197499999999999,0.043129799999999996,-0.05846484,-0.00766752
1779590486591938018,step,0.0,0.04084070449666731,1.4746810448875687,-2.9156772352116476,-0.0936020077844559,-0.018500490071139894,0.0,0.0,-0.002,0.0,0.0,0.0,0.0,0.5244749999999999,-0.6615,0.5197499999999999,0.043129799999999996,-0.05846484,-0.00766752
1779590486596937656,step,0.0,0.04084070449666731,1.4746810448875687,-2.9156772352116476,-0.0936020077844559,-0.018500490071139894,0.0,0.0,-0.002,0.0,0.0,0.0,0.0,0.53865,-0.6615,0.4914,0.04504668,-0.05846484,-0.00766752
1779590486596937656,step,0.0,0.04084070449666731,1.4746810448875687,-2.9156772352116476,-0.0936020077844559,-0.018500490071139894,0.0,0.0,-0.002,0.0,0.0,0.0,0.0,0.53865,-0.6615,0.4914,0.04504668,-0.05846484,-0.00766752
1779590486601939439,step,0.0,0.04084070449666731,1.4746810448875687,-2.9156772352116476,-0.0936020077844559,-0.018500490071139894,0.0,0.0,-0.037,0.0,0.0,0.0,0.0,0.53865,-0.628425,0.5103,0.04600512,-0.052714199999999996,-0.014376599999999998
1779590486601939439,step,0.0,0.04084070449666731,1.4746810448875687,-2.9156772352116476,-0.0936020077844559,-0.018500490071139894,0.0,0.0,-0.037,0.0,0.0,0.0,0.0,0.53865,-0.628425,0.5103,0.04600512,-0.052714199999999996,-0.014376599999999998
1779590486606935739,step,0.0,0.04084070449666731,1.4746810448875687,-2.9156772352116476,-0.0936020077844559,-0.018500490071139894,0.0,0.0,0.0,0.0,0.0,0.0,0.0,0.533925,-0.609525,0.5103,0.05079731999999999,-0.05846484,-0.00670908
1779590486606935739,step,0.0,0.04084070449666731,1.4746810448875687,-2.9156772352116476,-0.0936020077844559,-0.018500490071139894,0.0,0.0,0.0,0.0,0.0,0.0,0.0,0.533925,-0.609525,0.5103,0.05079731999999999,-0.05846484,-0.00670908
1779590486611936092,step,0.0,0.04084070449666731,1.4746810448875687,-2.9156772352116476,-0.0936020077844559,-0.018500490071139894,0.0,0.0,0.0,0.0,0.0,0.0,0.0,0.5244749999999999,-0.609525,0.505575,0.05079731999999999,-0.06517392,0.0047922
1779590486611936092,step,0.0,0.04084070449666731,1.4746810448875687,-2.9156772352116476,-0.0936020077844559,-0.018500490071139894,0.0,0.0,0.0,0.0,0.0,0.0,0.0,0.5244749999999999,-0.609525,0.505575,0.05079731999999999,-0.06517392,0.0047922
1779590486616937875,step,0.0,0.04084070449666731,1.4746810448875687,-2.9156772352116476,-0.0936020077844559,-0.018500490071139894,0.0,0.0,0.012,0.0,0.0,0.0,0.0,0.55755,-0.8883,0.5103,0.04408824,-0.06517392,0.0047922
1779590486616937875,step,0.0,0.04084070449666731,1.4746810448875687,-2.9156772352116476,-0.0936020077844559,-0.018500490071139894,0.0,0.0,0.012,0.0,0.0,0.0,0.0,0.55755,-0.8883,0.5103,0.04408824,-0.06517392,0.0047922
1779590486621941089,step,0.0,0.04084070449666731,1.4746810448875687,-2.9156772352116476,-0.0936020077844559,-0.018500490071139894,0.0,0.0,-0.001,0.0,0.0,0.0,0.0,0.55755,-0.65205,0.5103,0.048880440000000004,-0.047922,0.02491944
1779590486621941089,step,0.0,0.04084070449666731,1.4746810448875687,-2.9156772352116476,-0.0936020077844559,-0.018500490071139894,0.0,0.0,-0.001,0.0,0.0,0.0,0.0,0.55755,-0.65205,0.5103,0.048880440000000004,-0.047922,0.02491944
1779590486626948595,step,0.0,0.04084070449666731,1.4746810448875687,-2.9156772352116476,-0.0936020077844559,-0.018500490071139894,0.0,0.0,-0.029,0.0,0.0,0.0,0.0,0.5481,-0.7748999999999999,0.505575,0.048880440000000004,-0.047922,-0.02204412
1779590486626948595,step,0.0,0.04084070449666731,1.4746810448875687,-2.9156772352116476,-0.0936020077844559,-0.018500490071139894,0.0,0.0,-0.029,0.0,0.0,0.0,0.0,0.5481,-0.7748999999999999,0.505575,0.048880440000000004,-0.047922,-0.02204412
1779590486631942987,step,0.0,0.04084070449666731,1.4746810448875687,-2.9156772352116476,-0.0936020077844559,-0.018500490071139894,0.0,0.0,-0.029,0.0,0.0,0.0,0.0,0.5292,-0.7748999999999999,0.5103,0.048880440000000004,-0.047922,-0.02204412
1779590486631942987,step,0.0,0.04084070449666731,1.4746810448875687,-2.9156772352116476,-0.0936020077844559,-0.018500490071139894,0.0,0.0,-0.029,0.0,0.0,0.0,0.0,0.5292,-0.7748999999999999,0.5103,0.048880440000000004,-0.047922,-0.02204412
1779590486636940479,step,0.0,0.04084070449666731,1.4746810448875687,-2.9156772352116476,-0.0936020077844559,-0.018500490071139894,0.0,0.0,0.023,0.0,0.0,0.0,0.0,0.5292,-0.63315,0.515025,0.048880440000000004,-0.06134016,-0.0095844
1779590486636940479,step,0.0,0.04084070449666731,1.4746810448875687,-2.9156772352116476,-0.0936020077844559,-0.018500490071139894,0.0,0.0,0.023,0.0,0.0,0.0,0.0,0.5292,-0.63315,0.515025,0.048880440000000004,-0.06134016,-0.0095844
1779590486641943931,step,0.0,0.04084070449666731,1.4746810448875687,-2.9156772352116476,-0.0936020077844559,-0.018500490071139894,0.0,0.0,-0.02,0.0,0.0,0.0,0.0,0.533925,-0.505575,0.515025,0.05367264,-0.03929604,-0.01054284
1779590486641943931,step,0.0,0.04084070449666731,1.4746810448875687,-2.9156772352116476,-0.0936020077844559,-0.018500490071139894,0.0,0.0,-0.02,0.0,0.0,0.0,0.0,0.533925,-0.505575,0.515025,0.05367264,-0.03929604,-0.01054284
1779590486646943330,step,0.0,0.04084070449666731,1.4746810448875687,-2.9156772352116476,-0.0936020077844559,-0.018500490071139894,0.0,0.0,-0.02,0.0,0.0,0.0,0.0,0.533925,-0.505575,0.515025,0.05367264,-0.03929604,-0.01054284
1779590486646943330,step,0.0,0.04084070449666731,1.4746810448875687,-2.9156772352116476,-0.0936020077844559,-0.018500490071139894,0.0,0.0,-0.02,0.0,0.0,0.0,0.0,0.533925,-0.505575,0.515025,0.05367264,-0.03929604,-0.01054284
1779590486646943330,step,0.0,0.04084070449666731,1.4746810448875687,-2.9156772352116476,-0.0936020077844559,-0.018500490071139894,0.0,0.0,-0.02,0.0,0.0,0.0,0.0,0.5244749999999999,-0.505575,0.4914,0.05367264,-0.05750639999999999,0.00383376
1779590486646943330,step,0.0,0.04084070449666731,1.4746810448875687,-2.9156772352116476,-0.0936020077844559,-0.018500490071139894,0.0,0.0,-0.02,0.0,0.0,0.0,0.0,0.5244749999999999,-0.505575,0.4914,0.05367264,-0.05750639999999999,0.00383376
1779590486651946544,step,0.0,0.04084070449666731,1.4746810448875687,-2.9156772352116476,-0.0936020077844559,-0.018500490071139894,0.0,0.0,0.013000000000000001,0.0,0.0,0.0,0.0,0.5292,-0.8457749999999999,0.48195,0.05367264,-0.05750639999999999,0.00383376
1779590486651946544,step,0.0,0.04084070449666731,1.4746810448875687,-2.9156772352116476,-0.0936020077844559,-0.018500490071139894,0.0,0.0,0.013000000000000001,0.0,0.0,0.0,0.0,0.5292,-0.8457749999999999,0.48195,0.05367264,-0.05750639999999999,0.00383376
1779590486656940460,step,0.0,0.04084070449666731,1.4746810448875687,-2.9156772352116476,-0.0936020077844559,-0.018500490071139894,0.0,0.0,-0.002,0.0,0.0,0.0,0.0,0.5292,-0.63315,0.48195,0.048880440000000004,-0.05558952,0.00383376
1779590486656940460,step,0.0,0.04084070449666731,1.4746810448875687,-2.9156772352116476,-0.0936020077844559,-0.018500490071139894,0.0,0.0,-0.002,0.0,0.0,0.0,0.0,0.5292,-0.63315,0.48195,0.048880440000000004,-0.05558952,0.00383376
1779590486661948680,step,0.0,0.04084070449666731,1.4746810448875687,-2.9156772352116476,-0.0936020077844559,-0.018500490071139894,0.0,0.0,-0.033,0.0,0.0,0.0,0.0,0.533925,-0.533925,0.4914,0.048880440000000004,-0.05558952,-0.00287532
1779590486661948680,step,0.0,0.04084070449666731,1.4746810448875687,-2.9156772352116476,-0.0936020077844559,-0.018500490071139894,0.0,0.0,-0.033,0.0,0.0,0.0,0.0,0.533925,-0.533925,0.4914,0.048880440000000004,-0.05558952,-0.00287532
1779590486666947841,step,0.0,0.04084070449666731,1.4746810448875687,-2.9156772352116476,-0.0936020077844559,-0.018500490071139894,0.0,0.0,-0.033,0.0,0.0,0.0,0.0,0.5433749999999999,-0.533925,0.4961249999999999,0.05079731999999999,-0.05750639999999999,-0.01245972
1779590486666947841,step,0.0,0.04084070449666731,1.4746810448875687,-2.9156772352116476,-0.0936020077844559,-0.018500490071139894,0.0,0.0,-0.033,0.0,0.0,0.0,0.0,0.5433749999999999,-0.533925,0.4961249999999999,0.05079731999999999,-0.05750639999999999,-0.01245972
1779590486676944494,step,0.0,0.04084070449666731,1.4746810448875687,-2.9156772352116476,-0.0936020077844559,-0.018500490071139894,0.0,0.0,0.014,0.0,0.0,0.0,0.0,0.5433749999999999,-0.82215,0.4961249999999999,0.047922,-0.048880440000000004,-0.0095844
1779590486676944494,step,0.0,0.04084070449666731,1.4746810448875687,-2.9156772352116476,-0.0936020077844559,-0.018500490071139894,0.0,0.0,0.014,0.0,0.0,0.0,0.0,0.5433749999999999,-0.82215,0.4961249999999999,0.047922,-0.048880440000000004,-0.0095844
1779590486681948900,step,0.0,0.04084070449666731,1.4746810448875687,-2.9156772352116476,-0.0936020077844559,-0.018500490071139894,0.0,0.0,-0.011,0.0,0.0,0.0,0.0,0.5197499999999999,-0.562275,0.4914,0.048880440000000004,-0.05750639999999999,-0.00670908
1779590486681948900,step,0.0,0.04084070449666731,1.4746810448875687,-2.9156772352116476,-0.0936020077844559,-0.018500490071139894,0.0,0.0,-0.011,0.0,0.0,0.0,0.0,0.5197499999999999,-0.562275,0.4914,0.048880440000000004,-0.05750639999999999,-0.00670908
1779590486686951398,step,0.0,0.04084070449666731,1.4746810448875687,-2.9156772352116476,-0.0936020077844559,-0.018500490071139894,0.0,0.0,0.001,0.0,0.0,0.0,0.0,0.55755,-0.7701749999999999,0.5103,0.052714199999999996,-0.05750639999999999,0.0
1779590486686951398,step,0.0,0.04084070449666731,1.4746810448875687,-2.9156772352116476,-0.0936020077844559,-0.018500490071139894,0.0,0.0,0.001,0.0,0.0,0.0,0.0,0.55755,-0.7701749999999999,0.5103,0.052714199999999996,-0.05750639999999999,0.0
1779590486691952466,step,0.0,0.04084070449666731,1.4746810448875687,-2.9156772352116476,-0.0936020077844559,-0.018500490071139894,0.0,0.0,0.025,0.0,0.0,0.0,0.0,0.55755,-0.9497249999999999,0.5103,0.04121292,-0.06134016,-0.01245972
1779590486691952466,step,0.0,0.04084070449666731,1.4746810448875687,-2.9156772352116476,-0.0936020077844559,-0.018500490071139894,0.0,0.0,0.025,0.0,0.0,0.0,0.0,0.55755,-0.9497249999999999,0.5103,0.04121292,-0.06134016,-0.01245972
1779590486696947813,step,0.0,0.04084070449666731,1.4746810448875687,-2.9156772352116476,-0.0936020077844559,-0.018500490071139894,0.0,0.0,-0.017,0.0,0.0,0.0,0.0,0.5292,-0.5197499999999999,0.5103,0.04121292,-0.059423279999999995,-0.00383376
1779590486696947813,step,0.0,0.04084070449666731,1.4746810448875687,-2.9156772352116476,-0.0936020077844559,-0.018500490071139894,0.0,0.0,-0.017,0.0,0.0,0.0,0.0,0.5292,-0.5197499999999999,0.5103,0.04121292,-0.059423279999999995,-0.00383376
1779590486701948642,step,0.0,0.04084070449666731,1.4746810448875687,-2.9156772352116476,-0.0936020077844559,-0.018500490071139894,0.0,0.0,-0.017,0.0,0.0,0.0,0.0,0.533925,-0.5197499999999999,0.5292,0.05175576,-0.059423279999999995,-0.00383376
1779590486701948642,step,0.0,0.04084070449666731,1.4746810448875687,-2.9156772352116476,-0.0936020077844559,-0.018500490071139894,0.0,0.0,-0.017,0.0,0.0,0.0,0.0,0.533925,-0.5197499999999999,0.5292,0.05175576,-0.059423279999999995,-0.00383376
1779590486706948757,step,0.0,0.04084070449666731,1.4746810448875687,-2.9156772352116476,-0.0936020077844559,-0.018500490071139894,0.0,0.0,0.003,0.0,0.0,0.0,0.0,0.533925,-0.6804,0.4961249999999999,0.052714199999999996,-0.05654796,-0.00862596
1779590486706948757,step,0.0,0.04084070449666731,1.4746810448875687,-2.9156772352116476,-0.0936020077844559,-0.018500490071139894,0.0,0.0,0.003,0.0,0.0,0.0,0.0,0.533925,-0.6804,0.4961249999999999,0.052714199999999996,-0.05654796,-0.00862596
1779590486706948757,step,0.0,0.04084070449666731,1.4746810448875687,-2.9156772352116476,-0.0936020077844559,-0.018500490071139894,0.0,0.0,0.003,0.0,0.0,0.0,0.0,0.533925,-0.6804,0.4961249999999999,0.052714199999999996,-0.05654796,-0.00862596
1779590486711953878,step,0.0,0.04084070449666731,1.4746810448875687,-2.9156772352116476,-0.0936020077844559,-0.018500490071139894,0.0,0.0,0.026000000000000002,0.0,0.0,0.0,0.0,0.5292,-0.6615,0.4961249999999999,0.05367264,-0.05463108,-0.0095844
1779590486711953878,step,0.0,0.04084070449666731,1.4746810448875687,-2.9156772352116476,-0.0936020077844559,-0.018500490071139894,0.0,0.0,0.026000000000000002,0.0,0.0,0.0,0.0,0.5292,-0.6615,0.4961249999999999,0.05367264,-0.05463108,-0.0095844
1779590486711953878,step,0.0,0.04084070449666731,1.4746810448875687,-2.9156772352116476,-0.0936020077844559,-0.018500490071139894,0.0,0.0,0.026000000000000002,0.0,0.0,0.0,0.0,0.5292,-0.6615,0.4961249999999999,0.05367264,-0.05463108,-0.0095844
1779590486711953878,step,0.0,0.04084070449666731,1.4746810448875687,-2.9156772352116476,-0.0936020077844559,-0.018500490071139894,0.0,0.0,0.026000000000000002,0.0,0.0,0.0,0.0,0.5292,-0.6615,0.4961249999999999,0.05367264,-0.05463108,-0.0095844
1779590486711953878,step,0.0,0.04084070449666731,1.4746810448875687,-2.9156772352116476,-0.0936020077844559,-0.018500490071139894,0.0,0.0,0.026000000000000002,0.0,0.0,0.0,0.0,0.5292,-0.6615,0.4961249999999999,0.05367264,-0.05463108,-0.0095844
1779590486711953878,step,0.0,0.04084070449666731,1.4746810448875687,-2.9156772352116476,-0.0936020077844559,-0.018500490071139894,0.0,0.0,0.026000000000000002,0.0,0.0,0.0,0.0,0.5292,-0.6615,0.4961249999999999,0.05367264,-0.05463108,-0.0095844
1779590486716947317,step,0.0,0.04084070449666731,1.4746810448875687,-2.9156772352116476,-0.0936020077844559,-0.018500490071139894,0.0,0.0,0.026000000000000002,0.0,0.0,0.0,0.0,0.5244749999999999,-0.6615,0.4961249999999999,0.05367264,-0.05463108,-0.0095844
1779590486716947317,step,0.0,0.04084070449666731,1.4746810448875687,-2.9156772352116476,-0.0936020077844559,-0.018500490071139894,0.0,0.0,0.026000000000000002,0.0,0.0,0.0,0.0,0.5244749999999999,-0.6615,0.4961249999999999,0.05367264,-0.05463108,-0.0095844
1779590486716947317,step,0.0,0.04084070449666731,1.4746810448875687,-2.9156772352116476,-0.0936020077844559,-0.018500490071139894,0.0,0.0,0.026000000000000002,0.0,0.0,0.0,0.0,0.5244749999999999,-0.6615,0.515025,0.05367264,-0.05846484,-0.0095844
1779590486716947317,step,0.0,0.04084070449666731,1.4746810448875687,-2.9156772352116476,-0.0936020077844559,-0.018500490071139894,0.0,0.0,0.026000000000000002,0.0,0.0,0.0,0.0,0.5244749999999999,-0.6615,0.515025,0.05367264,-0.05846484,-0.0095844
1779590486721956729,step,0.0,0.04084070449666731,1.4746810448875687,-2.9156772352116476,-0.0936020077844559,-0.018500490071139894,0.0,0.0,0.0,0.0,0.0,0.0,0.0,0.5244749999999999,-0.741825,0.505575,0.05463108,-0.05846484,-0.00670908
1779590486721956729,step,0.0,0.04084070449666731,1.4746810448875687,-2.9156772352116476,-0.0936020077844559,-0.018500490071139894,0.0,0.0,0.0,0.0,0.0,0.0,0.0,0.5244749999999999,-0.741825,0.505575,0.05463108,-0.05846484,-0.00670908
1779590486726977586,step,0.0,0.04084070449666731,1.4746810448875687,-2.9156772352116476,-0.0936020077844559,-0.018500490071139894,0.0,0.0,0.016,0.0,0.0,0.0,0.0,0.5244749999999999,-0.8504999999999999,0.486675,0.04408824,-0.05367264,-0.0047922
1779590486726977586,step,0.0,0.04084070449666731,1.4746810448875687,-2.9156772352116476,-0.0936020077844559,-0.018500490071139894,0.0,0.0,0.016,0.0,0.0,0.0,0.0,0.5244749999999999,-0.8504999999999999,0.486675,0.04408824,-0.05367264,-0.0047922
1779590486736955165,step,0.0,0.04084070449666731,1.4746810448875687,-2.9156772352116476,-0.0936020077844559,-0.018500490071139894,0.0,0.0,-0.019,0.0,0.0,0.0,0.0,0.5244749999999999,-0.5244749999999999,0.486675,0.04600512,-0.05175576,-0.00862596
1779590486736955165,step,0.0,0.04084070449666731,1.4746810448875687,-2.9156772352116476,-0.0936020077844559,-0.018500490071139894,0.0,0.0,-0.019,0.0,0.0,0.0,0.0,0.5244749999999999,-0.5244749999999999,0.486675,0.04600512,-0.05175576,-0.00862596
1779590486741958141,step,0.0,0.04084070449666731,1.4746810448875687,-2.9156772352116476,-0.0936020077844559,-0.018500490071139894,0.0,0.0,0.003,0.0,0.0,0.0,0.0,0.515025,-0.756,0.4961249999999999,0.05175576,-0.059423279999999995,-0.00383376
1779590486741958141,step,0.0,0.04084070449666731,1.4746810448875687,-2.9156772352116476,-0.0936020077844559,-0.018500490071139894,0.0,0.0,0.003,0.0,0.0,0.0,0.0,0.515025,-0.756,0.4961249999999999,0.05175576,-0.059423279999999995,-0.00383376
1779590486751955747,step,0.0,0.04084070449666731,1.4746810448875687,-2.9156772352116476,-0.0936020077844559,-0.018500490071139894,0.0,0.0,-0.02,0.0,0.0,0.0,0.0,0.5244749999999999,-0.5244749999999999,0.4914,0.048880440000000004,-0.05846484,-0.00670908
1779590486751955747,step,0.0,0.04084070449666731,1.4746810448875687,-2.9156772352116476,-0.0936020077844559,-0.018500490071139894,0.0,0.0,-0.02,0.0,0.0,0.0,0.0,0.5244749999999999,-0.5244749999999999,0.4914,0.048880440000000004,-0.05846484,-0.00670908
1779590486761954069,step,0.0,0.04084070449666731,1.4746810448875687,-2.9156772352116476,-0.0936020077844559,-0.018500490071139894,0.0,0.0,0.016,0.0,0.0,0.0,0.0,0.5292,-0.8741249999999999,0.486675,0.048880440000000004,-0.05463108,-0.0047922
1779590486761954069,step,0.0,0.04084070449666731,1.4746810448875687,-2.9156772352116476,-0.0936020077844559,-0.018500490071139894,0.0,0.0,0.016,0.0,0.0,0.0,0.0,0.5292,-0.8741249999999999,0.486675,0.048880440000000004,-0.05463108,-0.0047922
1779590486766955852,step,0.0,0.04084070449666731,1.4746810448875687,-2.9156772352116476,-0.0936020077844559,-0.018500490071139894,0.0,0.0,-0.003,0.0,0.0,0.0,0.0,0.5244749999999999,-0.6804,0.486675,0.04504668,-0.05654796,-0.00766752
1779590486766955852,step,0.0,0.04084070449666731,1.4746810448875687,-2.9156772352116476,-0.0936020077844559,-0.018500490071139894,0.0,0.0,-0.003,0.0,0.0,0.0,0.0,0.5244749999999999,-0.6804,0.486675,0.04504668,-0.05654796,-0.00766752
