deepaktalwardt/rage-cage-arm-hackstorm/ros2/ws/sysid/runs/sysid_20260524_012957/raw/joint1_phaseA_pos.csv
t_ns,phase,tau_cmd,q1,q2,q3,q4,q5,q6,qd1,qd2,qd3,qd4,qd5,qd6,tau1,tau2,tau3,tau4,tau5,tau6
1779586206577868223,A_+,8.000006346264854e-08,0.0,1.4727786360028952,-2.9133559473064947,-0.09133307975686328,-0.01726130630222392,0.0,0.0,0.0,0.003,0.0,0.0,0.0,-0.155925,-0.17955,0.16065,-0.02204412,-0.07571676,0.01245972
1779586209943197250,A_+,0.002616587250486191,0.0,1.4727786360028952,-2.9133559473064947,-0.09133307975686328,-0.01726130630222392,0.0,0.0,0.0,0.0,0.0,0.0,0.0,-0.29767499999999997,-0.165375,0.3213,-0.03642072,-0.08817648,0.0095844
1779586209943197250,A_+,0.005360343000575085,0.0,1.4727786360028952,-2.9133559473064947,-0.09133307975686328,-0.01726130630222392,0.0,0.0,0.0,0.0,0.0,0.0,0.0,-0.29767499999999997,-0.165375,0.3213,-0.03642072,-0.08817648,0.0095844
1779586209943197250,A_+,0.007993201250428683,0.0,1.4727786360028952,-2.9133559473064947,-0.09133307975686328,-0.01726130630222392,0.0,0.0,0.0,0.0,0.0,0.0,0.0,-0.29767499999999997,-0.165375,0.3213,-0.03642072,-0.08817648,0.0095844
1779586209963750600,A_+,0.010602853000818868,0.0,1.4727786360028952,-2.9133559473064947,-0.09133307975686328,-0.01726130630222392,0.0,0.0,0.0,0.0,0.0,0.0,0.0,-0.05197499999999999,-0.17955,0.326025,-0.03450384,-0.09296868,0.00191688
1779586209963750600,A_+,0.013347736750802142,0.0,1.4727786360028952,-2.9133559473064947,-0.09133307975686328,-0.01726130630222392,0.0,0.0,0.0,0.0,0.0,0.0,0.0,-0.05197499999999999,-0.17955,0.326025,-0.03450384,-0.09296868,0.00191688
1779586209963750600,A_+,0.01599285049996979,0.0,1.4727786360028952,-2.9133559473064947,-0.09133307975686328,-0.01726130630222392,0.0,0.0,0.0,0.0,0.0,0.0,0.0,-0.05197499999999999,-0.17955,0.326025,-0.03450384,-0.09296868,0.00191688
1779586209988208770,A_+,0.01862373300082254,0.0,1.4727786360028952,-2.9133559473064947,-0.09133307975686328,-0.01726130630222392,0.0,0.0,0.0,0.0,0.0,0.0,0.0,0.099225,-0.17482499999999998,0.3402,-0.03929604,-0.09009336,0.01341816
1779586209988208770,A_+,0.02138154400017811,0.0,1.4727786360028952,-2.9133559473064947,-0.09133307975686328,-0.01726130630222392,0.0,0.0,0.0,0.0,0.0,0.0,0.0,0.099225,-0.17482499999999998,0.3402,-0.03929604,-0.09009336,0.01341816
1779586209988208770,A_+,0.02401300275050744,0.0,1.4727786360028952,-2.9133559473064947,-0.09133307975686328,-0.01726130630222392,0.0,0.0,0.0,0.0,0.0,0.0,0.0,0.099225,-0.17482499999999998,0.3402,-0.03929604,-0.09009336,0.01341816
1779586210018219947,A_+,0.026629726250575914,0.0,1.4727786360028952,-2.9133559473064947,-0.09133307975686328,-0.01726130630222392,0.0,0.0,0.0,0.0,0.0,0.0,0.0,0.099225,-0.189,0.3449249999999999,-0.02779476,-0.09009336,0.01341816
1779586210018219947,A_+,0.029378913750406355,0.0,1.4727786360028952,-2.9133559473064947,-0.09133307975686328,-0.01726130630222392,0.0,0.0,0.0,0.0,0.0,0.0,0.0,0.099225,-0.189,0.3449249999999999,-0.02779476,-0.09009336,0.01341816
1779586210018219947,A_+,0.032029979250182805,0.0,1.4727786360028952,-2.9133559473064947,-0.09133307975686328,-0.01726130630222392,0.0,0.0,0.0,0.0,0.0,0.0,0.0,0.099225,-0.189,0.3449249999999999,-0.02779476,-0.09009336,0.01341816
1779586210038214445,A_+,0.03464609475031466,0.0,1.4727786360028952,-2.9133559473064947,-0.09133307975686328,-0.01726130630222392,0.0,0.0,0.0,0.0,0.0,0.0,0.0,0.099225,-0.21262499999999998,0.335475,-0.043129799999999996,-0.08721804,0.01533504
1779586210038214445,A_+,0.03740440975070669,0.0,1.4727786360028952,-2.9133559473064947,-0.09133307975686328,-0.01726130630222392,0.0,0.0,0.0,0.0,0.0,0.0,0.0,0.099225,-0.21262499999999998,0.335475,-0.043129799999999996,-0.08721804,0.01533504
1779586210038214445,A_+,0.04002594875055365,0.0,1.4727786360028952,-2.9133559473064947,-0.09133307975686328,-0.01726130630222392,0.0,0.0,0.0,0.0,0.0,0.0,0.0,0.099225,-0.21262499999999998,0.335475,-0.043129799999999996,-0.08721804,0.01533504
1779586210063218593,A_+,0.0426349287499761,0.0,1.4727786360028952,-2.9133559473064947,-0.09133307975686328,-0.01726130630222392,0.0,0.0,0.0,0.0,0.0,0.0,0.0,0.0945,-0.17482499999999998,0.3449249999999999,-0.04025448,-0.08146740000000001,0.00766752
1779586210063218593,A_+,0.04539341975032585,0.0,1.4727786360028952,-2.9133559473064947,-0.09133307975686328,-0.01726130630222392,0.0,0.0,0.0,0.0,0.0,0.0,0.0,0.0945,-0.17482499999999998,0.3449249999999999,-0.04025448,-0.08146740000000001,0.00766752
1779586210063218593,A_+,0.048028278250058065,0.0,1.4727786360028952,-2.9133559473064947,-0.09133307975686328,-0.01726130630222392,0.0,0.0,0.0,0.0,0.0,0.0,0.0,0.0945,-0.17482499999999998,0.3449249999999999,-0.04025448,-0.08146740000000001,0.00766752
1779586210083289861,A_+,0.050655521000408044,0.0,1.4727786360028952,-2.9133559473064947,-0.09133307975686328,-0.01726130630222392,0.0,0.0,0.0,0.0,0.0,0.0,0.0,0.080325,-0.222075,0.34964999999999996,-0.03929604,-0.08625959999999999,0.00766752
1779586210083289861,A_+,0.05343589075073396,0.0,1.4727786360028952,-2.9133559473064947,-0.09133307975686328,-0.01726130630222392,0.0,0.0,0.0,0.0,0.0,0.0,0.0,0.080325,-0.222075,0.34964999999999996,-0.03929604,-0.08625959999999999,0.00766752
1779586210083289861,A_+,0.056080444500366866,0.0,1.4727786360028952,-2.9133559473064947,-0.09133307975686328,-0.01726130630222392,0.0,0.0,0.0,0.0,0.0,0.0,0.0,0.080325,-0.222075,0.34964999999999996,-0.03929604,-0.08625959999999999,0.00766752
1779586210103278875,A_+,0.05869378424995375,0.0,1.4727786360028952,-2.9133559473064947,-0.09133307975686328,-0.01726130630222392,0.0,0.0,0.0,0.0,0.0,0.0,0.0,0.0945,-0.16065,0.3449249999999999,-0.04408824,-0.08530115999999999,0.00095844
1779586210103278875,A_+,0.0614340522506609,0.0,1.4727786360028952,-2.9133559473064947,-0.09133307975686328,-0.01726130630222392,0.0,0.0,0.0,0.0,0.0,0.0,0.0,0.0945,-0.16065,0.3449249999999999,-0.04408824,-0.08530115999999999,0.00095844
1779586210103278875,A_+,0.0640734065000288,0.0,1.4727786360028952,-2.9133559473064947,-0.09133307975686328,-0.01726130630222392,0.0,0.0,0.0,0.0,0.0,0.0,0.0,0.0945,-0.16065,0.3449249999999999,-0.04408824,-0.08530115999999999,0.00095844
1779586210123956441,A_+,0.06671268850004708,0.0,1.4727786360028952,-2.9133559473064947,-0.09133307975686328,-0.01726130630222392,0.0,0.0,0.0,0.0,0.0,0.0,0.0,0.099225,-0.20789999999999997,0.3402,-0.03642072,-0.07379988,0.00095844
1779586210123956441,A_+,0.0694503007507592,0.0,1.4727786360028952,-2.9133559473064947,-0.09133307975686328,-0.01726130630222392,0.0,0.0,0.0,0.0,0.0,0.0,0.0,0.099225,-0.20789999999999997,0.3402,-0.03642072,-0.07379988,0.00095844
1779586210123956441,A_+,0.0720938707499954,0.0,1.4727786360028952,-2.9133559473064947,-0.09133307975686328,-0.01726130630222392,0.0,0.0,0.0,0.0,0.0,0.0,0.0,0.099225,-0.20789999999999997,0.3402,-0.03642072,-0.07379988,0.00095844
1779586210168595552,A_+,0.07471002625061374,0.0,1.4727786360028952,-2.9133559473064947,-0.09133307975686328,-0.01726130630222392,0.0,0.0,0.0,0.0,0.0,0.0,0.0,0.089775,-0.21262499999999998,0.335475,-0.04504668,-0.08817648,0.01150128
1779586210168595552,A_+,0.07746762925035,0.0,1.4727786360028952,-2.9133559473064947,-0.09133307975686328,-0.01726130630222392,0.0,0.0,0.0,0.0,0.0,0.0,0.0,0.089775,-0.21262499999999998,0.335475,-0.04504668,-0.08817648,0.01150128
1779586210168595552,A_+,0.08010971125077049,0.0,1.4727786360028952,-2.9133559473064947,-0.09133307975686328,-0.01726130630222392,0.0,0.0,0.0,0.0,0.0,0.0,0.0,0.089775,-0.21262499999999998,0.335475,-0.04504668,-0.08817648,0.01150128
1779586210213235855,A_+,0.08273979375007912,0.0,1.4727786360028952,-2.9133559473064947,-0.09133307975686328,-0.01726130630222392,0.0,0.0,0.0,0.0,0.0,0.0,0.0,0.070875,-0.19372499999999998,0.34964999999999996,-0.03929604,-0.09201024,0.0047922
1779586210213235855,A_+,0.0854901732500366,0.0,1.4727786360028952,-2.9133559473064947,-0.09133307975686328,-0.01726130630222392,0.0,0.0,0.0,0.0,0.0,0.0,0.0,0.070875,-0.19372499999999998,0.34964999999999996,-0.03929604,-0.09201024,0.0047922
1779586210213235855,A_+,0.08813422325056308,0.0,1.4727786360028952,-2.9133559473064947,-0.09133307975686328,-0.01726130630222392,0.0,0.0,0.0,0.0,0.0,0.0,0.0,0.070875,-0.19372499999999998,0.34964999999999996,-0.03929604,-0.09201024,0.0047922
1779586210253276109,A_+,0.09075929025038931,0.0,1.4727786360028952,-2.9133559473064947,-0.09133307975686328,-0.01726130630222392,0.0,0.0,0.0,0.0,0.0,0.0,0.0,0.108675,-0.222075,0.3402,-0.03642072,-0.09296868,0.01150128
1779586210253276109,A_+,0.09353364425078325,0.0,1.4727786360028952,-2.9133559473064947,-0.09133307975686328,-0.01726130630222392,0.0,0.0,0.0,0.0,0.0,0.0,0.0,0.108675,-0.222075,0.3402,-0.03642072,-0.09296868,0.01150128
1779586210253276109,A_+,0.09616655075024028,0.0,1.4727786360028952,-2.9133559473064947,-0.09133307975686328,-0.01726130630222392,0.0,0.0,0.0,0.0,0.0,0.0,0.0,0.108675,-0.222075,0.3402,-0.03642072,-0.09296868,0.01150128
1779586210298244476,A_+,0.09879419349999807,0.0,1.4727786360028952,-2.9133559473064947,-0.09133307975686328,-0.01726130630222392,0.0,0.0,0.0,0.0,0.0,0.0,0.0,0.0945,-0.137025,0.34964999999999996,-0.04121292,-0.08146740000000001,0.00670908
1779586210298244476,A_+,0.10154660500029422,0.0,1.4727786360028952,-2.9133559473064947,-0.09133307975686328,-0.01726130630222392,0.0,0.0,0.0,0.0,0.0,0.0,0.0,0.0945,-0.137025,0.34964999999999996,-0.04121292,-0.08146740000000001,0.00670908
1779586210298244476,A_+,0.10421513325036358,0.0,1.4727786360028952,-2.9133559473064947,-0.09133307975686328,-0.01726130630222392,0.0,0.0,0.0,0.0,0.0,0.0,0.0,0.0945,-0.137025,0.34964999999999996,-0.04121292,-0.08146740000000001,0.00670908
1779586210339413166,A_+,0.10681805750027706,0.0,1.4727786360028952,-2.9133559473064947,-0.09133307975686328,-0.01726130630222392,0.0,0.0,0.0,0.0,0.0,0.0,0.0,0.108675,-0.1701,0.335475,-0.03546228,-0.08721804,-0.00191688
1779586210339413166,A_+,0.10955728575027024,0.0,1.4727786360028952,-2.9133559473064947,-0.09133307975686328,-0.01726130630222392,0.0,0.0,0.0,0.0,0.0,0.0,0.0,0.108675,-0.1701,0.335475,-0.03546228,-0.08721804,-0.00191688
1779586210339413166,A_+,0.11220075950041064,0.0,1.4727786360028952,-2.9133559473064947,-0.09133307975686328,-0.01726130630222392,0.0,0.0,0.0,0.0,0.0,0.0,0.0,0.108675,-0.1701,0.335475,-0.03546228,-0.08721804,-0.00191688
1779586210389377117,A_+,0.1148168510007963,0.0,1.4727786360028952,-2.9133559473064947,-0.09133307975686328,-0.01726130630222392,0.0,0.0,0.0,0.0,0.0,0.0,0.0,0.089775,-0.16065,0.3402,-0.04025448,-0.08721804,0.0047922
1779586210389377117,A_+,0.11759795675061469,0.0,1.4727786360028952,-2.9133559473064947,-0.09133307975686328,-0.01726130630222392,0.0,0.0,0.0,0.0,0.0,0.0,0.0,0.089775,-0.16065,0.3402,-0.04025448,-0.08721804,0.0047922
1779586210389377117,A_+,0.12027601250065345,0.0,1.4727786360028952,-2.9133559473064947,-0.09133307975686328,-0.01726130630222392,0.0,0.0,0.0,0.0,0.0,0.0,0.0,0.089775,-0.16065,0.3402,-0.04025448,-0.08721804,0.0047922
1779586210418253660,A_+,0.12288490450009704,0.0,1.4727786360028952,-2.9133559473064947,-0.09133307975686328,-0.01726130630222392,0.0,0.0,0.0,0.0,0.0,0.0,0.0,0.080325,-0.165375,0.33075,-0.04408824,-0.095844,0.01054284
1779586210418253660,A_+,0.12561726100011583,0.0,1.4727786360028952,-2.9133559473064947,-0.09133307975686328,-0.01726130630222392,0.0,0.0,0.0,0.0,0.0,0.0,0.0,0.080325,-0.165375,0.33075,-0.04408824,-0.095844,0.01054284
1779586210418253660,A_+,0.12825725524999143,0.0,1.4727786360028952,-2.9133559473064947,-0.09133307975686328,-0.01726130630222392,0.0,0.0,0.0,0.0,0.0,0.0,0.0,0.080325,-0.165375,0.33075,-0.04408824,-0.095844,0.01054284
1779586210453874826,A_+,0.13087803450071078,0.0,1.4727786360028952,-2.9133559473064947,-0.09133307975686328,-0.01726130630222392,0.0,0.0,0.0,0.0,0.0,0.0,0.0,0.080325,-0.189,0.335475,-0.03258696,-0.08242584,0.00383376
1779586210453874826,A_+,0.13366693950047193,0.0,1.4727786360028952,-2.9133559473064947,-0.09133307975686328,-0.01726130630222392,0.0,0.0,0.0,0.0,0.0,0.0,0.0,0.080325,-0.189,0.335475,-0.03258696,-0.08242584,0.00383376
1779586210453874826,A_+,0.1362981022502936,0.0,1.4727786360028952,-2.9133559473064947,-0.09133307975686328,-0.01726130630222392,0.0,0.0,0.0,0.0,0.0,0.0,0.0,0.080325,-0.189,0.335475,-0.03258696,-0.08242584,0.00383376
1779586210493253946,A_+,0.13892197724999278,0.0,1.4727786360028952,-2.9133559473064947,-0.09133307975686328,-0.01726130630222392,0.0,0.0,0.0,0.0,0.0,0.0,0.0,0.35437499999999994,-0.165375,0.335475,-0.04600512,-0.08817648,0.0047922
1779586210493253946,A_+,0.14168817975041748,0.0,1.4727786360028952,-2.9133559473064947,-0.09133307975686328,-0.01726130630222392,0.0,0.0,0.0,0.0,0.0,0.0,0.0,0.35437499999999994,-0.165375,0.335475,-0.04600512,-0.08817648,0.0047922
1779586210493253946,A_+,0.14432427000065218,0.0,1.4727786360028952,-2.9133559473064947,-0.09133307975686328,-0.01726130630222392,0.0,0.0,0.0,0.0,0.0,0.0,0.0,0.35437499999999994,-0.165375,0.335475,-0.04600512,-0.08817648,0.0047922
1779586210523305654,A_+,0.14694138550021307,0.0,1.4727786360028952,-2.9133559473064947,-0.09133307975686328,-0.01726130630222392,0.0,0.0,0.0,0.0,0.0,0.0,0.0,0.3449249999999999,-0.165375,0.335475,-0.04217136,-0.09296868,0.01150128
1779586210523305654,A_+,0.14970018849999178,0.0,1.4727786360028952,-2.9133559473064947,-0.09133307975686328,-0.01726130630222392,0.0,0.0,0.0,0.0,0.0,0.0,0.0,0.3449249999999999,-0.165375,0.335475,-0.04217136,-0.09296868,0.01150128
1779586210523305654,A_+,0.15234507825061883,0.0,1.4727786360028952,-2.9133559473064947,-0.09133307975686328,-0.01726130630222392,0.0,0.0,0.0,0.0,0.0,0.0,0.0,0.3449249999999999,-0.165375,0.335475,-0.04217136,-0.09296868,0.01150128
1779586210558261156,A_+,0.15497532100016542,0.0,1.4727786360028952,-2.9133559473064947,-0.09133307975686328,-0.01726130630222392,0.0,0.0,0.0,0.0,0.0,0.0,0.0,0.3449249999999999,-0.19372499999999998,0.335475,-0.04121292,-0.09201024,0.00766752
1779586210558261156,A_+,0.15773708375036222,0.0,1.4727786360028952,-2.9133559473064947,-0.09133307975686328,-0.01726130630222392,0.0,0.0,0.0,0.0,0.0,0.0,0.0,0.3449249999999999,-0.19372499999999998,0.335475,-0.04121292,-0.09201024,0.00766752
1779586210558261156,A_+,0.1603891572503926,0.0,1.4727786360028952,-2.9133559473064947,-0.09133307975686328,-0.01726130630222392,0.0,0.0,0.0,0.0,0.0,0.0,0.0,0.3449249999999999,-0.19372499999999998,0.335475,-0.04121292,-0.09201024,0.00766752
1779586210593668222,A_+,0.16301515200029826,0.0,1.4727786360028952,-2.9133559473064947,-0.09133307975686328,-0.01726130630222392,0.0,0.0,0.0,0.0,0.0,0.0,0.0,0.3402,-0.19372499999999998,0.335475,-0.029711639999999997,-0.09296868,0.0095844
1779586210593668222,A_+,0.1660006375004741,0.0,1.4727786360028952,-2.9133559473064947,-0.09133307975686328,-0.01726130630222392,0.0,0.0,0.0,0.0,0.0,0.0,0.0,0.3402,-0.19372499999999998,0.335475,-0.029711639999999997,-0.09296868,0.0095844
1779586210593668222,A_+,0.1687338980000277,0.0,1.4727786360028952,-2.9133559473064947,-0.09133307975686328,-0.01726130630222392,0.0,0.0,0.0,0.0,0.0,0.0,0.0,0.3402,-0.19372499999999998,0.335475,-0.029711639999999997,-0.09296868,0.0095844
1779586210623294353,A_+,0.17140215425024508,0.0,1.4727786360028952,-2.9133559473064947,-0.09133307975686328,-0.01726130630222392,0.0,0.0,0.0,0.0,0.0,0.0,0.0,0.33075,-0.23152499999999998,0.35437499999999994,-0.03450384,-0.09296868,0.0095844
1779586210623294353,A_+,0.1742142742505166,0.0,1.4727786360028952,-2.9133559473064947,-0.09133307975686328,-0.01726130630222392,0.0,0.0,0.0,0.0,0.0,0.0,0.0,0.33075,-0.23152499999999998,0.35437499999999994,-0.03450384,-0.09296868,0.0095844
1779586210623294353,A_+,0.17690175350071513,0.0,1.4727786360028952,-2.9133559473064947,-0.09133307975686328,-0.01726130630222392,0.0,0.0,0.0,0.0,0.0,0.0,0.0,0.33075,-0.23152499999999998,0.35437499999999994,-0.03450384,-0.09296868,0.0095844
1779586210653267145,A_+,0.17954393925083423,0.0,1.4727786360028952,-2.9133559473064947,-0.09133307975686328,-0.01726130630222392,0.0,0.0,0.0,0.0,0.0,0.0,0.0,0.3449249999999999,-0.184275,0.35437499999999994,-0.048880440000000004,-0.09296868,0.00095844
1779586210653267145,A_+,0.1824237990003894,0.0,1.4727786360028952,-2.9133559473064947,-0.09133307975686328,-0.01726130630222392,0.0,0.0,0.0,0.0,0.0,0.0,0.0,0.3449249999999999,-0.184275,0.35437499999999994,-0.048880440000000004,-0.09296868,0.00095844
1779586210653267145,A_+,0.18513311700007762,0.0,1.4727786360028952,-2.9133559473064947,-0.09133307975686328,-0.01726130630222392,0.0,0.0,0.0,0.0,0.0,0.0,0.0,0.3449249999999999,-0.184275,0.35437499999999994,-0.048880440000000004,-0.09296868,0.00095844
1779586210668277740,A_+,0.18784745075026876,0.0,1.4727786360028952,-2.9133559473064947,-0.09133307975686328,-0.01726130630222392,0.0,0.0,0.0,0.0,0.0,0.0,0.0,0.33075,-0.17955,0.35437499999999994,-0.03737916,-0.08338428,0.0047922
1779586210668277740,A_+,0.1908069057508328,0.0,1.4727786360028952,-2.9133559473064947,-0.09133307975686328,-0.01726130630222392,0.0,0.0,0.0,0.0,0.0,0.0,0.0,0.33075,-0.17955,0.35437499999999994,-0.03737916,-0.08338428,0.0047922
1779586210668277740,A_+,0.19351529575033055,0.0,1.4727786360028952,-2.9133559473064947,-0.09133307975686328,-0.01726130630222392,0.0,0.0,0.0,0.0,0.0,0.0,0.0,0.33075,-0.17955,0.35437499999999994,-0.03737916,-0.08338428,0.0047922
1779586210688666820,A_+,0.19617932825076423,0.0,1.4727786360028952,-2.9133559473064947,-0.09133307975686328,-0.01726130630222392,0.0,0.0,0.0,0.0,0.0,0.0,0.0,0.3449249999999999,-0.189,0.326025,-0.0383376,-0.08625959999999999,0.01054284
1779586210688666820,A_+,0.19908765025047614,0.0,1.4727786360028952,-2.9133559473064947,-0.09133307975686328,-0.01726130630222392,0.0,0.0,0.0,0.0,0.0,0.0,0.0,0.3449249999999999,-0.189,0.326025,-0.0383376,-0.08625959999999999,0.01054284
1779586210688666820,A_+,0.20181839100041543,0.0,1.4727786360028952,-2.9133559473064947,-0.09133307975686328,-0.01726130630222392,0.0,0.0,0.0,0.0,0.0,0.0,0.0,0.3449249999999999,-0.189,0.326025,-0.0383376,-0.08625959999999999,0.01054284
1779586210713744878,A_+,0.20448303150078573,0.0,1.4727786360028952,-2.9133559473064947,-0.09133307975686328,-0.01726130630222392,0.0,0.0,0.0,0.0,0.0,0.0,0.0,0.34964999999999996,-0.17955,0.3402,-0.04121292,-0.09201024,0.01150128
1779586210713744878,A_+,0.20738759375035443,0.0,1.4727786360028952,-2.9133559473064947,-0.09133307975686328,-0.01726130630222392,0.0,0.0,0.0,0.0,0.0,0.0,0.0,0.34964999999999996,-0.17955,0.3402,-0.04121292,-0.09201024,0.01150128
1779586210713744878,A_+,0.21009368000068207,0.0,1.4727786360028952,-2.9133559473064947,-0.09133307975686328,-0.01726130630222392,0.0,0.0,0.0,0.0,0.0,0.0,0.0,0.34964999999999996,-0.17955,0.3402,-0.04121292,-0.09201024,0.01150128
1779586210728564500,A_+,0.21277078375078418,0.0,1.4727786360028952,-2.9133559473064947,-0.09133307975686328,-0.01726130630222392,0.0,0.0,0.0,0.0,0.0,0.0,0.0,0.326025,-0.189,0.33075,-0.03546228,-0.09776088000000001,0.00287532
1779586210728564500,A_+,0.2156696105002993,0.0,1.4727786360028952,-2.9133559473064947,-0.09133307975686328,-0.01726130630222392,0.0,0.0,0.0,0.0,0.0,0.0,0.0,0.326025,-0.189,0.33075,-0.03546228,-0.09776088000000001,0.00287532
1779586210728564500,A_+,0.21841943800063746,0.0,1.4727786360028952,-2.9133559473064947,-0.09133307975686328,-0.01726130630222392,0.0,0.0,0.0,0.0,0.0,0.0,0.0,0.326025,-0.189,0.33075,-0.03546228,-0.09776088000000001,0.00287532
1779586210753305673,A_+,0.22111140500055626,0.0,1.4727786360028952,-2.9133559473064947,-0.09133307975686328,-0.01726130630222392,0.0,0.0,0.0,0.0,0.0,0.0,0.0,0.3449249999999999,-0.17955,0.3591,-0.04121292,-0.08625959999999999,0.00766752
1779586210753305673,A_+,0.22401916700073343,0.0,1.4727786360028952,-2.9133559473064947,-0.09133307975686328,-0.01726130630222392,0.0,0.0,0.0,0.0,0.0,0.0,0.0,0.3449249999999999,-0.17955,0.3591,-0.04121292,-0.08625959999999999,0.00766752
1779586210753305673,A_+,0.22673184475024755,0.0,1.4727786360028952,-2.9133559473064947,-0.09133307975686328,-0.01726130630222392,0.0,0.0,0.0,0.0,0.0,0.0,0.0,0.3449249999999999,-0.17955,0.3591,-0.04121292,-0.08625959999999999,0.00766752
1779586210798285245,A_+,0.22940250900046522,0.0,1.4727786360028952,-2.9133559473064947,-0.09133307975686328,-0.01726130630222392,0.0,0.0,0.0,0.0,0.0,0.0,0.0,0.3449249999999999,-0.19845,0.326025,-0.04217136,-0.08817648,0.00670908
1779586210798285245,A_+,0.23233430150048662,0.0,1.4727786360028952,-2.9133559473064947,-0.09133307975686328,-0.01726130630222392,0.0,0.0,0.0,0.0,0.0,0.0,0.0,0.3449249999999999,-0.19845,0.326025,-0.04217136,-0.08817648,0.00670908
1779586210798285245,A_+,0.23506911399999808,0.0,1.4727786360028952,-2.9133559473064947,-0.09133307975686328,-0.01726130630222392,0.0,0.0,0.0,0.0,0.0,0.0,0.0,0.3449249999999999,-0.19845,0.326025,-0.04217136,-0.08817648,0.00670908
1779586210833279371,A_+,0.23774061825042736,0.0,1.4727786360028952,-2.9133559473064947,-0.09133307975686328,-0.01726130630222392,0.0,0.0,0.0,0.0,0.0,0.0,0.0,0.3591,-0.19845,0.316575,-0.04408824,-0.08434272,0.01150128
1779586210833279371,A_+,0.24065474800045195,0.0,1.4727786360028952,-2.9133559473064947,-0.09133307975686328,-0.01726130630222392,0.0,0.0,0.0,0.0,0.0,0.0,0.0,0.3591,-0.19845,0.316575,-0.04408824,-0.08434272,0.01150128
1779586210833279371,A_+,0.24336024200056272,0.0,1.4727786360028952,-2.9133559473064947,-0.09133307975686328,-0.01726130630222392,0.0,0.0,0.0,0.0,0.0,0.0,0.0,0.3591,-0.19845,0.316575,-0.04408824,-0.08434272,0.01150128
1779586210873651742,A_+,0.24602215475078992,0.0,1.4727786360028952,-2.9133559473064947,-0.09133307975686328,-0.01726130630222392,0.0,0.0,0.0,0.0,0.0,0.0,0.0,0.33075,-0.189,0.335475,-0.03929604,-0.09201024,0.00766752
1779586210873651742,A_+,0.24893074875035381,0.0,1.4727786360028952,-2.9133559473064947,-0.09133307975686328,-0.01726130630222392,0.0,0.0,0.0,0.0,0.0,0.0,0.0,0.33075,-0.189,0.335475,-0.03929604,-0.09201024,0.00766752
1779586210873651742,A_+,0.25164737825070915,0.0,1.4727786360028952,-2.9133559473064947,-0.09133307975686328,-0.01726130630222392,0.0,0.0,0.0,0.0,0.0,0.0,0.0,0.33075,-0.189,0.335475,-0.03929604,-0.09201024,0.00766752
1779586210893302917,A_+,0.25433265775063774,0.0,1.4727786360028952,-2.9133559473064947,-0.09133307975686328,-0.01726130630222392,0.0,0.0,0.0,0.0,0.0,0.0,0.0,0.3449249999999999,-0.19845,0.3449249999999999,-0.03737916,-0.08721804,0.0095844
1779586210893302917,A_+,0.2572609305007063,0.0,1.4727786360028952,-2.9133559473064947,-0.09133307975686328,-0.01726130630222392,0.0,0.0,0.0,0.0,0.0,0.0,0.0,0.3449249999999999,-0.19845,0.3449249999999999,-0.03737916,-0.08721804,0.0095844
1779586210893302917,A_+,0.2599664647505051,0.0,1.4727786360028952,-2.9133559473064947,-0.09133307975686328,-0.01726130630222392,0.0,0.0,0.0,0.0,0.0,0.0,0.0,0.3449249999999999,-0.19845,0.3449249999999999,-0.03737916,-0.08721804,0.0095844
1779586210943290233,A_+,0.2626376970001729,0.0,1.4727786360028952,-2.9133559473064947,-0.09133307975686328,-0.01726130630222392,0.0,0.0,0.0,0.0,0.0,0.0,0.0,0.326025,-0.19372499999999998,0.3449249999999999,-0.03642072,-0.08721804,0.00670908
1779586210943290233,A_+,0.2655643060006696,0.0,1.4727786360028952,-2.9133559473064947,-0.09133307975686328,-0.01726130630222392,0.0,0.0,0.0,0.0,0.0,0.0,0.0,0.326025,-0.19372499999999998,0.3449249999999999,-0.03642072,-0.08721804,0.00670908
1779586210943290233,A_+,0.26830911800061585,0.0,1.4727786360028952,-2.9133559473064947,-0.09133307975686328,-0.01726130630222392,0.0,0.0,0.0,0.0,0.0,0.0,0.0,0.326025,-0.19372499999999998,0.3449249999999999,-0.03642072,-0.08721804,0.00670908
1779586210963315486,A_+,0.27097360674997617,0.0,1.4727786360028952,-2.9133559473064947,-0.09133307975686328,-0.01726130630222392,0.0,0.0,0.0,0.0,0.0,0.0,0.0,0.316575,-0.20789999999999997,0.3402,-0.03546228,-0.08050896,0.00095844
1779586210963315486,A_+,0.27386008225039404,0.0,1.4727786360028952,-2.9133559473064947,-0.09133307975686328,-0.01726130630222392,0.0,0.0,0.0,0.0,0.0,0.0,0.0,0.316575,-0.20789999999999997,0.3402,-0.03546228,-0.08050896,0.00095844
1779586210963315486,A_+,0.2765693282508437,0.0,1.4727786360028952,-2.9133559473064947,-0.09133307975686328,-0.01726130630222392,0.0,0.0,0.0,0.0,0.0,0.0,0.0,0.316575,-0.20789999999999997,0.3402,-0.03546228,-0.08050896,0.00095844
1779586211003331422,A_+,0.27927795850064285,0.0,1.4727786360028952,-2.9133559473064947,-0.09133307975686328,-0.01726130630222392,0.0,0.0,0.0,0.0,0.0,0.0,0.0,0.326025,-0.17482499999999998,0.3449249999999999,-0.0383376,-0.08146740000000001,0.01245972
1779586211003331422,A_+,0.28213729950039124,0.0,1.4727786360028952,-2.9133559473064947,-0.09133307975686328,-0.01726130630222392,0.0,0.0,0.0,0.0,0.0,0.0,0.0,0.326025,-0.17482499999999998,0.3449249999999999,-0.0383376,-0.08146740000000001,0.01245972
1779586211003331422,A_+,0.2848410579999836,0.0,1.4727786360028952,-2.9133559473064947,-0.09133307975686328,-0.01726130630222392,0.0,0.0,0.0,0.0,0.0,0.0,0.0,0.326025,-0.17482499999999998,0.3449249999999999,-0.0383376,-0.08146740000000001,0.01245972
1779586211053310394,A_+,0.2874819162507265,0.0,1.4727786360028952,-2.9133559473064947,-0.09133307975686328,-0.01726130630222392,0.0,0.0,0.0,0.0,0.0,0.0,0.0,0.35437499999999994,-0.189,0.335475,-0.03258696,-0.07092456,0.023961
1779586211053310394,A_+,0.2903575365007782,0.0,1.4727786360028952,-2.9133559473064947,-0.09133307975686328,-0.01726130630222392,0.0,0.0,0.0,0.0,0.0,0.0,0.0,0.35437499999999994,-0.189,0.335475,-0.03258696,-0.07092456,0.023961
1779586211053310394,A_+,0.2930047542504326,0.0,1.4727786360028952,-2.9133559473064947,-0.09133307975686328,-0.01726130630222392,0.0,0.0,0.0,0.0,0.0,0.0,0.0,0.35437499999999994,-0.189,0.335475,-0.03258696,-0.07092456,0.023961
1779586211083326816,A_+,0.2956839780008522,0.0,1.4727786360028952,-2.9133559473064947,-0.09133307975686328,-0.01726130630222392,0.0,0.0,0.0,0.0,0.0,0.0,0.0,0.36382499999999995,-0.17955,0.316575,-0.04217136,-0.1006362,0.0095844
1779586211083326816,A_+,0.29862158650030324,0.0,1.4727786360028952,-2.9133559473064947,-0.09133307975686328,-0.01726130630222392,0.0,0.0,0.0,0.0,0.0,0.0,0.0,0.36382499999999995,-0.17955,0.316575,-0.04217136,-0.1006362,0.0095844
1779586211083326816,A_+,0.3013528072506233,0.0,1.4727786360028952,-2.9133559473064947,-0.09133307975686328,-0.01726130630222392,0.0,0.0,0.0,0.0,0.0,0.0,0.0,0.36382499999999995,-0.17955,0.316575,-0.04217136,-0.1006362,0.0095844
1779586211158329963,A_+,0.30402042400055507,0.0,1.4727786360028952,-2.9133559473064947,-0.09133307975686328,-0.01726130630222392,0.0,0.0,0.0,0.0,0.0,0.0,0.0,0.3213,-0.17955,0.3402,-0.03929604,-0.09392712,0.01054284
1779586211158329963,A_+,0.30693013000018254,0.0,1.4727786360028952,-2.9133559473064947,-0.09133307975686328,-0.01726130630222392,0.0,0.0,0.0,0.0,0.0,0.0,0.0,0.3213,-0.17955,0.3402,-0.03929604,-0.09392712,0.01054284
1779586211158329963,A_+,0.30967257425072603,0.0,1.4727786360028952,-2.9133559473064947,-0.09133307975686328,-0.01726130630222392,0.0,0.0,0.0,0.0,0.0,0.0,0.0,0.3213,-0.17955,0.3402,-0.03929604,-0.09392712,0.01054284
1779586211189742088,A_+,0.3123592057499991,0.0,1.4727786360028952,-2.9133559473064947,-0.09133307975686328,-0.01726130630222392,0.0,0.0,0.0,0.0,0.0,0.0,0.0,0.3213,-0.19845,0.34964999999999996,-0.03737916,-0.09201024,0.00670908
1779586211189742088,A_+,0.31533011625015206,0.0,1.4727786360028952,-2.9133559473064947,-0.09133307975686328,-0.01726130630222392,0.0,0.0,0.0,0.0,0.0,0.0,0.0,0.3213,-0.19845,0.34964999999999996,-0.03737916,-0.09201024,0.00670908
1779586211189742088,A_+,0.31808960725084034,0.0,1.4727786360028952,-2.9133559473064947,-0.09133307975686328,-0.01726130630222392,0.0,0.0,0.0,0.0,0.0,0.0,0.0,0.3213,-0.19845,0.34964999999999996,-0.03737916,-0.09201024,0.00670908
1779586211223580121,A_+,0.32077127100001235,0.0,1.4727786360028952,-2.9133559473064947,-0.09133307975686328,-0.01726130630222392,0.0,0.0,0.0,0.0,0.0,0.0,0.0,0.3213,-0.17482499999999998,0.35437499999999994,-0.03929604,-0.08913491999999999,0.0095844
1779586211223580121,A_+,0.3236768975002633,0.0,1.4727786360028952,-2.9133559473064947,-0.09133307975686328,-0.01726130630222392,0.0,0.0,0.0,0.0,0.0,0.0,0.0,0.3213,-0.17482499999999998,0.35437499999999994,-0.03929604,-0.08913491999999999,0.0095844
1779586211223580121,A_+,0.32639243900030124,0.0,1.4727786360028952,-2.9133559473064947,-0.09133307975686328,-0.01726130630222392,0.0,0.0,0.0,0.0,0.0,0.0,0.0,0.3213,-0.17482499999999998,0.35437499999999994,-0.03929604,-0.08913491999999999,0.0095844
1779586211258325815,A_+,0.32906880725022347,0.0,1.4727786360028952,-2.9133559473064947,-0.09133307975686328,-0.01726130630222392,0.0,0.0,0.0,0.0,0.0,0.0,0.0,0.335475,-0.189,0.35437499999999994,-0.04696356,-0.09488556,0.00862596
1779586211258325815,A_+,0.3319836570008192,0.0,1.4727786360028952,-2.9133559473064947,-0.09133307975686328,-0.01726130630222392,0.0,0.0,0.0,0.0,0.0,0.0,0.0,0.335475,-0.189,0.35437499999999994,-0.04696356,-0.09488556,0.00862596
1779586211258325815,A_+,0.3347028305006461,0.0,1.4727786360028952,-2.9133559473064947,-0.09133307975686328,-0.01726130630222392,0.0,0.0,0.0,0.0,0.0,0.0,0.0,0.335475,-0.189,0.35437499999999994,-0.04696356,-0.09488556,0.00862596
1779586211293338060,A_+,0.3373755187503775,0.0,1.4727786360028952,-2.9133559473064947,-0.09133307975686328,-0.01726130630222392,0.0,0.0,0.0,0.0,0.0,0.0,0.0,0.36855,-0.189,0.3449249999999999,-0.047922,-0.08721804,0.00191688
1779586211293338060,A_+,0.34029195250059274,0.0,1.4727786360028952,-2.9133559473064947,-0.09133307975686328,-0.01726130630222392,0.0,0.0,0.0,0.0,0.0,0.0,0.0,0.36855,-0.189,0.3449249999999999,-0.047922,-0.08721804,0.00191688
1779586211293338060,A_+,0.3430002067507303,0.0,1.4727786360028952,-2.9133559473064947,-0.09133307975686328,-0.01726130630222392,0.0,0.0,0.0,0.0,0.0,0.0,0.0,0.36855,-0.189,0.3449249999999999,-0.047922,-0.08721804,0.00191688
1779586211323849201,A_+,0.34568086250055785,0.0,1.4727786360028952,-2.9133559473064947,-0.09133307975686328,-0.01726130630222392,0.0,0.0,0.0,0.0,0.0,0.0,0.0,0.3449249999999999,-0.165375,0.38744999999999996,-0.04217136,-0.07571676,0.01054284
1779586211323849201,A_+,0.3484967262502323,0.0,1.4727786360028952,-2.9133559473064947,-0.09133307975686328,-0.01726130630222392,0.0,0.0,0.0,0.0,0.0,0.0,0.0,0.3449249999999999,-0.165375,0.38744999999999996,-0.04217136,-0.07571676,0.01054284
1779586211323849201,A_+,0.351150551750834,0.0,1.4727786360028952,-2.9133559473064947,-0.09133307975686328,-0.01726130630222392,0.0,0.0,0.0,0.0,0.0,0.0,0.0,0.3449249999999999,-0.165375,0.38744999999999996,-0.04217136,-0.07571676,0.01054284
1779586211358356475,A_+,0.35377534675080824,0.0,1.4727786360028952,-2.9133559473064947,-0.09133307975686328,-0.01726130630222392,0.0,0.0,0.0,0.0,0.0,0.0,0.0,0.35437499999999994,-0.189,0.3449249999999999,-0.04217136,-0.095844,0.01150128
1779586211358356475,A_+,0.35653583775001607,0.0,1.4727786360028952,-2.9133559473064947,-0.09133307975686328,-0.01726130630222392,0.0,0.0,0.0,0.0,0.0,0.0,0.0,0.35437499999999994,-0.189,0.3449249999999999,-0.04217136,-0.095844,0.01150128
1779586211358356475,A_+,0.3591796400005478,0.0,1.4727786360028952,-2.9133559473064947,-0.09133307975686328,-0.01726130630222392,0.0,0.0,0.0,0.0,0.0,0.0,0.0,0.35437499999999994,-0.189,0.3449249999999999,-0.04217136,-0.095844,0.01150128
1779586211383363962,A_+,0.36180022725056915,0.0,1.4727786360028952,-2.9133559473064947,-0.09133307975686328,-0.01726130630222392,0.0,0.0,0.0,0.0,0.0,0.0,0.0,0.3213,-0.17955,0.3449249999999999,-0.04217136,-0.09296868,-0.0095844
1779586211383363962,A_+,0.36468601475007745,0.0,1.4727786360028952,-2.9133559473064947,-0.09133307975686328,-0.01726130630222392,0.0,0.0,0.0,0.0,0.0,0.0,0.0,0.3213,-0.17955,0.3449249999999999,-0.04217136,-0.09296868,-0.0095844
1779586211383363962,A_+,0.36738526950011874,0.0,1.4727786360028952,-2.9133559473064947,-0.09133307975686328,-0.01726130630222392,0.0,0.0,0.0,0.0,0.0,0.0,0.0,0.3213,-0.17955,0.3449249999999999,-0.04217136,-0.09296868,-0.0095844
1779586211413345575,A_+,0.3700758607501484,0.0,1.4727786360028952,-2.9133559473064947,-0.09133307975686328,-0.01726130630222392,0.0,0.0,0.0,0.0,0.0,0.0,0.0,0.35437499999999994,-0.19845,0.3213,-0.03929604,-0.08721804,0.01341816
1779586211413345575,A_+,0.37301856500016584,0.0,1.4727786360028952,-2.9133559473064947,-0.09133307975686328,-0.01726130630222392,0.0,0.0,0.0,0.0,0.0,0.0,0.0,0.35437499999999994,-0.19845,0.3213,-0.03929604,-0.08721804,0.01341816
1779586211413345575,A_+,0.3757089402506608,0.0,1.4727786360028952,-2.9133559473064947,-0.09133307975686328,-0.01726130630222392,0.0,0.0,0.0,0.0,0.0,0.0,0.0,0.35437499999999994,-0.19845,0.3213,-0.03929604,-0.08721804,0.01341816
1779586211448369264,A_+,0.37837906050026504,0.0,1.4727786360028952,-2.9133559473064947,-0.09133307975686328,-0.01726130630222392,0.0,0.0,0.0,0.0,0.0,0.0,0.0,0.35437499999999994,-0.19845,0.3402,-0.03737916,-0.08530115999999999,0.00862596
1779586211448369264,A_+,0.3812613845002488,0.0,1.4727786360028952,-2.9133559473064947,-0.09133307975686328,-0.01726130630222392,0.0,0.0,0.0,0.0,0.0,0.0,0.0,0.35437499999999994,-0.19845,0.3402,-0.03737916,-0.08530115999999999,0.00862596
1779586211448369264,A_+,0.3839215375001004,0.0,1.4727786360028952,-2.9133559473064947,-0.09133307975686328,-0.01726130630222392,0.0,0.0,0.0,0.0,0.0,0.0,0.0,0.35437499999999994,-0.19845,0.3402,-0.03737916,-0.08530115999999999,0.00862596
1779586211488516092,A_+,0.3865483645004133,0.0,1.4727786360028952,-2.9133559473064947,-0.09133307975686328,-0.01726130630222392,0.0,0.014,0.0,0.0,0.0,0.0,0.0,0.590625,-0.19372499999999998,0.3449249999999999,-0.03929604,-0.08530115999999999,0.00766752
1779586211488516092,A_+,0.38934582125057204,0.0,1.4727786360028952,-2.9133559473064947,-0.09133307975686328,-0.01726130630222392,0.0,0.014,0.0,0.0,0.0,0.0,0.0,0.590625,-0.19372499999999998,0.3449249999999999,-0.03929604,-0.08530115999999999,0.00766752
1779586211488516092,A_+,0.39199215925054887,0.0,1.4727786360028952,-2.9133559473064947,-0.09133307975686328,-0.01726130630222392,0.0,0.014,0.0,0.0,0.0,0.0,0.0,0.590625,-0.19372499999999998,0.3449249999999999,-0.03929604,-0.08530115999999999,0.00766752
1779586211519533872,A_+,0.3946207940007298,0.0,1.4727786360028952,-2.9133559473064947,-0.09133307975686328,-0.01726130630222392,0.0,0.0,0.0,0.0,0.0,0.0,0.0,0.5953499999999999,-0.17955,0.33075,-0.04600512,-0.09201024,0.01150128
1779586211519533872,A_+,0.3975853290003215,0.0,1.4727786360028952,-2.9133559473064947,-0.09133307975686328,-0.01726130630222392,0.0,0.0,0.0,0.0,0.0,0.0,0.0,0.5953499999999999,-0.17955,0.33075,-0.04600512,-0.09201024,0.01150128
1779586211519533872,A_+,0.4003752822500246,0.0,1.4727786360028952,-2.9133559473064947,-0.09133307975686328,-0.01726130630222392,0.0,0.0,0.0,0.0,0.0,0.0,0.0,0.5953499999999999,-0.17955,0.33075,-0.04600512,-0.09201024,0.01150128
1779586211538369178,A_+,0.4030664735000755,0.0,1.4727786360028952,-2.9133559473064947,-0.09133307975686328,-0.01726130630222392,0.0,0.0,0.0,0.0,0.0,0.0,0.0,0.5859,-0.184275,0.3449249999999999,-0.03737916,-0.09009336,0.00575064
1779586211538369178,A_+,0.40598726675034413,0.0,1.4727786360028952,-2.9133559473064947,-0.09133307975686328,-0.01726130630222392,0.0,0.0,0.0,0.0,0.0,0.0,0.0,0.5859,-0.184275,0.3449249999999999,-0.03737916,-0.09009336,0.00575064
1779586211538369178,A_+,0.40867551425071724,0.0,1.4727786360028952,-2.9133559473064947,-0.09133307975686328,-0.01726130630222392,0.0,0.0,0.0,0.0,0.0,0.0,0.0,0.5859,-0.184275,0.3449249999999999,-0.03737916,-0.09009336,0.00575064
1779586211553355216,A_+,0.4113595217504553,0.0,1.4727786360028952,-2.9133559473064947,-0.09133307975686328,-0.01726130630222392,0.0,0.0,0.0,0.0,0.0,0.0,0.0,0.567,-0.184275,0.335475,-0.03929604,-0.0910518,0.00383376
1779586211553355216,A_+,0.4142561647504408,0.0,1.4727786360028952,-2.9133559473064947,-0.09133307975686328,-0.01726130630222392,0.0,0.0,0.0,0.0,0.0,0.0,0.0,0.567,-0.184275,0.335475,-0.03929604,-0.0910518,0.00383376
1779586211553355216,A_+,0.41699522500039166,0.0,1.4727786360028952,-2.9133559473064947,-0.09133307975686328,-0.01726130630222392,0.0,0.0,0.0,0.0,0.0,0.0,0.0,0.567,-0.184275,0.335475,-0.03929604,-0.0910518,0.00383376
1779586211589334964,A_+,0.41967861675038876,0.0,1.4727786360028952,-2.9133559473064947,-0.09133307975686328,-0.01726130630222392,0.0,0.0,0.0,0.0,0.0,0.0,0.0,0.6048,-0.21735,0.35437499999999994,-0.0383376,-0.08913491999999999,0.02300256
1779586211589334964,A_+,0.422621065000385,0.0,1.4727786360028952,-2.9133559473064947,-0.09133307975686328,-0.01726130630222392,0.0,0.0,0.0,0.0,0.0,0.0,0.0,0.6048,-0.21735,0.35437499999999994,-0.0383376,-0.08913491999999999,0.02300256
1779586211589334964,A_+,0.42532856700017874,0.0,1.4727786360028952,-2.9133559473064947,-0.09133307975686328,-0.01726130630222392,0.0,0.0,0.0,0.0,0.0,0.0,0.0,0.6048,-0.21735,0.35437499999999994,-0.0383376,-0.08913491999999999,0.02300256
1779586211613386392,A_+,0.4279874962503527,0.0,1.4727786360028952,-2.9133559473064947,-0.09133307975686328,-0.01726130630222392,0.0,0.0,0.0,0.0,0.0,0.0,0.0,0.628425,-0.165375,0.326025,-0.04121292,-0.08338428,0.00287532
1779586211613386392,A_+,0.4308672522502093,0.0,1.4727786360028952,-2.9133559473064947,-0.09133307975686328,-0.01726130630222392,0.0,0.0,0.0,0.0,0.0,0.0,0.0,0.628425,-0.165375,0.326025,-0.04121292,-0.08338428,0.00287532
1779586211613386392,A_+,0.43356245100039814,0.0,1.4727786360028952,-2.9133559473064947,-0.09133307975686328,-0.01726130630222392,0.0,0.0,0.0,0.0,0.0,0.0,0.0,0.628425,-0.165375,0.326025,-0.04121292,-0.08338428,0.00287532
1779586211638419866,A_+,0.43621810050080967,0.0,1.4727786360028952,-2.9133559473064947,-0.09133307975686328,-0.01726130630222392,0.0,0.0,0.0,0.0,0.0,0.0,0.0,0.590625,-0.19372499999999998,0.326025,-0.04025448,-0.09296868,0.00862596
1779586211638419866,A_+,0.4390837132505112,0.0,1.4727786360028952,-2.9133559473064947,-0.09133307975686328,-0.01726130630222392,0.0,0.0,0.0,0.0,0.0,0.0,0.0,0.590625,-0.19372499999999998,0.326025,-0.04025448,-0.09296868,0.00862596
1779586211638419866,A_+,0.4417563215001792,0.0,1.4727786360028952,-2.9133559473064947,-0.09133307975686328,-0.01726130630222392,0.0,0.0,0.0,0.0,0.0,0.0,0.0,0.590625,-0.19372499999999998,0.326025,-0.04025448,-0.09296868,0.00862596
1779586211663517236,A_+,0.44441542650019983,0.0,1.4727786360028952,-2.9133559473064947,-0.09133307975686328,-0.01726130630222392,0.0,0.0,0.0,0.0,0.0,0.0,0.0,0.5953499999999999,-0.184275,0.36382499999999995,-0.03929604,-0.0910518,0.01821036
1779586211663517236,A_+,0.44733782000002975,0.0,1.4727786360028952,-2.9133559473064947,-0.09133307975686328,-0.01726130630222392,0.0,0.0,0.0,0.0,0.0,0.0,0.0,0.5953499999999999,-0.184275,0.36382499999999995,-0.03929604,-0.0910518,0.01821036
1779586211663517236,A_+,0.45005313775072864,0.0,1.4727786360028952,-2.9133559473064947,-0.09133307975686328,-0.01726130630222392,0.0,0.0,0.0,0.0,0.0,0.0,0.0,0.5953499999999999,-0.184275,0.36382499999999995,-0.03929604,-0.0910518,0.01821036
1779586211698960304,A_+,0.4526987075005309,0.0,1.4727786360028952,-2.9133559473064947,-0.09133307975686328,-0.01726130630222392,0.0,0.0,0.0,0.0,0.0,0.0,0.0,0.5953499999999999,-0.189,0.34964999999999996,-0.03642072,-0.095844,0.00862596
1779586211698960304,A_+,0.4555320342506093,0.0,1.4727786360028952,-2.9133559473064947,-0.09133307975686328,-0.01726130630222392,0.0,0.0,0.0,0.0,0.0,0.0,0.0,0.5953499999999999,-0.189,0.34964999999999996,-0.03642072,-0.095844,0.00862596
1779586211698960304,A_+,0.458208090250082,0.0,1.4727786360028952,-2.9133559473064947,-0.09133307975686328,-0.01726130630222392,0.0,0.0,0.0,0.0,0.0,0.0,0.0,0.5953499999999999,-0.189,0.34964999999999996,-0.03642072,-0.095844,0.00862596
1779586211738377571,A_+,0.4608587160000752,0.0,1.4727786360028952,-2.9133559473064947,-0.09133307975686328,-0.01726130630222392,0.0,0.0,0.0,0.0,0.0,0.0,0.0,0.581175,-0.184275,0.316575,-0.0383376,-0.08050896,0.00766752
1779586211738377571,A_+,0.4637132735006162,0.0,1.4727786360028952,-2.9133559473064947,-0.09133307975686328,-0.01726130630222392,0.0,0.0,0.0,0.0,0.0,0.0,0.0,0.581175,-0.184275,0.316575,-0.0383376,-0.08050896,0.00766752
1779586211738377571,A_+,0.46642097550011385,0.0,1.4727786360028952,-2.9133559473064947,-0.09133307975686328,-0.01726130630222392,0.0,0.0,0.0,0.0,0.0,0.0,0.0,0.581175,-0.184275,0.316575,-0.0383376,-0.08050896,0.00766752
1779586211768378734,A_+,0.4690869122505319,0.0,1.4727786360028952,-2.9133559473064947,-0.09133307975686328,-0.01726130630222392,0.0,0.0,0.0,0.0,0.0,0.0,0.0,0.6048,-0.189,0.35437499999999994,-0.03450384,-0.0910518,0.00383376
1779586211768378734,A_+,0.4719418537506499,0.0,1.4727786360028952,-2.9133559473064947,-0.09133307975686328,-0.01726130630222392,0.0,0.0,0.0,0.0,0.0,0.0,0.0,0.6048,-0.189,0.35437499999999994,-0.03450384,-0.0910518,0.00383376
1779586211768378734,A_+,0.47461070225017465,0.0,1.4727786360028952,-2.9133559473064947,-0.09133307975686328,-0.01726130630222392,0.0,0.0,0.0,0.0,0.0,0.0,0.0,0.6048,-0.189,0.35437499999999994,-0.03450384,-0.0910518,0.00383376
1779586211823416471,A_+,0.4772939580007005,0.0,1.4727786360028952,-2.9133559473064947,-0.09133307975686328,-0.01726130630222392,0.0,0.0,0.0,0.0,0.0,0.0,0.0,0.5764499999999999,-0.16065,0.3449249999999999,-0.04408824,-0.09296868,0.01725192
1779586211823416471,A_+,0.4801198850000219,0.0,1.4727786360028952,-2.9133559473064947,-0.09133307975686328,-0.01726130630222392,0.0,0.0,0.0,0.0,0.0,0.0,0.0,0.5764499999999999,-0.16065,0.3449249999999999,-0.04408824,-0.09296868,0.01725192
1779586211823416471,A_+,0.48279852500036213,0.0,1.4727786360028952,-2.9133559473064947,-0.09133307975686328,-0.01726130630222392,0.0,0.0,0.0,0.0,0.0,0.0,0.0,0.5764499999999999,-0.16065,0.3449249999999999,-0.04408824,-0.09296868,0.01725192
1779586211843431949,A_+,0.4854806367502533,0.0,1.4727786360028952,-2.9133559473064947,-0.09133307975686328,-0.01726130630222392,0.0,0.0,0.0,0.0,0.0,0.0,0.0,0.590625,-0.19372499999999998,0.3449249999999999,-0.05175576,-0.08625959999999999,0.00862596
1779586211843431949,A_+,0.4883505772504577,0.0,1.4727786360028952,-2.9133559473064947,-0.09133307975686328,-0.01726130630222392,0.0,0.0,0.0,0.0,0.0,0.0,0.0,0.590625,-0.19372499999999998,0.3449249999999999,-0.05175576,-0.08625959999999999,0.00862596
1779586211843431949,A_+,0.49101169825007673,0.0,1.4727786360028952,-2.9133559473064947,-0.09133307975686328,-0.01726130630222392,0.0,0.0,0.0,0.0,0.0,0.0,0.0,0.590625,-0.19372499999999998,0.3449249999999999,-0.05175576,-0.08625959999999999,0.00862596
1779586211908392190,A_+,0.49369052200017904,0.0,1.4727786360028952,-2.9133559473064947,-0.09133307975686328,-0.01726130630222392,0.0,0.0,0.0,0.0,0.0,0.0,0.0,0.6048,-0.189,0.326025,-0.04217136,-0.09296868,0.01245972
1779586211908392190,A_+,0.4965624465003202,0.0,1.4727786360028952,-2.9133559473064947,-0.09133307975686328,-0.01726130630222392,0.0,0.0,0.0,0.0,0.0,0.0,0.0,0.6048,-0.189,0.326025,-0.04217136,-0.09296868,0.01245972
1779586211908392190,A_+,0.4992586612506784,0.0,1.4727786360028952,-2.9133559473064947,-0.09133307975686328,-0.01726130630222392,0.0,0.0,0.0,0.0,0.0,0.0,0.0,0.6048,-0.189,0.326025,-0.04217136,-0.09296868,0.01245972
1779586211933402538,A_+,0.5019164865007042,0.0,1.4727786360028952,-2.9133559473064947,-0.09133307975686328,-0.01726130630222392,0.0,0.0,0.0,0.0,0.0,0.0,0.0,0.6048,-0.222075,0.316575,-0.04121292,-0.08146740000000001,0.00670908
1779586211933402538,A_+,0.5048278485000992,0.0,1.4727786360028952,-2.9133559473064947,-0.09133307975686328,-0.01726130630222392,0.0,0.0,0.0,0.0,0.0,0.0,0.0,0.6048,-0.222075,0.316575,-0.04121292,-0.08146740000000001,0.00670908
1779586211933402538,A_+,0.5075214955004412,0.0,1.4727786360028952,-2.9133559473064947,-0.09133307975686328,-0.01726130630222392,0.0,0.0,0.0,0.0,0.0,0.0,0.0,0.6048,-0.222075,0.316575,-0.04121292,-0.08146740000000001,0.00670908
1779586211959254503,A_+,0.51019204000022,0.0,1.4727786360028952,-2.9133559473064947,-0.09133307975686328,-0.01726130630222392,0.0,0.0,0.0,0.0,0.0,0.0,0.0,0.6000749999999999,-0.17955,0.3449249999999999,-0.03929604,-0.09201024,0.01629348
1779586211959254503,A_+,0.5131046660007996,0.0,1.4727786360028952,-2.9133559473064947,-0.09133307975686328,-0.01726130630222392,0.0,0.0,0.0,0.0,0.0,0.0,0.0,0.6000749999999999,-0.17955,0.3449249999999999,-0.03929604,-0.09201024,0.01629348
1779586211959254503,A_+,0.5157936972500465,0.0,1.4727786360028952,-2.9133559473064947,-0.09133307975686328,-0.01726130630222392,0.0,0.0,0.0,0.0,0.0,0.0,0.0,0.6000749999999999,-0.17955,0.3449249999999999,-0.03929604,-0.09201024,0.01629348
1779586211984023332,A_+,0.5184459629999765,0.0,1.4727786360028952,-2.9133559473064947,-0.09133307975686328,-0.01726130630222392,0.0,0.0,0.0,0.0,0.0,0.0,0.0,0.581175,-0.19372499999999998,0.34964999999999996,-0.03067008,-0.07859208,0.01533504
1779586211984023332,A_+,0.5214185214999816,0.0,1.4727786360028952,-2.9133559473064947,-0.09133307975686328,-0.01726130630222392,0.0,0.0,0.0,0.0,0.0,0.0,0.0,0.581175,-0.19372499999999998,0.34964999999999996,-0.03067008,-0.07859208,0.01533504
1779586211984023332,A_+,0.524077147000753,0.0,1.4727786360028952,-2.9133559473064947,-0.09133307975686328,-0.01726130630222392,0.0,0.0,0.0,0.0,0.0,0.0,0.0,0.581175,-0.19372499999999998,0.34964999999999996,-0.03067008,-0.07859208,0.01533504
1779586212048413753,A_+,0.5267082857508285,0.0,1.4727786360028952,-2.9133559473064947,-0.09133307975686328,-0.01726130630222392,0.0,0.0,0.0,0.0,0.0,0.0,0.0,0.5953499999999999,-0.1701,0.34964999999999996,-0.04600512,-0.08913491999999999,0.00575064
1779586212048413753,A_+,0.5294861360007417,0.0,1.4727786360028952,-2.9133559473064947,-0.09133307975686328,-0.01726130630222392,0.0,0.0,0.0,0.0,0.0,0.0,0.0,0.5953499999999999,-0.1701,0.34964999999999996,-0.04600512,-0.08913491999999999,0.00575064
1779586212048413753,A_+,0.5321711917504217,0.0,1.4727786360028952,-2.9133559473064947,-0.09133307975686328,-0.01726130630222392,0.0,0.0,0.0,0.0,0.0,0.0,0.0,0.5953499999999999,-0.1701,0.34964999999999996,-0.04600512,-0.08913491999999999,0.00575064
1779586212079841852,A_+,0.5348145699999804,0.0,1.4727786360028952,-2.9133559473064947,-0.09133307975686328,-0.01726130630222392,0.0,0.0,0.0,0.0,0.0,0.0,0.0,0.609525,-0.240975,0.3402,-0.04121292,-0.09009336,0.02587788
1779586212079841852,A_+,0.5376373055005388,0.0,1.4727786360028952,-2.9133559473064947,-0.09133307975686328,-0.01726130630222392,0.0,0.0,0.0,0.0,0.0,0.0,0.0,0.609525,-0.240975,0.3402,-0.04121292,-0.09009336,0.02587788
1779586212079841852,A_+,0.540323537000404,0.0,1.4727786360028952,-2.9133559473064947,-0.09133307975686328,-0.01726130630222392,0.0,0.0,0.0,0.0,0.0,0.0,0.0,0.609525,-0.240975,0.3402,-0.04121292,-0.09009336,0.02587788
1779586212113425254,A_+,0.5430007052500514,0.0,1.4727786360028952,-2.9133559473064947,-0.09133307975686328,-0.01726130630222392,0.0,0.0,0.0,0.0,0.0,0.0,0.0,0.6000749999999999,-0.203175,0.35437499999999994,-0.03642072,-0.09296868,0.00766752
1779586212113425254,A_+,0.5458920047503852,0.0,1.4727786360028952,-2.9133559473064947,-0.09133307975686328,-0.01726130630222392,0.0,0.0,0.0,0.0,0.0,0.0,0.0,0.6000749999999999,-0.203175,0.35437499999999994,-0.03642072,-0.09296868,0.00766752
1779586212113425254,A_+,0.5485862437508331,0.0,1.4727786360028952,-2.9133559473064947,-0.09133307975686328,-0.01726130630222392,0.0,0.0,0.0,0.0,0.0,0.0,0.0,0.6000749999999999,-0.203175,0.35437499999999994,-0.03642072,-0.09296868,0.00766752
1779586212148409605,A_+,0.5512518687501142,0.0,1.4727786360028952,-2.9133559473064947,-0.09133307975686328,-0.01726130630222392,0.0,0.0,0.0,0.0,0.0,0.0,0.0,0.5953499999999999,-0.189,0.3449249999999999,-0.0335454,-0.08913491999999999,0.00670908
1779586212148409605,A_+,0.5540987787508129,0.0,1.4727786360028952,-2.9133559473064947,-0.09133307975686328,-0.01726130630222392,0.0,0.0,0.0,0.0,0.0,0.0,0.0,0.5953499999999999,-0.189,0.3449249999999999,-0.0335454,-0.08913491999999999,0.00670908
1779586212148409605,A_+,0.5567724032507613,0.0,1.4727786360028952,-2.9133559473064947,-0.09133307975686328,-0.01726130630222392,0.0,0.0,0.0,0.0,0.0,0.0,0.0,0.5953499999999999,-0.189,0.3449249999999999,-0.0335454,-0.08913491999999999,0.00670908
1779586212178746938,A_+,0.5594112695007425,0.0,1.4727786360028952,-2.9133559473064947,-0.09133307975686328,-0.01726130630222392,0.0,0.0,0.0,0.0,0.0,0.0,0.0,0.5859,-0.165375,0.3449249999999999,-0.04121292,-0.095844,0.01150128
1779586212178746938,A_+,0.5622720427500099,0.0,1.4727786360028952,-2.9133559473064947,-0.09133307975686328,-0.01726130630222392,0.0,0.0,0.0,0.0,0.0,0.0,0.0,0.5859,-0.165375,0.3449249999999999,-0.04121292,-0.095844,0.01150128
1779586212178746938,A_+,0.564964298250743,0.0,1.4727786360028952,-2.9133559473064947,-0.09133307975686328,-0.01726130630222392,0.0,0.0,0.0,0.0,0.0,0.0,0.0,0.5859,-0.165375,0.3449249999999999,-0.04121292,-0.095844,0.01150128
1779586212208431005,A_+,0.567624843250087,0.0,1.4727786360028952,-2.9133559473064947,-0.09133307975686328,-0.01726130630222392,0.0,0.0,0.0,0.0,0.0,0.0,0.0,0.6048,-0.184275,0.3449249999999999,-0.04121292,-0.08530115999999999,0.00575064
1779586212208431005,A_+,0.5705195825003102,0.0,1.4727786360028952,-2.9133559473064947,-0.09133307975686328,-0.01726130630222392,0.0,0.0,0.0,0.0,0.0,0.0,0.0,0.6048,-0.184275,0.3449249999999999,-0.04121292,-0.08530115999999999,0.00575064
1779586212208431005,A_+,0.5732081900005142,0.0,1.4727786360028952,-2.9133559473064947,-0.09133307975686328,-0.01726130630222392,0.0,0.0,0.0,0.0,0.0,0.0,0.0,0.6048,-0.184275,0.3449249999999999,-0.04121292,-0.08530115999999999,0.00575064
1779586212244028329,A_+,0.5758575197505706,0.0,1.4727786360028952,-2.9133559473064947,-0.09133307975686328,-0.01726130630222392,0.0,0.0,0.0,0.0,0.0,0.0,0.0,0.5953499999999999,-0.184275,0.335475,-0.04408824,-0.08625959999999999,0.0
1779586212244028329,A_+,0.5786489132506176,0.0,1.4727786360028952,-2.9133559473064947,-0.09133307975686328,-0.01726130630222392,0.0,0.0,0.0,0.0,0.0,0.0,0.0,0.5953499999999999,-0.184275,0.335475,-0.04408824,-0.08625959999999999,0.0
1779586212244028329,A_+,0.5813399845001186,0.0,1.4727786360028952,-2.9133559473064947,-0.09133307975686328,-0.01726130630222392,0.0,0.0,0.0,0.0,0.0,0.0,0.0,0.5953499999999999,-0.184275,0.335475,-0.04408824,-0.08625959999999999,0.0
1779586212278437376,A_+,0.5840013297502082,0.0,1.4727786360028952,-2.9133559473064947,-0.09133307975686328,-0.01726130630222392,0.0,0.0,0.0,0.0,0.0,0.0,0.0,0.581175,-0.118125,0.37327499999999997,-0.04504668,-0.08530115999999999,0.00095844
1779586212278437376,A_+,0.5868734382502225,0.0,1.4727786360028952,-2.9133559473064947,-0.09133307975686328,-0.01726130630222392,0.0,0.0,0.0,0.0,0.0,0.0,0.0,0.581175,-0.118125,0.37327499999999997,-0.04504668,-0.08530115999999999,0.00095844
1779586212278437376,A_+,0.5895911960005833,0.0,1.4727786360028952,-2.9133559473064947,-0.09133307975686328,-0.01726130630222392,0.0,0.0,0.0,0.0,0.0,0.0,0.0,0.581175,-0.118125,0.37327499999999997,-0.04504668,-0.08530115999999999,0.00095844
1779586212303483724,A_+,0.5922904910003126,0.0,1.4727786360028952,-2.9133559473064947,-0.09133307975686328,-0.01726130630222392,0.0,0.0,0.0,0.0,0.0,0.0,0.0,0.5953499999999999,-0.155925,0.335475,-0.03546228,-0.09201024,0.00191688
1779586212303483724,A_+,0.5953549880005085,0.0,1.4727786360028952,-2.9133559473064947,-0.09133307975686328,-0.01726130630222392,0.0,0.0,0.0,0.0,0.0,0.0,0.0,0.5953499999999999,-0.155925,0.335475,-0.03546228,-0.09201024,0.00191688
1779586212303483724,A_+,0.5980723697502981,0.0,1.4727786360028952,-2.9133559473064947,-0.09133307975686328,-0.01726130630222392,0.0,0.0,0.0,0.0,0.0,0.0,0.0,0.5953499999999999,-0.155925,0.335475,-0.03546228,-0.09201024,0.00191688
1779586212328453540,A_+,0.6007631370002855,0.0,1.4727786360028952,-2.9133559473064947,-0.09133307975686328,-0.01726130630222392,0.0,0.0,0.0,0.0,0.0,0.0,0.0,0.590625,-0.21735,0.3591,-0.04408824,-0.08242584,0.00095844
1779586212328453540,A_+,0.603690538250703,0.0,1.4727786360028952,-2.9133559473064947,-0.09133307975686328,-0.01726130630222392,0.0,0.0,0.0,0.0,0.0,0.0,0.0,0.590625,-0.21735,0.3591,-0.04408824,-0.08242584,0.00095844
1779586212328453540,A_+,0.6063915772501787,0.0,1.4727786360028952,-2.9133559473064947,-0.09133307975686328,-0.01726130630222392,0.0,0.0,0.0,0.0,0.0,0.0,0.0,0.590625,-0.21735,0.3591,-0.04408824,-0.08242584,0.00095844
1779586212373440742,A_+,0.6090466507503152,0.0,1.4727786360028952,-2.9133559473064947,-0.09133307975686328,-0.01726130630222392,0.0,0.0,0.0,0.0,0.0,0.0,0.0,0.5953499999999999,-0.17955,0.33075,-0.03737916,-0.09871932,0.00383376
1779586212373440742,A_+,0.611984427250718,0.0,1.4727786360028952,-2.9133559473064947,-0.09133307975686328,-0.01726130630222392,0.0,0.0,0.0,0.0,0.0,0.0,0.0,0.5953499999999999,-0.17955,0.33075,-0.03737916,-0.09871932,0.00383376
1779586212373440742,A_+,0.6147273195001617,0.0,1.4727786360028952,-2.9133559473064947,-0.09133307975686328,-0.01726130630222392,0.0,0.0,0.0,0.0,0.0,0.0,0.0,0.5953499999999999,-0.17955,0.33075,-0.03737916,-0.09871932,0.00383376
1779586212413519382,A_+,0.6174360297500243,0.0,1.4727786360028952,-2.9133559473064947,-0.09133307975686328,-0.01726130630222392,0.0,0.0,0.0,0.0,0.0,0.0,0.0,0.5859,-0.184275,0.34964999999999996,-0.043129799999999996,-0.08817648,0.00766752
1779586212413519382,A_+,0.6202746045000822,0.0,1.4727786360028952,-2.9133559473064947,-0.09133307975686328,-0.01726130630222392,0.0,0.0,0.0,0.0,0.0,0.0,0.0,0.5859,-0.184275,0.34964999999999996,-0.043129799999999996,-0.08817648,0.00766752
1779586212413519382,A_+,0.6229262700007894,0.0,1.4727786360028952,-2.9133559473064947,-0.09133307975686328,-0.01726130630222392,0.0,0.0,0.0,0.0,0.0,0.0,0.0,0.5859,-0.184275,0.34964999999999996,-0.043129799999999996,-0.08817648,0.00766752
1779586212443458318,A_+,0.6255428020003819,0.0,1.4727786360028952,-2.9133559473064947,-0.09133307975686328,-0.01726130630222392,0.0,0.0,0.0,0.0,0.0,0.0,0.0,0.6000749999999999,-0.17955,0.3402,-0.04025448,-0.08721804,0.00766752
1779586212443458318,A_+,0.6283402510007363,0.0,1.4727786360028952,-2.9133559473064947,-0.09133307975686328,-0.01726130630222392,0.0,0.0,0.0,0.0,0.0,0.0,0.0,0.6000749999999999,-0.17955,0.3402,-0.04025448,-0.08721804,0.00766752
1779586212443458318,A_+,0.6310232427504161,0.0,1.4727786360028952,-2.9133559473064947,-0.09133307975686328,-0.01726130630222392,0.0,0.0,0.0,0.0,0.0,0.0,0.0,0.6000749999999999,-0.17955,0.3402,-0.04025448,-0.08721804,0.00766752
1779586212473450183,A_+,0.6336811800001669,0.0,1.4727786360028952,-2.9133559473064947,-0.09133307975686328,-0.01726130630222392,0.0,0.0,0.0,0.0,0.0,0.0,0.0,0.590625,-0.184275,0.33075,-0.0383376,-0.08530115999999999,0.01341816
1779586212473450183,A_+,0.6366592262502309,0.0,1.4727786360028952,-2.9133559473064947,-0.09133307975686328,-0.01726130630222392,0.0,0.0,0.0,0.0,0.0,0.0,0.0,0.590625,-0.184275,0.33075,-0.0383376,-0.08530115999999999,0.01341816
1779586212473450183,A_+,0.6393636167504155,0.0,1.4727786360028952,-2.9133559473064947,-0.09133307975686328,-0.01726130630222392,0.0,0.0,0.0,0.0,0.0,0.0,0.0,0.590625,-0.184275,0.33075,-0.0383376,-0.08530115999999999,0.01341816
1779586212503477334,A_+,0.6420004035007878,0.0003665191429188092,1.4727786360028952,-2.9133559473064947,-0.09133307975686328,-0.01726130630222392,0.0,0.003,0.0,0.0,0.0,0.0,0.0,0.8127,-0.19372499999999998,0.33075,-0.04025448,-0.09009336,0.0095844
1779586212503477334,A_+,0.6448423857500529,0.0003665191429188092,1.4727786360028952,-2.9133559473064947,-0.09133307975686328,-0.01726130630222392,0.0,0.003,0.0,0.0,0.0,0.0,0.0,0.8127,-0.19372499999999998,0.33075,-0.04025448,-0.09009336,0.0095844
1779586212503477334,A_+,0.647579006500564,0.0003665191429188092,1.4727786360028952,-2.9133559473064947,-0.09133307975686328,-0.01726130630222392,0.0,0.003,0.0,0.0,0.0,0.0,0.0,0.8127,-0.19372499999999998,0.33075,-0.04025448,-0.09009336,0.0095844
1779586212523460388,A_+,0.6502371357501033,0.0003665191429188092,1.4727786360028952,-2.9133559473064947,-0.09133307975686328,-0.01726130630222392,0.0,0.088,0.0,0.0,0.0,0.0,0.0,0.581175,-0.20789999999999997,0.335475,-0.03929604,-0.08721804,0.01054284
