deepaktalwardt/rage-cage-arm-hackstorm/ros2/ws/sysid/runs/sysid_20260524_020136/raw/joint4_phaseA_pos.csv
t_ns,phase,tau_cmd,q1,q2,q3,q4,q5,q6,qd1,qd2,qd3,qd4,qd5,qd6,tau1,tau2,tau3,tau4,tau5,tau6
1779588108580542802,A_+,5.1999904826516286e-08,2.3904553034089933,2.4816487568256975,-0.8249298709551198,0.0,-0.010943214410004447,0.0,0.0,0.0,0.0,0.0,0.0,0.0,0.023625,-7.66395,-0.67095,-0.04983888,-0.04504668,0.00095844
1779588108580542802,A_+,0.0007394593123990489,2.3904553034089933,2.4816487568256975,-0.8249298709551198,0.0,-0.010943214410004447,0.0,0.0,0.0,0.0,0.0,0.0,0.0,0.023625,-7.66395,-0.67095,-0.04983888,-0.04504668,0.00095844
1779588108580542802,A_+,0.001426174500011257,2.3904553034089933,2.4816487568256975,-0.8249298709551198,0.0,-0.010943214410004447,0.0,0.0,0.0,0.0,0.0,0.0,0.0,0.023625,-7.66395,-0.67095,-0.04983888,-0.04504668,0.00095844
1779588108610605001,A_+,0.0021277725625168387,2.3904553034089933,2.4816487568256975,-0.8249298709551198,0.0,-0.010943214410004447,0.0,0.0,0.0,0.0,0.0,0.0,0.0,0.070875,-7.6356,-0.656775,-0.08434272,-0.04121292,-0.00095844
1779588108610605001,A_+,0.002863056187379698,2.3904553034089933,2.4816487568256975,-0.8249298709551198,0.0,-0.010943214410004447,0.0,0.0,0.0,0.0,0.0,0.0,0.0,0.070875,-7.6356,-0.656775,-0.08434272,-0.04121292,-0.00095844
1779588108610605001,A_+,0.003546245624875155,2.3904553034089933,2.4816487568256975,-0.8249298709551198,0.0,-0.010943214410004447,0.0,0.0,0.0,0.0,0.0,0.0,0.0,0.070875,-7.6356,-0.656775,-0.08434272,-0.04121292,-0.00095844
1779588108646031141,A_+,0.004214450187419061,2.3904553034089933,2.4816487568256975,-0.8249298709551198,0.0,-0.010943214410004447,0.0,0.0,0.0,0.0,-0.001,0.0,0.0,0.004725,-7.6734,-0.7229249999999999,-0.09296868,-0.04504668,0.0095844
1779588108646031141,A_+,0.004956233312441327,2.3904553034089933,2.4816487568256975,-0.8249298709551198,0.0,-0.010943214410004447,0.0,0.0,0.0,0.0,-0.001,0.0,0.0,0.004725,-7.6734,-0.7229249999999999,-0.09296868,-0.04504668,0.0095844
1779588108646031141,A_+,0.005636258999857091,2.3904553034089933,2.4816487568256975,-0.8249298709551198,0.0,-0.010943214410004447,0.0,0.0,0.0,0.0,-0.001,0.0,0.0,0.004725,-7.6734,-0.7229249999999999,-0.09296868,-0.04504668,0.0095844
1779588108680532693,A_+,0.006316096687442041,2.3904553034089933,2.4816487568256975,-0.8249298709551198,0.0,-0.010943214410004447,0.0,0.0,0.0,0.0,0.0,0.0,0.0,0.0189,-7.7159249999999995,-0.6992999999999999,-0.09680244,-0.047922,0.00191688
1779588108680532693,A_+,0.007044186812436237,2.3904553034089933,2.4816487568256975,-0.8249298709551198,0.0,-0.010943214410004447,0.0,0.0,0.0,0.0,0.0,0.0,0.0,0.0189,-7.7159249999999995,-0.6992999999999999,-0.09680244,-0.047922,0.00191688
1779588108680532693,A_+,0.007717934999845966,2.3904553034089933,2.4816487568256975,-0.8249298709551198,0.0,-0.010943214410004447,0.0,0.0,0.0,0.0,0.0,0.0,0.0,0.0189,-7.7159249999999995,-0.6992999999999999,-0.09680244,-0.047922,0.00191688
1779588108710521221,A_+,0.00839684275001673,2.3904553034089933,2.4816487568256975,-0.8249298709551198,0.0,-0.010943214410004447,0.0,0.0,0.0,0.0,0.0,0.0,0.0,0.023625,-7.7301,-0.7040249999999999,-0.09776088000000001,-0.048880440000000004,0.00095844
1779588108710521221,A_+,0.00912887456252065,2.3904553034089933,2.4816487568256975,-0.8249298709551198,0.0,-0.010943214410004447,0.0,0.0,0.0,0.0,0.0,0.0,0.0,0.023625,-7.7301,-0.7040249999999999,-0.09776088000000001,-0.048880440000000004,0.00095844
1779588108710521221,A_+,0.009804752562331487,2.3904553034089933,2.4816487568256975,-0.8249298709551198,0.0,-0.010943214410004447,0.0,0.0,0.0,0.0,0.0,0.0,0.0,0.023625,-7.7301,-0.7040249999999999,-0.09776088000000001,-0.048880440000000004,0.00095844
1779588108745518922,A_+,0.0104663696249645,2.3904553034089933,2.4816487568256975,-0.8249298709551198,0.0,-0.010943214410004447,0.0,0.0,0.0,0.0,0.0,0.0,0.0,0.05197499999999999,-7.70175,-0.741825,-0.09776088000000001,-0.048880440000000004,0.00383376
1779588108745518922,A_+,0.011170731499987596,2.3904553034089933,2.4816487568256975,-0.8249298709551198,0.0,-0.010943214410004447,0.0,0.0,0.0,0.0,0.0,0.0,0.0,0.05197499999999999,-7.70175,-0.741825,-0.09776088000000001,-0.048880440000000004,0.00383376
1779588108745518922,A_+,0.01183424643750186,2.3904553034089933,2.4816487568256975,-0.8249298709551198,0.0,-0.010943214410004447,0.0,0.0,0.0,0.0,0.0,0.0,0.0,0.05197499999999999,-7.70175,-0.741825,-0.09776088000000001,-0.048880440000000004,0.00383376
1779588108770509243,A_+,0.012491355812471738,2.3904553034089933,2.4816487568256975,-0.8249298709551198,0.0,-0.010943214410004447,0.0,0.0,0.0,0.0,0.0,0.0,0.0,0.0,-7.72065,-0.7276499999999999,-0.09871932,-0.04025448,-0.00095844
1779588108770509243,A_+,0.013214624312468004,2.3904553034089933,2.4816487568256975,-0.8249298709551198,0.0,-0.010943214410004447,0.0,0.0,0.0,0.0,0.0,0.0,0.0,0.0,-7.72065,-0.7276499999999999,-0.09871932,-0.04025448,-0.00095844
1779588108770509243,A_+,0.013885778624853629,2.3904553034089933,2.4816487568256975,-0.8249298709551198,0.0,-0.010943214410004447,0.0,0.0,0.0,0.0,0.0,0.0,0.0,0.0,-7.72065,-0.7276499999999999,-0.09871932,-0.04025448,-0.00095844
1779588108800561904,A_+,0.014563578499974028,2.3904553034089933,2.4816487568256975,-0.8249298709551198,0.0,-0.010943214410004447,0.0,0.0,0.0,0.0,0.0,0.0,0.0,0.0378,-7.649774999999999,-0.7040249999999999,-0.09488556,-0.059423279999999995,-0.0047922
1779588108800561904,A_+,0.015304355687476345,2.3904553034089933,2.4816487568256975,-0.8249298709551198,0.0,-0.010943214410004447,0.0,0.0,0.0,0.0,0.0,0.0,0.0,0.0378,-7.649774999999999,-0.7040249999999999,-0.09488556,-0.059423279999999995,-0.0047922
1779588108800561904,A_+,0.015968502562373033,2.3904553034089933,2.4816487568256975,-0.8249298709551198,0.0,-0.010943214410004447,0.0,0.0,0.0,0.0,0.0,0.0,0.0,0.0378,-7.649774999999999,-0.7040249999999999,-0.09488556,-0.059423279999999995,-0.0047922
1779588108845511913,A_+,0.01662578393734293,2.3904553034089933,2.4816487568256975,-0.8249298709551198,0.0,-0.010943214410004447,0.0,0.0,0.0,0.0,0.0,0.0,0.0,0.0378,-7.6734,-0.7182,-0.09488556,-0.047922,-0.00191688
1779588108845511913,A_+,0.017332753624941688,2.3904553034089933,2.4816487568256975,-0.8249298709551198,0.0,-0.010943214410004447,0.0,0.0,0.0,0.0,0.0,0.0,0.0,0.0378,-7.6734,-0.7182,-0.09488556,-0.047922,-0.00191688
1779588108845511913,A_+,0.01799920031248803,2.3904553034089933,2.4816487568256975,-0.8249298709551198,0.0,-0.010943214410004447,0.0,0.0,0.0,0.0,0.0,0.0,0.0,0.0378,-7.6734,-0.7182,-0.09488556,-0.047922,-0.00191688
1779588108875518321,A_+,0.018670262624937095,2.3904553034089933,2.4816487568256975,-0.8249298709551198,0.0,-0.010943214410004447,0.0,0.0,0.0,0.0,-0.046,0.0,0.0,0.042525,-7.6686749999999995,-0.6992999999999999,-0.08913491999999999,-0.04504668,0.00095844
1779588108875518321,A_+,0.019383923875011533,2.3904553034089933,2.4816487568256975,-0.8249298709551198,0.0,-0.010943214410004447,0.0,0.0,0.0,0.0,-0.046,0.0,0.0,0.042525,-7.6686749999999995,-0.6992999999999999,-0.08913491999999999,-0.04504668,0.00095844
1779588108875518321,A_+,0.020053690312352046,2.3904553034089933,2.4816487568256975,-0.8249298709551198,0.0,-0.010943214410004447,0.0,0.0,0.0,0.0,-0.046,0.0,0.0,0.042525,-7.6686749999999995,-0.6992999999999999,-0.08913491999999999,-0.04504668,0.00095844
1779588108910516738,A_+,0.020716143249956076,2.3904553034089933,2.4816487568256975,-0.8249298709551198,0.0,-0.010943214410004447,0.0,0.0,0.0,0.0,-0.362,0.0,0.0,0.0,-7.649774999999999,-0.7182,-0.06517392,-0.04217136,0.00383376
1779588108910516738,A_+,0.02144215556245399,2.3904553034089933,2.4816487568256975,-0.8249298709551198,0.0,-0.010943214410004447,0.0,0.0,0.0,0.0,-0.362,0.0,0.0,0.0,-7.649774999999999,-0.7182,-0.06517392,-0.04217136,0.00383376
1779588108910516738,A_+,0.022119263437389236,2.3904553034089933,2.4816487568256975,-0.8249298709551198,0.0,-0.010943214410004447,0.0,0.0,0.0,0.0,-0.362,0.0,0.0,0.0,-7.649774999999999,-0.7182,-0.06517392,-0.04217136,0.00383376
1779588108945517301,A_+,0.022833168624856626,2.3904553034089933,2.4816487568256975,-0.8249298709551198,-0.005934119456780721,-0.010943214410004447,0.0,0.0,0.0,0.0,0.0,0.0,0.0,0.0,-7.649774999999999,-0.675675,-0.10542839999999999,-0.047922,0.00670908
1779588108945517301,A_+,0.023563630624948928,2.3904553034089933,2.4816487568256975,-0.8249298709551198,-0.005934119456780721,-0.010943214410004447,0.0,0.0,0.0,0.0,0.0,0.0,0.0,0.0,-7.649774999999999,-0.675675,-0.10542839999999999,-0.047922,0.00670908
1779588108945517301,A_+,0.024248989874877225,2.3904553034089933,2.4816487568256975,-0.8249298709551198,-0.005934119456780721,-0.010943214410004447,0.0,0.0,0.0,0.0,0.0,0.0,0.0,0.0,-7.649774999999999,-0.675675,-0.10542839999999999,-0.047922,0.00670908
1779588108975501537,A_+,0.0249183163748512,2.3904553034089933,2.4816487568256975,-0.8249298709551198,-0.005934119456780721,-0.010943214410004447,0.0,0.0,0.0,0.0,0.0,0.0,0.0,-0.0189,-7.687575,-0.6945749999999999,0.01245972,-0.04600512,0.0095844
1779588108975501537,A_+,0.02565266406236333,2.3904553034089933,2.4816487568256975,-0.8249298709551198,-0.005934119456780721,-0.010943214410004447,0.0,0.0,0.0,0.0,0.0,0.0,0.0,-0.0189,-7.687575,-0.6945749999999999,0.01245972,-0.04600512,0.0095844
1779588108975501537,A_+,0.026331157874892597,2.3904553034089933,2.4816487568256975,-0.8249298709551198,-0.005934119456780721,-0.010943214410004447,0.0,0.0,0.0,0.0,0.0,0.0,0.0,-0.0189,-7.687575,-0.6945749999999999,0.01245972,-0.04600512,0.0095844
1779588109010510683,A_+,0.02703097612493366,2.3904553034089933,2.4816487568256975,-0.8249298709551198,-0.005934119456780721,-0.010943214410004447,0.0,0.0,0.0,0.0,0.0,0.0,0.0,0.04725,-7.659224999999999,-0.6898499999999999,0.01821036,-0.04408824,0.0
1779588109010510683,A_+,0.0277228049999394,2.3904553034089933,2.4816487568256975,-0.8249298709551198,-0.005934119456780721,-0.010943214410004447,0.0,0.0,0.0,0.0,0.0,0.0,0.0,0.04725,-7.659224999999999,-0.6898499999999999,0.01821036,-0.04408824,0.0
1779588109010510683,A_+,0.02838633593751183,2.3904553034089933,2.4816487568256975,-0.8249298709551198,-0.005934119456780721,-0.010943214410004447,0.0,0.0,0.0,0.0,0.0,0.0,0.0,0.04725,-7.659224999999999,-0.6898499999999999,0.01821036,-0.04408824,0.0
1779588109040523052,A_+,0.029040335562513064,2.3904553034089933,2.4816487568256975,-0.8249298709551198,-0.005934119456780721,-0.010943214410004447,0.0,0.0,0.0,0.0,0.0,0.0,0.0,0.042525,-7.744274999999999,-0.713475,0.03162852,-0.05079731999999999,0.0
1779588109040523052,A_+,0.02973209843753466,2.3904553034089933,2.4816487568256975,-0.8249298709551198,-0.005934119456780721,-0.010943214410004447,0.0,0.0,0.0,0.0,0.0,0.0,0.0,0.042525,-7.744274999999999,-0.713475,0.03162852,-0.05079731999999999,0.0
1779588109040523052,A_+,0.030395775374927325,2.3904553034089933,2.4816487568256975,-0.8249298709551198,-0.005934119456780721,-0.010943214410004447,0.0,0.0,0.0,0.0,0.0,0.0,0.0,0.042525,-7.744274999999999,-0.713475,0.03162852,-0.05079731999999999,0.0
1779588109070496797,A_+,0.031053836749833863,2.3904553034089933,2.4816487568256975,-0.8249298709551198,-0.005934119456780721,-0.010943214410004447,0.0,0.0,0.0,0.0,0.0,0.0,0.0,0.033075,-7.640325,-0.6945749999999999,0.02491944,-0.04600512,0.0047922
1779588109070496797,A_+,0.03173752618749859,2.3904553034089933,2.4816487568256975,-0.8249298709551198,-0.005934119456780721,-0.010943214410004447,0.0,0.0,0.0,0.0,0.0,0.0,0.0,0.033075,-7.640325,-0.6945749999999999,0.02491944,-0.04600512,0.0047922
1779588109070496797,A_+,0.03239680149999913,2.3904553034089933,2.4816487568256975,-0.8249298709551198,-0.005934119456780721,-0.010943214410004447,0.0,0.0,0.0,0.0,0.0,0.0,0.0,0.033075,-7.640325,-0.6945749999999999,0.02491944,-0.04600512,0.0047922
1779588109090493917,A_+,0.0330512131249634,2.3904553034089933,2.4816487568256975,-0.8249298709551198,-0.005934119456780721,-0.010943214410004447,0.0,0.0,0.0,0.0,0.0,0.0,0.0,0.004725,-7.7112,-0.6992999999999999,0.0191688,-0.04600512,0.00383376
1779588109090493917,A_+,0.03373788631233765,2.3904553034089933,2.4816487568256975,-0.8249298709551198,-0.005934119456780721,-0.010943214410004447,0.0,0.0,0.0,0.0,0.0,0.0,0.0,0.004725,-7.7112,-0.6992999999999999,0.0191688,-0.04600512,0.00383376
1779588109090493917,A_+,0.03439790956235811,2.3904553034089933,2.4816487568256975,-0.8249298709551198,-0.005934119456780721,-0.010943214410004447,0.0,0.0,0.0,0.0,0.0,0.0,0.0,0.004725,-7.7112,-0.6992999999999999,0.0191688,-0.04600512,0.00383376
1779588109105493783,A_+,0.035051905187401644,2.3904553034089933,2.4816487568256975,-0.8249298709551198,-0.005934119456780721,-0.010943214410004447,0.0,0.0,0.0,0.0,0.0,0.0,0.0,0.033075,-7.68285,-0.7040249999999999,0.03929604,-0.04983888,-0.00095844
1779588109105493783,A_+,0.03573857443734596,2.3904553034089933,2.4816487568256975,-0.8249298709551198,-0.005934119456780721,-0.010943214410004447,0.0,0.0,0.0,0.0,0.0,0.0,0.0,0.033075,-7.68285,-0.7040249999999999,0.03929604,-0.04983888,-0.00095844
1779588109105493783,A_+,0.0363992036250238,2.3904553034089933,2.4816487568256975,-0.8249298709551198,-0.005934119456780721,-0.010943214410004447,0.0,0.0,0.0,0.0,0.0,0.0,0.0,0.033075,-7.68285,-0.7040249999999999,0.03929604,-0.04983888,-0.00095844
1779588109145564079,A_+,0.03705330724983469,2.3904553034089933,2.4816487568256975,-0.8249298709551198,-0.005934119456780721,-0.010943214410004447,0.0,0.0,0.0,0.0,0.0,0.0,0.0,0.033075,-7.68285,-0.7087499999999999,0.0383376,-0.047922,-0.00383376
1779588109145564079,A_+,0.037739380562470615,2.3904553034089933,2.4816487568256975,-0.8249298709551198,-0.005934119456780721,-0.010943214410004447,0.0,0.0,0.0,0.0,0.0,0.0,0.0,0.033075,-7.68285,-0.7087499999999999,0.0383376,-0.047922,-0.00383376
1779588109145564079,A_+,0.03840067368741984,2.3904553034089933,2.4816487568256975,-0.8249298709551198,-0.005934119456780721,-0.010943214410004447,0.0,0.0,0.0,0.0,0.0,0.0,0.0,0.033075,-7.68285,-0.7087499999999999,0.0383376,-0.047922,-0.00383376
1779588109185481786,A_+,0.03906607049998456,2.3904553034089933,2.4816487568256975,-0.8249298709551198,-0.005934119456780721,-0.010943214410004447,0.0,0.0,0.0,0.0,0.0,0.0,0.0,0.028349999999999997,-7.72065,-0.7229249999999999,0.014376599999999998,-0.04600512,0.0
1779588109185481786,A_+,0.039752239749986984,2.3904553034089933,2.4816487568256975,-0.8249298709551198,-0.005934119456780721,-0.010943214410004447,0.0,0.0,0.0,0.0,0.0,0.0,0.0,0.028349999999999997,-7.72065,-0.7229249999999999,0.014376599999999998,-0.04600512,0.0
1779588109185481786,A_+,0.04041571268749067,2.3904553034089933,2.4816487568256975,-0.8249298709551198,-0.005934119456780721,-0.010943214410004447,0.0,0.0,0.0,0.0,0.0,0.0,0.0,0.028349999999999997,-7.72065,-0.7229249999999999,0.014376599999999998,-0.04600512,0.0
1779588109235492467,A_+,0.041069426374860996,2.3904553034089933,2.4816487568256975,-0.8249298709551198,-0.005934119456780721,-0.010943214410004447,0.0,0.0,0.0,0.0,0.0,0.0,0.0,0.05197499999999999,-7.6923,-0.7087499999999999,0.05846484,-0.04121292,0.00191688
1779588109235492467,A_+,0.041755125687359396,2.3904553034089933,2.4816487568256975,-0.8249298709551198,-0.005934119456780721,-0.010943214410004447,0.0,0.0,0.0,0.0,0.0,0.0,0.0,0.05197499999999999,-7.6923,-0.7087499999999999,0.05846484,-0.04121292,0.00191688
1779588109235492467,A_+,0.04241915462489487,2.3904553034089933,2.4816487568256975,-0.8249298709551198,-0.005934119456780721,-0.010943214410004447,0.0,0.0,0.0,0.0,0.0,0.0,0.0,0.05197499999999999,-7.6923,-0.7087499999999999,0.05846484,-0.04121292,0.00191688
1779588109265479564,A_+,0.043076210062508835,2.3904553034089933,2.4816487568256975,-0.8249298709551198,-0.005934119456780721,-0.010943214410004447,0.0,0.0,0.0,0.0,0.0,0.0,0.0,0.05197499999999999,-7.678125,-0.7182,0.02012724,-0.04217136,-0.00095844
1779588109265479564,A_+,0.04376309924987254,2.3904553034089933,2.4816487568256975,-0.8249298709551198,-0.005934119456780721,-0.010943214410004447,0.0,0.0,0.0,0.0,0.0,0.0,0.0,0.05197499999999999,-7.678125,-0.7182,0.02012724,-0.04217136,-0.00095844
1779588109265479564,A_+,0.044425650312405196,2.3904553034089933,2.4816487568256975,-0.8249298709551198,-0.005934119456780721,-0.010943214410004447,0.0,0.0,0.0,0.0,0.0,0.0,0.0,0.05197499999999999,-7.678125,-0.7182,0.02012724,-0.04217136,-0.00095844
1779588109300478458,A_+,0.045080979874910554,2.3904553034089933,2.4816487568256975,-0.8249298709551198,-0.005934119456780721,-0.010943214410004447,0.0,0.0,0.0,0.0,0.0,0.0,0.0,0.004725,-7.687575,-0.7040249999999999,0.0335454,-0.052714199999999996,0.00287532
1779588109300478458,A_+,0.04577269674996387,2.3904553034089933,2.4816487568256975,-0.8249298709551198,-0.005934119456780721,-0.010943214410004447,0.0,0.0,0.0,0.0,0.0,0.0,0.0,0.004725,-7.687575,-0.7040249999999999,0.0335454,-0.052714199999999996,0.00287532
1779588109300478458,A_+,0.04643339987501349,2.3904553034089933,2.4816487568256975,-0.8249298709551198,-0.005934119456780721,-0.010943214410004447,0.0,0.0,0.0,0.0,0.0,0.0,0.0,0.004725,-7.687575,-0.7040249999999999,0.0335454,-0.052714199999999996,0.00287532
1779588109330487966,A_+,0.04708808550003596,2.3904553034089933,2.4816487568256975,-0.8249298709551198,-0.005934119456780721,-0.010943214410004447,0.0,0.0,0.0,0.0,0.0,0.0,0.0,0.0189,-7.72065,-0.6898499999999999,0.02779476,-0.05079731999999999,0.00095844
1779588109330487966,A_+,0.04778095224992285,2.3904553034089933,2.4816487568256975,-0.8249298709551198,-0.005934119456780721,-0.010943214410004447,0.0,0.0,0.0,0.0,0.0,0.0,0.0,0.0189,-7.72065,-0.6898499999999999,0.02779476,-0.05079731999999999,0.00095844
1779588109330487966,A_+,0.048441979437484406,2.3904553034089933,2.4816487568256975,-0.8249298709551198,-0.005934119456780721,-0.010943214410004447,0.0,0.0,0.0,0.0,0.0,0.0,0.0,0.0189,-7.72065,-0.6898499999999999,0.02779476,-0.05079731999999999,0.00095844
1779588109365460872,A_+,0.049095827062501485,2.3904553034089933,2.4816487568256975,-0.8249298709551198,-0.005934119456780721,-0.010943214410004447,0.0,0.0,0.0,0.0,0.0,0.0,0.0,0.0,-7.6734,-0.61425,0.02300256,-0.04696356,0.00191688
1779588109365460872,A_+,0.049779216562455986,2.3904553034089933,2.4816487568256975,-0.8249298709551198,-0.005934119456780721,-0.010943214410004447,0.0,0.0,0.0,0.0,0.0,0.0,0.0,0.0,-7.6734,-0.61425,0.02300256,-0.04696356,0.00191688
1779588109365460872,A_+,0.05043170031240152,2.3904553034089933,2.4816487568256975,-0.8249298709551198,-0.005934119456780721,-0.010943214410004447,0.0,0.0,0.0,0.0,0.0,0.0,0.0,0.0,-7.6734,-0.61425,0.02300256,-0.04696356,0.00191688
1779588109391903162,A_+,0.051087031874885724,2.3904553034089933,2.4816487568256975,-0.8249298709551198,-0.005934119456780721,-0.010943214410004447,0.0,0.0,0.0,0.0,0.0,0.0,0.0,0.004725,-7.678125,-0.7040249999999999,0.04121292,-0.04696356,0.0047922
1779588109391903162,A_+,0.051797335374885733,2.3904553034089933,2.4816487568256975,-0.8249298709551198,-0.005934119456780721,-0.010943214410004447,0.0,0.0,0.0,0.0,0.0,0.0,0.0,0.004725,-7.678125,-0.7040249999999999,0.04121292,-0.04696356,0.0047922
1779588109391903162,A_+,0.05246392812500744,2.3904553034089933,2.4816487568256975,-0.8249298709551198,-0.005934119456780721,-0.010943214410004447,0.0,0.0,0.0,0.0,0.0,0.0,0.0,0.004725,-7.678125,-0.7040249999999999,0.04121292,-0.04696356,0.0047922
1779588109425470590,A_+,0.05311879768737526,2.3904553034089933,2.4816487568256975,-0.8249298709551198,-0.005934119456780721,-0.010943214410004447,0.0,0.0,0.0,0.0,0.0,0.0,0.0,0.023625,-7.687575,-0.7040249999999999,0.0191688,-0.048880440000000004,0.0
1779588109425470590,A_+,0.05380337912492905,2.3904553034089933,2.4816487568256975,-0.8249298709551198,-0.005934119456780721,-0.010943214410004447,0.0,0.0,0.0,0.0,0.0,0.0,0.0,0.023625,-7.687575,-0.7040249999999999,0.0191688,-0.048880440000000004,0.0
1779588109425470590,A_+,0.054462518374975843,2.3904553034089933,2.4816487568256975,-0.8249298709551198,-0.005934119456780721,-0.010943214410004447,0.0,0.0,0.0,0.0,0.0,0.0,0.0,0.023625,-7.687575,-0.7040249999999999,0.0191688,-0.048880440000000004,0.0
1779588109455711841,A_+,0.05512077968751328,2.3904553034089933,2.4816487568256975,-0.8249298709551198,-0.005934119456780721,-0.010943214410004447,0.0,0.0,0.0,0.0,0.0,0.0,0.0,0.0378,-7.659224999999999,-0.7276499999999999,0.03258696,-0.04408824,0.00095844
1779588109455711841,A_+,0.05582863937502225,2.3904553034089933,2.4816487568256975,-0.8249298709551198,-0.005934119456780721,-0.010943214410004447,0.0,0.0,0.0,0.0,0.0,0.0,0.0,0.0378,-7.659224999999999,-0.7276499999999999,0.03258696,-0.04408824,0.00095844
1779588109455711841,A_+,0.05648880456237748,2.3904553034089933,2.4816487568256975,-0.8249298709551198,-0.005934119456780721,-0.010943214410004447,0.0,0.0,0.0,0.0,0.0,0.0,0.0,0.0378,-7.659224999999999,-0.7276499999999999,0.03258696,-0.04408824,0.00095844
1779588109490461349,A_+,0.05714209831239714,2.3904553034089933,2.4816487568256975,-0.8249298709551198,-0.005934119456780721,-0.010943214410004447,0.0,0.0,0.0,0.0,0.0,0.0,0.0,0.028349999999999997,-7.6923,-0.6426,0.03067008,-0.05079731999999999,0.0
1779588109490461349,A_+,0.05782966149990898,2.3904553034089933,2.4816487568256975,-0.8249298709551198,-0.005934119456780721,-0.010943214410004447,0.0,0.0,0.0,0.0,0.0,0.0,0.0,0.028349999999999997,-7.6923,-0.6426,0.03067008,-0.05079731999999999,0.0
1779588109490461349,A_+,0.05849071462489519,2.3904553034089933,2.4816487568256975,-0.8249298709551198,-0.005934119456780721,-0.010943214410004447,0.0,0.0,0.0,0.0,0.0,0.0,0.0,0.028349999999999997,-7.6923,-0.6426,0.03067008,-0.05079731999999999,0.0
1779588109515458106,A_+,0.059146972124835884,2.3904553034089933,2.4816487568256975,-0.8249298709551198,-0.005934119456780721,-0.010943214410004447,0.0,0.0,0.0,0.0,0.0,0.0,0.0,0.00945,-7.62615,-0.6945749999999999,0.0335454,-0.04983888,0.00766752
1779588109515458106,A_+,0.05983303137486473,2.3904553034089933,2.4816487568256975,-0.8249298709551198,-0.005934119456780721,-0.010943214410004447,0.0,0.0,0.0,0.0,0.0,0.0,0.0,0.00945,-7.62615,-0.6945749999999999,0.0335454,-0.04983888,0.00766752
1779588109515458106,A_+,0.06050493575003202,2.3904553034089933,2.4816487568256975,-0.8249298709551198,-0.005934119456780721,-0.010943214410004447,0.0,0.0,0.0,0.0,0.0,0.0,0.0,0.00945,-7.62615,-0.6945749999999999,0.0335454,-0.04983888,0.00766752
1779588109540464401,A_+,0.06116069525000967,2.3904553034089933,2.4816487568256975,-0.8249298709551198,-0.005934119456780721,-0.010943214410004447,0.0,0.0,0.0,0.0,0.0,0.0,0.0,0.0189,-7.6214249999999995,-0.7229249999999999,0.03546228,-0.04696356,0.00095844
1779588109540464401,A_+,0.06184776243753731,2.3904553034089933,2.4816487568256975,-0.8249298709551198,-0.005934119456780721,-0.010943214410004447,0.0,0.0,0.0,0.0,0.0,0.0,0.0,0.0189,-7.6214249999999995,-0.7229249999999999,0.03546228,-0.04696356,0.00095844
1779588109540464401,A_+,0.06250752168739382,2.3904553034089933,2.4816487568256975,-0.8249298709551198,-0.005934119456780721,-0.010943214410004447,0.0,0.0,0.0,0.0,0.0,0.0,0.0,0.0189,-7.6214249999999995,-0.7229249999999999,0.03546228,-0.04696356,0.00095844
1779588109560461521,A_+,0.06316468312502366,2.3904553034089933,2.4816487568256975,-0.8249298709551198,-0.005934119456780721,-0.010943214410004447,0.0,0.0,0.0,0.0,0.0,0.0,0.0,0.05669999999999999,-7.649774999999999,-0.7182,0.029711639999999997,-0.04600512,0.01341816
1779588109560461521,A_+,0.06385867181234062,2.3904553034089933,2.4816487568256975,-0.8249298709551198,-0.005934119456780721,-0.010943214410004447,0.0,0.0,0.0,0.0,0.0,0.0,0.0,0.05669999999999999,-7.649774999999999,-0.7182,0.029711639999999997,-0.04600512,0.01341816
1779588109560461521,A_+,0.06452443662487894,2.3904553034089933,2.4816487568256975,-0.8249298709551198,-0.005934119456780721,-0.010943214410004447,0.0,0.0,0.0,0.0,0.0,0.0,0.0,0.05669999999999999,-7.649774999999999,-0.7182,0.029711639999999997,-0.04600512,0.01341816
1779588109585450649,A_+,0.06518921943734313,2.3904553034089933,2.4816487568256975,-0.8249298709551198,-0.005934119456780721,-0.010943214410004447,0.0,0.0,0.0,0.0,0.0,0.0,0.0,0.042525,-7.7112,-0.6992999999999999,0.03162852,-0.04504668,0.00095844
1779588109585450649,A_+,0.06587642668750959,2.3904553034089933,2.4816487568256975,-0.8249298709551198,-0.005934119456780721,-0.010943214410004447,0.0,0.0,0.0,0.0,0.0,0.0,0.0,0.042525,-7.7112,-0.6992999999999999,0.03162852,-0.04504668,0.00095844
1779588109585450649,A_+,0.06653874168750917,2.3904553034089933,2.4816487568256975,-0.8249298709551198,-0.005934119456780721,-0.010943214410004447,0.0,0.0,0.0,0.0,0.0,0.0,0.0,0.042525,-7.7112,-0.6992999999999999,0.03162852,-0.04504668,0.00095844
1779588109610618352,A_+,0.06720173468738722,2.3904553034089933,2.4816487568256975,-0.8249298709551198,-0.005934119456780721,-0.010943214410004447,0.0,0.0,0.0,0.0,0.0,0.0,0.0,0.014174999999999998,-7.6734,-0.6945749999999999,0.02587788,-0.04696356,0.00191688
1779588109610618352,A_+,0.06789443349998692,2.3904553034089933,2.4816487568256975,-0.8249298709551198,-0.005934119456780721,-0.010943214410004447,0.0,0.0,0.0,0.0,0.0,0.0,0.0,0.014174999999999998,-7.6734,-0.6945749999999999,0.02587788,-0.04696356,0.00191688
1779588109610618352,A_+,0.06855509262481974,2.3904553034089933,2.4816487568256975,-0.8249298709551198,-0.005934119456780721,-0.010943214410004447,0.0,0.0,0.0,0.0,0.0,0.0,0.0,0.014174999999999998,-7.6734,-0.6945749999999999,0.02587788,-0.04696356,0.00191688
1779588109625494480,A_+,0.0692148898749565,2.3904553034089933,2.4816487568256975,-0.8249298709551198,-0.005934119456780721,-0.010943214410004447,0.0,0.0,0.0,0.0,0.0,0.0,0.0,0.0189,-7.6686749999999995,-0.67095,0.03162852,-0.04504668,-0.00095844
1779588109625494480,A_+,0.06990373293751873,2.3904553034089933,2.4816487568256975,-0.8249298709551198,-0.005934119456780721,-0.010943214410004447,0.0,0.0,0.0,0.0,0.0,0.0,0.0,0.0189,-7.6686749999999995,-0.67095,0.03162852,-0.04504668,-0.00095844
1779588109625494480,A_+,0.07056569999986095,2.3904553034089933,2.4816487568256975,-0.8249298709551198,-0.005934119456780721,-0.010943214410004447,0.0,0.0,0.0,0.0,0.0,0.0,0.0,0.0189,-7.6686749999999995,-0.67095,0.03162852,-0.04504668,-0.00095844
1779588109635555505,A_+,0.07121902574999694,2.3904553034089933,2.4816487568256975,-0.8249298709551198,-0.005934119456780721,-0.010943214410004447,0.0,0.0,0.0,0.0,0.0,0.0,0.0,0.033075,-7.66395,-0.7182,0.03258696,-0.04696356,-0.00191688
1779588109635555505,A_+,0.0719108925625278,2.3904553034089933,2.4816487568256975,-0.8249298709551198,-0.005934119456780721,-0.010943214410004447,0.0,0.0,0.0,0.0,0.0,0.0,0.0,0.033075,-7.66395,-0.7182,0.03258696,-0.04696356,-0.00191688
1779588109635555505,A_+,0.07257689537482293,2.3904553034089933,2.4816487568256975,-0.8249298709551198,-0.005934119456780721,-0.010943214410004447,0.0,0.0,0.0,0.0,0.0,0.0,0.0,0.033075,-7.66395,-0.7182,0.03258696,-0.04696356,-0.00191688
1779588109650902986,A_+,0.07323126899996169,2.3904553034089933,2.4816487568256975,-0.8249298709551198,-0.005934119456780721,-0.010943214410004447,0.0,0.0,0.0,0.0,0.0,0.0,0.0,0.014174999999999998,-7.697024999999999,-0.7182,0.03450384,-0.04983888,0.00766752
1779588109650902986,A_+,0.07391387056236454,2.3904553034089933,2.4816487568256975,-0.8249298709551198,-0.005934119456780721,-0.010943214410004447,0.0,0.0,0.0,0.0,0.0,0.0,0.0,0.014174999999999998,-7.697024999999999,-0.7182,0.03450384,-0.04983888,0.00766752
1779588109650902986,A_+,0.07456669024986695,2.3904553034089933,2.4816487568256975,-0.8249298709551198,-0.005934119456780721,-0.010943214410004447,0.0,0.0,0.0,0.0,0.0,0.0,0.0,0.014174999999999998,-7.697024999999999,-0.7182,0.03450384,-0.04983888,0.00766752
1779588109676101207,A_+,0.07522724743739673,2.3904553034089933,2.4816487568256975,-0.8249298709551198,-0.005934119456780721,-0.010943214410004447,0.0,0.0,0.0,0.0,0.0,0.0,0.0,0.033075,-7.630875,-0.7087499999999999,0.029711639999999997,-0.04504668,0.00383376
1779588109676101207,A_+,0.07592346000001271,2.3904553034089933,2.4816487568256975,-0.8249298709551198,-0.005934119456780721,-0.010943214410004447,0.0,0.0,0.0,0.0,0.0,0.0,0.0,0.033075,-7.630875,-0.7087499999999999,0.029711639999999997,-0.04504668,0.00383376
1779588109676101207,A_+,0.0765875508748195,2.3904553034089933,2.4816487568256975,-0.8249298709551198,-0.005934119456780721,-0.010943214410004447,0.0,0.0,0.0,0.0,0.0,0.0,0.0,0.033075,-7.630875,-0.7087499999999999,0.029711639999999997,-0.04504668,0.00383376
1779588109690664529,A_+,0.0772623029999977,2.3904553034089933,2.4816487568256975,-0.8249298709551198,-0.005934119456780721,-0.010943214410004447,0.0,0.0,0.0,0.0,0.0,0.0,0.0,0.028349999999999997,-7.70175,-0.7323749999999999,0.01725192,-0.04408824,-0.0047922
1779588109690664529,A_+,0.07795233599995299,2.3904553034089933,2.4816487568256975,-0.8249298709551198,-0.005934119456780721,-0.010943214410004447,0.0,0.0,0.0,0.0,0.0,0.0,0.0,0.028349999999999997,-7.70175,-0.7323749999999999,0.01725192,-0.04408824,-0.0047922
1779588109690664529,A_+,0.07861330512491804,2.3904553034089933,2.4816487568256975,-0.8249298709551198,-0.005934119456780721,-0.010943214410004447,0.0,0.0,0.0,0.0,0.0,0.0,0.0,0.028349999999999997,-7.70175,-0.7323749999999999,0.01725192,-0.04408824,-0.0047922
1779588109705900669,A_+,0.07927055056234167,2.3904553034089933,2.4816487568256975,-0.8249298709551198,-0.005934119456780721,-0.010943214410004447,0.0,0.0,0.0,0.0,0.0,0.0,0.0,0.00945,-7.68285,-0.6945749999999999,0.029711639999999997,-0.043129799999999996,-0.0047922
1779588109705900669,A_+,0.07995874768744216,2.3904553034089933,2.4816487568256975,-0.8249298709551198,-0.005934119456780721,-0.010943214410004447,0.0,0.0,0.0,0.0,0.0,0.0,0.0,0.00945,-7.68285,-0.6945749999999999,0.029711639999999997,-0.043129799999999996,-0.0047922
1779588109705900669,A_+,0.08061798893731975,2.3904553034089933,2.4816487568256975,-0.8249298709551198,-0.005934119456780721,-0.010943214410004447,0.0,0.0,0.0,0.0,0.0,0.0,0.0,0.00945,-7.68285,-0.6945749999999999,0.029711639999999997,-0.043129799999999996,-0.0047922
1779588109725467205,A_+,0.08127627631233736,2.3904553034089933,2.4816487568256975,-0.8249298709551198,-0.005934119456780721,-0.010943214410004447,0.0,0.0,0.0,0.0,0.0,0.0,0.0,-0.014174999999999998,-7.6167,-0.7182,0.028753199999999996,-0.047922,-0.00095844
1779588109725467205,A_+,0.08196257956251429,2.3904553034089933,2.4816487568256975,-0.8249298709551198,-0.005934119456780721,-0.010943214410004447,0.0,0.0,0.0,0.0,0.0,0.0,0.0,-0.014174999999999998,-7.6167,-0.7182,0.028753199999999996,-0.047922,-0.00095844
1779588109725467205,A_+,0.0826234367498273,2.3904553034089933,2.4816487568256975,-0.8249298709551198,-0.005934119456780721,-0.010943214410004447,0.0,0.0,0.0,0.0,0.0,0.0,0.0,-0.014174999999999998,-7.6167,-0.7182,0.028753199999999996,-0.047922,-0.00095844
1779588109751273393,A_+,0.0832769444373298,2.3904553034089933,2.4816487568256975,-0.8249298709551198,-0.005934119456780721,-0.010943214410004447,0.0,0.0,0.0,0.0,0.0,0.0,0.0,0.004725,-7.6734,-0.6992999999999999,0.02587788,-0.04983888,0.00191688
1779588109751273393,A_+,0.08396192374993916,2.3904553034089933,2.4816487568256975,-0.8249298709551198,-0.005934119456780721,-0.010943214410004447,0.0,0.0,0.0,0.0,0.0,0.0,0.0,0.004725,-7.6734,-0.6992999999999999,0.02587788,-0.04983888,0.00191688
1779588109751273393,A_+,0.08462499674988067,2.3904553034089933,2.4816487568256975,-0.8249298709551198,-0.005934119456780721,-0.010943214410004447,0.0,0.0,0.0,0.0,0.0,0.0,0.0,0.004725,-7.6734,-0.6992999999999999,0.02587788,-0.04983888,0.00191688
1779588109771270990,A_+,0.08528126624992183,2.3904553034089933,2.4816487568256975,-0.8249298709551198,-0.005934119456780721,-0.010943214410004447,0.0,0.0,0.0,0.0,0.0,0.0,0.0,0.033075,-7.70175,-0.7465499999999999,0.02683632,-0.04983888,0.00191688
1779588109771270990,A_+,0.08597373906241046,2.3904553034089933,2.4816487568256975,-0.8249298709551198,-0.005934119456780721,-0.010943214410004447,0.0,0.0,0.0,0.0,0.0,0.0,0.0,0.033075,-7.70175,-0.7465499999999999,0.02683632,-0.04983888,0.00191688
1779588109771270990,A_+,0.08663032849995034,2.3904553034089933,2.4816487568256975,-0.8249298709551198,-0.005934119456780721,-0.010943214410004447,0.0,0.0,0.0,0.0,0.0,0.0,0.0,0.033075,-7.70175,-0.7465499999999999,0.02683632,-0.04983888,0.00191688
1779588109815521478,A_+,0.0872841381874423,2.3904553034089933,2.4816487568256975,-0.8249298709551198,-0.005934119456780721,-0.010943214410004447,0.0,0.0,0.0,0.0,0.0,0.0,0.0,0.0189,-7.6686749999999995,-0.7087499999999999,0.03929604,-0.0335454,0.00383376
1779588109815521478,A_+,0.08797314524986177,2.3904553034089933,2.4816487568256975,-0.8249298709551198,-0.005934119456780721,-0.010943214410004447,0.0,0.0,0.0,0.0,0.0,0.0,0.0,0.0189,-7.6686749999999995,-0.7087499999999999,0.03929604,-0.0335454,0.00383376
1779588109815521478,A_+,0.08864007399984075,2.3904553034089933,2.4816487568256975,-0.8249298709551198,-0.005934119456780721,-0.010943214410004447,0.0,0.0,0.0,0.0,0.0,0.0,0.0,0.0189,-7.6686749999999995,-0.7087499999999999,0.03929604,-0.0335454,0.00383376
1779588109850434541,A_+,0.08929860731245753,2.3904553034089933,2.4816487568256975,-0.8249298709551198,-0.005934119456780721,-0.010943214410004447,0.0,0.0,0.0,0.0,0.0,0.0,0.0,0.0378,-7.62615,-0.7229249999999999,0.03929604,-0.0335454,0.00383376
1779588109850434541,A_+,0.08998385868744663,2.3904553034089933,2.4816487568256975,-0.8249298709551198,-0.005934119456780721,-0.010943214410004447,0.0,0.0,0.0,0.0,0.0,0.0,0.0,0.0378,-7.62615,-0.7229249999999999,0.03929604,-0.0335454,0.00383376
1779588109850434541,A_+,0.09064434193737725,2.3904553034089933,2.4816487568256975,-0.8249298709551198,-0.005934119456780721,-0.010943214410004447,0.0,0.0,0.0,0.0,0.0,0.0,0.0,0.0378,-7.62615,-0.7229249999999999,0.03929604,-0.0335454,0.00383376
1779588109881196975,A_+,0.09130195137481678,2.3904553034089933,2.4816487568256975,-0.8249298709551198,-0.005934119456780721,-0.010943214410004447,0.0,0.0,0.0,0.0,0.0,0.0,0.0,0.014174999999999998,-7.66395,-0.6898499999999999,0.02683632,-0.04504668,-0.00095844
1779588109881196975,A_+,0.0920063773749007,2.3904553034089933,2.4816487568256975,-0.8249298709551198,-0.005934119456780721,-0.010943214410004447,0.0,0.0,0.0,0.0,0.0,0.0,0.0,0.014174999999999998,-7.66395,-0.6898499999999999,0.02683632,-0.04504668,-0.00095844
1779588109881196975,A_+,0.09266678856238286,2.3904553034089933,2.4816487568256975,-0.8249298709551198,-0.005934119456780721,-0.010943214410004447,0.0,0.0,0.0,0.0,0.0,0.0,0.0,0.014174999999999998,-7.66395,-0.6898499999999999,0.02683632,-0.04504668,-0.00095844
1779588109901084899,A_+,0.09332132624990663,2.3904553034089933,2.4816487568256975,-0.8249298709551198,-0.005934119456780721,-0.010943214410004447,0.0,0.0,0.0,0.0,0.0,0.0,0.0,0.05197499999999999,-7.6686749999999995,-0.7087499999999999,0.03737916,-0.04504668,0.0047922
1779588109901084899,A_+,0.09401139724991481,2.3904553034089933,2.4816487568256975,-0.8249298709551198,-0.005934119456780721,-0.010943214410004447,0.0,0.0,0.0,0.0,0.0,0.0,0.0,0.05197499999999999,-7.6686749999999995,-0.7087499999999999,0.03737916,-0.04504668,0.0047922
1779588109901084899,A_+,0.09467438831234176,2.3904553034089933,2.4816487568256975,-0.8249298709551198,-0.005934119456780721,-0.010943214410004447,0.0,0.0,0.0,0.0,0.0,0.0,0.0,0.05197499999999999,-7.6686749999999995,-0.7087499999999999,0.03737916,-0.04504668,0.0047922
1779588109930424928,A_+,0.09533063781236706,2.3904553034089933,2.4816487568256975,-0.8249298709551198,-0.005934119456780721,-0.010943214410004447,0.0,0.0,0.0,0.0,0.0,0.0,0.0,0.05197499999999999,-7.7159249999999995,-0.6992999999999999,0.03737916,-0.04504668,-0.00766752
1779588109930424928,A_+,0.09601697312496071,2.3904553034089933,2.4816487568256975,-0.8249298709551198,-0.005934119456780721,-0.010943214410004447,0.0,0.0,0.0,0.0,0.0,0.0,0.0,0.05197499999999999,-7.7159249999999995,-0.6992999999999999,0.03737916,-0.04504668,-0.00766752
1779588109930424928,A_+,0.09668582375002188,2.3904553034089933,2.4816487568256975,-0.8249298709551198,-0.005934119456780721,-0.010943214410004447,0.0,0.0,0.0,0.0,0.0,0.0,0.0,0.05197499999999999,-7.7159249999999995,-0.6992999999999999,0.03737916,-0.04504668,-0.00766752
1779588109975905656,A_+,0.09734439912494963,2.3904553034089933,2.4816487568256975,-0.8249298709551198,-0.005934119456780721,-0.010943214410004447,0.0,0.0,0.0,0.0,0.0,0.0,0.0,0.033075,-7.649774999999999,-0.7040249999999999,0.03737916,-0.04504668,-0.00766752
1779588109975905656,A_+,0.09802588881234442,2.3904553034089933,2.4816487568256975,-0.8249298709551198,-0.005934119456780721,-0.010943214410004447,0.0,0.0,0.0,0.0,0.0,0.0,0.0,0.033075,-7.649774999999999,-0.7040249999999999,0.03737916,-0.04504668,-0.00766752
1779588109975905656,A_+,0.09867870656239575,2.3904553034089933,2.4816487568256975,-0.8249298709551198,-0.005934119456780721,-0.010943214410004447,0.0,0.0,0.0,0.0,0.0,0.0,0.0,0.033075,-7.649774999999999,-0.7040249999999999,0.03737916,-0.04504668,-0.00766752
1779588110165766716,A_+,0.09932459287483653,2.3904553034089933,2.4816487568256975,-0.8249298709551198,0.0,-0.010943214410004447,0.0,0.0,0.0,0.0,0.0,0.0,0.0,0.061425,-7.70175,-0.7087499999999999,0.09871932,-0.04217136,0.00191688
1779588110165766716,A_+,0.10000779843744567,2.3904553034089933,2.4816487568256975,-0.8249298709551198,0.0,-0.010943214410004447,0.0,0.0,0.0,0.0,0.0,0.0,0.0,0.061425,-7.70175,-0.7087499999999999,0.09871932,-0.04217136,0.00191688
1779588110165766716,A_+,0.10067111743751411,2.3904553034089933,2.4816487568256975,-0.8249298709551198,0.0,-0.010943214410004447,0.0,0.0,0.0,0.0,0.0,0.0,0.0,0.061425,-7.70175,-0.7087499999999999,0.09871932,-0.04217136,0.00191688
1779588110185460805,A_+,0.10132610506252604,2.3904553034089933,2.4816487568256975,-0.8249298709551198,0.0,-0.010943214410004447,0.0,0.0,0.0,0.0,0.0,0.0,0.0,0.0378,-7.6356,-0.713475,0.08050896,-0.04408824,0.01150128
1779588110185460805,A_+,0.10201234237501922,2.3904553034089933,2.4816487568256975,-0.8249298709551198,0.0,-0.010943214410004447,0.0,0.0,0.0,0.0,0.0,0.0,0.0,0.0378,-7.6356,-0.713475,0.08050896,-0.04408824,0.01150128
1779588110185460805,A_+,0.10267751724995833,2.3904553034089933,2.4816487568256975,-0.8249298709551198,0.0,-0.010943214410004447,0.0,0.0,0.0,0.0,0.0,0.0,0.0,0.0378,-7.6356,-0.713475,0.08050896,-0.04408824,0.01150128
1779588110230417966,A_+,0.10333515268735027,2.3904553034089933,2.4816487568256975,-0.8249298709551198,0.0,-0.010943214410004447,0.0,0.0,0.0,0.0,0.0,0.0,0.0,0.05669999999999999,-7.66395,-0.6945749999999999,0.09296868,-0.047922,-0.00095844
1779588110230417966,A_+,0.10402124400002322,2.3904553034089933,2.4816487568256975,-0.8249298709551198,0.0,-0.010943214410004447,0.0,0.0,0.0,0.0,0.0,0.0,0.0,0.05669999999999999,-7.66395,-0.6945749999999999,0.09296868,-0.047922,-0.00095844
1779588110230417966,A_+,0.10468270912497246,2.3904553034089933,2.4816487568256975,-0.8249298709551198,0.0,-0.010943214410004447,0.0,0.0,0.0,0.0,0.0,0.0,0.0,0.05669999999999999,-7.66395,-0.6945749999999999,0.09296868,-0.047922,-0.00095844
1779588110261824846,A_+,0.1053423644373197,2.3904553034089933,2.4816487568256975,-0.8249298709551198,0.0,-0.010943214410004447,0.0,0.0,0.0,0.0,0.0,0.0,0.0,0.0756,-7.611974999999999,-0.7276499999999999,0.095844,-0.04983888,-0.00383376
1779588110261824846,A_+,0.10602700787489994,2.3904553034089933,2.4816487568256975,-0.8249298709551198,0.0,-0.010943214410004447,0.0,0.0,0.0,0.0,0.0,0.0,0.0,0.0756,-7.611974999999999,-0.7276499999999999,0.095844,-0.04983888,-0.00383376
1779588110261824846,A_+,0.106687399124894,2.3904553034089933,2.4816487568256975,-0.8249298709551198,0.0,-0.010943214410004447,0.0,0.0,0.0,0.0,0.0,0.0,0.0,0.0756,-7.611974999999999,-0.7276499999999999,0.095844,-0.04983888,-0.00383376
1779588110295399188,A_+,0.1073419667500275,2.3904553034089933,2.4816487568256975,-0.8249298709551198,0.0,-0.010943214410004447,0.0,0.0,0.0,0.0,0.0,0.0,0.0,-0.004725,-7.6734,-0.7182,0.09680244,-0.04217136,-0.00191688
1779588110295399188,A_+,0.1080265781874914,2.3904553034089933,2.4816487568256975,-0.8249298709551198,0.0,-0.010943214410004447,0.0,0.0,0.0,0.0,0.0,0.0,0.0,-0.004725,-7.6734,-0.7182,0.09680244,-0.04217136,-0.00191688
1779588110295399188,A_+,0.10868523556246146,2.3904553034089933,2.4816487568256975,-0.8249298709551198,0.0,-0.010943214410004447,0.0,0.0,0.0,0.0,0.0,0.0,0.0,-0.004725,-7.6734,-0.7182,0.09680244,-0.04217136,-0.00191688
1779588110325403690,A_+,0.10934401287499895,2.3904553034089933,2.4816487568256975,-0.8249298709551198,0.0,-0.010943214410004447,0.0,0.0,0.0,0.0,0.0,0.0,0.0,0.05197499999999999,-7.6686749999999995,-0.7276499999999999,0.0910518,-0.04600512,0.00095844
1779588110325403690,A_+,0.11003840362491246,2.3904553034089933,2.4816487568256975,-0.8249298709551198,0.0,-0.010943214410004447,0.0,0.0,0.0,0.0,0.0,0.0,0.0,0.05197499999999999,-7.6686749999999995,-0.7276499999999999,0.0910518,-0.04600512,0.00095844
1779588110325403690,A_+,0.11070311050002601,2.3904553034089933,2.4816487568256975,-0.8249298709551198,0.0,-0.010943214410004447,0.0,0.0,0.0,0.0,0.0,0.0,0.0,0.05197499999999999,-7.6686749999999995,-0.7276499999999999,0.0910518,-0.04600512,0.00095844
1779588110360409975,A_+,0.11135510237500057,2.3904553034089933,2.4816487568256975,-0.8249298709551198,0.0,-0.010943214410004447,0.0,0.0,0.0,0.0,0.0,0.0,0.0,0.061425,-7.697024999999999,-0.7040249999999999,0.08721804,-0.048880440000000004,0.00095844
1779588110360409975,A_+,0.11203930987494459,2.3904553034089933,2.4816487568256975,-0.8249298709551198,0.0,-0.010943214410004447,0.0,0.0,0.0,0.0,0.0,0.0,0.0,0.061425,-7.697024999999999,-0.7040249999999999,0.08721804,-0.048880440000000004,0.00095844
1779588110360409975,A_+,0.11269839318742925,2.3904553034089933,2.4816487568256975,-0.8249298709551198,0.0,-0.010943214410004447,0.0,0.0,0.0,0.0,0.0,0.0,0.0,0.061425,-7.697024999999999,-0.7040249999999999,0.08721804,-0.048880440000000004,0.00095844
1779588110390388250,A_+,0.11335201487486302,2.3904553034089933,2.4816487568256975,-0.8249298709551198,0.0,-0.010943214410004447,0.0,0.0,0.0,0.0,0.0,0.0,0.0,0.05197499999999999,-7.72065,-0.7087499999999999,0.09776088000000001,-0.04983888,-0.0047922
1779588110390388250,A_+,0.1140373063124116,2.3904553034089933,2.4816487568256975,-0.8249298709551198,0.0,-0.010943214410004447,0.0,0.0,0.0,0.0,0.0,0.0,0.0,0.05197499999999999,-7.72065,-0.7087499999999999,0.09776088000000001,-0.04983888,-0.0047922
1779588110390388250,A_+,0.1146994353748596,2.3904553034089933,2.4816487568256975,-0.8249298709551198,0.0,-0.010943214410004447,0.0,0.0,0.0,0.0,0.0,0.0,0.0,0.05197499999999999,-7.72065,-0.7087499999999999,0.09776088000000001,-0.04983888,-0.0047922
1779588110425394535,A_+,0.11535373306242036,2.3904553034089933,2.4816487568256975,-0.8249298709551198,0.0,-0.010943214410004447,0.0,0.0,0.0,0.0,0.0,0.0,0.0,0.0189,-7.68285,-0.6851249999999999,0.08817648,-0.04504668,0.0
1779588110425394535,A_+,0.11603667862482325,2.3904553034089933,2.4816487568256975,-0.8249298709551198,0.0,-0.010943214410004447,0.0,0.0,0.0,0.0,0.0,0.0,0.0,0.0189,-7.68285,-0.6851249999999999,0.08817648,-0.04504668,0.0
1779588110425394535,A_+,0.11669548399981977,2.3904553034089933,2.4816487568256975,-0.8249298709551198,0.0,-0.010943214410004447,0.0,0.0,0.0,0.0,0.0,0.0,0.0,0.0189,-7.68285,-0.6851249999999999,0.08817648,-0.04504668,0.0
1779588110455394268,A_+,0.11734768381234062,2.3904553034089933,2.4816487568256975,-0.8249298709551198,0.0,-0.010943214410004447,0.0,0.0,0.0,0.0,0.0,0.0,0.0,0.0378,-7.659224999999999,-0.6992999999999999,0.08530115999999999,-0.048880440000000004,0.0095844
1779588110455394268,A_+,0.11803541499989478,2.3904553034089933,2.4816487568256975,-0.8249298709551198,0.0,-0.010943214410004447,0.0,0.0,0.0,0.0,0.0,0.0,0.0,0.0378,-7.659224999999999,-0.6992999999999999,0.08530115999999999,-0.048880440000000004,0.0095844
1779588110455394268,A_+,0.11869727012503972,2.3904553034089933,2.4816487568256975,-0.8249298709551198,0.0,-0.010943214410004447,0.0,0.0,0.0,0.0,0.0,0.0,0.0,0.0378,-7.659224999999999,-0.6992999999999999,0.08530115999999999,-0.048880440000000004,0.0095844
1779588110485391855,A_+,0.11935460156246336,2.3904553034089933,2.4816487568256975,-0.8249298709551198,0.0,-0.010943214410004447,0.0,0.0,0.0,0.0,0.0,0.0,0.0,0.0189,-7.687575,-0.713475,0.09392712,-0.04408824,0.00383376
1779588110485391855,A_+,0.12003981499992733,2.3904553034089933,2.4816487568256975,-0.8249298709551198,0.0,-0.010943214410004447,0.0,0.0,0.0,0.0,0.0,0.0,0.0,0.0189,-7.687575,-0.713475,0.09392712,-0.04408824,0.00383376
1779588110485391855,A_+,0.12070068018738311,2.3904553034089933,2.4816487568256975,-0.8249298709551198,0.0,-0.010943214410004447,0.0,0.0,0.0,0.0,0.0,0.0,0.0,0.0189,-7.687575,-0.713475,0.09392712,-0.04408824,0.00383376
1779588110515382051,A_+,0.12135616574983032,2.3904553034089933,2.4816487568256975,-0.8249298709551198,0.0,-0.010943214410004447,0.0,0.0,0.0,0.0,0.0,0.0,0.0,0.05669999999999999,-7.6686749999999995,-0.7276499999999999,0.09009336,-0.04217136,0.00191688
1779588110515382051,A_+,0.12206054374996711,2.3904553034089933,2.4816487568256975,-0.8249298709551198,0.0,-0.010943214410004447,0.0,0.0,0.0,0.0,0.0,0.0,0.0,0.05669999999999999,-7.6686749999999995,-0.7276499999999999,0.09009336,-0.04217136,0.00191688
1779588110515382051,A_+,0.12273899162482849,2.3904553034089933,2.4816487568256975,-0.8249298709551198,0.0,-0.010943214410004447,0.0,0.0,0.0,0.0,0.0,0.0,0.0,0.05669999999999999,-7.6686749999999995,-0.7276499999999999,0.09009336,-0.04217136,0.00191688
1779588110540480136,A_+,0.12338918762497997,2.3904553034089933,2.4816487568256975,-0.8249298709551198,0.0,-0.010943214410004447,0.0,0.0,0.0,0.0,0.0,0.0,0.0,0.06615,-7.6545,-0.6851249999999999,0.09680244,-0.04696356,-0.00191688
1779588110540480136,A_+,0.12407423099989501,2.3904553034089933,2.4816487568256975,-0.8249298709551198,0.0,-0.010943214410004447,0.0,0.0,0.0,0.0,0.0,0.0,0.0,0.06615,-7.6545,-0.6851249999999999,0.09680244,-0.04696356,-0.00191688
1779588110540480136,A_+,0.12474285162488741,2.3904553034089933,2.4816487568256975,-0.8249298709551198,0.0,-0.010943214410004447,0.0,0.0,0.0,0.0,0.0,0.0,0.0,0.06615,-7.6545,-0.6851249999999999,0.09680244,-0.04696356,-0.00191688
1779588110570531845,A_+,0.1253974853125328,2.3904553034089933,2.4816487568256975,-0.8249298709551198,0.0,-0.010943214410004447,0.0,0.0,0.0,0.0,0.0,0.0,0.0,0.0189,-7.6686749999999995,-0.6804,0.08913491999999999,-0.05175576,0.00383376
1779588110570531845,A_+,0.12608582843745353,2.3904553034089933,2.4816487568256975,-0.8249298709551198,0.0,-0.010943214410004447,0.0,0.0,0.0,0.0,0.0,0.0,0.0,0.0189,-7.6686749999999995,-0.6804,0.08913491999999999,-0.05175576,0.00383376
1779588110570531845,A_+,0.12674805756250862,2.3904553034089933,2.4816487568256975,-0.8249298709551198,0.0,-0.010943214410004447,0.0,0.0,0.0,0.0,0.0,0.0,0.0,0.0189,-7.6686749999999995,-0.6804,0.08913491999999999,-0.05175576,0.00383376
1779588110595367908,A_+,0.1274065449374575,2.3904553034089933,2.4816487568256975,-0.8249298709551198,0.0,-0.010943214410004447,0.0,0.0,0.0,0.0,0.0,0.0,0.0,0.014174999999999998,-7.6734,-0.7182,0.09296868,-0.048880440000000004,0.0
1779588110595367908,A_+,0.12810362543746123,2.3904553034089933,2.4816487568256975,-0.8249298709551198,0.0,-0.010943214410004447,0.0,0.0,0.0,0.0,0.0,0.0,0.0,0.014174999999999998,-7.6734,-0.7182,0.09296868,-0.048880440000000004,0.0
1779588110595367908,A_+,0.12876830237496506,2.3904553034089933,2.4816487568256975,-0.8249298709551198,0.0,-0.010943214410004447,0.0,0.0,0.0,0.0,0.0,0.0,0.0,0.014174999999999998,-7.6734,-0.7182,0.09296868,-0.048880440000000004,0.0
1779588110645414113,A_+,0.12942349593731706,2.3904553034089933,2.4816487568256975,-0.8249298709551198,0.0,-0.010943214410004447,0.0,0.0,0.0,0.0,0.0,0.0,0.0,0.023625,-7.659224999999999,-0.6945749999999999,0.09871932,-0.04121292,0.00191688
1779588110645414113,A_+,0.13010949131239613,2.3904553034089933,2.4816487568256975,-0.8249298709551198,0.0,-0.010943214410004447,0.0,0.0,0.0,0.0,0.0,0.0,0.0,0.023625,-7.659224999999999,-0.6945749999999999,0.09871932,-0.04121292,0.00191688
1779588110645414113,A_+,0.13077749193735144,2.3904553034089933,2.4816487568256975,-0.8249298709551198,0.0,-0.010943214410004447,0.0,0.0,0.0,0.0,0.0,0.0,0.0,0.023625,-7.659224999999999,-0.6945749999999999,0.09871932,-0.04121292,0.00191688
1779588110675361394,A_+,0.13143645531249604,2.3904553034089933,2.4816487568256975,-0.8249298709551198,0.0,-0.010943214410004447,0.0,0.0,0.0,0.0,0.0,0.0,0.0,0.023625,-7.64505,-0.7040249999999999,0.09680244,-0.04696356,0.00766752
1779588110675361394,A_+,0.13212506443733218,2.3904553034089933,2.4816487568256975,-0.8249298709551198,0.0,-0.010943214410004447,0.0,0.0,0.0,0.0,0.0,0.0,0.0,0.023625,-7.64505,-0.7040249999999999,0.09680244,-0.04696356,0.00766752
1779588110675361394,A_+,0.13278597962494132,2.3904553034089933,2.4816487568256975,-0.8249298709551198,0.0,-0.010943214410004447,0.0,0.0,0.0,0.0,0.0,0.0,0.0,0.023625,-7.64505,-0.7040249999999999,0.09680244,-0.04696356,0.00766752
1779588110705376625,A_+,0.13344834068743694,2.3904553034089933,2.4816487568256975,-0.8249298709551198,0.0,-0.010943214410004447,0.0,0.0,0.0,0.0,0.0,0.0,0.0,0.00945,-7.6686749999999995,-0.7323749999999999,0.08625959999999999,-0.04408824,0.00287532
1779588110705376625,A_+,0.1341373238124106,2.3904553034089933,2.4816487568256975,-0.8249298709551198,0.0,-0.010943214410004447,0.0,0.0,0.0,0.0,0.0,0.0,0.0,0.00945,-7.6686749999999995,-0.7323749999999999,0.08625959999999999,-0.04408824,0.00287532
1779588110705376625,A_+,0.1348152617499636,2.3904553034089933,2.4816487568256975,-0.8249298709551198,0.0,-0.010943214410004447,0.0,0.0,0.0,0.0,0.0,0.0,0.0,0.00945,-7.6686749999999995,-0.7323749999999999,0.08625959999999999,-0.04408824,0.00287532
1779588110740435361,A_+,0.13547147931240033,2.3904553034089933,2.4816487568256975,-0.8249298709551198,0.0,-0.010943214410004447,0.0,0.0,0.0,0.0,0.0,0.0,0.0,0.00945,-7.6545,-0.7182,0.10159463999999999,-0.04983888,0.00191688
1779588110740435361,A_+,0.13616257424996547,2.3904553034089933,2.4816487568256975,-0.8249298709551198,0.0,-0.010943214410004447,0.0,0.0,0.0,0.0,0.0,0.0,0.0,0.00945,-7.6545,-0.7182,0.10159463999999999,-0.04983888,0.00191688
1779588110740435361,A_+,0.13682715118738997,2.3904553034089933,2.4816487568256975,-0.8249298709551198,0.0,-0.010943214410004447,0.0,0.0,0.0,0.0,0.0,0.0,0.0,0.00945,-7.6545,-0.7182,0.10159463999999999,-0.04983888,0.00191688
1779588110755784511,A_+,0.13748275074999583,2.3904553034089933,2.4816487568256975,-0.8249298709551198,0.0,-0.010943214410004447,0.0,0.0,0.0,0.0,0.0,0.0,0.0,0.04725,-7.687575,-0.713475,0.09680244,-0.04408824,-0.00095844
1779588110755784511,A_+,0.13817570156243164,2.3904553034089933,2.4816487568256975,-0.8249298709551198,0.0,-0.010943214410004447,0.0,0.0,0.0,0.0,0.0,0.0,0.0,0.04725,-7.687575,-0.713475,0.09680244,-0.04408824,-0.00095844
1779588110755784511,A_+,0.13883874262501195,2.3904553034089933,2.4816487568256975,-0.8249298709551198,0.0,-0.010943214410004447,0.0,0.0,0.0,0.0,0.0,0.0,0.0,0.04725,-7.687575,-0.713475,0.09680244,-0.04408824,-0.00095844
1779588110810372352,A_+,0.13950222562493764,2.3904553034089933,2.4816487568256975,-0.8249298709551198,0.0,-0.010943214410004447,0.0,0.0,0.0,0.0,0.0,0.0,0.0,0.028349999999999997,-7.706474999999999,-0.7087499999999999,0.09392712,-0.048880440000000004,0.01054284
1779588110810372352,A_+,0.14018845693749427,2.3904553034089933,2.4816487568256975,-0.8249298709551198,0.0,-0.010943214410004447,0.0,0.0,0.0,0.0,0.0,0.0,0.0,0.028349999999999997,-7.706474999999999,-0.7087499999999999,0.09392712,-0.048880440000000004,0.01054284
1779588110810372352,A_+,0.1408496741248655,2.3904553034089933,2.4816487568256975,-0.8249298709551198,0.0,-0.010943214410004447,0.0,0.0,0.0,0.0,0.0,0.0,0.0,0.028349999999999997,-7.706474999999999,-0.7087499999999999,0.09392712,-0.048880440000000004,0.01054284
1779588110840367317,A_+,0.14151276312486516,2.3904553034089933,2.4816487568256975,-0.8249298709551198,0.0,-0.010943214410004447,0.0,0.0,0.0,0.0,0.0,0.0,0.0,0.014174999999999998,-7.687575,-0.6945749999999999,0.09488556,-0.04504668,0.00287532
1779588110840367317,A_+,0.1422110275623254,2.3904553034089933,2.4816487568256975,-0.8249298709551198,0.0,-0.010943214410004447,0.0,0.0,0.0,0.0,0.0,0.0,0.0,0.014174999999999998,-7.687575,-0.6945749999999999,0.09488556,-0.04504668,0.00287532
1779588110840367317,A_+,0.1428749345000142,2.3904553034089933,2.4816487568256975,-0.8249298709551198,0.0,-0.010943214410004447,0.0,0.0,0.0,0.0,0.0,0.0,0.0,0.014174999999999998,-7.687575,-0.6945749999999999,0.09488556,-0.04504668,0.00287532
1779588110870357990,A_+,0.143530924062361,2.3904553034089933,2.4816487568256975,-0.8249298709551198,0.0,-0.010943214410004447,0.0,0.0,0.0,0.0,0.0,0.0,0.0,0.0189,-7.6734,-0.7182,0.09201024,-0.05175576,-0.00575064
1779588110870357990,A_+,0.14422243099988918,2.3904553034089933,2.4816487568256975,-0.8249298709551198,0.0,-0.010943214410004447,0.0,0.0,0.0,0.0,0.0,0.0,0.0,0.0189,-7.6734,-0.7182,0.09201024,-0.05175576,-0.00575064
1779588110870357990,A_+,0.1448901176875097,2.3904553034089933,2.4816487568256975,-0.8249298709551198,0.0,-0.010943214410004447,0.0,0.0,0.0,0.0,0.0,0.0,0.0,0.0189,-7.6734,-0.7182,0.09201024,-0.05175576,-0.00575064
1779588110905347108,A_+,0.14555104087503423,2.3904553034089933,2.4816487568256975,-0.8249298709551198,0.0,-0.010943214410004447,0.0,0.0,0.0,0.0,0.0,0.0,0.0,0.023625,-7.64505,-0.6898499999999999,0.08913491999999999,-0.04600512,0.02491944
1779588110905347108,A_+,0.146240121999881,2.3904553034089933,2.4816487568256975,-0.8249298709551198,0.0,-0.010943214410004447,0.0,0.0,0.0,0.0,0.0,0.0,0.0,0.023625,-7.64505,-0.6898499999999999,0.08913491999999999,-0.04600512,0.02491944
1779588110905347108,A_+,0.14689084393739904,2.3904553034089933,2.4816487568256975,-0.8249298709551198,0.0,-0.010943214410004447,0.0,0.0,0.0,0.0,0.0,0.0,0.0,0.023625,-7.64505,-0.6898499999999999,0.08913491999999999,-0.04600512,0.02491944
1779588110935380697,A_+,0.14754776543736625,2.3904553034089933,2.4816487568256975,-0.8249298709551198,0.0,-0.010943214410004447,0.0,0.0,0.0,0.0,0.0,0.0,0.0,0.0189,-7.706474999999999,-0.6851249999999999,0.08913491999999999,-0.04696356,0.0047922
1779588110935380697,A_+,0.1482296170624977,2.3904553034089933,2.4816487568256975,-0.8249298709551198,0.0,-0.010943214410004447,0.0,0.0,0.0,0.0,0.0,0.0,0.0,0.0189,-7.706474999999999,-0.6851249999999999,0.08913491999999999,-0.04696356,0.0047922
1779588110935380697,A_+,0.14889359799985868,2.3904553034089933,2.4816487568256975,-0.8249298709551198,0.0,-0.010943214410004447,0.0,0.0,0.0,0.0,0.0,0.0,0.0,0.0189,-7.706474999999999,-0.6851249999999999,0.08913491999999999,-0.04696356,0.0047922
1779588110970360755,A_+,0.1495480656874406,2.3904553034089933,2.4816487568256975,-0.8249298709551198,0.0,-0.010943214410004447,0.0,0.0,0.0,0.0,0.0,0.0,0.0,0.023625,-7.659224999999999,-0.7182,0.08817648,-0.04408824,0.00191688
1779588110970360755,A_+,0.15023948062503223,2.3904553034089933,2.4816487568256975,-0.8249298709551198,0.0,-0.010943214410004447,0.0,0.0,0.0,0.0,0.0,0.0,0.0,0.023625,-7.659224999999999,-0.7182,0.08817648,-0.04408824,0.00191688
1779588110970360755,A_+,0.1509030776248892,2.3904553034089933,2.4816487568256975,-0.8249298709551198,0.0,-0.010943214410004447,0.0,0.0,0.0,0.0,0.0,0.0,0.0,0.023625,-7.659224999999999,-0.7182,0.08817648,-0.04408824,0.00191688
1779588110995344400,A_+,0.15155786125001214,2.3904553034089933,2.4816487568256975,-0.8249298709551198,0.0,-0.010943214410004447,0.0,0.0,0.0,0.0,0.161,0.0,0.0,0.05197499999999999,-7.6734,-0.6992999999999999,0.13130628,-0.048880440000000004,-0.00191688
1779588110995344400,A_+,0.1522479763748379,2.3904553034089933,2.4816487568256975,-0.8249298709551198,0.0,-0.010943214410004447,0.0,0.0,0.0,0.0,0.161,0.0,0.0,0.05197499999999999,-7.6734,-0.6992999999999999,0.13130628,-0.048880440000000004,-0.00191688
1779588110995344400,A_+,0.15291264931238402,2.3904553034089933,2.4816487568256975,-0.8249298709551198,0.0,-0.010943214410004447,0.0,0.0,0.0,0.0,0.161,0.0,0.0,0.05197499999999999,-7.6734,-0.6992999999999999,0.13130628,-0.048880440000000004,-0.00191688
