deepaktalwardt/rage-cage-arm-hackstorm/ros2/ws/sysid/runs/sysid_20260524_020136/raw/joint5_phaseA_pos.csv
t_ns,phase,tau_cmd,q1,q2,q3,q4,q5,q6,qd1,qd2,qd3,qd4,qd5,qd6,tau1,tau2,tau3,tau4,tau5,tau6
1779588131444629669,A_+,2.6000179786933586e-08,2.3912581548649112,2.481142611342619,-0.8266752002071143,0.0,-0.01090830782496456,0.0,0.055,0.0,0.0,0.0,0.0,0.0,0.070875,-7.583625,-0.17955,0.06804924000000001,-0.04696356,-0.00766752
1779588131444629669,A_+,0.0006741852500908863,2.3912581548649112,2.481142611342619,-0.8266752002071143,0.0,-0.01090830782496456,0.0,0.055,0.0,0.0,0.0,0.0,0.0,0.070875,-7.583625,-0.17955,0.06804924000000001,-0.04696356,-0.00766752
1779588134934705018,A_+,0.0013452386874632793,2.3912581548649112,2.481142611342619,-0.8266752002071143,0.0,-0.01090830782496456,0.0,0.0,0.0,0.0,0.0,0.0,0.0,0.061425,-7.62615,-0.19372499999999998,0.0622986,-0.04983888,-0.00575064
1779588134934705018,A_+,0.002150436500187425,2.3912581548649112,2.481142611342619,-0.8266752002071143,0.0,-0.01090830782496456,0.0,0.0,0.0,0.0,0.0,0.0,0.0,0.061425,-7.62615,-0.19372499999999998,0.0622986,-0.04983888,-0.00575064
1779588134934705018,A_+,0.0028183821875700232,2.3912581548649112,2.481142611342619,-0.8266752002071143,0.0,-0.01090830782496456,0.0,0.0,0.0,0.0,0.0,0.0,0.0,0.061425,-7.62615,-0.19372499999999998,0.0622986,-0.04983888,-0.00575064
1779588134953506469,A_+,0.0034792304375059757,2.3912581548649112,2.481142611342619,-0.8266752002071143,0.0,-0.01090830782496456,0.0,0.0,0.0,0.0,0.0,0.0,0.0,0.118125,-7.6167,-0.20789999999999997,0.06038172,-0.06517392,0.00095844
1779588134953506469,A_+,0.004190332999996826,2.3912581548649112,2.481142611342619,-0.8266752002071143,0.0,-0.01090830782496456,0.0,0.0,0.0,0.0,0.0,0.0,0.0,0.118125,-7.6167,-0.20789999999999997,0.06038172,-0.06517392,0.00095844
1779588134953506469,A_+,0.0048689440000089235,2.3912581548649112,2.481142611342619,-0.8266752002071143,0.0,-0.01090830782496456,0.0,0.0,0.0,0.0,0.0,0.0,0.0,0.118125,-7.6167,-0.20789999999999997,0.06038172,-0.06517392,0.00095844
1779588134973491907,A_+,0.0055530805625494395,2.3912581548649112,2.481142611342619,-0.8266752002071143,0.0,-0.01090830782496456,0.0,0.0,0.0,0.0,0.0,0.0,0.0,0.014174999999999998,-7.6167,-0.222075,0.06613236,-0.09392712,-0.0095844
1779588134973491907,A_+,0.006289765375186107,2.3912581548649112,2.481142611342619,-0.8266752002071143,0.0,-0.01090830782496456,0.0,0.0,0.0,0.0,0.0,0.0,0.0,0.014174999999999998,-7.6167,-0.222075,0.06613236,-0.09392712,-0.0095844
1779588134973491907,A_+,0.0069667644374931115,2.3912581548649112,2.481142611342619,-0.8266752002071143,0.0,-0.01090830782496456,0.0,0.0,0.0,0.0,0.0,0.0,0.0,0.014174999999999998,-7.6167,-0.222075,0.06613236,-0.09392712,-0.0095844
1779588134988503217,A_+,0.007632974312627994,2.3912581548649112,2.481142611342619,-0.8266752002071143,0.0,-0.01090830782496456,0.0,0.0,0.0,0.0,0.0,0.0,0.0,0.070875,-7.7112,-0.19845,0.06421548,-0.09392712,-0.00287532
1779588134988503217,A_+,0.008361531687569368,2.3912581548649112,2.481142611342619,-0.8266752002071143,0.0,-0.01090830782496456,0.0,0.0,0.0,0.0,0.0,0.0,0.0,0.070875,-7.7112,-0.19845,0.06421548,-0.09392712,-0.00287532
1779588134988503217,A_+,0.009077582000145412,2.3912581548649112,2.481142611342619,-0.8266752002071143,0.0,-0.01090830782496456,0.0,0.0,0.0,0.0,0.0,0.0,0.0,0.070875,-7.7112,-0.19845,0.06421548,-0.09392712,-0.00287532
1779588135008503675,A_+,0.0097596106875244,2.3912581548649112,2.481142611342619,-0.8266752002071143,0.0,-0.01090830782496456,0.0,0.0,0.0,0.0,0.0,0.0,0.0,0.05669999999999999,-7.6545,-0.20789999999999997,0.06517392,-0.09680244,-0.00766752
1779588135008503675,A_+,0.010549321687676638,2.3912581548649112,2.481142611342619,-0.8266752002071143,0.0,-0.01090830782496456,0.0,0.0,0.0,0.0,0.0,0.0,0.0,0.05669999999999999,-7.6545,-0.20789999999999997,0.06517392,-0.09680244,-0.00766752
1779588135008503675,A_+,0.011247501250181813,2.3912581548649112,2.481142611342619,-0.8266752002071143,0.0,-0.01090830782496456,0.0,0.0,0.0,0.0,0.0,0.0,0.0,0.05669999999999999,-7.6545,-0.20789999999999997,0.06517392,-0.09680244,-0.00766752
1779588135028581142,A_+,0.01191445706263039,2.3912581548649112,2.481142611342619,-0.8266752002071143,0.0,-0.01090830782496456,0.0,0.0,0.0,0.0,0.0,0.0,0.0,0.061425,-7.66395,-0.1701,0.06421548,-0.09392712,-0.00862596
1779588135028581142,A_+,0.012639860687613691,2.3912581548649112,2.481142611342619,-0.8266752002071143,0.0,-0.01090830782496456,0.0,0.0,0.0,0.0,0.0,0.0,0.0,0.061425,-7.66395,-0.1701,0.06421548,-0.09392712,-0.00862596
1779588135028581142,A_+,0.013329034875141588,2.3912581548649112,2.481142611342619,-0.8266752002071143,0.0,-0.01090830782496456,0.0,0.0,0.0,0.0,0.0,0.0,0.0,0.061425,-7.66395,-0.1701,0.06421548,-0.09392712,-0.00862596
1779588135043502092,A_+,0.01402196481262763,2.3912581548649112,2.481142611342619,-0.8266752002071143,0.0,-0.01090830782496456,0.0,0.0,0.0,0.0,0.0,0.0,0.0,0.033075,-7.6545,-0.17955,0.06421548,-0.09680244,-0.01245972
1779588135043502092,A_+,0.014804972249976345,2.3912581548649112,2.481142611342619,-0.8266752002071143,0.0,-0.01090830782496456,0.0,0.0,0.0,0.0,0.0,0.0,0.0,0.033075,-7.6545,-0.17955,0.06421548,-0.09680244,-0.01245972
1779588135043502092,A_+,0.015501795937552743,2.3912581548649112,2.481142611342619,-0.8266752002071143,0.0,-0.01090830782496456,0.0,0.0,0.0,0.0,0.0,0.0,0.0,0.033075,-7.6545,-0.17955,0.06421548,-0.09680244,-0.01245972
1779588135063597202,A_+,0.016186286499987546,2.3912581548649112,2.481142611342619,-0.8266752002071143,0.0,-0.01090830782496456,0.0,0.0,0.0,0.0,0.0,0.0,0.0,0.0756,-7.68285,-0.19845,0.06804924000000001,-0.09680244,-0.00575064
1779588135063597202,A_+,0.01691585781259164,2.3912581548649112,2.481142611342619,-0.8266752002071143,0.0,-0.01090830782496456,0.0,0.0,0.0,0.0,0.0,0.0,0.0,0.0756,-7.68285,-0.19845,0.06804924000000001,-0.09680244,-0.00575064
1779588135063597202,A_+,0.01758803125017039,2.3912581548649112,2.481142611342619,-0.8266752002071143,0.0,-0.01090830782496456,0.0,0.0,0.0,0.0,0.0,0.0,0.0,0.0756,-7.68285,-0.19845,0.06804924000000001,-0.09680244,-0.00575064
1779588135083493947,A_+,0.018261290625105175,2.3912581548649112,2.481142611342619,-0.8266752002071143,0.0,-0.01090830782496456,0.0,0.0,0.0,0.0,0.0,0.0,0.0,0.042525,-7.6356,-0.189,0.06517392,-0.09392712,-0.00766752
1779588135083493947,A_+,0.019108529374989303,2.3912581548649112,2.481142611342619,-0.8266752002071143,0.0,-0.01090830782496456,0.0,0.0,0.0,0.0,0.0,0.0,0.0,0.042525,-7.6356,-0.189,0.06517392,-0.09392712,-0.00766752
1779588135083493947,A_+,0.019785050562632023,2.3912581548649112,2.481142611342619,-0.8266752002071143,0.0,-0.01090830782496456,0.0,0.0,0.0,0.0,0.0,0.0,0.0,0.042525,-7.6356,-0.189,0.06517392,-0.09392712,-0.00766752
1779588135108492851,A_+,0.020448200624969104,2.3912581548649112,2.481142611342619,-0.8266752002071143,0.0,-0.01090830782496456,0.0,0.0,0.0,0.0,0.0,0.0,0.0,0.05669999999999999,-7.6545,-0.17955,0.06421548,-0.09392712,-0.00383376
1779588135108492851,A_+,0.021237467625041972,2.3912581548649112,2.481142611342619,-0.8266752002071143,0.0,-0.01090830782496456,0.0,0.0,0.0,0.0,0.0,0.0,0.0,0.05669999999999999,-7.6545,-0.17955,0.06421548,-0.09392712,-0.00383376
1779588135108492851,A_+,0.021916878562478814,2.3912581548649112,2.481142611342619,-0.8266752002071143,0.0,-0.01090830782496456,0.0,0.0,0.0,0.0,0.0,0.0,0.0,0.05669999999999999,-7.6545,-0.17955,0.06421548,-0.09392712,-0.00383376
1779588135139096975,A_+,0.0225925557501796,2.3912581548649112,2.481142611342619,-0.8266752002071143,0.0,-0.01090830782496456,0.0,0.0,0.0,0.0,0.0,0.0,0.0,0.0378,-7.6545,-0.203175,0.06421548,-0.09488556,-0.01629348
1779588135139096975,A_+,0.023351716875140482,2.3912581548649112,2.481142611342619,-0.8266752002071143,0.0,-0.01090830782496456,0.0,0.0,0.0,0.0,0.0,0.0,0.0,0.0378,-7.6545,-0.203175,0.06421548,-0.09488556,-0.01629348
1779588135139096975,A_+,0.02403784731268388,2.3912581548649112,2.481142611342619,-0.8266752002071143,0.0,-0.01090830782496456,0.0,0.0,0.0,0.0,0.0,0.0,0.0,0.0378,-7.6545,-0.203175,0.06421548,-0.09488556,-0.01629348
1779588135183969259,A_+,0.024706591062567895,2.3912581548649112,2.481142611342619,-0.8266752002071143,0.0,-0.01090830782496456,0.0,0.0,0.0,0.0,0.0,0.0,0.0,0.04725,-7.64505,-0.203175,0.0766752,-0.09392712,-0.01054284
1779588135183969259,A_+,0.025441008000143484,2.3912581548649112,2.481142611342619,-0.8266752002071143,0.0,-0.01090830782496456,0.0,0.0,0.0,0.0,0.0,0.0,0.0,0.04725,-7.64505,-0.203175,0.0766752,-0.09392712,-0.01054284
1779588135183969259,A_+,0.026139449562606387,2.3912581548649112,2.481142611342619,-0.8266752002071143,0.0,-0.01090830782496456,0.0,0.0,0.0,0.0,0.0,0.0,0.0,0.04725,-7.64505,-0.203175,0.0766752,-0.09392712,-0.01054284
1779588135218714237,A_+,0.026826043937489885,2.3912581548649112,2.481142611342619,-0.8266752002071143,0.0,-0.01090830782496456,0.0,0.0,0.0,0.0,0.0,0.0,0.0,0.070875,-7.649774999999999,-0.19372499999999998,0.06517392,-0.09392712,-0.01054284
1779588135218714237,A_+,0.0275847811251424,2.3912581548649112,2.481142611342619,-0.8266752002071143,0.0,-0.01090830782496456,0.0,0.0,0.0,0.0,0.0,0.0,0.0,0.070875,-7.649774999999999,-0.19372499999999998,0.06517392,-0.09392712,-0.01054284
1779588135218714237,A_+,0.02826141225000356,2.3912581548649112,2.481142611342619,-0.8266752002071143,0.0,-0.01090830782496456,0.0,0.0,0.0,0.0,0.0,0.0,0.0,0.070875,-7.649774999999999,-0.19372499999999998,0.06517392,-0.09392712,-0.01054284
1779588135258489847,A_+,0.028928000125006292,2.3912581548649112,2.481142611342619,-0.8266752002071143,0.0,-0.01090830782496456,0.0,0.0,0.0,0.0,0.0,0.0,0.0,0.05669999999999999,-7.678125,-0.19845,0.06038172,-0.04217136,-0.0047922
1779588135258489847,A_+,0.029652691750015947,2.3912581548649112,2.481142611342619,-0.8266752002071143,0.0,-0.01090830782496456,0.0,0.0,0.0,0.0,0.0,0.0,0.0,0.05669999999999999,-7.678125,-0.19845,0.06038172,-0.04217136,-0.0047922
1779588135258489847,A_+,0.030338694187548754,2.3912581548649112,2.481142611342619,-0.8266752002071143,0.0,-0.01090830782496456,0.0,0.0,0.0,0.0,0.0,0.0,0.0,0.05669999999999999,-7.678125,-0.19845,0.06038172,-0.04217136,-0.0047922
1779588135288877487,A_+,0.031004328125163738,2.3912581548649112,2.481142611342619,-0.8266752002071143,0.0,-0.01090830782496456,0.0,0.0,0.0,0.0,0.0,0.0,0.0,0.05197499999999999,-7.6734,-0.316575,0.06804924000000001,-0.03067008,-0.0047922
1779588135288877487,A_+,0.03179694887512596,2.3912581548649112,2.481142611342619,-0.8266752002071143,0.0,-0.01090830782496456,0.0,0.0,0.0,0.0,0.0,0.0,0.0,0.05197499999999999,-7.6734,-0.316575,0.06804924000000001,-0.03067008,-0.0047922
1779588135288877487,A_+,0.0325023179375421,2.3912581548649112,2.481142611342619,-0.8266752002071143,0.0,-0.01090830782496456,0.0,0.0,0.0,0.0,0.0,0.0,0.0,0.05197499999999999,-7.6734,-0.316575,0.06804924000000001,-0.03067008,-0.0047922
1779588135313469886,A_+,0.03317440937507854,2.3912581548649112,2.481142611342619,-0.8266752002071143,0.0,-0.01090830782496456,0.0,0.0,0.0,0.0,0.0,0.0,0.0,0.0945,-7.678125,-0.19372499999999998,0.06900768,-0.03642072,0.00095844
1779588135313469886,A_+,0.03390002093760813,2.3912581548649112,2.481142611342619,-0.8266752002071143,0.0,-0.01090830782496456,0.0,0.0,0.0,0.0,0.0,0.0,0.0,0.0945,-7.678125,-0.19372499999999998,0.06900768,-0.03642072,0.00095844
1779588135313469886,A_+,0.034600000375121454,2.3912581548649112,2.481142611342619,-0.8266752002071143,0.0,-0.01090830782496456,0.0,0.0,0.0,0.0,0.0,0.0,0.0,0.0945,-7.678125,-0.19372499999999998,0.06900768,-0.03642072,0.00095844
1779588135344383478,A_+,0.0352882426875567,2.3912581548649112,2.481142611342619,-0.8266752002071143,0.0,-0.01090830782496456,0.0,0.0,0.0,0.0,0.0,0.0,0.0,0.05197499999999999,-7.597799999999999,-0.22679999999999997,0.06134016,-0.03162852,0.00191688
1779588135344383478,A_+,0.03606495256258313,2.3912581548649112,2.481142611342619,-0.8266752002071143,0.0,-0.01090830782496456,0.0,0.0,0.0,0.0,0.0,0.0,0.0,0.05197499999999999,-7.597799999999999,-0.22679999999999997,0.06134016,-0.03162852,0.00191688
1779588135344383478,A_+,0.036749831125007404,2.3912581548649112,2.481142611342619,-0.8266752002071143,0.0,-0.01090830782496456,0.0,0.0,0.0,0.0,0.0,0.0,0.0,0.05197499999999999,-7.597799999999999,-0.22679999999999997,0.06134016,-0.03162852,0.00191688
1779588135374214887,A_+,0.037435993562667136,2.3912581548649112,2.481142611342619,-0.8266752002071143,0.0,-0.01090830782496456,0.0,0.0,0.0,0.0,0.0,0.0,0.0,0.028349999999999997,-7.62615,-0.189,0.06325704,-0.03067008,-0.0047922
1779588135374214887,A_+,0.03816716075016302,2.3912581548649112,2.481142611342619,-0.8266752002071143,0.0,-0.01090830782496456,0.0,0.0,0.0,0.0,0.0,0.0,0.0,0.028349999999999997,-7.62615,-0.189,0.06325704,-0.03067008,-0.0047922
1779588135374214887,A_+,0.03884638968747822,2.3912581548649112,2.481142611342619,-0.8266752002071143,0.0,-0.01090830782496456,0.0,0.0,0.0,0.0,0.0,0.0,0.0,0.028349999999999997,-7.62615,-0.189,0.06325704,-0.03067008,-0.0047922
1779588135393463134,A_+,0.03951975700010735,2.3912581548649112,2.481142611342619,-0.8266752002071143,0.0,-0.01090830782496456,0.0,0.0,0.0,0.0,0.0,0.0,0.0,0.05669999999999999,-7.6686749999999995,-0.203175,0.04983888,-0.03067008,-0.01150128
1779588135393463134,A_+,0.04038106681264253,2.3912581548649112,2.481142611342619,-0.8266752002071143,0.0,-0.01090830782496456,0.0,0.0,0.0,0.0,0.0,0.0,0.0,0.05669999999999999,-7.6686749999999995,-0.203175,0.04983888,-0.03067008,-0.01150128
1779588135393463134,A_+,0.04106043975002649,2.3912581548649112,2.481142611342619,-0.8266752002071143,0.0,-0.01090830782496456,0.0,0.0,0.0,0.0,0.0,0.0,0.0,0.05669999999999999,-7.6686749999999995,-0.203175,0.04983888,-0.03067008,-0.01150128
1779588135428465366,A_+,0.04172848150005848,2.3912581548649112,2.481142611342619,-0.8266752002071143,0.0,-0.01090830782496456,0.0,0.0,0.0,0.0,0.0,0.0,0.0,0.06615,-7.640325,-0.21735,0.05846484,-0.03162852,-0.00862596
1779588135428465366,A_+,0.04250544737510609,2.3912581548649112,2.481142611342619,-0.8266752002071143,0.0,-0.01090830782496456,0.0,0.0,0.0,0.0,0.0,0.0,0.0,0.06615,-7.640325,-0.21735,0.05846484,-0.03162852,-0.00862596
1779588135428465366,A_+,0.04319755537517267,2.3912581548649112,2.481142611342619,-0.8266752002071143,0.0,-0.01090830782496456,0.0,0.0,0.0,0.0,0.0,0.0,0.0,0.06615,-7.640325,-0.21735,0.05846484,-0.03162852,-0.00862596
1779588135444012403,A_+,0.043865823125088355,2.3912581548649112,2.481142611342619,-0.8266752002071143,0.0,-0.01090830782496456,0.0,0.0,0.0,0.0,0.0,0.0,0.0,0.014174999999999998,-7.66395,-0.189,0.06996611999999999,-0.03929604,-0.00766752
1779588135444012403,A_+,0.044594622437671205,2.3912581548649112,2.481142611342619,-0.8266752002071143,0.0,-0.01090830782496456,0.0,0.0,0.0,0.0,0.0,0.0,0.0,0.014174999999999998,-7.66395,-0.189,0.06996611999999999,-0.03929604,-0.00766752
1779588135444012403,A_+,0.045313294562674855,2.3912581548649112,2.481142611342619,-0.8266752002071143,0.0,-0.01090830782496456,0.0,0.0,0.0,0.0,0.0,0.0,0.0,0.014174999999999998,-7.66395,-0.189,0.06996611999999999,-0.03929604,-0.00766752
1779588135534319639,A_+,0.04598292618766209,2.3912581548649112,2.481142611342619,-0.8266752002071143,0.0,-0.01090830782496456,0.0,0.0,0.0,0.0,0.0,0.0,0.0,0.0756,-7.640325,-0.222075,0.059423279999999995,-0.03067008,-0.00862596
1779588135534319639,A_+,0.046715587249991586,2.3912581548649112,2.481142611342619,-0.8266752002071143,0.0,-0.01090830782496456,0.0,0.0,0.0,0.0,0.0,0.0,0.0,0.0756,-7.640325,-0.222075,0.059423279999999995,-0.03067008,-0.00862596
1779588135534319639,A_+,0.04742576993749026,2.3912581548649112,2.481142611342619,-0.8266752002071143,0.0,-0.01090830782496456,0.0,0.0,0.0,0.0,0.0,0.0,0.0,0.0756,-7.640325,-0.222075,0.059423279999999995,-0.03067008,-0.00862596
1779588135688449621,A_+,0.04811267231252714,2.3912581548649112,2.481142611342619,-0.8266752002071143,0.0,-0.01090830782496456,0.0,0.0,0.0,0.0,0.0,0.0,0.0,0.05197499999999999,-7.659224999999999,-0.203175,0.047922,-0.03162852,-0.00383376
1779588135688449621,A_+,0.04885134300002392,2.3912581548649112,2.481142611342619,-0.8266752002071143,0.0,-0.01090830782496456,0.0,0.0,0.0,0.0,0.0,0.0,0.0,0.05197499999999999,-7.659224999999999,-0.203175,0.047922,-0.03162852,-0.00383376
1779588135688449621,A_+,0.04952985193767745,2.3912581548649112,2.481142611342619,-0.8266752002071143,0.0,-0.01090830782496456,0.0,0.0,0.0,0.0,0.0,0.0,0.0,0.05197499999999999,-7.659224999999999,-0.203175,0.047922,-0.03162852,-0.00383376
1779588135713697195,A_+,0.05021279462516759,2.3912581548649112,2.481142611342619,-0.8266752002071143,0.0,-0.01090830782496456,0.0,0.0,0.0,0.0,0.0,0.0,0.0,0.061425,-7.678125,-0.189,0.05654796,-0.0335454,0.01054284
1779588135713697195,A_+,0.0509428478751488,2.3912581548649112,2.481142611342619,-0.8266752002071143,0.0,-0.01090830782496456,0.0,0.0,0.0,0.0,0.0,0.0,0.0,0.061425,-7.678125,-0.189,0.05654796,-0.0335454,0.01054284
1779588135713697195,A_+,0.05162970424999003,2.3912581548649112,2.481142611342619,-0.8266752002071143,0.0,-0.01090830782496456,0.0,0.0,0.0,0.0,0.0,0.0,0.0,0.061425,-7.678125,-0.189,0.05654796,-0.0335454,0.01054284
1779588135733437061,A_+,0.05230659737503629,2.3912581548649112,2.481142611342619,-0.8266752002071143,0.0,-0.01090830782496456,0.0,0.0,0.0,0.0,0.0,0.0,0.0,0.0,-7.6356,-0.17955,0.05367264,-0.04121292,-0.0047922
1779588135733437061,A_+,0.05302436556257817,2.3912581548649112,2.481142611342619,-0.8266752002071143,0.0,-0.01090830782496456,0.0,0.0,0.0,0.0,0.0,0.0,0.0,0.0,-7.6356,-0.17955,0.05367264,-0.04121292,-0.0047922
1779588135733437061,A_+,0.05370217056247384,2.3912581548649112,2.481142611342619,-0.8266752002071143,0.0,-0.01090830782496456,0.0,0.0,0.0,0.0,0.0,0.0,0.0,0.0,-7.6356,-0.17955,0.05367264,-0.04121292,-0.0047922
1779588135758490085,A_+,0.054371306250004636,2.3912581548649112,2.481142611342619,-0.8266752002071143,0.0,-0.01090830782496456,0.0,0.0,0.0,0.0,0.0,0.0,0.0,0.0945,-7.649774999999999,-0.21262499999999998,0.05654796,-0.03258696,-0.00766752
1779588135758490085,A_+,0.05510748706251434,2.3912581548649112,2.481142611342619,-0.8266752002071143,0.0,-0.01090830782496456,0.0,0.0,0.0,0.0,0.0,0.0,0.0,0.0945,-7.649774999999999,-0.21262499999999998,0.05654796,-0.03258696,-0.00766752
1779588135758490085,A_+,0.055783492250156996,2.3912581548649112,2.481142611342619,-0.8266752002071143,0.0,-0.01090830782496456,0.0,0.0,0.0,0.0,0.0,0.0,0.0,0.0945,-7.649774999999999,-0.21262499999999998,0.05654796,-0.03258696,-0.00766752
1779588135788434028,A_+,0.056452875875038444,2.3912581548649112,2.481142611342619,-0.8266752002071143,0.0,-0.01090830782496456,0.0,0.0,0.0,0.0,0.0,0.0,0.0,0.0378,-7.6686749999999995,-0.19372499999999998,0.05463108,-0.03642072,-0.00575064
1779588135788434028,A_+,0.05717807750011161,2.3912581548649112,2.481142611342619,-0.8266752002071143,0.0,-0.01090830782496456,0.0,0.0,0.0,0.0,0.0,0.0,0.0,0.0378,-7.6686749999999995,-0.19372499999999998,0.05463108,-0.03642072,-0.00575064
1779588135788434028,A_+,0.05787450518755577,2.3912581548649112,2.481142611342619,-0.8266752002071143,0.0,-0.01090830782496456,0.0,0.0,0.0,0.0,0.0,0.0,0.0,0.0378,-7.6686749999999995,-0.19372499999999998,0.05463108,-0.03642072,-0.00575064
1779588135808447599,A_+,0.0585408830625056,2.3912581548649112,2.481142611342619,-0.8266752002071143,0.0,-0.01090830782496456,0.0,0.0,0.0,0.0,0.0,0.0,0.0,0.080325,-7.697024999999999,-0.184275,0.0670908,-0.03162852,-0.01054284
1779588135808447599,A_+,0.05930420993763619,2.3912581548649112,2.481142611342619,-0.8266752002071143,0.0,-0.01090830782496456,0.0,0.0,0.0,0.0,0.0,0.0,0.0,0.080325,-7.697024999999999,-0.184275,0.0670908,-0.03162852,-0.01054284
1779588135808447599,A_+,0.059996471937665774,2.3912581548649112,2.481142611342619,-0.8266752002071143,0.0,-0.01090830782496456,0.0,0.0,0.0,0.0,0.0,0.0,0.0,0.080325,-7.697024999999999,-0.184275,0.0670908,-0.03162852,-0.01054284
1779588135833429098,A_+,0.060676788750015476,2.3912581548649112,2.481142611342619,-0.8266752002071143,0.0,-0.01090830782496456,0.0,0.0,0.0,0.0,0.0,0.0,0.0,0.089775,-7.659224999999999,-0.17955,0.0670908,-0.03162852,-0.00766752
1779588135833429098,A_+,0.06141293762516398,2.3912581548649112,2.481142611342619,-0.8266752002071143,0.0,-0.01090830782496456,0.0,0.0,0.0,0.0,0.0,0.0,0.0,0.089775,-7.659224999999999,-0.17955,0.0670908,-0.03162852,-0.00766752
1779588135833429098,A_+,0.0620976841250922,2.3912581548649112,2.481142611342619,-0.8266752002071143,0.0,-0.01090830782496456,0.0,0.0,0.0,0.0,0.0,0.0,0.0,0.089775,-7.659224999999999,-0.17955,0.0670908,-0.03162852,-0.00766752
1779588135859745979,A_+,0.06276279212511326,2.3912581548649112,2.481142611342619,-0.8266752002071143,0.0,-0.01090830782496456,0.0,0.0,0.0,0.0,0.0,0.0,0.0,0.070875,-7.6545,-0.203175,0.06134016,-0.02779476,-0.00095844
1779588135859745979,A_+,0.06349032756247652,2.3912581548649112,2.481142611342619,-0.8266752002071143,0.0,-0.01090830782496456,0.0,0.0,0.0,0.0,0.0,0.0,0.0,0.070875,-7.6545,-0.203175,0.06134016,-0.02779476,-0.00095844
1779588135859745979,A_+,0.06417291025013583,2.3912581548649112,2.481142611342619,-0.8266752002071143,0.0,-0.01090830782496456,0.0,0.0,0.0,0.0,0.0,0.0,0.0,0.070875,-7.6545,-0.203175,0.06134016,-0.02779476,-0.00095844
1779588135913431644,A_+,0.0648454776876406,2.3912581548649112,2.481142611342619,-0.8266752002071143,0.0,-0.01090830782496456,0.0,0.0,0.0,0.0,0.0,0.0,0.0,0.08505,-7.64505,-0.19845,0.06613236,-0.028753199999999996,-0.00670908
1779588135913431644,A_+,0.0656245473751369,2.3912581548649112,2.481142611342619,-0.8266752002071143,0.0,-0.01090830782496456,0.0,0.0,0.0,0.0,0.0,0.0,0.0,0.08505,-7.64505,-0.19845,0.06613236,-0.028753199999999996,-0.00670908
1779588135913431644,A_+,0.06630024856258387,2.3912581548649112,2.481142611342619,-0.8266752002071143,0.0,-0.01090830782496456,0.0,0.0,0.0,0.0,0.0,0.0,0.0,0.08505,-7.64505,-0.19845,0.06613236,-0.028753199999999996,-0.00670908
1779588135973431587,A_+,0.06696599650013013,2.3912581548649112,2.481142611342619,-0.8266752002071143,0.0,-0.01090830782496456,0.0,0.0,0.0,0.0,0.0,0.0,0.0,0.06615,-7.659224999999999,-0.21735,0.04983888,-0.029711639999999997,0.00095844
1779588135973431587,A_+,0.06768783437496495,2.3912581548649112,2.481142611342619,-0.8266752002071143,0.0,-0.01090830782496456,0.0,0.0,0.0,0.0,0.0,0.0,0.0,0.06615,-7.659224999999999,-0.21735,0.04983888,-0.029711639999999997,0.00095844
1779588135973431587,A_+,0.06836203174998445,2.3912581548649112,2.481142611342619,-0.8266752002071143,0.0,-0.01090830782496456,0.0,0.0,0.0,0.0,0.0,0.0,0.0,0.06615,-7.659224999999999,-0.21735,0.04983888,-0.029711639999999997,0.00095844
1779588136028417110,A_+,0.06905789949996688,2.3912581548649112,2.481142611342619,-0.8266752002071143,0.0,-0.01090830782496456,0.0,0.0,0.0,0.0,0.0,0.0,0.0,0.05669999999999999,-7.6734,-0.19845,0.06038172,-0.0335454,-0.01150128
1779588136028417110,A_+,0.06983083375007482,2.3912581548649112,2.481142611342619,-0.8266752002071143,0.0,-0.01090830782496456,0.0,0.0,0.0,0.0,0.0,0.0,0.0,0.05669999999999999,-7.6734,-0.19845,0.06038172,-0.0335454,-0.01150128
1779588136028417110,A_+,0.07053360700001576,2.3912581548649112,2.481142611342619,-0.8266752002071143,0.0,-0.01090830782496456,0.0,0.0,0.0,0.0,0.0,0.0,0.0,0.05669999999999999,-7.6734,-0.19845,0.06038172,-0.0335454,-0.01150128
1779588136063423156,A_+,0.07121172806250797,2.3912581548649112,2.481142611342619,-0.8266752002071143,0.0,-0.01090830782496456,0.0,0.0,0.0,0.0,0.0,0.0,0.0,0.05197499999999999,-7.659224999999999,-0.20789999999999997,0.06517392,-0.0335454,-0.00191688
1779588136063423156,A_+,0.07199285768751906,2.3912581548649112,2.481142611342619,-0.8266752002071143,0.0,-0.01090830782496456,0.0,0.0,0.0,0.0,0.0,0.0,0.0,0.05197499999999999,-7.659224999999999,-0.20789999999999997,0.06517392,-0.0335454,-0.00191688
1779588136063423156,A_+,0.07268530968758569,2.3912581548649112,2.481142611342619,-0.8266752002071143,0.0,-0.01090830782496456,0.0,0.0,0.0,0.0,0.0,0.0,0.0,0.05197499999999999,-7.659224999999999,-0.20789999999999997,0.06517392,-0.0335454,-0.00191688
1779588136098412513,A_+,0.07337942162507716,2.3912581548649112,2.481142611342619,-0.8266752002071143,0.0,-0.01090830782496456,0.0,0.0,0.0,0.0,0.0,0.0,0.0,0.04725,-7.611974999999999,-0.19372499999999998,0.047922,-0.03067008,0.0
1779588136098412513,A_+,0.07418215968755248,2.3912581548649112,2.481142611342619,-0.8266752002071143,0.0,-0.01090830782496456,0.0,0.0,0.0,0.0,0.0,0.0,0.0,0.04725,-7.611974999999999,-0.19372499999999998,0.047922,-0.03067008,0.0
1779588136098412513,A_+,0.07486793418752313,2.3912581548649112,2.481142611342619,-0.8266752002071143,0.0,-0.01090830782496456,0.0,0.0,0.0,0.0,0.0,0.0,0.0,0.04725,-7.611974999999999,-0.19372499999999998,0.047922,-0.03067008,0.0
1779588136133411884,A_+,0.07565382550001232,2.3912581548649112,2.481142611342619,-0.8266752002071143,0.0,-0.01090830782496456,0.0,0.0,0.0,0.0,0.0,0.0,0.0,0.05197499999999999,-7.6356,-0.17955,0.05175576,-0.029711639999999997,-0.00383376
1779588136133411884,A_+,0.07645108993756367,2.3912581548649112,2.481142611342619,-0.8266752002071143,0.0,-0.01090830782496456,0.0,0.0,0.0,0.0,0.0,0.0,0.0,0.05197499999999999,-7.6356,-0.17955,0.05175576,-0.029711639999999997,-0.00383376
1779588136133411884,A_+,0.07715481712511973,2.3912581548649112,2.481142611342619,-0.8266752002071143,0.0,-0.01090830782496456,0.0,0.0,0.0,0.0,0.0,0.0,0.0,0.05197499999999999,-7.6356,-0.17955,0.05175576,-0.029711639999999997,-0.00383376
1779588136168516397,A_+,0.07781030581259074,2.3912581548649112,2.481142611342619,-0.8266752002071143,0.0,-0.01090830782496456,0.0,0.0,0.0,0.0,0.0,0.0,0.0,0.028349999999999997,-7.6923,-0.203175,0.06134016,-0.028753199999999996,-0.00766752
1779588136168516397,A_+,0.07849901212512123,2.3912581548649112,2.481142611342619,-0.8266752002071143,0.0,-0.01090830782496456,0.0,0.0,0.0,0.0,0.0,0.0,0.0,0.028349999999999997,-7.6923,-0.203175,0.06134016,-0.028753199999999996,-0.00766752
1779588136168516397,A_+,0.0791702096876179,2.3912581548649112,2.481142611342619,-0.8266752002071143,0.0,-0.01090830782496456,0.0,0.0,0.0,0.0,0.0,0.0,0.0,0.028349999999999997,-7.6923,-0.203175,0.06134016,-0.028753199999999996,-0.00766752
1779588136198405265,A_+,0.07983036206246652,2.3912581548649112,2.481142611342619,-0.8266752002071143,0.0,-0.01090830782496456,0.0,0.0,0.0,0.0,0.0,0.0,0.0,0.061425,-7.630875,-0.203175,0.06517392,-0.03450384,-0.01054284
1779588136198405265,A_+,0.08052273406246968,2.3912581548649112,2.481142611342619,-0.8266752002071143,0.0,-0.01090830782496456,0.0,0.0,0.0,0.0,0.0,0.0,0.0,0.061425,-7.630875,-0.203175,0.06517392,-0.03450384,-0.01054284
1779588136198405265,A_+,0.08118665018764659,2.3912581548649112,2.481142611342619,-0.8266752002071143,0.0,-0.01090830782496456,0.0,0.0,0.0,0.0,0.0,0.0,0.0,0.061425,-7.630875,-0.203175,0.06517392,-0.03450384,-0.01054284
1779588136233437061,A_+,0.08184182687500652,2.3912581548649112,2.481142611342619,-0.8266752002071143,0.0,-0.01090830782496456,0.0,0.0,0.0,0.0,0.0,0.0,0.0,0.023625,-7.6734,-0.17955,0.048880440000000004,0.00287532,-0.00766752
1779588136233437061,A_+,0.0825802835624927,2.3912581548649112,2.481142611342619,-0.8266752002071143,0.0,-0.01090830782496456,0.0,0.0,0.0,0.0,0.0,0.0,0.0,0.023625,-7.6734,-0.17955,0.048880440000000004,0.00287532,-0.00766752
1779588136233437061,A_+,0.08324737343764355,2.3912581548649112,2.481142611342619,-0.8266752002071143,0.0,-0.01090830782496456,0.0,0.0,0.0,0.0,0.0,0.0,0.0,0.023625,-7.6734,-0.17955,0.048880440000000004,0.00287532,-0.00766752
1779588136268409967,A_+,0.08393621375012117,2.3912581548649112,2.481142611342619,-0.8266752002071143,0.0,-0.01090830782496456,0.0,0.0,0.0,0.0,0.0,0.0,0.0,0.070875,-7.6167,-0.20789999999999997,0.06038172,0.029711639999999997,-0.00287532
1779588136268409967,A_+,0.08464787037496535,2.3912581548649112,2.481142611342619,-0.8266752002071143,0.0,-0.01090830782496456,0.0,0.0,0.0,0.0,0.0,0.0,0.0,0.070875,-7.6167,-0.20789999999999997,0.06038172,0.029711639999999997,-0.00287532
1779588136268409967,A_+,0.08530671681251079,2.3912581548649112,2.481142611342619,-0.8266752002071143,0.0,-0.01090830782496456,0.0,0.0,0.0,0.0,0.0,0.0,0.0,0.070875,-7.6167,-0.20789999999999997,0.06038172,0.029711639999999997,-0.00287532
1779588136298405647,A_+,0.0859593836876229,2.3912581548649112,2.481142611342619,-0.8266752002071143,0.0,-0.01090830782496456,0.0,0.0,0.0,0.0,0.0,0.0,0.0,0.023625,-7.574174999999999,-0.17955,0.05846484,0.02587788,-0.00670908
1779588136298405647,A_+,0.08664120050002566,2.3912581548649112,2.481142611342619,-0.8266752002071143,0.0,-0.01090830782496456,0.0,0.0,0.0,0.0,0.0,0.0,0.0,0.023625,-7.574174999999999,-0.17955,0.05846484,0.02587788,-0.00670908
1779588136298405647,A_+,0.08729863706253127,2.3912581548649112,2.481142611342619,-0.8266752002071143,0.0,-0.01090830782496456,0.0,0.0,0.0,0.0,0.0,0.0,0.0,0.023625,-7.574174999999999,-0.17955,0.05846484,0.02587788,-0.00670908
1779588136329828262,A_+,0.08795089000000189,2.3912581548649112,2.481142611342619,-0.8266752002071143,0.0,-0.01090830782496456,0.0,0.0,0.0,0.0,0.0,0.0,0.0,0.061425,-7.64505,-0.203175,0.05750639999999999,0.03162852,-0.00383376
1779588136329828262,A_+,0.08864154212506037,2.3912581548649112,2.481142611342619,-0.8266752002071143,0.0,-0.01090830782496456,0.0,0.0,0.0,0.0,0.0,0.0,0.0,0.061425,-7.64505,-0.203175,0.05750639999999999,0.03162852,-0.00383376
1779588136329828262,A_+,0.08930074056252124,2.3912581548649112,2.481142611342619,-0.8266752002071143,0.0,-0.01090830782496456,0.0,0.0,0.0,0.0,0.0,0.0,0.0,0.061425,-7.64505,-0.203175,0.05750639999999999,0.03162852,-0.00383376
1779588136363386631,A_+,0.08995333949997075,2.3912581548649112,2.481142611342619,-0.8266752002071143,0.0,-0.01090830782496456,0.0,0.0,0.0,0.0,0.0,0.0,0.0,0.05197499999999999,-7.640325,-0.21262499999999998,0.05079731999999999,0.02683632,-0.01150128
1779588136363386631,A_+,0.09064313368753574,2.3912581548649112,2.481142611342619,-0.8266752002071143,0.0,-0.01090830782496456,0.0,0.0,0.0,0.0,0.0,0.0,0.0,0.05197499999999999,-7.640325,-0.21262499999999998,0.05079731999999999,0.02683632,-0.01150128
1779588136363386631,A_+,0.09130364800012103,2.3912581548649112,2.481142611342619,-0.8266752002071143,0.0,-0.01090830782496456,0.0,0.0,0.0,0.0,0.0,0.0,0.0,0.05197499999999999,-7.640325,-0.21262499999999998,0.05079731999999999,0.02683632,-0.01150128
1779588136394291162,A_+,0.09196146856265841,2.3912581548649112,2.481142611342619,-0.8266752002071143,0.0,-0.01090830782496456,0.0,0.0,0.0,0.0,0.0,0.0,0.0,0.0945,-7.611974999999999,-0.19372499999999998,0.0622986,0.02491944,-0.01150128
1779588136394291162,A_+,0.09264864493752611,2.3912581548649112,2.481142611342619,-0.8266752002071143,0.0,-0.01090830782496456,0.0,0.0,0.0,0.0,0.0,0.0,0.0,0.0945,-7.611974999999999,-0.19372499999999998,0.0622986,0.02491944,-0.01150128
1779588136394291162,A_+,0.09333194562509561,2.3912581548649112,2.481142611342619,-0.8266752002071143,0.0,-0.01090830782496456,0.0,0.0,0.0,0.0,0.0,0.0,0.0,0.0945,-7.611974999999999,-0.19372499999999998,0.0622986,0.02491944,-0.01150128
1779588136428397417,A_+,0.09398448056253983,2.3912581548649112,2.481142611342619,-0.8266752002071143,0.0,-0.01090830782496456,0.0,0.0,0.0,0.0,0.0,0.0,0.0,0.070875,-7.687575,-0.184275,0.06517392,0.029711639999999997,0.0
1779588136428397417,A_+,0.09467310687500685,2.3912581548649112,2.481142611342619,-0.8266752002071143,0.0,-0.01090830782496456,0.0,0.0,0.0,0.0,0.0,0.0,0.0,0.070875,-7.687575,-0.184275,0.06517392,0.029711639999999997,0.0
1779588136428397417,A_+,0.09533055737506402,2.3912581548649112,2.481142611342619,-0.8266752002071143,0.0,-0.01090830782496456,0.0,0.0,0.0,0.0,0.0,0.0,0.0,0.070875,-7.687575,-0.184275,0.06517392,0.029711639999999997,0.0
1779588136458724021,A_+,0.09598552612510503,2.3912581548649112,2.481142611342619,-0.8266752002071143,0.0,-0.01090830782496456,0.0,0.0,0.0,0.0,0.0,0.0,0.0,0.089775,-7.72065,-0.21735,0.052714199999999996,0.02587788,-0.00766752
1779588136458724021,A_+,0.09667468437510252,2.3912581548649112,2.481142611342619,-0.8266752002071143,0.0,-0.01090830782496456,0.0,0.0,0.0,0.0,0.0,0.0,0.0,0.089775,-7.72065,-0.21735,0.052714199999999996,0.02587788,-0.00766752
1779588136458724021,A_+,0.09733793850000438,2.3912581548649112,2.481142611342619,-0.8266752002071143,0.0,-0.01090830782496456,0.0,0.0,0.0,0.0,0.0,0.0,0.0,0.089775,-7.72065,-0.21735,0.052714199999999996,0.02587788,-0.00766752
1779588136493385076,A_+,0.09799395318759707,2.3912581548649112,2.481142611342619,-0.8266752002071143,0.0,-0.01090830782496456,0.0,0.0,0.0,0.0,0.0,0.0,0.0,0.0378,-7.64505,-0.203175,0.05175576,0.02779476,-0.0047922
1779588136493385076,A_+,0.09868511731247054,2.3912581548649112,2.481142611342619,-0.8266752002071143,0.0,-0.01090830782496456,0.0,0.0,0.0,0.0,0.0,0.0,0.0,0.0378,-7.64505,-0.203175,0.05175576,0.02779476,-0.0047922
1779588136493385076,A_+,0.0993468695626234,2.3912581548649112,2.481142611342619,-0.8266752002071143,0.0,-0.01090830782496456,0.0,0.0,0.0,0.0,0.0,0.0,0.0,0.0378,-7.64505,-0.203175,0.05175576,0.02779476,-0.0047922
1779588136523388385,A_+,0.10000166625013662,2.3912581548649112,2.481142611342619,-0.8266752002071143,0.0,-0.01090830782496456,0.0,0.0,0.0,0.0,0.0,0.0,0.0,0.061425,-7.6734,-0.19845,0.05846484,0.02587788,-0.00862596
1779588136523388385,A_+,0.10069058856265656,2.3912581548649112,2.481142611342619,-0.8266752002071143,0.0,-0.01090830782496456,0.0,0.0,0.0,0.0,0.0,0.0,0.0,0.061425,-7.6734,-0.19845,0.05846484,0.02587788,-0.00862596
1779588136523388385,A_+,0.10135055093746814,2.3912581548649112,2.481142611342619,-0.8266752002071143,0.0,-0.01090830782496456,0.0,0.0,0.0,0.0,0.0,0.0,0.0,0.061425,-7.6734,-0.19845,0.05846484,0.02587788,-0.00862596
1779588136553391695,A_+,0.10200901543748842,2.3912581548649112,2.481142611342619,-0.8266752002071143,0.0,-0.01090830782496456,0.0,0.0,0.0,0.0,0.0,0.0,0.0,0.08505,-7.640325,-0.21262499999999998,0.06038172,0.03258696,-0.028753199999999996
1779588136553391695,A_+,0.10270417125002496,2.3912581548649112,2.481142611342619,-0.8266752002071143,0.0,-0.01090830782496456,0.0,0.0,0.0,0.0,0.0,0.0,0.0,0.08505,-7.640325,-0.21262499999999998,0.06038172,0.03258696,-0.028753199999999996
1779588136553391695,A_+,0.10336746937514363,2.3912581548649112,2.481142611342619,-0.8266752002071143,0.0,-0.01090830782496456,0.0,0.0,0.0,0.0,0.0,0.0,0.0,0.08505,-7.640325,-0.21262499999999998,0.06038172,0.03258696,-0.028753199999999996
1779588136573393344,A_+,0.10401991625008122,2.3912581548649112,2.481142611342619,-0.8266752002071143,0.0,-0.01090830782496456,0.0,0.0,0.0,0.0,0.0,0.0,0.0,0.00945,-7.68285,-0.20789999999999997,0.06421548,0.03546228,-0.00766752
1779588136573393344,A_+,0.1047112743751768,2.3912581548649112,2.481142611342619,-0.8266752002071143,0.0,-0.01090830782496456,0.0,0.0,0.0,0.0,0.0,0.0,0.0,0.00945,-7.68285,-0.20789999999999997,0.06421548,0.03546228,-0.00766752
1779588136573393344,A_+,0.10537629037503393,2.3912581548649112,2.481142611342619,-0.8266752002071143,0.0,-0.01090830782496456,0.0,0.0,0.0,0.0,0.0,0.0,0.0,0.00945,-7.68285,-0.20789999999999997,0.06421548,0.03546228,-0.00766752
1779588136593388795,A_+,0.10603097712510134,2.3912581548649112,2.481142611342619,-0.8266752002071143,0.0,-0.01090830782496456,0.0,0.0,0.0,0.0,0.0,0.0,0.0,0.0756,-7.70175,-0.19845,0.059423279999999995,0.02779476,-0.00670908
1779588136593388795,A_+,0.10672563299999638,2.3912581548649112,2.481142611342619,-0.8266752002071143,0.0,-0.01090830782496456,0.0,0.0,0.0,0.0,0.0,0.0,0.0,0.0756,-7.70175,-0.19845,0.059423279999999995,0.02779476,-0.00670908
1779588136593388795,A_+,0.10739183493751625,2.3912581548649112,2.481142611342619,-0.8266752002071143,0.0,-0.01090830782496456,0.0,0.0,0.0,0.0,0.0,0.0,0.0,0.0756,-7.70175,-0.19845,0.059423279999999995,0.02779476,-0.00670908
1779588136609322786,A_+,0.10804607568752544,2.3912581548649112,2.481142611342619,-0.8266752002071143,0.0,-0.01090830782496456,0.0,0.0,0.0,0.0,0.0,0.0,0.0,0.080325,-7.66395,-0.222075,0.059423279999999995,0.02683632,-0.01150128
1779588136609322786,A_+,0.10873108825012423,2.3912581548649112,2.481142611342619,-0.8266752002071143,0.0,-0.01090830782496456,0.0,0.0,0.0,0.0,0.0,0.0,0.0,0.080325,-7.66395,-0.222075,0.059423279999999995,0.02683632,-0.01150128
1779588136609322786,A_+,0.10939360243764895,2.3912581548649112,2.481142611342619,-0.8266752002071143,0.0,-0.01090830782496456,0.0,0.0,0.0,0.0,0.0,0.0,0.0,0.080325,-7.66395,-0.222075,0.059423279999999995,0.02683632,-0.01150128
1779588136634155750,A_+,0.11004591937512487,2.3912581548649112,2.481142611342619,-0.8266752002071143,0.0,-0.01090830782496456,0.0,0.0,0.0,0.0,0.0,0.0,0.0,0.0378,-7.62615,-0.189,0.047922,0.03450384,-0.00766752
1779588136634155750,A_+,0.11073137193761795,2.3912581548649112,2.481142611342619,-0.8266752002071143,0.0,-0.01090830782496456,0.0,0.0,0.0,0.0,0.0,0.0,0.0,0.0378,-7.62615,-0.189,0.047922,0.03450384,-0.00766752
1779588136634155750,A_+,0.11138284287517308,2.3912581548649112,2.481142611342619,-0.8266752002071143,0.0,-0.01090830782496456,0.0,0.0,0.0,0.0,0.0,0.0,0.0,0.0378,-7.62615,-0.189,0.047922,0.03450384,-0.00766752
1779588136648370027,A_+,0.11203260800016324,2.3912581548649112,2.481142611342619,-0.8266752002071143,0.0,-0.01090830782496456,0.0,0.0,0.0,0.0,0.0,0.0,0.0,0.033075,-7.649774999999999,-0.19372499999999998,0.05463108,0.03258696,-0.00191688
1779588136648370027,A_+,0.1127321415001461,2.3912581548649112,2.481142611342619,-0.8266752002071143,0.0,-0.01090830782496456,0.0,0.0,0.0,0.0,0.0,0.0,0.0,0.033075,-7.649774999999999,-0.19372499999999998,0.05463108,0.03258696,-0.00191688
1779588136648370027,A_+,0.11339282781250404,2.3912581548649112,2.481142611342619,-0.8266752002071143,0.0,-0.01090830782496456,0.0,0.0,0.0,0.0,0.0,0.0,0.0,0.033075,-7.649774999999999,-0.19372499999999998,0.05463108,0.03258696,-0.00191688
1779588136664684534,A_+,0.11404995837506249,2.3912581548649112,2.481142611342619,-0.8266752002071143,0.0,-0.01090830782496456,0.0,0.0,0.0,0.0,0.0,0.0,0.0,0.05669999999999999,-7.640325,-0.189,0.059423279999999995,0.028753199999999996,-0.01054284
1779588136664684534,A_+,0.11474687212512436,2.3912581548649112,2.481142611342619,-0.8266752002071143,0.0,-0.01090830782496456,0.0,0.0,0.0,0.0,0.0,0.0,0.0,0.05669999999999999,-7.640325,-0.189,0.059423279999999995,0.028753199999999996,-0.01054284
1779588136664684534,A_+,0.11540723843768319,2.3912581548649112,2.481142611342619,-0.8266752002071143,0.0,-0.01090830782496456,0.0,0.0,0.0,0.0,0.0,0.0,0.0,0.05669999999999999,-7.640325,-0.189,0.059423279999999995,0.028753199999999996,-0.01054284
1779588136678371667,A_+,0.11606541093760825,2.3912581548649112,2.481142611342619,-0.8266752002071143,0.0,-0.01090830782496456,0.0,0.0,0.0,0.0,0.0,0.0,0.0,0.080325,-7.678125,-0.189,0.06517392,0.03067008,-0.00287532
1779588136678371667,A_+,0.11676452450001307,2.3912581548649112,2.481142611342619,-0.8266752002071143,0.0,-0.01090830782496456,0.0,0.0,0.0,0.0,0.0,0.0,0.0,0.080325,-7.678125,-0.189,0.06517392,0.03067008,-0.00287532
1779588136678371667,A_+,0.11742750462508411,2.3912581548649112,2.481142611342619,-0.8266752002071143,0.0,-0.01090830782496456,0.0,0.0,0.0,0.0,0.0,0.0,0.0,0.080325,-7.678125,-0.189,0.06517392,0.03067008,-0.00287532
1779588136699063539,A_+,0.1180815034376792,2.3912581548649112,2.481142611342619,-0.8266752002071143,0.0,-0.01090830782496456,0.0,0.0,0.0,0.0,0.0,0.0,0.0,0.04725,-7.649774999999999,-0.19372499999999998,0.05654796,0.02587788,-0.00766752
1779588136699063539,A_+,0.11878749050015358,2.3912581548649112,2.481142611342619,-0.8266752002071143,0.0,-0.01090830782496456,0.0,0.0,0.0,0.0,0.0,0.0,0.0,0.04725,-7.649774999999999,-0.19372499999999998,0.05654796,0.02587788,-0.00766752
1779588136699063539,A_+,0.1194508106250396,2.3912581548649112,2.481142611342619,-0.8266752002071143,0.0,-0.01090830782496456,0.0,0.0,0.0,0.0,0.0,0.0,0.0,0.04725,-7.649774999999999,-0.19372499999999998,0.05654796,0.02587788,-0.00766752
1779588136718956232,A_+,0.12010709925016272,2.3912581548649112,2.481142611342619,-0.8266752002071143,0.0,-0.01090830782496456,0.0,0.0,0.0,0.0,0.0,0.0,0.0,0.05669999999999999,-7.697024999999999,-0.189,0.05463108,0.0335454,-0.01054284
1779588136718956232,A_+,0.12079757143760617,2.3912581548649112,2.481142611342619,-0.8266752002071143,0.0,-0.01090830782496456,0.0,0.0,0.0,0.0,0.0,0.0,0.0,0.05669999999999999,-7.697024999999999,-0.189,0.05463108,0.0335454,-0.01054284
1779588136718956232,A_+,0.12145942968754753,2.3912581548649112,2.481142611342619,-0.8266752002071143,0.0,-0.01090830782496456,0.0,0.0,0.0,0.0,0.0,0.0,0.0,0.05669999999999999,-7.697024999999999,-0.189,0.05463108,0.0335454,-0.01054284
1779588136743369340,A_+,0.12211952200004816,2.3912581548649112,2.481142611342619,-0.8266752002071143,0.0,-0.01090830782496456,0.0,0.0,0.0,0.0,0.0,0.0,0.0,0.04725,-7.6545,-0.21262499999999998,0.052714199999999996,0.03067008,-0.00766752
1779588136743369340,A_+,0.12282624500016937,2.3912581548649112,2.481142611342619,-0.8266752002071143,0.0,-0.01090830782496456,0.0,0.0,0.0,0.0,0.0,0.0,0.0,0.04725,-7.6545,-0.21262499999999998,0.052714199999999996,0.03067008,-0.00766752
1779588136743369340,A_+,0.12348829125016891,2.3912581548649112,2.481142611342619,-0.8266752002071143,0.0,-0.01090830782496456,0.0,0.0,0.0,0.0,0.0,0.0,0.0,0.04725,-7.6545,-0.21262499999999998,0.052714199999999996,0.03067008,-0.00766752
1779588136763606786,A_+,0.12414251000018339,2.3912581548649112,2.481142611342619,-0.8266752002071143,0.0,-0.01090830782496456,0.0,0.0,0.0,0.0,0.0,0.0,0.0,0.06615,-7.66395,-0.19845,0.05079731999999999,0.028753199999999996,-0.01054284
1779588136763606786,A_+,0.12483738987498327,2.3912581548649112,2.481142611342619,-0.8266752002071143,0.0,-0.01090830782496456,0.0,0.0,0.0,0.0,0.0,0.0,0.0,0.06615,-7.66395,-0.19845,0.05079731999999999,0.028753199999999996,-0.01054284
1779588136763606786,A_+,0.12549933812510972,2.3912581548649112,2.481142611342619,-0.8266752002071143,0.0,-0.01090830782496456,0.0,0.0,0.0,0.0,0.0,0.0,0.0,0.06615,-7.66395,-0.19845,0.05079731999999999,0.028753199999999996,-0.01054284
1779588136798358678,A_+,0.12615533075017993,2.3912581548649112,2.481142611342619,-0.8266752002071143,0.0,-0.01090830782496456,0.0,0.0,0.0,0.0,0.0,0.0,0.0,0.0378,-7.630875,-0.20789999999999997,0.05558952,0.03162852,-0.01245972
1779588136798358678,A_+,0.1268552282501787,2.3912581548649112,2.481142611342619,-0.8266752002071143,0.0,-0.01090830782496456,0.0,0.0,0.0,0.0,0.0,0.0,0.0,0.0378,-7.630875,-0.20789999999999997,0.05558952,0.03162852,-0.01245972
1779588136798358678,A_+,0.12751598856266355,2.3912581548649112,2.481142611342619,-0.8266752002071143,0.0,-0.01090830782496456,0.0,0.0,0.0,0.0,0.0,0.0,0.0,0.0378,-7.630875,-0.20789999999999997,0.05558952,0.03162852,-0.01245972
1779588136838618993,A_+,0.1281714612500764,2.3912581548649112,2.481142611342619,-0.8266752002071143,0.0,-0.01090830782496456,0.0,0.0,0.0,0.0,0.0,0.0,0.0,0.10394999999999999,-7.6545,-0.20789999999999997,0.05846484,0.02683632,-0.00862596
1779588136838618993,A_+,0.12885933362508695,2.3912581548649112,2.481142611342619,-0.8266752002071143,0.0,-0.01090830782496456,0.0,0.0,0.0,0.0,0.0,0.0,0.0,0.10394999999999999,-7.6545,-0.20789999999999997,0.05846484,0.02683632,-0.00862596
1779588136838618993,A_+,0.12951854400012053,2.3912581548649112,2.481142611342619,-0.8266752002071143,0.0,-0.01090830782496456,0.0,0.0,0.0,0.0,0.0,0.0,0.0,0.10394999999999999,-7.6545,-0.20789999999999997,0.05846484,0.02683632,-0.00862596
1779588136868518114,A_+,0.13018065831261083,2.3912581548649112,2.481142611342619,-0.8266752002071143,0.0,-0.01090830782496456,0.0,0.0,0.0,0.0,0.001,0.0,0.0,0.05197499999999999,-7.6686749999999995,-0.17482499999999998,0.0335454,0.02779476,0.00191688
1779588136868518114,A_+,0.13086923862510957,2.3912581548649112,2.481142611342619,-0.8266752002071143,0.0,-0.01090830782496456,0.0,0.0,0.0,0.0,0.001,0.0,0.0,0.05197499999999999,-7.6686749999999995,-0.17482499999999998,0.0335454,0.02779476,0.00191688
1779588136868518114,A_+,0.13153146487502454,2.3912581548649112,2.481142611342619,-0.8266752002071143,0.0,-0.01090830782496456,0.0,0.0,0.0,0.0,0.001,0.0,0.0,0.05197499999999999,-7.6686749999999995,-0.17482499999999998,0.0335454,0.02779476,0.00191688
1779588136879559278,A_+,0.1321860476875827,2.3912581548649112,2.481142611342619,-0.8266752002071143,0.0,-0.01090830782496456,0.0,0.0,0.0,0.0,-0.009000000000000001,0.0,0.0,0.0378,-7.6734,-0.21735,0.11597123999999999,0.03258696,-0.00287532
1779588136879559278,A_+,0.13287953568760713,2.3912581548649112,2.481142611342619,-0.8266752002071143,0.0,-0.01090830782496456,0.0,0.0,0.0,0.0,-0.009000000000000001,0.0,0.0,0.0378,-7.6734,-0.21735,0.11597123999999999,0.03258696,-0.00287532
1779588136879559278,A_+,0.13354375381254613,2.3912581548649112,2.481142611342619,-0.8266752002071143,0.0,-0.01090830782496456,0.0,0.0,0.0,0.0,-0.009000000000000001,0.0,0.0,0.0378,-7.6734,-0.21735,0.11597123999999999,0.03258696,-0.00287532
1779588136923847436,A_+,0.1342021463126457,2.3912581548649112,2.481142611342619,-0.8266752002071143,0.0,-0.01090830782496456,0.0,0.0,0.0,0.0,0.001,0.0,0.0,0.070875,-7.6167,-0.16065,0.01725192,0.03642072,-0.02012724
1779588136923847436,A_+,0.13488673893766645,2.3912581548649112,2.481142611342619,-0.8266752002071143,0.0,-0.01090830782496456,0.0,0.0,0.0,0.0,0.001,0.0,0.0,0.070875,-7.6167,-0.16065,0.01725192,0.03642072,-0.02012724
1779588136923847436,A_+,0.1355491651875127,2.3912581548649112,2.481142611342619,-0.8266752002071143,0.0,-0.01090830782496456,0.0,0.0,0.0,0.0,0.001,0.0,0.0,0.070875,-7.6167,-0.16065,0.01725192,0.03642072,-0.02012724
1779588137043845176,A_+,0.13620301600008133,2.3912581548649112,2.481142611342619,-0.8266752002071143,0.0,-0.01090830782496456,0.0,0.0,0.0,0.0,0.0,0.0,0.0,0.0378,-7.6734,-0.184275,0.05175576,0.02683632,-0.00575064
1779588137043845176,A_+,0.13689925581252282,2.3912581548649112,2.481142611342619,-0.8266752002071143,0.0,-0.01090830782496456,0.0,0.0,0.0,0.0,0.0,0.0,0.0,0.0378,-7.6734,-0.184275,0.05175576,0.02683632,-0.00575064
1779588137043845176,A_+,0.13756030818763065,2.3912581548649112,2.481142611342619,-0.8266752002071143,0.0,-0.01090830782496456,0.0,0.0,0.0,0.0,0.0,0.0,0.0,0.0378,-7.6734,-0.184275,0.05175576,0.02683632,-0.00575064
1779588137068348407,A_+,0.13821555893764526,2.3912581548649112,2.481142611342619,-0.8266752002071143,0.0,-0.01090830782496456,0.0,0.0,0.0,0.0,0.0,0.0,0.0,0.06615,-7.659224999999999,-0.184275,0.05846484,0.029711639999999997,-0.00287532
1779588137068348407,A_+,0.13890191743757896,2.3912581548649112,2.481142611342619,-0.8266752002071143,0.0,-0.01090830782496456,0.0,0.0,0.0,0.0,0.0,0.0,0.0,0.06615,-7.659224999999999,-0.184275,0.05846484,0.029711639999999997,-0.00287532
1779588137068348407,A_+,0.13956425968763142,2.3912581548649112,2.481142611342619,-0.8266752002071143,0.0,-0.01090830782496456,0.0,0.0,0.0,0.0,0.0,0.0,0.0,0.06615,-7.659224999999999,-0.184275,0.05846484,0.029711639999999997,-0.00287532
1779588137088336229,A_+,0.14021697256248444,2.3912581548649112,2.481142611342619,-0.8266752002071143,0.0,-0.01090830782496456,0.0,0.0,0.0,0.0,0.0,0.0,0.0,0.004725,-7.706474999999999,-0.19372499999999998,0.05367264,0.02683632,-0.01629348
1779588137088336229,A_+,0.1409061988749727,2.3912581548649112,2.481142611342619,-0.8266752002071143,0.0,-0.01090830782496456,0.0,0.0,0.0,0.0,0.0,0.0,0.0,0.004725,-7.706474999999999,-0.19372499999999998,0.05367264,0.02683632,-0.01629348
1779588137088336229,A_+,0.14156423543749952,2.3912581548649112,2.481142611342619,-0.8266752002071143,0.0,-0.01090830782496456,0.0,0.0,0.0,0.0,0.0,0.0,0.0,0.004725,-7.706474999999999,-0.19372499999999998,0.05367264,0.02683632,-0.01629348
1779588137108343601,A_+,0.1422175423126646,2.3912581548649112,2.481142611342619,-0.8266752002071143,0.0,-0.01090830782496456,0.0,0.0,0.0,0.0,0.0,0.0,0.0,0.108675,-7.649774999999999,-0.184275,0.05750639999999999,0.028753199999999996,-0.02491944
1779588137108343601,A_+,0.14290351087515774,2.3912581548649112,2.481142611342619,-0.8266752002071143,0.0,-0.01090830782496456,0.0,0.0,0.0,0.0,0.0,0.0,0.0,0.108675,-7.649774999999999,-0.184275,0.05750639999999999,0.028753199999999996,-0.02491944
1779588137108343601,A_+,0.1435650711875951,2.3912581548649112,2.481142611342619,-0.8266752002071143,0.0,-0.01090830782496456,0.0,0.0,0.0,0.0,0.0,0.0,0.0,0.108675,-7.649774999999999,-0.184275,0.05750639999999999,0.028753199999999996,-0.02491944
1779588137123340129,A_+,0.14421754012505517,2.3912581548649112,2.481142611342619,-0.8266752002071143,0.0,-0.01090830782496456,0.0,0.0,0.0,0.0,0.0,0.0,0.0,0.061425,-7.649774999999999,-0.21735,0.05750639999999999,0.029711639999999997,0.00862596
1779588137123340129,A_+,0.14490923624998686,2.3912581548649112,2.481142611342619,-0.8266752002071143,0.0,-0.01090830782496456,0.0,0.0,0.0,0.0,0.0,0.0,0.0,0.061425,-7.649774999999999,-0.21735,0.05750639999999999,0.029711639999999997,0.00862596
1779588137123340129,A_+,0.1455727123750421,2.3912581548649112,2.481142611342619,-0.8266752002071143,0.0,-0.01090830782496456,0.0,0.0,0.0,0.0,0.0,0.0,0.0,0.061425,-7.649774999999999,-0.21735,0.05750639999999999,0.029711639999999997,0.00862596
1779588137158464670,A_+,0.14623609256250347,2.3912581548649112,2.481142611342619,-0.8266752002071143,0.0,-0.01090830782496456,0.0,0.0,0.0,0.0,0.0,0.0,0.0,0.061425,-7.649774999999999,-0.17955,0.043129799999999996,0.02683632,-0.00575064
1779588137158464670,A_+,0.14692528687510276,2.3912581548649112,2.481142611342619,-0.8266752002071143,0.0,-0.01090830782496456,0.0,0.0,0.0,0.0,0.0,0.0,0.0,0.061425,-7.649774999999999,-0.17955,0.043129799999999996,0.02683632,-0.00575064
1779588137158464670,A_+,0.14758686718755598,2.3912581548649112,2.481142611342619,-0.8266752002071143,0.0,-0.01090830782496456,0.0,0.0,0.0,0.0,0.0,0.0,0.0,0.061425,-7.649774999999999,-0.17955,0.043129799999999996,0.02683632,-0.00575064
1779588137189446687,A_+,0.14824235387504814,2.3912581548649112,2.481142611342619,-0.8266752002071143,0.0,-0.01090830782496456,0.0,0.0,0.0,0.0,0.0,0.0,0.0,0.08505,-7.649774999999999,-0.222075,0.047922,0.028753199999999996,-0.00575064
1779588137189446687,A_+,0.14893224618754175,2.3912581548649112,2.481142611342619,-0.8266752002071143,0.0,-0.01090830782496456,0.0,0.0,0.0,0.0,0.0,0.0,0.0,0.08505,-7.649774999999999,-0.222075,0.047922,0.028753199999999996,-0.00575064
1779588137189446687,A_+,0.14959579031255998,2.3912581548649112,2.481142611342619,-0.8266752002071143,0.0,-0.01090830782496456,0.0,0.0,0.0,0.0,0.0,0.0,0.0,0.08505,-7.649774999999999,-0.222075,0.047922,0.028753199999999996,-0.00575064
1779588137243747949,A_+,0.15025420881261198,2.3912581548649112,2.481142611342619,-0.8266752002071143,0.0,-0.01090830782496456,0.0,0.0,0.0,0.0,0.0,0.0,0.0,0.05669999999999999,-7.6356,-0.184275,0.05175576,0.03450384,-0.01821036
1779588137243747949,A_+,0.15094881675008764,2.3912581548649112,2.481142611342619,-0.8266752002071143,0.0,-0.01090830782496456,0.0,0.0,0.0,0.0,0.0,0.0,0.0,0.05669999999999999,-7.6356,-0.184275,0.05175576,0.03450384,-0.01821036
1779588137243747949,A_+,0.15161315081263638,2.3912581548649112,2.481142611342619,-0.8266752002071143,0.0,-0.01090830782496456,0.0,0.0,0.0,0.0,0.0,0.0,0.0,0.05669999999999999,-7.6356,-0.184275,0.05175576,0.03450384,-0.01821036
1779588137258440971,A_+,0.1522769729999709,2.3912581548649112,2.481142611342619,-0.8266752002071143,0.0,-0.01090830782496456,0.0,0.0,0.0,0.0,0.0,0.0,0.0,0.0756,-7.66395,-0.189,0.052714199999999996,0.07188299999999999,-0.00575064
1779588137258440971,A_+,0.15296744718762056,2.3912581548649112,2.481142611342619,-0.8266752002071143,0.0,-0.01090830782496456,0.0,0.0,0.0,0.0,0.0,0.0,0.0,0.0756,-7.66395,-0.189,0.052714199999999996,0.07188299999999999,-0.00575064
1779588137258440971,A_+,0.15362719362497046,2.3912581548649112,2.481142611342619,-0.8266752002071143,0.0,-0.01090830782496456,0.0,0.0,0.0,0.0,0.0,0.0,0.0,0.0756,-7.66395,-0.189,0.052714199999999996,0.07188299999999999,-0.00575064
1779588137284596204,A_+,0.15428245437510668,2.3912581548649112,2.481142611342619,-0.8266752002071143,0.0,-0.01090830782496456,0.0,0.0,0.0,0.0,0.0,0.0,0.0,0.061425,-7.6356,-0.203175,0.052714199999999996,0.09296868,-0.01054284
1779588137284596204,A_+,0.15496950281249156,2.3912581548649112,2.481142611342619,-0.8266752002071143,0.0,-0.01090830782496456,0.0,0.0,0.0,0.0,0.0,0.0,0.0,0.061425,-7.6356,-0.203175,0.052714199999999996,0.09296868,-0.01054284
1779588137284596204,A_+,0.1556331010001486,2.3912581548649112,2.481142611342619,-0.8266752002071143,0.0,-0.01090830782496456,0.0,0.0,0.0,0.0,0.0,0.0,0.0,0.061425,-7.6356,-0.203175,0.052714199999999996,0.09296868,-0.01054284
1779588137298318386,A_+,0.15629217743753543,2.3912581548649112,2.481142611342619,-0.8266752002071143,0.0,-0.01090830782496456,0.0,0.0,0.0,0.0,0.0,0.0,0.0,0.05197499999999999,-7.6686749999999995,-0.165375,0.05846484,0.09009336,-0.0095844
1779588137298318386,A_+,0.15698558943768148,2.3912581548649112,2.481142611342619,-0.8266752002071143,0.0,-0.01090830782496456,0.0,0.0,0.0,0.0,0.0,0.0,0.0,0.05197499999999999,-7.6686749999999995,-0.165375,0.05846484,0.09009336,-0.0095844
1779588137298318386,A_+,0.15764697375016112,2.3912581548649112,2.481142611342619,-0.8266752002071143,0.0,-0.01090830782496456,0.0,0.0,0.0,0.0,0.0,0.0,0.0,0.05197499999999999,-7.6686749999999995,-0.165375,0.05846484,0.09009336,-0.0095844
1779588137318357229,A_+,0.15830147856263466,2.3912581548649112,2.481142611342619,-0.8266752002071143,0.0,-0.01090830782496456,0.0,0.0,0.0,0.0,0.0,0.0,0.0,0.0378,-7.64505,-0.22679999999999997,0.059423279999999995,0.08721804,-0.01150128
1779588137318357229,A_+,0.1589819415000875,2.3912581548649112,2.481142611342619,-0.8266752002071143,0.0,-0.01090830782496456,0.0,0.0,0.0,0.0,0.0,0.0,0.0,0.0378,-7.64505,-0.22679999999999997,0.059423279999999995,0.08721804,-0.01150128
1779588137318357229,A_+,0.15963726225004393,2.3912581548649112,2.481142611342619,-0.8266752002071143,0.0,-0.01090830782496456,0.0,0.0,0.0,0.0,0.0,0.0,0.0,0.0378,-7.64505,-0.22679999999999997,0.059423279999999995,0.08721804,-0.01150128
1779588137339558839,A_+,0.16029304693756785,2.3912581548649112,2.481142611342619,-0.8266752002071143,0.0,-0.01090830782496456,0.0,0.0,0.0,0.0,0.0,0.0,0.0,0.033075,-7.6686749999999995,-0.19845,0.05750639999999999,0.09296868,-0.00670908
1779588137339558839,A_+,0.16098633093747594,2.3912581548649112,2.481142611342619,-0.8266752002071143,0.0,-0.01090830782496456,0.0,0.0,0.0,0.0,0.0,0.0,0.0,0.033075,-7.6686749999999995,-0.19845,0.05750639999999999,0.09296868,-0.00670908
1779588137339558839,A_+,0.16164719131256788,2.3912581548649112,2.481142611342619,-0.8266752002071143,0.0,-0.01090830782496456,0.0,0.0,0.0,0.0,0.0,0.0,0.0,0.033075,-7.6686749999999995,-0.19845,0.05750639999999999,0.09296868,-0.00670908
1779588137369271755,A_+,0.16230089218765897,2.3912581548649112,2.481142611342619,-0.8266752002071143,0.0,-0.01090830782496456,0.0,0.0,0.0,0.0,0.0,0.0,0.0,0.06615,-7.66395,-0.21735,0.05846484,0.09392712,-0.00766752
1779588137369271755,A_+,0.16298727068760854,2.3912581548649112,2.481142611342619,-0.8266752002071143,0.0,-0.01090830782496456,0.0,0.0,0.0,0.0,0.0,0.0,0.0,0.06615,-7.66395,-0.21735,0.05846484,0.09392712,-0.00766752
1779588137369271755,A_+,0.16365039087509103,2.3912581548649112,2.481142611342619,-0.8266752002071143,0.0,-0.01090830782496456,0.0,0.0,0.0,0.0,0.0,0.0,0.0,0.06615,-7.66395,-0.21735,0.05846484,0.09392712,-0.00766752
1779588137473308801,A_+,0.16431098125008248,2.3912581548649112,2.481142611342619,-0.8266752002071143,0.0,-0.01090830782496456,0.0,0.0,0.0,0.0,0.0,0.0,0.0,0.028349999999999997,-7.659224999999999,-0.184275,0.06421548,0.08817648,-0.00862596
1779588137473308801,A_+,0.1649996855626341,2.3912581548649112,2.481142611342619,-0.8266752002071143,0.0,-0.01090830782496456,0.0,0.0,0.0,0.0,0.0,0.0,0.0,0.028349999999999997,-7.659224999999999,-0.184275,0.06421548,0.08817648,-0.00862596
1779588137473308801,A_+,0.16566095587518248,2.3912581548649112,2.481142611342619,-0.8266752002071143,0.0,-0.01090830782496456,0.0,0.0,0.0,0.0,0.0,0.0,0.0,0.028349999999999997,-7.659224999999999,-0.184275,0.06421548,0.08817648,-0.00862596
1779588137538302421,A_+,0.1663155066876243,2.3912581548649112,2.481142611342619,-0.8266752002071143,0.0,-0.01090830782496456,0.0,0.0,0.0,0.0,0.0,0.0,0.0,0.061425,-7.678125,-0.1701,0.05175576,0.095844,-0.00862596
1779588137538302421,A_+,0.16700421906261909,2.3912581548649112,2.481142611342619,-0.8266752002071143,0.0,-0.01090830782496456,0.0,0.0,0.0,0.0,0.0,0.0,0.0,0.061425,-7.678125,-0.1701,0.05175576,0.095844,-0.00862596
1779588137538302421,A_+,0.16766692325018084,2.3912581548649112,2.481142611342619,-0.8266752002071143,0.0,-0.01090830782496456,0.0,0.0,0.0,0.0,0.0,0.0,0.0,0.061425,-7.678125,-0.1701,0.05175576,0.095844,-0.00862596
1779588137588291406,A_+,0.16832343987516651,2.3912581548649112,2.481142611342619,-0.8266752002071143,0.0,-0.01090830782496456,0.0,0.0,0.0,0.0,0.0,0.0,0.0,0.05197499999999999,-7.6545,-0.1701,0.05846484,0.08625959999999999,-0.00766752
1779588137588291406,A_+,0.16901199425001323,2.3912581548649112,2.481142611342619,-0.8266752002071143,0.0,-0.01090830782496456,0.0,0.0,0.0,0.0,0.0,0.0,0.0,0.05197499999999999,-7.6545,-0.1701,0.05846484,0.08625959999999999,-0.00766752
1779588137588291406,A_+,0.16968506775015157,2.3912581548649112,2.481142611342619,-0.8266752002071143,0.0,-0.01090830782496456,0.0,0.0,0.0,0.0,0.0,0.0,0.0,0.05197499999999999,-7.6545,-0.1701,0.05846484,0.08625959999999999,-0.00766752
1779588137628304958,A_+,0.170340822437538,2.3912581548649112,2.481142611342619,-0.8266752002071143,0.0,-0.01090830782496456,0.0,0.0,0.0,0.0,0.0,0.0,0.0,0.04725,-7.6686749999999995,-0.17955,0.05558952,0.09392712,-0.0095844
1779588137628304958,A_+,0.1710280768750181,2.3912581548649112,2.481142611342619,-0.8266752002071143,0.0,-0.01090830782496456,0.0,0.0,0.0,0.0,0.0,0.0,0.0,0.04725,-7.6686749999999995,-0.17955,0.05558952,0.09392712,-0.0095844
1779588137628304958,A_+,0.1716902331249912,2.3912581548649112,2.481142611342619,-0.8266752002071143,0.0,-0.01090830782496456,0.0,0.0,0.0,0.0,0.0,0.0,0.0,0.04725,-7.6686749999999995,-0.17955,0.05558952,0.09392712,-0.0095844
1779588137683283329,A_+,0.17234459393762336,2.3912581548649112,2.481142611342619,-0.8266752002071143,0.0,-0.01090830782496456,0.0,0.0,0.0,0.0,0.0,0.0,0.0,0.033075,-7.678125,-0.21262499999999998,0.06517392,0.08913491999999999,-0.00575064
1779588137683283329,A_+,0.17311284656261705,2.3912581548649112,2.481142611342619,-0.8266752002071143,0.0,-0.01090830782496456,0.0,0.0,0.0,0.0,0.0,0.0,0.0,0.033075,-7.678125,-0.21262499999999998,0.06517392,0.08913491999999999,-0.00575064
1779588137683283329,A_+,0.17378560006250154,2.3912581548649112,2.481142611342619,-0.8266752002071143,0.0,-0.01090830782496456,0.0,0.0,0.0,0.0,0.0,0.0,0.0,0.033075,-7.678125,-0.21262499999999998,0.06517392,0.08913491999999999,-0.00575064
1779588137714008569,A_+,0.17444377256265398,2.3912581548649112,2.481142611342619,-0.8266752002071143,0.0,-0.01090830782496456,0.0,0.0,0.0,0.0,0.0,0.0,0.0,0.05197499999999999,-7.62615,-0.203175,0.05654796,0.095844,-0.00287532
1779588137714008569,A_+,0.17513034306261943,2.3912581548649112,2.481142611342619,-0.8266752002071143,0.0,-0.01090830782496456,0.0,0.0,0.0,0.0,0.0,0.0,0.0,0.05197499999999999,-7.62615,-0.203175,0.05654796,0.095844,-0.00287532
1779588137714008569,A_+,0.17579341325017594,2.3912581548649112,2.481142611342619,-0.8266752002071143,0.0,-0.01090830782496456,0.0,0.0,0.0,0.0,0.0,0.0,0.0,0.05197499999999999,-7.62615,-0.203175,0.05654796,0.095844,-0.00287532
1779588137748296499,A_+,0.17645306768758928,2.3912581548649112,2.481142611342619,-0.8266752002071143,0.0,-0.01090830782496456,0.0,0.0,0.0,0.0,0.0,0.0,0.0,0.014174999999999998,-7.640325,-0.19372499999999998,0.05367264,0.09392712,-0.01341816
1779588137748296499,A_+,0.1771502774374767,2.3912581548649112,2.481142611342619,-0.8266752002071143,0.0,-0.01090830782496456,0.0,0.0,0.0,0.0,0.0,0.0,0.0,0.014174999999999998,-7.640325,-0.19372499999999998,0.05367264,0.09392712,-0.01341816
1779588137748296499,A_+,0.17781033781261613,2.3912581548649112,2.481142611342619,-0.8266752002071143,0.0,-0.01090830782496456,0.0,0.0,0.0,0.0,0.0,0.0,0.0,0.014174999999999998,-7.640325,-0.19372499999999998,0.05367264,0.09392712,-0.01341816
1779588137778495311,A_+,0.17846483462517426,2.3912581548649112,2.481142611342619,-0.8266752002071143,0.0,-0.01090830782496456,0.0,0.0,0.0,0.0,0.0,0.0,0.0,0.04725,-7.6214249999999995,-0.21262499999999998,0.05654796,0.09201024,-0.00766752
1779588137778495311,A_+,0.1791519590626649,2.3912581548649112,2.481142611342619,-0.8266752002071143,0.0,-0.01090830782496456,0.0,0.0,0.0,0.0,0.0,0.0,0.0,0.04725,-7.6214249999999995,-0.21262499999999998,0.05654796,0.09201024,-0.00766752
1779588137778495311,A_+,0.17981417131250055,2.3912581548649112,2.481142611342619,-0.8266752002071143,0.0,-0.01090830782496456,0.0,0.0,0.0,0.0,0.0,0.0,0.0,0.04725,-7.6214249999999995,-0.21262499999999998,0.05654796,0.09201024,-0.00766752
1779588137808291673,A_+,0.18047211587509082,2.3912581548649112,2.481142611342619,-0.8266752002071143,0.0,-0.01090830782496456,0.0,0.0,0.0,0.0,0.0,0.0,0.0,0.05669999999999999,-7.6686749999999995,-0.21262499999999998,0.04217136,0.09296868,-0.00287532
1779588137808291673,A_+,0.181165729875147,2.3912581548649112,2.481142611342619,-0.8266752002071143,0.0,-0.01090830782496456,0.0,0.0,0.0,0.0,0.0,0.0,0.0,0.05669999999999999,-7.6686749999999995,-0.21262499999999998,0.04217136,0.09296868,-0.00287532
1779588137808291673,A_+,0.18182523831251274,2.3912581548649112,2.481142611342619,-0.8266752002071143,0.0,-0.01090830782496456,0.0,0.0,0.0,0.0,0.0,0.0,0.0,0.05669999999999999,-7.6686749999999995,-0.21262499999999998,0.04217136,0.09296868,-0.00287532
1779588137843400001,A_+,0.18249655193767467,2.3912581548649112,2.481142611342619,-0.8266752002071143,0.0,-0.01090830782496456,0.0,0.0,0.0,0.0,0.0,0.0,0.0,0.070875,-7.6686749999999995,-0.21735,0.05079731999999999,0.08721804,-0.00383376
1779588137843400001,A_+,0.18318205850005143,2.3912581548649112,2.481142611342619,-0.8266752002071143,0.0,-0.01090830782496456,0.0,0.0,0.0,0.0,0.0,0.0,0.0,0.070875,-7.6686749999999995,-0.21735,0.05079731999999999,0.08721804,-0.00383376
1779588137843400001,A_+,0.18383324156252456,2.3912581548649112,2.481142611342619,-0.8266752002071143,0.0,-0.01090830782496456,0.0,0.0,0.0,0.0,0.0,0.0,0.0,0.070875,-7.6686749999999995,-0.21735,0.05079731999999999,0.08721804,-0.00383376
1779588137874718427,A_+,0.18448841431268193,2.3912581548649112,2.481142611342619,-0.8266752002071143,0.0,-0.01090830782496456,0.0,0.0,0.0,0.0,0.0,0.0,0.0,0.0756,-7.72065,-0.203175,0.06134016,0.09488556,-0.01054284
1779588137874718427,A_+,0.18517791456247323,2.3912581548649112,2.481142611342619,-0.8266752002071143,0.0,-0.01090830782496456,0.0,0.0,0.0,0.0,0.0,0.0,0.0,0.0756,-7.72065,-0.203175,0.06134016,0.09488556,-0.01054284
1779588137874718427,A_+,0.18584365856258955,2.3912581548649112,2.481142611342619,-0.8266752002071143,0.0,-0.01090830782496456,0.0,0.0,0.0,0.0,0.0,0.0,0.0,0.0756,-7.72065,-0.203175,0.06134016,0.09488556,-0.01054284
1779588137909228801,A_+,0.1864990433125513,2.3912581548649112,2.481142611342619,-0.8266752002071143,0.0,-0.01090830782496456,0.0,0.0,0.0,0.0,0.0,0.0,0.0,0.08505,-7.62615,-0.20789999999999997,0.04983888,0.09201024,-0.0191688
1779588137909228801,A_+,0.18718980750008996,2.3912581548649112,2.481142611342619,-0.8266752002071143,0.0,-0.01090830782496456,0.0,0.0,0.0,0.0,0.0,0.0,0.0,0.08505,-7.62615,-0.20789999999999997,0.04983888,0.09201024,-0.0191688
1779588137909228801,A_+,0.18785124981263834,2.3912581548649112,2.481142611342619,-0.8266752002071143,0.0,-0.01090830782496456,0.0,0.0,0.0,0.0,0.0,0.0,0.0,0.08505,-7.62615,-0.20789999999999997,0.04983888,0.09201024,-0.0191688
1779588137939122438,A_+,0.1885084764376188,2.3912581548649112,2.481142611342619,-0.8266752002071143,0.0,-0.01090830782496456,0.0,0.0,0.0,0.0,0.0,0.0,0.0,0.033075,-7.68285,-0.17955,0.05079731999999999,0.09009336,-0.00766752
1779588137939122438,A_+,0.18921741131248382,2.3912581548649112,2.481142611342619,-0.8266752002071143,0.0,-0.01090830782496456,0.0,0.0,0.0,0.0,0.0,0.0,0.0,0.033075,-7.68285,-0.17955,0.05079731999999999,0.09009336,-0.00766752
1779588137939122438,A_+,0.18987658574997113,2.3912581548649112,2.481142611342619,-0.8266752002071143,0.0,-0.01090830782496456,0.0,0.0,0.0,0.0,0.0,0.0,0.0,0.033075,-7.68285,-0.17955,0.05079731999999999,0.09009336,-0.00766752
1779588137973278522,A_+,0.1905274588125394,2.3912581548649112,2.481142611342619,-0.8266752002071143,0.0,-0.01090830782496456,0.0,0.0,0.0,0.0,0.0,0.0,0.0,0.061425,-7.56,-0.19845,0.05367264,0.08721804,-0.01245972
1779588137973278522,A_+,0.19121139950016186,2.3912581548649112,2.481142611342619,-0.8266752002071143,0.0,-0.01090830782496456,0.0,0.0,0.0,0.0,0.0,0.0,0.0,0.061425,-7.56,-0.19845,0.05367264,0.08721804,-0.01245972
1779588137973278522,A_+,0.19186963806259882,2.3912581548649112,2.481142611342619,-0.8266752002071143,0.0,-0.01090830782496456,0.0,0.0,0.0,0.0,0.0,0.0,0.0,0.061425,-7.56,-0.19845,0.05367264,0.08721804,-0.01245972
1779588138003268241,A_+,0.19252315293761058,2.3912581548649112,2.481142611342619,-0.8266752002071143,0.0,-0.01090830782496456,0.0,0.0,0.0,0.026000000000000002,0.0,0.0,0.0,0.061425,-7.697024999999999,-0.25042499999999995,0.048880440000000004,0.09009336,-0.0047922
1779588138003268241,A_+,0.1932213086874981,2.3912581548649112,2.481142611342619,-0.8266752002071143,0.0,-0.01090830782496456,0.0,0.0,0.0,0.026000000000000002,0.0,0.0,0.0,0.061425,-7.697024999999999,-0.25042499999999995,0.048880440000000004,0.09009336,-0.0047922
1779588138003268241,A_+,0.193896438000138,2.3912581548649112,2.481142611342619,-0.8266752002071143,0.0,-0.01090830782496456,0.0,0.0,0.0,0.026000000000000002,0.0,0.0,0.0,0.061425,-7.697024999999999,-0.25042499999999995,0.048880440000000004,0.09009336,-0.0047922
1779588138033299684,A_+,0.19455443862511856,2.3912581548649112,2.481142611342619,-0.8266752002071143,0.0,-0.01090830782496456,0.0,0.0,0.0,-0.017,0.0,0.126,0.0,0.014174999999999998,-7.6545,-0.070875,0.05079731999999999,0.08721804,-0.00862596
1779588138033299684,A_+,0.19524493087510564,2.3912581548649112,2.481142611342619,-0.8266752002071143,0.0,-0.01090830782496456,0.0,0.0,0.0,-0.017,0.0,0.126,0.0,0.014174999999999998,-7.6545,-0.070875,0.05079731999999999,0.08721804,-0.00862596
1779588138033299684,A_+,0.19590456337505202,2.3912581548649112,2.481142611342619,-0.8266752002071143,0.0,-0.01090830782496456,0.0,0.0,0.0,-0.017,0.0,0.126,0.0,0.014174999999999998,-7.6545,-0.070875,0.05079731999999999,0.08721804,-0.00862596
