deepaktalwardt/rage-cage-arm-hackstorm/ros2/ws/sysid/runs/sysid_20260524_020136/raw/joint6_phaseA_pos.csv
t_ns,phase,tau_cmd,q1,q2,q3,q4,q5,q6,qd1,qd2,qd3,qd4,qd5,qd6,tau1,tau2,tau3,tau4,tau5,tau6
1779588159071683406,A_+,2.7999931262456812e-08,2.391973739858229,2.4813695041453783,-0.8262388678941157,0.0,-0.012322024519079966,0.0,0.714,0.0,0.0,0.0,0.0,0.0,-12.0015,-7.498574999999999,-0.19845,0.04408824,-0.043129799999999996,-0.00287532
1779588159071683406,A_+,0.0006915210624356405,2.391973739858229,2.4813695041453783,-0.8262388678941157,0.0,-0.012322024519079966,0.0,0.714,0.0,0.0,0.0,0.0,0.0,-12.0015,-7.498574999999999,-0.19845,0.04408824,-0.043129799999999996,-0.00287532
1779588159071683406,A_+,0.001359455812462329,2.391973739858229,2.4813695041453783,-0.8262388678941157,0.0,-0.012322024519079966,0.0,0.714,0.0,0.0,0.0,0.0,0.0,-12.0015,-7.498574999999999,-0.19845,0.04408824,-0.043129799999999996,-0.00287532
1779588159081684112,A_+,0.002020409062424733,2.3893557459802373,2.4813695041453783,-0.8262388678941157,0.0,-0.012322024519079966,0.0,0.343,0.0,0.0,0.0,0.0,0.0,0.22679999999999997,-7.4844,-0.17482499999999998,0.043129799999999996,-0.047922,-0.00575064
1779588159081684112,A_+,0.00271277806245962,2.3893557459802373,2.4813695041453783,-0.8262388678941157,0.0,-0.012322024519079966,0.0,0.343,0.0,0.0,0.0,0.0,0.0,0.22679999999999997,-7.4844,-0.17482499999999998,0.043129799999999996,-0.047922,-0.00575064
1779588159081684112,A_+,0.003374255249809721,2.3893557459802373,2.4813695041453783,-0.8262388678941157,0.0,-0.012322024519079966,0.0,0.343,0.0,0.0,0.0,0.0,0.0,0.22679999999999997,-7.4844,-0.17482499999999998,0.043129799999999996,-0.047922,-0.00575064
1779588159107294082,A_+,0.004025131187290754,2.3882561885514804,2.4813695041453783,-0.8262388678941157,0.0,-0.012322024519079966,0.0,-0.168,0.0,0.0,0.0,0.0,0.0,7.706474999999999,-7.5411,-0.222075,0.05846484,-0.04696356,0.03450384
1779588159107294082,A_+,0.004712624562444034,2.3882561885514804,2.4813695041453783,-0.8262388678941157,0.0,-0.012322024519079966,0.0,-0.168,0.0,0.0,0.0,0.0,0.0,7.706474999999999,-7.5411,-0.222075,0.05846484,-0.04696356,0.03450384
1779588159107294082,A_+,0.005378325499805214,2.3882561885514804,2.4813695041453783,-0.8262388678941157,0.0,-0.012322024519079966,0.0,-0.168,0.0,0.0,0.0,0.0,0.0,7.706474999999999,-7.5411,-0.222075,0.05846484,-0.04696356,0.03450384
1779588159126735448,A_+,0.006034940999825267,2.3918166602255493,2.4813695041453783,-0.8262388678941157,0.0,-0.012322024519079966,0.0,0.40900000000000003,0.0,0.0,0.0,0.0,0.0,-10.267425,-7.498574999999999,-0.222075,0.03929604,-0.03258696,0.04025448
1779588159126735448,A_+,0.006727254062298016,2.3918166602255493,2.4813695041453783,-0.8262388678941157,0.0,-0.012322024519079966,0.0,0.40900000000000003,0.0,0.0,0.0,0.0,0.0,-10.267425,-7.498574999999999,-0.222075,0.03929604,-0.03258696,0.04025448
1779588159126735448,A_+,0.007382163687452703,2.3918166602255493,2.4813695041453783,-0.8262388678941157,0.0,-0.012322024519079966,0.0,0.40900000000000003,0.0,0.0,0.0,0.0,0.0,-10.267425,-7.498574999999999,-0.222075,0.03929604,-0.03258696,0.04025448
1779588159146674394,A_+,0.008034797499931301,2.390018971095995,2.4813695041453783,-0.8262388678941157,0.0,-0.012322024519079966,0.0,-0.47300000000000003,0.0,0.0,0.0,0.0,0.0,2.0506499999999996,-7.597799999999999,-0.22679999999999997,0.04121292,-0.047922,0.02300256
1779588159146674394,A_+,0.008726470562351096,2.390018971095995,2.4813695041453783,-0.8262388678941157,0.0,-0.012322024519079966,0.0,-0.47300000000000003,0.0,0.0,0.0,0.0,0.0,2.0506499999999996,-7.597799999999999,-0.22679999999999997,0.04121292,-0.047922,0.02300256
1779588159146674394,A_+,0.009388899749865232,2.390018971095995,2.4813695041453783,-0.8262388678941157,0.0,-0.012322024519079966,0.0,-0.47300000000000003,0.0,0.0,0.0,0.0,0.0,2.0506499999999996,-7.597799999999999,-0.22679999999999997,0.04121292,-0.047922,0.02300256
1779588159186698436,A_+,0.010062242062303994,2.388116562211321,2.4813695041453783,-0.8262388678941157,0.0,-0.012322024519079966,0.0,-0.268,0.0,0.0,0.0,0.0,0.0,8.982225,-7.6167,-0.20789999999999997,0.05175576,-0.04217136,0.02491944
1779588159186698436,A_+,0.010772517812483784,2.388116562211321,2.4813695041453783,-0.8262388678941157,0.0,-0.012322024519079966,0.0,-0.268,0.0,0.0,0.0,0.0,0.0,8.982225,-7.6167,-0.20789999999999997,0.05175576,-0.04217136,0.02491944
1779588159186698436,A_+,0.011432043187369345,2.388116562211321,2.4813695041453783,-0.8262388678941157,0.0,-0.012322024519079966,0.0,-0.268,0.0,0.0,0.0,0.0,0.0,8.982225,-7.6167,-0.20789999999999997,0.05175576,-0.04217136,0.02491944
1779588159266662120,A_+,0.012089996624808919,2.3892684795176375,2.4813695041453783,-0.8262388678941157,0.0,-0.012322024519079966,0.0,-0.683,0.0,0.0,0.0,0.0,0.0,6.0196499999999995,-7.564724999999999,-0.19845,0.05367264,-0.04121292,0.04121292
1779588159266662120,A_+,0.012779221874779978,2.3892684795176375,2.4813695041453783,-0.8262388678941157,0.0,-0.012322024519079966,0.0,-0.683,0.0,0.0,0.0,0.0,0.0,6.0196499999999995,-7.564724999999999,-0.19845,0.05367264,-0.04121292,0.04121292
1779588159266662120,A_+,0.013435313437412333,2.3892684795176375,2.4813695041453783,-0.8262388678941157,0.0,-0.012322024519079966,0.0,-0.683,0.0,0.0,0.0,0.0,0.0,6.0196499999999995,-7.564724999999999,-0.19845,0.05367264,-0.04121292,0.04121292
1779588159296704292,A_+,0.014092140937464137,2.3905251165790737,2.4813695041453783,-0.8262388678941157,0.0,-0.012322024519079966,0.0,-0.27,0.0,0.0,0.0,0.0,0.0,-1.03005,-7.5411,-0.21262499999999998,0.052714199999999996,-0.04025448,0.02012724
1779588159296704292,A_+,0.014784104000000298,2.3905251165790737,2.4813695041453783,-0.8262388678941157,0.0,-0.012322024519079966,0.0,-0.27,0.0,0.0,0.0,0.0,0.0,-1.03005,-7.5411,-0.21262499999999998,0.052714199999999996,-0.04025448,0.02012724
1779588159296704292,A_+,0.015447609062448464,2.3905251165790737,2.4813695041453783,-0.8262388678941157,0.0,-0.012322024519079966,0.0,-0.27,0.0,0.0,0.0,0.0,0.0,-1.03005,-7.5411,-0.21262499999999998,0.052714199999999996,-0.04025448,0.02012724
1779588159331665754,A_+,0.016102830687486858,2.3916072207153096,2.4813695041453783,-0.8262388678941157,0.0,-0.012322024519079966,0.0,0.747,0.0,0.0,0.0,0.0,0.0,-7.281224999999999,-7.479674999999999,-0.184275,0.03737916,-0.04696356,0.02012724
1779588159331665754,A_+,0.01678994406233869,2.3916072207153096,2.4813695041453783,-0.8262388678941157,0.0,-0.012322024519079966,0.0,0.747,0.0,0.0,0.0,0.0,0.0,-7.281224999999999,-7.479674999999999,-0.184275,0.03737916,-0.04696356,0.02012724
1779588159331665754,A_+,0.01744923343744631,2.3916072207153096,2.4813695041453783,-0.8262388678941157,0.0,-0.012322024519079966,0.0,0.747,0.0,0.0,0.0,0.0,0.0,-7.281224999999999,-7.479674999999999,-0.184275,0.03737916,-0.04696356,0.02012724
1779588159357471942,A_+,0.01810453906227849,2.389495372320397,2.4813695041453783,-0.8262388678941157,0.0,-0.012322024519079966,0.0,0.4,0.0,0.0,0.0,0.0,0.0,-0.6804,-7.498574999999999,-0.19845,0.04217136,-0.04121292,0.03546228
1779588159357471942,A_+,0.018792958374888258,2.389495372320397,2.4813695041453783,-0.8262388678941157,0.0,-0.012322024519079966,0.0,0.4,0.0,0.0,0.0,0.0,0.0,-0.6804,-7.498574999999999,-0.19845,0.04217136,-0.04121292,0.03546228
1779588159357471942,A_+,0.019453249624802993,2.389495372320397,2.4813695041453783,-0.8262388678941157,0.0,-0.012322024519079966,0.0,0.4,0.0,0.0,0.0,0.0,0.0,-0.6804,-7.498574999999999,-0.19845,0.04217136,-0.04121292,0.03546228
1779588159386663436,A_+,0.020111607062290204,2.3883434550140805,2.4813695041453783,-0.8262388678941157,0.0,-0.012322024519079966,0.0,-0.107,0.0,0.0,0.0,0.0,0.0,6.936299999999999,-7.47495,-0.19372499999999998,0.05079731999999999,-0.04408824,0.02587788
1779588159386663436,A_+,0.020797982499971113,2.3883434550140805,2.4813695041453783,-0.8262388678941157,0.0,-0.012322024519079966,0.0,-0.107,0.0,0.0,0.0,0.0,0.0,6.936299999999999,-7.47495,-0.19372499999999998,0.05079731999999999,-0.04408824,0.02587788
1779588159386663436,A_+,0.021458595749891174,2.3883434550140805,2.4813695041453783,-0.8262388678941157,0.0,-0.012322024519079966,0.0,-0.107,0.0,0.0,0.0,0.0,0.0,6.936299999999999,-7.47495,-0.19372499999999998,0.05079731999999999,-0.04408824,0.02587788
1779588159421659708,A_+,0.02211880906247643,2.3898269848782756,2.4813695041453783,-0.8262388678941157,0.0,-0.012322024519079966,0.0,-0.519,0.0,0.0,0.0,0.0,0.0,2.8822499999999995,-7.49385,-0.21735,0.04504668,-0.04217136,0.029711639999999997
1779588159421659708,A_+,0.02281258999983038,2.3898269848782756,2.4813695041453783,-0.8262388678941157,0.0,-0.012322024519079966,0.0,-0.519,0.0,0.0,0.0,0.0,0.0,2.8822499999999995,-7.49385,-0.21735,0.04504668,-0.04217136,0.029711639999999997
1779588159421659708,A_+,0.023474457124848414,2.3898269848782756,2.4813695041453783,-0.8262388678941157,0.0,-0.012322024519079966,0.0,-0.519,0.0,0.0,0.0,0.0,0.0,2.8822499999999995,-7.49385,-0.21735,0.04504668,-0.04217136,0.029711639999999997
1779588159441650629,A_+,0.024126612999907593,2.3891986663475575,2.4813695041453783,-0.8262388678941157,0.0,-0.012322024519079966,0.0,-0.8150000000000001,0.0,0.0,0.0,0.0,0.0,12.025125,-7.58835,-0.25987499999999997,0.03929604,-0.0383376,0.03642072
1779588159441650629,A_+,0.024817518124791604,2.3891986663475575,2.4813695041453783,-0.8262388678941157,0.0,-0.012322024519079966,0.0,-0.8150000000000001,0.0,0.0,0.0,0.0,0.0,12.025125,-7.58835,-0.25987499999999997,0.03929604,-0.0383376,0.03642072
1779588159441650629,A_+,0.02547868337478576,2.3891986663475575,2.4813695041453783,-0.8262388678941157,0.0,-0.012322024519079966,0.0,-0.8150000000000001,0.0,0.0,0.0,0.0,0.0,12.025125,-7.58835,-0.25987499999999997,0.03929604,-0.0383376,0.03642072
1779588159471655130,A_+,0.026136744812447432,2.3882910951365206,2.4813695041453783,-0.8262388678941157,0.0,-0.012322024519079966,0.0,-0.761,0.0,0.0,0.0,0.0,0.0,7.999425,-7.526924999999999,-0.189,0.04408824,-0.043129799999999996,0.02491944
1779588159471655130,A_+,0.026829599749817135,2.3882910951365206,2.4813695041453783,-0.8262388678941157,0.0,-0.012322024519079966,0.0,-0.761,0.0,0.0,0.0,0.0,0.0,7.999425,-7.526924999999999,-0.189,0.04408824,-0.043129799999999996,0.02491944
1779588159471655130,A_+,0.027494092749975607,2.3882910951365206,2.4813695041453783,-0.8262388678941157,0.0,-0.012322024519079966,0.0,-0.761,0.0,0.0,0.0,0.0,0.0,7.999425,-7.526924999999999,-0.189,0.04408824,-0.043129799999999996,0.02491944
1779588159496649026,A_+,0.028150962249810618,2.3901585974361543,2.4813695041453783,-0.8262388678941157,0.0,-0.012322024519079966,0.0,-0.406,0.0,0.0,0.0,0.0,0.0,1.0206,-7.583625,-0.25042499999999995,0.04504668,-0.043129799999999996,0.01054284
1779588159496649026,A_+,0.028833951937485836,2.3901585974361543,2.4813695041453783,-0.8262388678941157,0.0,-0.012322024519079966,0.0,-0.406,0.0,0.0,0.0,0.0,0.0,1.0206,-7.583625,-0.25042499999999995,0.04504668,-0.043129799999999996,0.01054284
1779588159496649026,A_+,0.02949016749994371,2.3901585974361543,2.4813695041453783,-0.8262388678941157,0.0,-0.012322024519079966,0.0,-0.406,0.0,0.0,0.0,0.0,0.0,1.0206,-7.583625,-0.25042499999999995,0.04504668,-0.043129799999999996,0.01054284
1779588159526645898,A_+,0.03015236068745253,2.3912930614499506,2.4813695041453783,-0.8262388678941157,0.0,-0.012322024519079966,0.0,0.108,0.0,0.0,0.0,0.0,0.0,-6.544124999999999,-7.5411,-0.203175,0.052714199999999996,-0.04408824,0.0670908
1779588159526645898,A_+,0.0308409619374288,2.3912930614499506,2.4813695041453783,-0.8262388678941157,0.0,-0.012322024519079966,0.0,0.108,0.0,0.0,0.0,0.0,0.0,-6.544124999999999,-7.5411,-0.203175,0.052714199999999996,-0.04408824,0.0670908
1779588159526645898,A_+,0.031501527249929495,2.3912930614499506,2.4813695041453783,-0.8262388678941157,0.0,-0.012322024519079966,0.0,0.108,0.0,0.0,0.0,0.0,0.0,-6.544124999999999,-7.5411,-0.203175,0.052714199999999996,-0.04408824,0.0670908
1779588159562588214,A_+,0.03215696487495734,2.3897222651231558,2.4813695041453783,-0.8262388678941157,0.0,-0.010663961729685353,0.0,0.499,0.0,-0.006,0.0,0.015,0.0,-2.1546,-7.489125,-0.155925,0.05367264,-0.07859208,0.03067008
1779588159562588214,A_+,0.032844888187355537,2.3897222651231558,2.4813695041453783,-0.8262388678941157,0.0,-0.010663961729685353,0.0,0.499,0.0,-0.006,0.0,0.015,0.0,-2.1546,-7.489125,-0.155925,0.05367264,-0.07859208,0.03067008
1779588159562588214,A_+,0.033509575124980984,2.3897222651231558,2.4813695041453783,-0.8262388678941157,0.0,-0.010663961729685353,0.0,0.499,0.0,-0.006,0.0,0.015,0.0,-2.1546,-7.489125,-0.155925,0.05367264,-0.07859208,0.03067008
1779588159576938152,A_+,0.03416516674997183,2.3903854902389137,2.4813695041453783,-0.8262388678941157,0.0,-0.010663961729685353,0.0,-0.298,0.0,0.0,0.0,0.0,0.0,-0.5103,-7.550549999999999,-0.3024,0.04217136,-0.0622986,0.03067008
1779588159576938152,A_+,0.03485533993739409,2.3903854902389137,2.4813695041453783,-0.8262388678941157,0.0,-0.010663961729685353,0.0,-0.298,0.0,0.0,0.0,0.0,0.0,-0.5103,-7.550549999999999,-0.3024,0.04217136,-0.0622986,0.03067008
1779588159576938152,A_+,0.035521212812454905,2.3903854902389137,2.4813695041453783,-0.8262388678941157,0.0,-0.010663961729685353,0.0,-0.298,0.0,0.0,0.0,0.0,0.0,-0.5103,-7.550549999999999,-0.3024,0.04217136,-0.0622986,0.03067008
1779588159616643905,A_+,0.03617673843746161,2.387750043068402,2.4813695041453783,-0.8262388678941157,0.0,-0.010663961729685353,0.0,-0.47200000000000003,0.012,0.0,0.0,0.0,0.0,11.160449999999999,-7.58835,-0.1701,0.052714199999999996,-0.05558952,0.03162852
1779588159616643905,A_+,0.03686783156240381,2.387750043068402,2.4813695041453783,-0.8262388678941157,0.0,-0.010663961729685353,0.0,-0.47200000000000003,0.012,0.0,0.0,0.0,0.0,11.160449999999999,-7.58835,-0.1701,0.052714199999999996,-0.05558952,0.03162852
1779588159616643905,A_+,0.037526466937379155,2.387750043068402,2.4813695041453783,-0.8262388678941157,0.0,-0.010663961729685353,0.0,-0.47200000000000003,0.012,0.0,0.0,0.0,0.0,11.160449999999999,-7.58835,-0.1701,0.052714199999999996,-0.05558952,0.03162852
1779588159651879310,A_+,0.03818107662482362,2.389425559150317,2.4813695041453783,-0.8262388678941157,0.0,-0.010663961729685353,0.0,-0.151,-0.06,0.0,0.0,0.0,0.0,-2.7404999999999995,-7.555274999999999,-0.25042499999999995,0.0383376,-0.043129799999999996,0.10638684
1779588159651879310,A_+,0.038866056187316644,2.389425559150317,2.4813695041453783,-0.8262388678941157,0.0,-0.010663961729685353,0.0,-0.151,-0.06,0.0,0.0,0.0,0.0,-2.7404999999999995,-7.555274999999999,-0.25042499999999995,0.0383376,-0.043129799999999996,0.10638684
1779588159651879310,A_+,0.03953830062482666,2.389425559150317,2.4813695041453783,-0.8262388678941157,0.0,-0.010663961729685353,0.0,-0.151,-0.06,0.0,0.0,0.0,0.0,-2.7404999999999995,-7.555274999999999,-0.25042499999999995,0.0383376,-0.043129799999999996,0.10638684
1779588159716638326,A_+,0.04020297356237279,2.3892859328101577,2.4813695041453783,-0.8262388678941157,0.0,-0.010663961729685353,0.0,0.31,-0.08,0.008,0.0,0.0,0.0,0.6000749999999999,-5.778675,-0.146475,0.04217136,-0.05175576,0.08817648
1779588159716638326,A_+,0.04089154487496671,2.3892859328101577,2.4813695041453783,-0.8262388678941157,0.0,-0.010663961729685353,0.0,0.31,-0.08,0.008,0.0,0.0,0.0,0.6000749999999999,-5.778675,-0.146475,0.04217136,-0.05175576,0.08817648
1779588159716638326,A_+,0.04154959431230054,2.3892859328101577,2.4813695041453783,-0.8262388678941157,0.0,-0.010663961729685353,0.0,0.31,-0.08,0.008,0.0,0.0,0.0,0.6000749999999999,-5.778675,-0.146475,0.04217136,-0.05175576,0.08817648
1779588159746628046,A_+,0.042203382062325545,2.3882910951365206,2.4813695041453783,-0.8262388678941157,0.0,-0.010663961729685353,0.0,-0.186,-0.053,0.006,0.0,0.0,0.0,7.895474999999999,-6.260624999999999,-0.189,0.04408824,-0.05846484,0.08625959999999999
1779588159746628046,A_+,0.042892389312328305,2.3882910951365206,2.4813695041453783,-0.8262388678941157,0.0,-0.010663961729685353,0.0,-0.186,-0.053,0.006,0.0,0.0,0.0,7.895474999999999,-6.260624999999999,-0.189,0.04408824,-0.05846484,0.08625959999999999
1779588159746628046,A_+,0.0435580901873891,2.3882910951365206,2.4813695041453783,-0.8262388678941157,0.0,-0.010663961729685353,0.0,-0.186,-0.053,0.006,0.0,0.0,0.0,7.895474999999999,-6.260624999999999,-0.189,0.04408824,-0.05846484,0.08625959999999999
1779588159776703834,A_+,0.04421351781229532,2.3900015178034755,2.4813695041453783,-0.8262388678941157,0.0,-0.010663961729685353,0.0,-0.529,0.031,-0.003,0.0,-0.067,0.0,2.8160999999999996,-7.564724999999999,-0.146475,0.03642072,-0.00095844,0.09296868
1779588159776703834,A_+,0.04490862662487416,2.3900015178034755,2.4813695041453783,-0.8262388678941157,0.0,-0.010663961729685353,0.0,-0.529,0.031,-0.003,0.0,-0.067,0.0,2.8160999999999996,-7.564724999999999,-0.146475,0.03642072,-0.00095844,0.09296868
1779588159776703834,A_+,0.04557240968733822,2.3900015178034755,2.4813695041453783,-0.8262388678941157,0.0,-0.010663961729685353,0.0,-0.529,0.031,-0.003,0.0,-0.067,0.0,2.8160999999999996,-7.564724999999999,-0.146475,0.03642072,-0.00095844,0.09296868
1779588159811632633,A_+,0.046228505249928276,2.39158976742279,2.4813695041453783,-0.8262388678941157,0.0,-0.010663961729685353,0.0,0.852,0.0,0.005,0.0,0.0,0.0,-10.768275,-7.39935,-0.1323,0.05463108,-0.06038172,0.09392712
1779588159811632633,A_+,0.046910950999972556,2.39158976742279,2.4813695041453783,-0.8262388678941157,0.0,-0.010663961729685353,0.0,0.852,0.0,0.005,0.0,0.0,0.0,-10.768275,-7.39935,-0.1323,0.05463108,-0.06038172,0.09392712
1779588159811632633,A_+,0.04757133424982385,2.39158976742279,2.4813695041453783,-0.8262388678941157,0.0,-0.010663961729685353,0.0,0.852,0.0,0.005,0.0,0.0,0.0,-10.768275,-7.39935,-0.1323,0.05463108,-0.06038172,0.09392712
1779588159836662054,A_+,0.048225245999901745,2.3920086464432684,2.4813695041453783,-0.8262388678941157,0.0,-0.010663961729685353,0.0,0.43,0.0,0.009000000000000001,0.0,0.0,0.0,-10.428074999999998,-7.41825,-0.38744999999999996,0.04121292,-0.05654796,0.1006362
1779588159836662054,A_+,0.04891075949990409,2.3920086464432684,2.4813695041453783,-0.8262388678941157,0.0,-0.010663961729685353,0.0,0.43,0.0,0.009000000000000001,0.0,0.0,0.0,-10.428074999999998,-7.41825,-0.38744999999999996,0.04121292,-0.05654796,0.1006362
1779588159836662054,A_+,0.049573086624832285,2.3920086464432684,2.4813695041453783,-0.8262388678941157,0.0,-0.010663961729685353,0.0,0.43,0.0,0.009000000000000001,0.0,0.0,0.0,-10.428074999999998,-7.41825,-0.38744999999999996,0.04121292,-0.05654796,0.1006362
1779588159876622676,A_+,0.050228946249944784,2.389024133422358,2.4813695041453783,-0.8262388678941157,0.0,-0.010663961729685353,0.0,0.277,0.0,0.007,0.0,0.0,0.0,1.204875,-7.38045,-0.27405,0.0383376,-0.05558952,0.09871932
1779588159876622676,A_+,0.050920453312301106,2.389024133422358,2.4813695041453783,-0.8262388678941157,0.0,-0.010663961729685353,0.0,0.277,0.0,0.007,0.0,0.0,0.0,1.204875,-7.38045,-0.27405,0.0383376,-0.05558952,0.09871932
1779588159876622676,A_+,0.051580778562311025,2.389024133422358,2.4813695041453783,-0.8262388678941157,0.0,-0.010663961729685353,0.0,0.277,0.0,0.007,0.0,0.0,0.0,1.204875,-7.38045,-0.27405,0.0383376,-0.05558952,0.09871932
1779588159896746635,A_+,0.052249413249910504,2.3882910951365206,2.4813695041453783,-0.8262388678941157,0.0,-0.010663961729685353,0.0,-0.183,0.0,0.037,0.0,0.0,0.0,7.961625,-7.356824999999999,-0.3213,0.04025448,-0.05079731999999999,0.07284144
1779588159896746635,A_+,0.05293542874983359,2.3882910951365206,2.4813695041453783,-0.8262388678941157,0.0,-0.010663961729685353,0.0,-0.183,0.0,0.037,0.0,0.0,0.0,7.961625,-7.356824999999999,-0.3213,0.04025448,-0.05079731999999999,0.07284144
1779588159896746635,A_+,0.05359714993733178,2.3882910951365206,2.4813695041453783,-0.8262388678941157,0.0,-0.010663961729685353,0.0,-0.183,0.0,0.037,0.0,0.0,0.0,7.961625,-7.356824999999999,-0.3213,0.04025448,-0.05079731999999999,0.07284144
1779588159921607971,A_+,0.05425489937488237,2.3915723141302703,2.4813695041453783,-0.8262388678941157,0.0,-0.010663961729685353,0.0,0.661,0.0,-0.018000000000000002,0.0,0.0,0.0,-5.24475,-7.361549999999999,-0.269325,0.04983888,-0.04696356,0.09392712
1779588159921607971,A_+,0.05494287268743392,2.3915723141302703,2.4813695041453783,-0.8262388678941157,0.0,-0.010663961729685353,0.0,0.661,0.0,-0.018000000000000002,0.0,0.0,0.0,-5.24475,-7.361549999999999,-0.269325,0.04983888,-0.04696356,0.09392712
1779588159921607971,A_+,0.05560145212484713,2.3915723141302703,2.4813695041453783,-0.8262388678941157,0.0,-0.010663961729685353,0.0,0.661,0.0,-0.018000000000000002,0.0,0.0,0.0,-5.24475,-7.361549999999999,-0.269325,0.04983888,-0.04696356,0.09392712
1779588159941703081,A_+,0.056253135999895676,2.3920086464432684,2.4813695041453783,-0.8262388678941157,0.0,-0.010663961729685353,0.0,0.776,0.0,0.024,0.0,0.0,0.0,-11.949525,-7.43715,-0.392175,0.048880440000000004,-0.05079731999999999,0.09871932
1779588159941703081,A_+,0.056944667062452936,2.3920086464432684,2.4813695041453783,-0.8262388678941157,0.0,-0.010663961729685353,0.0,0.776,0.0,0.024,0.0,0.0,0.0,-11.949525,-7.43715,-0.392175,0.048880440000000004,-0.05079731999999999,0.09871932
1779588159941703081,A_+,0.05760790418730721,2.3920086464432684,2.4813695041453783,-0.8262388678941157,0.0,-0.010663961729685353,0.0,0.776,0.0,0.024,0.0,0.0,0.0,-11.949525,-7.43715,-0.392175,0.048880440000000004,-0.05079731999999999,0.09871932
1779588159966622114,A_+,0.05826254987482571,2.3912930614499506,2.4813695041453783,-0.8262388678941157,0.0,-0.010663961729685353,0.0,0.8290000000000001,0.0,0.05,0.0,0.0,0.0,-9.96975,-7.408799999999999,-0.515025,0.04217136,-0.05175576,0.08625959999999999
1779588159966622114,A_+,0.058948003374780455,2.3912930614499506,2.4813695041453783,-0.8262388678941157,0.0,-0.010663961729685353,0.0,0.8290000000000001,0.0,0.05,0.0,0.0,0.0,-9.96975,-7.408799999999999,-0.515025,0.04217136,-0.05175576,0.08625959999999999
1779588159966622114,A_+,0.05961028456249551,2.3912930614499506,2.4813695041453783,-0.8262388678941157,0.0,-0.010663961729685353,0.0,0.8290000000000001,0.0,0.05,0.0,0.0,0.0,-9.96975,-7.408799999999999,-0.515025,0.04217136,-0.05175576,0.08625959999999999
1779588159992713212,A_+,0.06026623018738064,2.3919039266881486,2.4813695041453783,-0.8262388678941157,0.0,-0.010663961729685353,0.0,0.485,0.0,0.041,0.0,0.0,0.0,-10.93365,-7.394625,-0.3213,0.04217136,-0.052714199999999996,0.08913491999999999
1779588159992713212,A_+,0.06095545549987946,2.3919039266881486,2.4813695041453783,-0.8262388678941157,0.0,-0.010663961729685353,0.0,0.485,0.0,0.041,0.0,0.0,0.0,-10.93365,-7.394625,-0.3213,0.04217136,-0.052714199999999996,0.08913491999999999
1779588159992713212,A_+,0.061613464999936696,2.3919039266881486,2.4813695041453783,-0.8262388678941157,0.0,-0.010663961729685353,0.0,0.485,0.0,0.041,0.0,0.0,0.0,-10.93365,-7.394625,-0.3213,0.04217136,-0.052714199999999996,0.08913491999999999
1779588160012013673,A_+,0.06227013856232588,2.3901935040211946,2.4813695041453783,-0.8262388678941157,0.0,-0.010663961729685353,0.0,-0.41000000000000003,0.0,-0.042,0.0,0.0,0.0,1.034775,-7.456049999999999,0.00945,0.04121292,-0.05463108,0.09009336
1779588160012013673,A_+,0.06295725199993285,2.3901935040211946,2.4813695041453783,-0.8262388678941157,0.0,-0.010663961729685353,0.0,-0.41000000000000003,0.0,-0.042,0.0,0.0,0.0,1.034775,-7.456049999999999,0.00945,0.04121292,-0.05463108,0.09009336
1779588160012013673,A_+,0.06362124306247097,2.3901935040211946,2.4813695041453783,-0.8262388678941157,0.0,-0.010663961729685353,0.0,-0.41000000000000003,0.0,-0.042,0.0,0.0,0.0,1.034775,-7.456049999999999,0.00945,0.04121292,-0.05463108,0.09009336
1779588160026618242,A_+,0.06427788062478612,2.388849600497159,2.4813695041453783,-0.8262388678941157,0.0,-0.010663961729685353,0.0,0.139,0.0,-0.015,0.0,0.0,0.0,3.3500249999999996,-7.43715,0.0,0.04504668,-0.04983888,0.09009336
1779588160026618242,A_+,0.06496811381248335,2.388849600497159,2.4813695041453783,-0.8262388678941157,0.0,-0.010663961729685353,0.0,0.139,0.0,-0.015,0.0,0.0,0.0,3.3500249999999996,-7.43715,0.0,0.04504668,-0.04983888,0.09009336
1779588160026618242,A_+,0.06563561462485268,2.388849600497159,2.4813695041453783,-0.8262388678941157,0.0,-0.010663961729685353,0.0,0.139,0.0,-0.015,0.0,0.0,0.0,3.3500249999999996,-7.43715,0.0,0.04504668,-0.04983888,0.09009336
1779588160041725873,A_+,0.06629312618747463,2.3913803279125503,2.4813695041453783,-0.8262388678941157,0.0,-0.010663961729685353,0.0,0.127,0.0,0.044,0.0,0.0,0.0,-6.893775,-7.385174999999999,-0.779625,0.03642072,-0.05750639999999999,0.09009336
1779588160041725873,A_+,0.06698947293739366,2.3913803279125503,2.4813695041453783,-0.8262388678941157,0.0,-0.010663961729685353,0.0,0.127,0.0,0.044,0.0,0.0,0.0,-6.893775,-7.385174999999999,-0.779625,0.03642072,-0.05750639999999999,0.09009336
1779588160041725873,A_+,0.0676506081874777,2.3913803279125503,2.4813695041453783,-0.8262388678941157,0.0,-0.010663961729685353,0.0,0.127,0.0,0.044,0.0,0.0,0.0,-6.893775,-7.385174999999999,-0.779625,0.03642072,-0.05750639999999999,0.09009336
1779588160057539939,A_+,0.06830775174989867,2.3880816556262814,2.4813695041453783,-0.8262388678941157,0.0,-0.010663961729685353,0.0,-0.684,0.0,-0.033,0.0,0.0,0.0,6.048,-7.404074999999999,-0.278775,0.04408824,-0.052714199999999996,0.08913491999999999
1779588160057539939,A_+,0.06900221468731615,2.3880816556262814,2.4813695041453783,-0.8262388678941157,0.0,-0.010663961729685353,0.0,-0.684,0.0,-0.033,0.0,0.0,0.0,6.048,-7.404074999999999,-0.278775,0.04408824,-0.052714199999999996,0.08913491999999999
1779588160057539939,A_+,0.0696658817498701,2.3880816556262814,2.4813695041453783,-0.8262388678941157,0.0,-0.010663961729685353,0.0,-0.684,0.0,-0.033,0.0,0.0,0.0,6.048,-7.404074999999999,-0.278775,0.04408824,-0.052714199999999996,0.08913491999999999
1779588160096610784,A_+,0.07032427518743134,2.3907520093818326,2.4813695041453783,-0.8262388678941157,0.0,-0.010663961729685353,0.0,0.8210000000000001,0.0,0.03,0.0,0.0,0.0,-11.647124999999999,-7.39935,-0.562275,0.03737916,-0.04983888,0.08625959999999999
1779588160096610784,A_+,0.07101762818729185,2.3907520093818326,2.4813695041453783,-0.8262388678941157,0.0,-0.010663961729685353,0.0,0.8210000000000001,0.0,0.03,0.0,0.0,0.0,-11.647124999999999,-7.39935,-0.562275,0.03737916,-0.04983888,0.08625959999999999
1779588160096610784,A_+,0.07168115531248986,2.3907520093818326,2.4813695041453783,-0.8262388678941157,0.0,-0.010663961729685353,0.0,0.8210000000000001,0.0,0.03,0.0,0.0,0.0,-11.647124999999999,-7.39935,-0.562275,0.03737916,-0.04983888,0.08625959999999999
1779588160156714439,A_+,0.07233846081248885,2.389460465735357,2.4813695041453783,-0.8262388678941157,0.0,-0.010663961729685353,0.0,0.406,0.0,0.023,0.0,0.0,0.0,-0.628425,-7.545824999999999,-0.5953499999999999,0.05367264,-0.05175576,0.09201024
1779588160156714439,A_+,0.07303169981241808,2.389460465735357,2.4813695041453783,-0.8262388678941157,0.0,-0.010663961729685353,0.0,0.406,0.0,0.023,0.0,0.0,0.0,-0.628425,-7.545824999999999,-0.5953499999999999,0.05367264,-0.05175576,0.09201024
1779588160156714439,A_+,0.07369504093730939,2.389460465735357,2.4813695041453783,-0.8262388678941157,0.0,-0.010663961729685353,0.0,0.406,0.0,0.023,0.0,0.0,0.0,-0.628425,-7.545824999999999,-0.5953499999999999,0.05367264,-0.05175576,0.09201024
1779588160193032503,A_+,0.07435350237483362,2.39165958059287,2.4813695041453783,-0.8262388678941157,0.0,-0.010663961729685353,0.0,0.325,0.0,-0.032,0.0,0.0,0.0,-9.275174999999999,-7.47495,-0.222075,0.048880440000000004,-0.05175576,0.10255307999999999
1779588160193032503,A_+,0.0750407738123613,2.39165958059287,2.4813695041453783,-0.8262388678941157,0.0,-0.010663961729685353,0.0,0.325,0.0,-0.032,0.0,0.0,0.0,-9.275174999999999,-7.47495,-0.222075,0.048880440000000004,-0.05175576,0.10255307999999999
1779588160193032503,A_+,0.0757015610624876,2.39165958059287,2.4813695041453783,-0.8262388678941157,0.0,-0.010663961729685353,0.0,0.325,0.0,-0.032,0.0,0.0,0.0,-9.275174999999999,-7.47495,-0.222075,0.048880440000000004,-0.05175576,0.10255307999999999
1779588160231599092,A_+,0.07636377824996998,2.387907122701082,2.4813695041453783,-0.8262388678941157,0.0,-0.010663961729685353,0.0,-0.801,0.0,0.009000000000000001,0.0,0.0,0.0,12.162149999999999,-7.451324999999999,-0.35437499999999994,0.04983888,-0.05367264,0.08625959999999999
1779588160231599092,A_+,0.07705214562497531,2.387907122701082,2.4813695041453783,-0.8262388678941157,0.0,-0.010663961729685353,0.0,-0.801,0.0,0.009000000000000001,0.0,0.0,0.0,12.162149999999999,-7.451324999999999,-0.35437499999999994,0.04983888,-0.05367264,0.08625959999999999
1779588160231599092,A_+,0.07771354487499593,2.387907122701082,2.4813695041453783,-0.8262388678941157,0.0,-0.010663961729685353,0.0,-0.801,0.0,0.009000000000000001,0.0,0.0,0.0,12.162149999999999,-7.451324999999999,-0.35437499999999994,0.04983888,-0.05367264,0.08625959999999999
1779588160306587934,A_+,0.07837046243730583,2.3890066801298384,2.4813695041453783,-0.8262388678941157,0.0,-0.010663961729685353,0.0,0.197,0.0,-0.096,0.0,0.0,0.0,2.433375,-7.460774999999999,0.27405,0.05079731999999999,-0.04504668,0.09009336
1779588160306587934,A_+,0.07906823906228055,2.3890066801298384,2.4813695041453783,-0.8262388678941157,0.0,-0.010663961729685353,0.0,0.197,0.0,-0.096,0.0,0.0,0.0,2.433375,-7.460774999999999,0.27405,0.05079731999999999,-0.04504668,0.09009336
1779588160306587934,A_+,0.07973010031241756,2.3890066801298384,2.4813695041453783,-0.8262388678941157,0.0,-0.010663961729685353,0.0,0.197,0.0,-0.096,0.0,0.0,0.0,2.433375,-7.460774999999999,0.27405,0.05079731999999999,-0.04504668,0.09009336
1779588160326597452,A_+,0.0803875658123161,2.391240701572391,2.4813695041453783,-0.8262388678941157,0.0,-0.010663961729685353,0.0,0.806,0.0,-0.096,0.0,0.0,0.0,-9.42165,-7.441875,0.25987499999999997,0.04696356,-0.04696356,0.08530115999999999
1779588160326597452,A_+,0.08108360662481573,2.391240701572391,2.4813695041453783,-0.8262388678941157,0.0,-0.010663961729685353,0.0,0.806,0.0,-0.096,0.0,0.0,0.0,-9.42165,-7.441875,0.25987499999999997,0.04696356,-0.04696356,0.08530115999999999
1779588160326597452,A_+,0.08174289599992335,2.391240701572391,2.4813695041453783,-0.8262388678941157,0.0,-0.010663961729685353,0.0,0.806,0.0,-0.096,0.0,0.0,0.0,-9.42165,-7.441875,0.25987499999999997,0.04696356,-0.04696356,0.08530115999999999
1779588160367006540,A_+,0.08240372331238177,2.3904553034089933,2.4813695041453783,-0.8262388678941157,0.0,-0.010663961729685353,0.0,-0.309,0.0,-0.064,0.0,0.0,0.0,-0.378,-7.47495,0.014174999999999998,0.04600512,-0.05175576,0.09680244
1779588160367006540,A_+,0.08308993081232074,2.3904553034089933,2.4813695041453783,-0.8262388678941157,0.0,-0.010663961729685353,0.0,-0.309,0.0,-0.064,0.0,0.0,0.0,-0.378,-7.47495,0.014174999999999998,0.04600512,-0.05175576,0.09680244
1779588160367006540,A_+,0.08375190599986126,2.3904553034089933,2.4813695041453783,-0.8262388678941157,0.0,-0.010663961729685353,0.0,-0.309,0.0,-0.064,0.0,0.0,0.0,-0.378,-7.47495,0.014174999999999998,0.04600512,-0.05175576,0.09680244
1779588160386610507,A_+,0.08440366793729481,2.3885703478168394,2.4813695041453783,-0.8262388678941157,0.0,-0.010663961729685353,0.0,-0.837,0.0,-0.023,0.0,0.0,0.0,10.900574999999998,-7.441875,0.19372499999999998,0.03929604,-0.05367264,0.09392712
1779588160386610507,A_+,0.08509297718728703,2.3885703478168394,2.4813695041453783,-0.8262388678941157,0.0,-0.010663961729685353,0.0,-0.837,0.0,-0.023,0.0,0.0,0.0,10.900574999999998,-7.441875,0.19372499999999998,0.03929604,-0.05367264,0.09392712
1779588160386610507,A_+,0.08575808418731867,2.3885703478168394,2.4813695041453783,-0.8262388678941157,0.0,-0.010663961729685353,0.0,-0.837,0.0,-0.023,0.0,0.0,0.0,10.900574999999998,-7.441875,0.19372499999999998,0.03929604,-0.05367264,0.09392712
1779588160416581392,A_+,0.08641658762485349,2.38841326818416,2.4813695041453783,-0.8262388678941157,0.0,-0.010663961729685353,0.0,-0.40800000000000003,0.0,0.026000000000000002,0.0,0.0,0.0,10.295774999999999,-7.503299999999999,-0.7087499999999999,0.05367264,-0.04217136,0.09296868
1779588160416581392,A_+,0.08710638487491451,2.38841326818416,2.4813695041453783,-0.8262388678941157,0.0,-0.010663961729685353,0.0,-0.40800000000000003,0.0,0.026000000000000002,0.0,0.0,0.0,10.295774999999999,-7.503299999999999,-0.7087499999999999,0.05367264,-0.04217136,0.09296868
1779588160416581392,A_+,0.08776665218738344,2.38841326818416,2.4813695041453783,-0.8262388678941157,0.0,-0.010663961729685353,0.0,-0.40800000000000003,0.0,0.026000000000000002,0.0,0.0,0.0,10.295774999999999,-7.503299999999999,-0.7087499999999999,0.05367264,-0.04217136,0.09296868
1779588160436574459,A_+,0.08842731549998462,2.387715136483363,2.4813695041453783,-0.8262388678941157,0.0,-0.010663961729685353,0.0,-0.716,0.0,0.057,0.0,0.0,0.0,12.308625,-7.41825,-0.0945,0.0383376,-0.04983888,0.09009336
1779588160436574459,A_+,0.08911719068737511,2.387715136483363,2.4813695041453783,-0.8262388678941157,0.0,-0.010663961729685353,0.0,-0.716,0.0,0.057,0.0,0.0,0.0,12.308625,-7.41825,-0.0945,0.0383376,-0.04983888,0.09009336
1779588160436574459,A_+,0.08977749006248814,2.387715136483363,2.4813695041453783,-0.8262388678941157,0.0,-0.010663961729685353,0.0,-0.716,0.0,0.057,0.0,0.0,0.0,12.308625,-7.41825,-0.0945,0.0383376,-0.04983888,0.09009336
1779588160456581115,A_+,0.09044055718732125,2.3903331303613538,2.4813695041453783,-0.8262388678941157,0.0,-0.010663961729685353,0.0,0.084,0.0,0.044,0.0,0.0,0.0,4.26195,-7.4655,-0.7087499999999999,0.02683632,-0.05558952,0.09201024
1779588160456581115,A_+,0.09114652324979033,2.3903331303613538,2.4813695041453783,-0.8262388678941157,0.0,-0.010663961729685353,0.0,0.084,0.0,0.044,0.0,0.0,0.0,4.26195,-7.4655,-0.7087499999999999,0.02683632,-0.05558952,0.09201024
1779588160456581115,A_+,0.09182722312493752,2.3903331303613538,2.4813695041453783,-0.8262388678941157,0.0,-0.010663961729685353,0.0,0.084,0.0,0.044,0.0,0.0,0.0,4.26195,-7.4655,-0.7087499999999999,0.02683632,-0.05558952,0.09201024
1779588160476569890,A_+,0.0924936379999508,2.390874182429472,2.4813695041453783,-0.8262388678941157,0.0,-0.010663961729685353,0.0,0.166,0.0,0.06,0.0,0.0,0.0,-7.224525,-7.432424999999999,-0.562275,0.05750639999999999,-0.05558952,0.09201024
1779588160476569890,A_+,0.09322066462482326,2.390874182429472,2.4813695041453783,-0.8262388678941157,0.0,-0.010663961729685353,0.0,0.166,0.0,0.06,0.0,0.0,0.0,-7.224525,-7.432424999999999,-0.562275,0.05750639999999999,-0.05558952,0.09201024
1779588160476569890,A_+,0.09390159449981184,2.390874182429472,2.4813695041453783,-0.8262388678941157,0.0,-0.010663961729685353,0.0,0.166,0.0,0.06,0.0,0.0,0.0,-7.224525,-7.432424999999999,-0.562275,0.05750639999999999,-0.05558952,0.09201024
1779588160491586446,A_+,0.09456931531235568,2.3882561885514804,2.4813695041453783,-0.8262388678941157,0.0,-0.010663961729685353,0.0,-0.663,0.0,0.01,0.0,0.0,0.0,5.740875,-7.47495,-0.382725,0.05463108,-0.05654796,0.095844
1779588160491586446,A_+,0.09529754781237898,2.3882561885514804,2.4813695041453783,-0.8262388678941157,0.0,-0.010663961729685353,0.0,-0.663,0.0,0.01,0.0,0.0,0.0,5.740875,-7.47495,-0.382725,0.05463108,-0.05654796,0.095844
1779588160491586446,A_+,0.09597145818747777,2.3882561885514804,2.4813695041453783,-0.8262388678941157,0.0,-0.010663961729685353,0.0,-0.663,0.0,0.01,0.0,0.0,0.0,5.740875,-7.47495,-0.382725,0.05463108,-0.05654796,0.095844
1779588160511592864,A_+,0.09663665512493935,2.3877325897758825,2.4813695041453783,-0.8262388678941157,0.0,-0.010663961729685353,0.0,-0.734,0.0,0.023,0.0,0.0,0.0,12.351149999999999,-7.470224999999999,-0.5481,0.03450384,-0.05654796,0.095844
1779588160511592864,A_+,0.09737391706244125,2.3877325897758825,2.4813695041453783,-0.8262388678941157,0.0,-0.010663961729685353,0.0,-0.734,0.0,0.023,0.0,0.0,0.0,12.351149999999999,-7.470224999999999,-0.5481,0.03450384,-0.05654796,0.095844
1779588160511592864,A_+,0.09805499687490737,2.3877325897758825,2.4813695041453783,-0.8262388678941157,0.0,-0.010663961729685353,0.0,-0.734,0.0,0.023,0.0,0.0,0.0,12.351149999999999,-7.470224999999999,-0.5481,0.03450384,-0.05654796,0.095844
1779588160526824235,A_+,0.09872693937495569,2.38855289452432,2.4813695041453783,-0.8262388678941157,0.0,-0.010663961729685353,0.0,0.833,0.0,-0.052000000000000005,0.0,0.0,0.0,-11.684924999999998,-7.451324999999999,-0.146475,0.03450384,-0.05175576,0.09009336
1779588160526824235,A_+,0.09945242212484118,2.38855289452432,2.4813695041453783,-0.8262388678941157,0.0,-0.010663961729685353,0.0,0.833,0.0,-0.052000000000000005,0.0,0.0,0.0,-11.684924999999998,-7.451324999999999,-0.146475,0.03450384,-0.05175576,0.09009336
1779588160526824235,A_+,0.10012885431228824,2.38855289452432,2.4813695041453783,-0.8262388678941157,0.0,-0.010663961729685353,0.0,0.833,0.0,-0.052000000000000005,0.0,0.0,0.0,-11.684924999999998,-7.451324999999999,-0.146475,0.03450384,-0.05175576,0.09009336
1779588160547087430,A_+,0.10079367931234628,2.39153740754523,2.4813695041453783,-0.8262388678941157,0.0,-0.010663961729685353,0.0,0.241,0.0,0.016,0.0,0.0,0.0,-8.367975,-7.43715,-0.401625,0.04121292,-0.052714199999999996,0.08817648
1779588160547087430,A_+,0.10152412562479185,2.39153740754523,2.4813695041453783,-0.8262388678941157,0.0,-0.010663961729685353,0.0,0.241,0.0,0.016,0.0,0.0,0.0,-8.367975,-7.43715,-0.401625,0.04121292,-0.052714199999999996,0.08817648
1779588160547087430,A_+,0.10220653543728986,2.39153740754523,2.4813695041453783,-0.8262388678941157,0.0,-0.010663961729685353,0.0,0.241,0.0,0.016,0.0,0.0,0.0,-8.367975,-7.43715,-0.401625,0.04121292,-0.052714199999999996,0.08817648
1779588160566582679,A_+,0.10288393349992475,2.389495372320397,2.4813695041453783,-0.8262388678941157,0.0,-0.010663961729685353,0.0,-0.61,0.0,-0.019,0.0,0.0,0.0,4.564349999999999,-7.470224999999999,-0.31185,0.04696356,-0.052714199999999996,0.0910518
1779588160566582679,A_+,0.10360819231232199,2.389495372320397,2.4813695041453783,-0.8262388678941157,0.0,-0.010663961729685353,0.0,-0.61,0.0,-0.019,0.0,0.0,0.0,4.564349999999999,-7.470224999999999,-0.31185,0.04696356,-0.052714199999999996,0.0910518
1779588160566582679,A_+,0.10427766099996916,2.389495372320397,2.4813695041453783,-0.8262388678941157,0.0,-0.010663961729685353,0.0,-0.61,0.0,-0.019,0.0,0.0,0.0,4.564349999999999,-7.470224999999999,-0.31185,0.04696356,-0.052714199999999996,0.0910518
1779588160611572980,A_+,0.10493949218744092,2.3883085484290407,2.4813695041453783,-0.8262388678941157,0.0,-0.010663961729685353,0.0,0.841,0.0,-0.001,0.0,0.0,0.0,-11.108474999999999,-7.456049999999999,-0.12285,0.05079731999999999,-0.05079731999999999,0.09680244
1779588160611572980,A_+,0.10572165493749708,2.3883085484290407,2.4813695041453783,-0.8262388678941157,0.0,-0.010663961729685353,0.0,0.841,0.0,-0.001,0.0,0.0,0.0,-11.108474999999999,-7.456049999999999,-0.12285,0.05079731999999999,-0.05079731999999999,0.09680244
1779588160611572980,A_+,0.10640297674990506,2.3883085484290407,2.4813695041453783,-0.8262388678941157,0.0,-0.010663961729685353,0.0,0.841,0.0,-0.001,0.0,0.0,0.0,-11.108474999999999,-7.456049999999999,-0.12285,0.05079731999999999,-0.05079731999999999,0.09680244
1779588160666565895,A_+,0.10706917168749897,2.3892161196400776,2.4813695041453783,-0.8262388678941157,0.0,-0.010663961729685353,0.0,-0.8220000000000001,0.0,0.002,0.0,0.0,0.059000000000000004,12.1716,-7.4844,-0.27405,0.04025448,-0.05654796,0.15622572
1779588160666565895,A_+,0.10780295381232463,2.3892161196400776,2.4813695041453783,-0.8262388678941157,0.0,-0.010663961729685353,0.0,-0.8220000000000001,0.0,0.002,0.0,0.0,0.059000000000000004,12.1716,-7.4844,-0.27405,0.04025448,-0.05654796,0.15622572
1779588160666565895,A_+,0.10848243774989896,2.3892161196400776,2.4813695041453783,-0.8262388678941157,0.0,-0.010663961729685353,0.0,-0.8220000000000001,0.0,0.002,0.0,0.0,0.059000000000000004,12.1716,-7.4844,-0.27405,0.04025448,-0.05654796,0.15622572
