deepaktalwardt/rage-cage-arm-hackstorm/ros2/ws/sysid/runs/sysid_20260524_015656/raw/joint3_phaseA_neg.csv
t_ns,phase,tau_cmd,q1,q2,q3,q4,q5,q6,qd1,qd2,qd3,qd4,qd5,qd6,tau1,tau2,tau3,tau4,tau5,tau6
1779587832093908786,A_-,-2.1000050764996558e-07,0.0,1.4730055288056545,-2.8991838737803004,-0.09169959889978208,-0.017296212887263806,0.0,0.0,0.0,0.0,0.0,0.0,0.0,-0.335475,-0.12285,0.070875,-0.00287532,-0.1006362,0.014376599999999998
1779587832093908786,A_-,-0.00220738087546124,0.0,1.4730055288056545,-2.8991838737803004,-0.09169959889978208,-0.017296212887263806,0.0,0.0,0.0,0.0,0.0,0.0,0.0,-0.335475,-0.12285,0.070875,-0.00287532,-0.1006362,0.014376599999999998
1779587832093908786,A_-,-0.004230765937563774,0.0,1.4730055288056545,-2.8991838737803004,-0.09169959889978208,-0.017296212887263806,0.0,0.0,0.0,0.0,0.0,0.0,0.0,-0.335475,-0.12285,0.070875,-0.00287532,-0.1006362,0.014376599999999998
1779587832128923654,A_-,-0.006214074750232612,0.0,1.4730055288056545,-2.8991838737803004,-0.09169959889978208,-0.017296212887263806,0.0,0.0,0.0,0.0,0.0,0.0,0.0,-0.33075,-0.16065,0.108675,0.0047922,-0.09871932,0.00575064
1779587832128923654,A_-,-0.00837199050010895,0.0,1.4730055288056545,-2.8991838737803004,-0.09169959889978208,-0.017296212887263806,0.0,0.0,0.0,0.0,0.0,0.0,0.0,-0.33075,-0.16065,0.108675,0.0047922,-0.09871932,0.00575064
1779587832128923654,A_-,-0.010412785687776704,0.0,1.4730055288056545,-2.8991838737803004,-0.09169959889978208,-0.017296212887263806,0.0,0.0,0.0,0.0,0.0,0.0,0.0,-0.33075,-0.16065,0.108675,0.0047922,-0.09871932,0.00575064
1779587832159076452,A_-,-0.012404667750161025,0.0,1.4730055288056545,-2.8991838737803004,-0.09169959889978208,-0.017296212887263806,0.0,0.0,0.005,0.0,0.0,0.0,0.0,-0.3213,-0.3969,0.080325,-0.0047922,-0.09776088000000001,0.0095844
1779587832159076452,A_-,-0.014571384562486855,0.0,1.4730055288056545,-2.8991838737803004,-0.09169959889978208,-0.017296212887263806,0.0,0.0,0.005,0.0,0.0,0.0,0.0,-0.3213,-0.3969,0.080325,-0.0047922,-0.09776088000000001,0.0095844
1779587832159076452,A_-,-0.016602406875335873,0.0,1.4730055288056545,-2.8991838737803004,-0.09169959889978208,-0.017296212887263806,0.0,0.0,0.005,0.0,0.0,0.0,0.0,-0.3213,-0.3969,0.080325,-0.0047922,-0.09776088000000001,0.0095844
1779587832193878412,A_-,-0.01859098331237874,0.0,1.4730055288056545,-2.8991838737803004,-0.09169959889978208,-0.017296212887263806,0.0,0.0,0.0,0.0,0.0,0.0,0.0,-0.34964999999999996,-0.184275,0.070875,-0.00095844,-0.10351152,0.00862596
1779587832193878412,A_-,-0.02076467137499094,0.0,1.4730055288056545,-2.8991838737803004,-0.09169959889978208,-0.017296212887263806,0.0,0.0,0.0,0.0,0.0,0.0,0.0,-0.34964999999999996,-0.184275,0.070875,-0.00095844,-0.10351152,0.00862596
1779587832193878412,A_-,-0.022806522562405007,0.0,1.4730055288056545,-2.8991838737803004,-0.09169959889978208,-0.017296212887263806,0.0,0.0,0.0,0.0,0.0,0.0,0.0,-0.34964999999999996,-0.184275,0.070875,-0.00095844,-0.10351152,0.00862596
1779587832228885173,A_-,-0.024792267187649486,0.0,1.4730055288056545,-2.8991838737803004,-0.09169959889978208,-0.017296212887263806,0.0,0.0,0.0,0.0,0.0,0.0,0.0,-0.34964999999999996,-0.23152499999999998,0.127575,-0.00670908,-0.09871932,0.01821036
1779587832228885173,A_-,-0.026940961875425273,0.0,1.4730055288056545,-2.8991838737803004,-0.09169959889978208,-0.017296212887263806,0.0,0.0,0.0,0.0,0.0,0.0,0.0,-0.34964999999999996,-0.23152499999999998,0.127575,-0.00670908,-0.09871932,0.01821036
1779587832228885173,A_-,-0.02894238899989432,0.0,1.4730055288056545,-2.8991838737803004,-0.09169959889978208,-0.017296212887263806,0.0,0.0,0.0,0.0,0.0,0.0,0.0,-0.34964999999999996,-0.23152499999999998,0.127575,-0.00670908,-0.09871932,0.01821036
1779587832258942842,A_-,-0.03110400018749715,0.0,1.4730055288056545,-2.8991838737803004,-0.09169959889978208,-0.017296212887263806,0.0,0.0,0.0,0.0,0.0,0.0,0.0,-0.3402,-0.2646,0.11339999999999999,-0.00287532,-0.09871932,0.01533504
1779587832258942842,A_-,-0.03329280693742476,0.0,1.4730055288056545,-2.8991838737803004,-0.09169959889978208,-0.017296212887263806,0.0,0.0,0.0,0.0,0.0,0.0,0.0,-0.3402,-0.2646,0.11339999999999999,-0.00287532,-0.09871932,0.01533504
1779587832258942842,A_-,-0.03535286025021378,0.0,1.4730055288056545,-2.8991838737803004,-0.09169959889978208,-0.017296212887263806,0.0,0.0,0.0,0.0,0.0,0.0,0.0,-0.3402,-0.2646,0.11339999999999999,-0.00287532,-0.09871932,0.01533504
1779587832293908596,A_-,-0.03736843406272783,0.0,1.4730055288056545,-2.8991838737803004,-0.09169959889978208,-0.017296212887263806,0.0,0.0,0.0,0.0,0.0,0.0,0.0,-0.3402,-0.23625,0.108675,-0.00287532,-0.09680244,0.01245972
1779587832293908596,A_-,-0.0395663778749622,0.0,1.4730055288056545,-2.8991838737803004,-0.09169959889978208,-0.017296212887263806,0.0,0.0,0.0,0.0,0.0,0.0,0.0,-0.3402,-0.23625,0.108675,-0.00287532,-0.09680244,0.01245972
1779587832293908596,A_-,-0.04160726306304241,0.0,1.4730055288056545,-2.8991838737803004,-0.09169959889978208,-0.017296212887263806,0.0,0.0,0.0,0.0,0.0,0.0,0.0,-0.3402,-0.23625,0.108675,-0.00287532,-0.09680244,0.01245972
1779587832328853130,A_-,-0.04360810818752725,0.0,1.4730055288056545,-2.8991838737803004,-0.09169959889978208,-0.017296212887263806,0.0,0.0,-0.036000000000000004,0.0,0.0,0.0,0.0,-0.3449249999999999,-0.10394999999999999,0.05669999999999999,-0.00287532,-0.10351152,0.01533504
1779587832328853130,A_-,-0.04579797075030001,0.0,1.4730055288056545,-2.8991838737803004,-0.09169959889978208,-0.017296212887263806,0.0,0.0,-0.036000000000000004,0.0,0.0,0.0,0.0,-0.3449249999999999,-0.10394999999999999,0.05669999999999999,-0.00287532,-0.10351152,0.01533504
1779587832328853130,A_-,-0.04783678612534459,0.0,1.4730055288056545,-2.8991838737803004,-0.09169959889978208,-0.017296212887263806,0.0,0.0,-0.036000000000000004,0.0,0.0,0.0,0.0,-0.3449249999999999,-0.10394999999999999,0.05669999999999999,-0.00287532,-0.10351152,0.01533504
1779587832358889818,A_-,-0.049825674562498534,0.0,1.4730055288056545,-2.8991838737803004,-0.09169959889978208,-0.017296212887263806,0.0,0.0,0.0,0.0,0.0,0.0,0.0,-0.3213,-0.099225,0.089775,0.00095844,-0.10446996,0.01245972
1779587832358889818,A_-,-0.05202151256276011,0.0,1.4730055288056545,-2.8991838737803004,-0.09169959889978208,-0.017296212887263806,0.0,0.0,0.0,0.0,0.0,0.0,0.0,-0.3213,-0.099225,0.089775,0.00095844,-0.10446996,0.01245972
1779587832358889818,A_-,-0.054048977062620907,0.0,1.4730055288056545,-2.8991838737803004,-0.09169959889978208,-0.017296212887263806,0.0,0.0,0.0,0.0,0.0,0.0,0.0,-0.3213,-0.099225,0.089775,0.00095844,-0.10446996,0.01245972
1779587832393891811,A_-,-0.05604150112503703,0.0,1.4730055288056545,-2.8991838737803004,-0.09169959889978208,-0.017296212887263806,0.0,0.0,0.0,0.0,0.0,0.0,0.0,-0.326025,-0.189,0.080325,-0.00575064,-0.1006362,0.0095844
1779587832393891811,A_-,-0.05820595612499346,0.0,1.4730055288056545,-2.8991838737803004,-0.09169959889978208,-0.017296212887263806,0.0,0.0,0.0,0.0,0.0,0.0,0.0,-0.326025,-0.189,0.080325,-0.00575064,-0.1006362,0.0095844
1779587832393891811,A_-,-0.06024397368787504,0.0,1.4730055288056545,-2.8991838737803004,-0.09169959889978208,-0.017296212887263806,0.0,0.0,0.0,0.0,0.0,0.0,0.0,-0.326025,-0.189,0.080325,-0.00575064,-0.1006362,0.0095844
1779587832428857564,A_-,-0.06224427881261363,0.0,1.4730055288056545,-2.8991838737803004,-0.09169959889978208,-0.017296212887263806,0.0,0.0,0.0,0.0,0.0,0.0,0.0,-0.3402,-0.1701,0.061425,0.00095844,-0.10638684,0.01341816
1779587832428857564,A_-,-0.06442628831246111,0.0,1.4730055288056545,-2.8991838737803004,-0.09169959889978208,-0.017296212887263806,0.0,0.0,0.0,0.0,0.0,0.0,0.0,-0.3402,-0.1701,0.061425,0.00095844,-0.10638684,0.01341816
1779587832428857564,A_-,-0.06644316375036396,0.0,1.4730055288056545,-2.8991838737803004,-0.09169959889978208,-0.017296212887263806,0.0,0.0,0.0,0.0,0.0,0.0,0.0,-0.3402,-0.1701,0.061425,0.00095844,-0.10638684,0.01341816
1779587832458820343,A_-,-0.06844424306268593,0.0,1.4730055288056545,-2.8991838737803004,-0.09169959889978208,-0.017296212887263806,0.0,0.0,0.0,0.0,0.0,0.0,0.0,-0.3402,-0.165375,0.10394999999999999,0.00095844,-0.09488556,0.01533504
1779587832458820343,A_-,-0.07063345762549034,0.0,1.4730055288056545,-2.8991838737803004,-0.09169959889978208,-0.017296212887263806,0.0,0.0,0.0,0.0,0.0,0.0,0.0,-0.3402,-0.165375,0.10394999999999999,0.00095844,-0.09488556,0.01533504
1779587832458820343,A_-,-0.07272500193744236,0.0,1.4730055288056545,-2.8991838737803004,-0.09169959889978208,-0.017296212887263806,0.0,0.0,0.0,0.0,0.0,0.0,0.0,-0.3402,-0.165375,0.10394999999999999,0.00095844,-0.09488556,0.01533504
1779587832493826627,A_-,-0.07474070156240487,0.0,1.4730055288056545,-2.8991838737803004,-0.09169959889978208,-0.017296212887263806,0.0,0.0,0.0,0.0,0.0,0.0,0.0,-0.326025,-0.1512,0.080325,0.00191688,-0.10638684,0.00095844
1779587832493826627,A_-,-0.07692884831249103,0.0,1.4730055288056545,-2.8991838737803004,-0.09169959889978208,-0.017296212887263806,0.0,0.0,0.0,0.0,0.0,0.0,0.0,-0.326025,-0.1512,0.080325,0.00191688,-0.10638684,0.00095844
1779587832493826627,A_-,-0.07894953956270001,0.0,1.4730055288056545,-2.8991838737803004,-0.09169959889978208,-0.017296212887263806,0.0,0.0,0.0,0.0,0.0,0.0,0.0,-0.326025,-0.1512,0.080325,0.00191688,-0.10638684,0.00095844
1779587832524645328,A_-,-0.08093994581258812,0.0,1.4730055288056545,-2.8991838737803004,-0.09169959889978208,-0.017296212887263806,0.0,0.0,0.0,0.0,0.0,0.0,0.0,-0.3449249999999999,-0.17482499999999998,0.08505,-0.00670908,-0.1006362,0.02300256
1779587832524645328,A_-,-0.08311312387513681,0.0,1.4730055288056545,-2.8991838737803004,-0.09169959889978208,-0.017296212887263806,0.0,0.0,0.0,0.0,0.0,0.0,0.0,-0.3449249999999999,-0.17482499999999998,0.08505,-0.00670908,-0.1006362,0.02300256
1779587832524645328,A_-,-0.08518784587522532,0.0,1.4730055288056545,-2.8991838737803004,-0.09169959889978208,-0.017296212887263806,0.0,0.0,0.0,0.0,0.0,0.0,0.0,-0.3449249999999999,-0.17482499999999998,0.08505,-0.00670908,-0.1006362,0.02300256
1779587832558805227,A_-,-0.08718208575032804,0.0,1.4730055288056545,-2.8991838737803004,-0.09169959889978208,-0.017296212887263806,0.0,0.0,0.0,0.0,0.0,0.0,0.0,-0.33075,-0.17955,0.089775,-0.01150128,-0.09967776,0.02587788
1779587832558805227,A_-,-0.08937230812512098,0.0,1.4730055288056545,-2.8991838737803004,-0.09169959889978208,-0.017296212887263806,0.0,0.0,0.0,0.0,0.0,0.0,0.0,-0.33075,-0.17955,0.089775,-0.01150128,-0.09967776,0.02587788
1779587832558805227,A_-,-0.09139809300017987,0.0,1.4730055288056545,-2.8991838737803004,-0.09169959889978208,-0.017296212887263806,0.0,0.0,0.0,0.0,0.0,0.0,0.0,-0.33075,-0.17955,0.089775,-0.01150128,-0.09967776,0.02587788
1779587832593790054,A_-,-0.09340247775026,0.0,1.4730055288056545,-2.8991838737803004,-0.09169959889978208,-0.017296212887263806,0.0,0.0,0.0,0.0,0.0,0.0,0.0,-0.335475,-0.1512,0.06615,-0.01725192,-0.08530115999999999,0.00670908
1779587832593790054,A_-,-0.09558544706260363,0.0,1.4730055288056545,-2.8991838737803004,-0.09169959889978208,-0.017296212887263806,0.0,0.0,0.0,0.0,0.0,0.0,0.0,-0.335475,-0.1512,0.06615,-0.01725192,-0.08530115999999999,0.00670908
1779587832593790054,A_-,-0.09764262056273765,0.0,1.4730055288056545,-2.8991838737803004,-0.09169959889978208,-0.017296212887263806,0.0,0.0,0.0,0.0,0.0,0.0,0.0,-0.335475,-0.1512,0.06615,-0.01725192,-0.08530115999999999,0.00670908
1779587832624250411,A_-,-0.09964831331262758,0.0,1.4730055288056545,-2.8991838737803004,-0.09169959889978208,-0.017296212887263806,0.0,0.0,0.0,0.0,0.0,0.0,0.0,-0.33075,-0.21262499999999998,0.11339999999999999,-0.00383376,-0.10255307999999999,0.01054284
1779587832624250411,A_-,-0.10182840881293487,0.0,1.4730055288056545,-2.8991838737803004,-0.09169959889978208,-0.017296212887263806,0.0,0.0,0.0,0.0,0.0,0.0,0.0,-0.33075,-0.21262499999999998,0.11339999999999999,-0.00383376,-0.10255307999999999,0.01054284
1779587832624250411,A_-,-0.10387369162504001,0.0,1.4730055288056545,-2.8991838737803004,-0.09169959889978208,-0.017296212887263806,0.0,0.0,0.0,0.0,0.0,0.0,0.0,-0.33075,-0.21262499999999998,0.11339999999999999,-0.00383376,-0.10255307999999999,0.01054284
1779587832658777475,A_-,-0.1058872376254385,0.0,1.4730055288056545,-2.8991838737803004,-0.09169959889978208,-0.017296212887263806,0.0,0.0,0.0,0.0,0.0,0.0,0.0,-0.335475,-0.165375,0.06615,0.0,-0.1006362,0.01533504
1779587832658777475,A_-,-0.10806839493784537,0.0,1.4730055288056545,-2.8991838737803004,-0.09169959889978208,-0.017296212887263806,0.0,0.0,0.0,0.0,0.0,0.0,0.0,-0.335475,-0.165375,0.06615,0.0,-0.1006362,0.01533504
1779587832658777475,A_-,-0.11018247299989525,0.0,1.4730055288056545,-2.8991838737803004,-0.09169959889978208,-0.017296212887263806,0.0,0.0,0.0,0.0,0.0,0.0,0.0,-0.335475,-0.165375,0.06615,0.0,-0.1006362,0.01533504
1779587832693768739,A_-,-0.11220161043775079,0.0,1.4730055288056545,-2.8991838737803004,-0.09169959889978208,-0.017296212887263806,0.0,0.0,0.0,0.0,0.0,0.0,0.0,-0.326025,-0.184275,0.0945,-0.00670908,-0.095844,0.014376599999999998
1779587832693768739,A_-,-0.11439317681265493,0.0,1.4730055288056545,-2.8991838737803004,-0.09169959889978208,-0.017296212887263806,0.0,0.0,0.0,0.0,0.0,0.0,0.0,-0.326025,-0.184275,0.0945,-0.00670908,-0.095844,0.014376599999999998
1779587832693768739,A_-,-0.11643242418790578,0.0,1.4730055288056545,-2.8991838737803004,-0.09169959889978208,-0.017296212887263806,0.0,0.0,0.0,0.0,0.0,0.0,0.0,-0.326025,-0.184275,0.0945,-0.00670908,-0.095844,0.014376599999999998
1779587832724513053,A_-,-0.11843296350048149,0.0,1.4730055288056545,-2.8991838737803004,-0.09169959889978208,-0.017296212887263806,0.0,0.0,0.0,0.0,0.0,0.0,0.0,-0.33075,-0.19372499999999998,0.137025,0.00575064,-0.09392712,0.01245972
1779587832724513053,A_-,-0.12060083212531936,0.0,1.4730055288056545,-2.8991838737803004,-0.09169959889978208,-0.017296212887263806,0.0,0.0,0.0,0.0,0.0,0.0,0.0,-0.33075,-0.19372499999999998,0.137025,0.00575064,-0.09392712,0.01245972
1779587832724513053,A_-,-0.12262751081289025,0.0,1.4730055288056545,-2.8991838737803004,-0.09169959889978208,-0.017296212887263806,0.0,0.0,0.0,0.0,0.0,0.0,0.0,-0.33075,-0.19372499999999998,0.137025,0.00575064,-0.09392712,0.01245972
1779587832758750200,A_-,-0.1246205446877866,0.0,1.4730055288056545,-2.8991838737803004,-0.09169959889978208,-0.017296212887263806,0.0,0.0,0.0,0.0,0.0,0.0,0.0,-0.3213,-0.189,0.11339999999999999,-0.00383376,-0.09680244,0.01725192
1779587832758750200,A_-,-0.12673698656249144,0.0,1.4730055288056545,-2.8991838737803004,-0.09169959889978208,-0.017296212887263806,0.0,0.0,0.0,0.0,0.0,0.0,0.0,-0.3213,-0.189,0.11339999999999999,-0.00383376,-0.09680244,0.01725192
1779587832758750200,A_-,-0.12874258931265103,0.0,1.4730055288056545,-2.8991838737803004,-0.09169959889978208,-0.017296212887263806,0.0,0.0,0.0,0.0,0.0,0.0,0.0,-0.3213,-0.189,0.11339999999999999,-0.00383376,-0.09680244,0.01725192
1779587832793746232,A_-,-0.13073582118749982,0.0,1.4730055288056545,-2.8991838737803004,-0.09169959889978208,-0.017296212887263806,0.0,0.0,0.0,0.0,0.0,0.0,0.0,-0.3402,-0.17482499999999998,0.061425,-0.00383376,-0.09871932,0.01150128
1779587832793746232,A_-,-0.13290922125042925,0.0,1.4730055288056545,-2.8991838737803004,-0.09169959889978208,-0.017296212887263806,0.0,0.0,0.0,0.0,0.0,0.0,0.0,-0.3402,-0.17482499999999998,0.061425,-0.00383376,-0.09871932,0.01150128
1779587832793746232,A_-,-0.13494161137555238,0.0,1.4730055288056545,-2.8991838737803004,-0.09169959889978208,-0.017296212887263806,0.0,0.0,0.0,0.0,0.0,0.0,0.0,-0.3402,-0.17482499999999998,0.061425,-0.00383376,-0.09871932,0.01150128
1779587832823755502,A_-,-0.13693399743738155,0.0,1.4730055288056545,-2.8991838737803004,-0.09169959889978208,-0.017296212887263806,0.0,0.0,0.0,0.0,0.0,0.0,0.0,-0.31185,-0.17955,0.099225,-0.00095844,-0.09680244,0.014376599999999998
1779587832823755502,A_-,-0.13907617668792227,0.0,1.4730055288056545,-2.8991838737803004,-0.09169959889978208,-0.017296212887263806,0.0,0.0,0.0,0.0,0.0,0.0,0.0,-0.31185,-0.17955,0.099225,-0.00095844,-0.09680244,0.014376599999999998
1779587832823755502,A_-,-0.14108547506270952,0.0,1.4730055288056545,-2.8991838737803004,-0.09169959889978208,-0.017296212887263806,0.0,0.0,0.0,0.0,0.0,0.0,0.0,-0.31185,-0.17955,0.099225,-0.00095844,-0.09680244,0.014376599999999998
1779587832853738307,A_-,-0.14307432131272435,0.0,1.4730055288056545,-2.8991838737803004,-0.09169959889978208,-0.017296212887263806,0.0,0.0,0.0,0.0,0.0,0.0,0.0,-0.3402,-0.1701,0.080325,-0.00383376,-0.09776088000000001,0.014376599999999998
1779587832853738307,A_-,-0.1453352349378747,0.0,1.4730055288056545,-2.8991838737803004,-0.09169959889978208,-0.017296212887263806,0.0,0.0,0.0,0.0,0.0,0.0,0.0,-0.3402,-0.1701,0.080325,-0.00383376,-0.09776088000000001,0.014376599999999998
1779587832853738307,A_-,-0.14737768593749934,0.0,1.4730055288056545,-2.8991838737803004,-0.09169959889978208,-0.017296212887263806,0.0,0.0,0.0,0.0,0.0,0.0,0.0,-0.3402,-0.1701,0.080325,-0.00383376,-0.09776088000000001,0.014376599999999998
1779587832863745450,A_-,-0.14938441668800806,0.0,1.4730055288056545,-2.8991838737803004,-0.09169959889978208,-0.017296212887263806,0.0,0.0,0.0,0.0,0.0,0.0,0.0,-0.3449249999999999,-0.1323,0.06615,-0.00383376,-0.09967776,0.0191688
1779587832863745450,A_-,-0.15151776468746903,0.0,1.4730055288056545,-2.8991838737803004,-0.09169959889978208,-0.017296212887263806,0.0,0.0,0.0,0.0,0.0,0.0,0.0,-0.3449249999999999,-0.1323,0.06615,-0.00383376,-0.09967776,0.0191688
1779587832863745450,A_-,-0.15354519937523037,0.0,1.4730055288056545,-2.8991838737803004,-0.09169959889978208,-0.017296212887263806,0.0,0.0,0.0,0.0,0.0,0.0,0.0,-0.3449249999999999,-0.1323,0.06615,-0.00383376,-0.09967776,0.0191688
1779587832888753414,A_-,-0.15555228993775927,0.0,1.4730055288056545,-2.8991838737803004,-0.09169959889978208,-0.017296212887263806,0.0,0.0,0.0,0.0,0.0,0.0,0.0,-0.35437499999999994,-0.189,0.06615,-0.00287532,-0.095844,0.00670908
1779587832888753414,A_-,-0.15777426731301603,0.0,1.4730055288056545,-2.8991838737803004,-0.09169959889978208,-0.017296212887263806,0.0,0.0,0.0,0.0,0.0,0.0,0.0,-0.35437499999999994,-0.189,0.06615,-0.00287532,-0.095844,0.00670908
1779587832888753414,A_-,-0.15982859118776105,0.0,1.4730055288056545,-2.8991838737803004,-0.09169959889978208,-0.017296212887263806,0.0,0.0,0.0,0.0,0.0,0.0,0.0,-0.35437499999999994,-0.189,0.06615,-0.00287532,-0.095844,0.00670908
1779587832934382438,A_-,-0.16182570468799895,0.0,1.4730055288056545,-2.8991838737803004,-0.09169959889978208,-0.017296212887263806,0.0,0.0,0.0,0.0,0.0,0.0,0.0,-0.31185,-0.127575,0.089775,0.00191688,-0.09392712,0.01341816
1779587832934382438,A_-,-0.16399874493754396,0.0,1.4730055288056545,-2.8991838737803004,-0.09169959889978208,-0.017296212887263806,0.0,0.0,0.0,0.0,0.0,0.0,0.0,-0.31185,-0.127575,0.089775,0.00191688,-0.09392712,0.01341816
1779587832934382438,A_-,-0.16604933118742338,0.0,1.4730055288056545,-2.8991838737803004,-0.09169959889978208,-0.017296212887263806,0.0,0.0,0.0,0.0,0.0,0.0,0.0,-0.31185,-0.127575,0.089775,0.00191688,-0.09392712,0.01341816
1779587832963716268,A_-,-0.16806589481279843,0.0,1.4730055288056545,-2.8991838737803004,-0.09169959889978208,-0.017296212887263806,0.0,0.0,0.0,0.0,0.0,0.0,0.0,-0.3213,-0.17955,0.05669999999999999,-0.00575064,-0.12555564,0.02012724
1779587832963716268,A_-,-0.17026380262541352,0.0,1.4730055288056545,-2.8991838737803004,-0.09169959889978208,-0.017296212887263806,0.0,0.0,0.0,0.0,0.0,0.0,0.0,-0.3213,-0.17955,0.05669999999999999,-0.00575064,-0.12555564,0.02012724
1779587832963716268,A_-,-0.17227707881284005,0.0,1.4730055288056545,-2.8991838737803004,-0.09169959889978208,-0.017296212887263806,0.0,0.0,0.0,0.0,0.0,0.0,0.0,-0.3213,-0.17955,0.05669999999999999,-0.00575064,-0.12555564,0.02012724
1779587833024213790,A_-,-0.17427769631285628,0.0,1.4730055288056545,-2.8991838737803004,-0.09169959889978208,-0.017296212887263806,0.0,0.0,0.0,0.0,0.0,0.0,0.0,-0.33075,-0.16065,0.08505,-0.00575064,-0.095844,0.01054284
1779587833024213790,A_-,-0.1766159364374289,0.0,1.4730055288056545,-2.8991838737803004,-0.09169959889978208,-0.017296212887263806,0.0,0.0,0.0,0.0,0.0,0.0,0.0,-0.33075,-0.16065,0.08505,-0.00575064,-0.095844,0.01054284
1779587833024213790,A_-,-0.1788263173125415,0.0,1.4730055288056545,-2.8991838737803004,-0.09169959889978208,-0.017296212887263806,0.0,0.0,0.0,0.0,0.0,0.0,0.0,-0.33075,-0.16065,0.08505,-0.00575064,-0.095844,0.01054284
1779587833058690309,A_-,-0.18089754787547463,0.0,1.4730055288056545,-2.8991838737803004,-0.09169959889978208,-0.017296212887263806,0.0,0.0,0.0,0.0,0.0,0.0,0.0,-0.335475,-0.1701,0.108675,-0.0047922,-0.10446996,0.01533504
1779587833058690309,A_-,-0.1834373023129956,0.0,1.4730055288056545,-2.8991838737803004,-0.09169959889978208,-0.017296212887263806,0.0,0.0,0.0,0.0,0.0,0.0,0.0,-0.335475,-0.1701,0.108675,-0.0047922,-0.10446996,0.01533504
1779587833058690309,A_-,-0.18566118168791945,0.0,1.4730055288056545,-2.8991838737803004,-0.09169959889978208,-0.017296212887263806,0.0,0.0,0.0,0.0,0.0,0.0,0.0,-0.335475,-0.1701,0.108675,-0.0047922,-0.10446996,0.01533504
1779587833094069719,A_-,-0.18770333306247267,0.0,1.4730055288056545,-2.8991838737803004,-0.09169959889978208,-0.017296212887263806,0.0,0.0,0.0,0.0,0.0,0.0,0.0,-0.3449249999999999,-0.1701,0.089775,0.0,-0.10159463999999999,0.0191688
1779587833094069719,A_-,-0.19003160831289279,0.0,1.4730055288056545,-2.8991838737803004,-0.09169959889978208,-0.017296212887263806,0.0,0.0,0.0,0.0,0.0,0.0,0.0,-0.3449249999999999,-0.1701,0.089775,0.0,-0.10159463999999999,0.0191688
1779587833094069719,A_-,-0.19214692837545044,0.0,1.4730055288056545,-2.8991838737803004,-0.09169959889978208,-0.017296212887263806,0.0,0.0,0.0,0.0,0.0,0.0,0.0,-0.3449249999999999,-0.1701,0.089775,0.0,-0.10159463999999999,0.0191688
1779587833133692502,A_-,-0.19452511875010714,0.0,1.4730055288056545,-2.8991838737803004,-0.09169959889978208,-0.017296212887263806,0.0,0.0,0.0,0.0,0.0,0.0,0.0,-0.335475,-0.16065,0.070875,0.0047922,-0.09680244,0.02108568
1779587833133692502,A_-,-0.1966881943124008,0.0,1.4730055288056545,-2.8991838737803004,-0.09169959889978208,-0.017296212887263806,0.0,0.0,0.0,0.0,0.0,0.0,0.0,-0.335475,-0.16065,0.070875,0.0047922,-0.09680244,0.02108568
1779587833133692502,A_-,-0.1987056099376332,0.0,1.4730055288056545,-2.8991838737803004,-0.09169959889978208,-0.017296212887263806,0.0,0.0,0.0,0.0,0.0,0.0,0.0,-0.335475,-0.16065,0.070875,0.0047922,-0.09680244,0.02108568
1779587833163671493,A_-,-0.20070094200036692,0.0,1.4730055288056545,-2.8991838737803004,-0.09169959889978208,-0.017296212887263806,0.0,0.0,0.0,0.0,0.0,0.0,0.0,-0.3213,-0.17482499999999998,0.0945,-0.00383376,-0.09871932,0.01725192
1779587833163671493,A_-,-0.2028369899999234,0.0,1.4730055288056545,-2.8991838737803004,-0.09169959889978208,-0.017296212887263806,0.0,0.0,0.0,0.0,0.0,0.0,0.0,-0.3213,-0.17482499999999998,0.0945,-0.00383376,-0.09871932,0.01725192
1779587833163671493,A_-,-0.20488001137550782,0.0,1.4730055288056545,-2.8991838737803004,-0.09169959889978208,-0.017296212887263806,0.0,0.0,0.0,0.0,0.0,0.0,0.0,-0.3213,-0.17482499999999998,0.0945,-0.00383376,-0.09871932,0.01725192
1779587833198668479,A_-,-0.206869835812995,0.0,1.4730055288056545,-2.8991838737803004,-0.09169959889978208,-0.017296212887263806,0.0,0.0,0.0,-0.002,0.0,0.0,0.0,-0.35437499999999994,-0.1701,-0.12285,-0.00383376,-0.09871932,0.01341816
1779587833198668479,A_-,-0.20905636893758128,0.0,1.4730055288056545,-2.8991838737803004,-0.09169959889978208,-0.017296212887263806,0.0,0.0,0.0,-0.002,0.0,0.0,0.0,-0.35437499999999994,-0.1701,-0.12285,-0.00383376,-0.09871932,0.01341816
1779587833198668479,A_-,-0.21108377381256105,0.0,1.4730055288056545,-2.8991838737803004,-0.09169959889978208,-0.017296212887263806,0.0,0.0,0.0,-0.002,0.0,0.0,0.0,-0.35437499999999994,-0.1701,-0.12285,-0.00383376,-0.09871932,0.01341816
1779587833229405641,A_-,-0.2130921663749632,0.0,1.4730055288056545,-2.8991838737803004,-0.09169959889978208,-0.017296212887263806,0.0,0.0,0.0,-0.018000000000000002,0.0,0.0,0.0,-0.335475,-0.19372499999999998,-0.10394999999999999,-0.0047922,-0.1006362,0.01341816
1779587833229405641,A_-,-0.2152749138751915,0.0,1.4730055288056545,-2.8991838737803004,-0.09169959889978208,-0.017296212887263806,0.0,0.0,0.0,-0.018000000000000002,0.0,0.0,0.0,-0.335475,-0.19372499999999998,-0.10394999999999999,-0.0047922,-0.1006362,0.01341816
1779587833229405641,A_-,-0.21731207381276363,0.0,1.4730055288056545,-2.8991838737803004,-0.09169959889978208,-0.017296212887263806,0.0,0.0,0.0,-0.018000000000000002,0.0,0.0,0.0,-0.335475,-0.19372499999999998,-0.10394999999999999,-0.0047922,-0.1006362,0.01341816
1779587833263650417,A_-,-0.21936343425022642,0.0,1.4730055288056545,-2.901156095835054,-0.09169959889978208,-0.017296212887263806,0.0,0.0,0.002,-0.002,0.0,0.0,0.0,-0.33075,-0.3969,-0.240975,0.00766752,-0.09776088000000001,0.01054284
1779587833263650417,A_-,-0.2216353089374934,0.0,1.4730055288056545,-2.901156095835054,-0.09169959889978208,-0.017296212887263806,0.0,0.0,0.002,-0.002,0.0,0.0,0.0,-0.33075,-0.3969,-0.240975,0.00766752,-0.09776088000000001,0.01054284
1779587833263650417,A_-,-0.2236872753753687,0.0,1.4730055288056545,-2.901156095835054,-0.09169959889978208,-0.017296212887263806,0.0,0.0,0.002,-0.002,0.0,0.0,0.0,-0.33075,-0.3969,-0.240975,0.00766752,-0.09776088000000001,0.01054284
1779587833298631668,A_-,-0.22568721487505172,0.0,1.4730055288056545,-2.901156095835054,-0.09169959889978208,-0.017296212887263806,0.0,0.0,-0.026000000000000002,0.0,0.0,0.0,0.0,-0.326025,-0.014174999999999998,-0.1701,0.00383376,-0.10830371999999999,0.0095844
1779587833298631668,A_-,-0.22783150612508507,0.0,1.4730055288056545,-2.901156095835054,-0.09169959889978208,-0.017296212887263806,0.0,0.0,-0.026000000000000002,0.0,0.0,0.0,0.0,-0.326025,-0.014174999999999998,-0.1701,0.00383376,-0.10830371999999999,0.0095844
1779587833298631668,A_-,-0.22985843100036618,0.0,1.4730055288056545,-2.901156095835054,-0.09169959889978208,-0.017296212887263806,0.0,0.0,-0.026000000000000002,0.0,0.0,0.0,0.0,-0.326025,-0.014174999999999998,-0.1701,0.00383376,-0.10830371999999999,0.0095844
1779587833329701900,A_-,-0.23185513068779073,0.0,1.4730055288056545,-2.901156095835054,-0.09169959889978208,-0.017296212887263806,0.0,0.0,-0.001,0.0,0.0,0.0,0.0,-0.33075,-0.108675,-0.165375,-0.00862596,-0.10159463999999999,0.01725192
1779587833329701900,A_-,-0.23400387956257873,0.0,1.4730055288056545,-2.901156095835054,-0.09169959889978208,-0.017296212887263806,0.0,0.0,-0.001,0.0,0.0,0.0,0.0,-0.33075,-0.108675,-0.165375,-0.00862596,-0.10159463999999999,0.01725192
1779587833329701900,A_-,-0.2360216613749344,0.0,1.4730055288056545,-2.901156095835054,-0.09169959889978208,-0.017296212887263806,0.0,0.0,-0.001,0.0,0.0,0.0,0.0,-0.33075,-0.108675,-0.165375,-0.00862596,-0.10159463999999999,0.01725192
1779587833363615274,A_-,-0.2380254045001493,0.0,1.4730055288056545,-2.901156095835054,-0.09169959889978208,-0.017296212887263806,0.0,0.0,0.0,0.0,0.0,0.0,0.0,-0.3591,-0.127575,-0.189,0.0,-0.095844,0.014376599999999998
1779587833363615274,A_-,-0.2402266901249277,0.0,1.4730055288056545,-2.901156095835054,-0.09169959889978208,-0.017296212887263806,0.0,0.0,0.0,0.0,0.0,0.0,0.0,-0.3591,-0.127575,-0.189,0.0,-0.095844,0.014376599999999998
1779587833363615274,A_-,-0.2422686915003851,0.0,1.4730055288056545,-2.901156095835054,-0.09169959889978208,-0.017296212887263806,0.0,0.0,0.0,0.0,0.0,0.0,0.0,-0.3591,-0.127575,-0.189,0.0,-0.095844,0.014376599999999998
1779587833398611545,A_-,-0.24427771406294596,0.0,1.4730055288056545,-2.901156095835054,-0.09169959889978208,-0.017296212887263806,0.0,0.0,0.0,0.0,0.0,0.0,0.0,-0.3449249999999999,-0.1323,-0.155925,-0.00287532,-0.09967776,0.0047922
1779587833398611545,A_-,-0.24644564906293454,0.0,1.4730055288056545,-2.901156095835054,-0.09169959889978208,-0.017296212887263806,0.0,0.0,0.0,0.0,0.0,0.0,0.0,-0.3449249999999999,-0.1323,-0.155925,-0.00287532,-0.09967776,0.0047922
1779587833398611545,A_-,-0.24846008925032947,0.0,1.4730055288056545,-2.901156095835054,-0.09169959889978208,-0.017296212887263806,0.0,0.0,0.0,0.0,0.0,0.0,0.0,-0.3449249999999999,-0.1323,-0.155925,-0.00287532,-0.09967776,0.0047922
1779587833428806543,A_-,-0.25047436125055356,0.0,1.4730055288056545,-2.901156095835054,-0.09169959889978208,-0.017296212887263806,0.0,0.0,0.0,0.0,0.0,0.0,0.0,-0.326025,-0.17955,-0.17482499999999998,-0.00575064,-0.09967776,0.01150128
1779587833428806543,A_-,-0.25264463606276877,0.0,1.4730055288056545,-2.901156095835054,-0.09169959889978208,-0.017296212887263806,0.0,0.0,0.0,0.0,0.0,0.0,0.0,-0.326025,-0.17955,-0.17482499999999998,-0.00575064,-0.09967776,0.01150128
1779587833428806543,A_-,-0.25468319962533315,0.0,1.4730055288056545,-2.901156095835054,-0.09169959889978208,-0.017296212887263806,0.0,0.0,0.0,0.0,0.0,0.0,0.0,-0.326025,-0.17955,-0.17482499999999998,-0.00575064,-0.09967776,0.01150128
1779587833463599920,A_-,-0.2567376258755303,0.0,1.4730055288056545,-2.901156095835054,-0.09169959889978208,-0.017296212887263806,0.0,0.0,0.0,0.0,0.0,0.0,0.0,-0.3402,-0.19845,-0.17482499999999998,-0.00095844,-0.10159463999999999,0.01341816
1779587833463599920,A_-,-0.2588326200002484,0.0,1.4730055288056545,-2.901156095835054,-0.09169959889978208,-0.017296212887263806,0.0,0.0,0.0,0.0,0.0,0.0,0.0,-0.3402,-0.19845,-0.17482499999999998,-0.00095844,-0.10159463999999999,0.01341816
1779587833463599920,A_-,-0.2608189888126162,0.0,1.4730055288056545,-2.901156095835054,-0.09169959889978208,-0.017296212887263806,0.0,0.0,0.0,0.0,0.0,0.0,0.0,-0.3402,-0.19845,-0.17482499999999998,-0.00095844,-0.10159463999999999,0.01341816
1779587833494695425,A_-,-0.2627752586254246,0.0,1.4730055288056545,-2.901156095835054,-0.09169959889978208,-0.017296212887263806,0.0,0.0,0.0,0.0,0.0,0.0,0.0,-0.3402,-0.165375,-0.1701,-0.00191688,-0.09680244,0.01533504
1779587833494695425,A_-,-0.26483994975001224,0.0,1.4730055288056545,-2.901156095835054,-0.09169959889978208,-0.017296212887263806,0.0,0.0,0.0,0.0,0.0,0.0,0.0,-0.3402,-0.165375,-0.1701,-0.00191688,-0.09680244,0.01533504
1779587833494695425,A_-,-0.2668259105626021,0.0,1.4730055288056545,-2.901156095835054,-0.09169959889978208,-0.017296212887263806,0.0,0.0,0.0,0.0,0.0,0.0,0.0,-0.3402,-0.165375,-0.1701,-0.00191688,-0.09680244,0.01533504
1779587833528598785,A_-,-0.2687879638128834,0.0,1.4730055288056545,-2.901156095835054,-0.09169959889978208,-0.017296212887263806,0.0,0.0,0.0,0.0,0.0,0.0,0.0,-0.33075,-0.1512,-0.1512,-0.0047922,-0.09871932,0.00670908
1779587833528598785,A_-,-0.270845893500109,0.0,1.4730055288056545,-2.901156095835054,-0.09169959889978208,-0.017296212887263806,0.0,0.0,0.0,0.0,0.0,0.0,0.0,-0.33075,-0.1512,-0.1512,-0.0047922,-0.09871932,0.00670908
1779587833528598785,A_-,-0.2728279908753848,0.0,1.4730055288056545,-2.901156095835054,-0.09169959889978208,-0.017296212887263806,0.0,0.0,0.0,0.0,0.0,0.0,0.0,-0.33075,-0.1512,-0.1512,-0.0047922,-0.09871932,0.00670908
1779587833558768510,A_-,-0.2747883881254438,0.0,1.4730055288056545,-2.901156095835054,-0.09169959889978208,-0.017296212887263806,0.0,0.0,0.0,0.0,0.0,0.0,0.0,-0.3402,-0.16065,-0.21262499999999998,0.0047922,-0.10542839999999999,0.02012724
1779587833558768510,A_-,-0.27686010468801214,0.0,1.4730055288056545,-2.901156095835054,-0.09169959889978208,-0.017296212887263806,0.0,0.0,0.0,0.0,0.0,0.0,0.0,-0.3402,-0.16065,-0.21262499999999998,0.0047922,-0.10542839999999999,0.02012724
1779587833558768510,A_-,-0.2788489331251185,0.0,1.4730055288056545,-2.901156095835054,-0.09169959889978208,-0.017296212887263806,0.0,0.0,0.0,0.0,0.0,0.0,0.0,-0.3402,-0.16065,-0.21262499999999998,0.0047922,-0.10542839999999999,0.02012724
1779587833593571662,A_-,-0.2808123961879119,0.0,1.4730055288056545,-2.901156095835054,-0.09169959889978208,-0.017296212887263806,0.0,0.0,0.0,0.0,0.0,0.0,0.0,-0.34964999999999996,-0.17955,-0.155925,0.00191688,-0.09680244,0.03258696
1779587833593571662,A_-,-0.282871393875439,0.0,1.4730055288056545,-2.901156095835054,-0.09169959889978208,-0.017296212887263806,0.0,0.0,0.0,0.0,0.0,0.0,0.0,-0.34964999999999996,-0.17955,-0.155925,0.00191688,-0.09680244,0.03258696
1779587833593571662,A_-,-0.28483944656295535,0.0,1.4730055288056545,-2.901156095835054,-0.09169959889978208,-0.017296212887263806,0.0,0.0,0.0,0.0,0.0,0.0,0.0,-0.34964999999999996,-0.17955,-0.155925,0.00191688,-0.09680244,0.03258696
1779587833623699426,A_-,-0.28679347256252186,0.0,1.4730055288056545,-2.901156095835054,-0.09169959889978208,-0.017296212887263806,0.0,0.0,0.0,0.0,0.0,0.0,0.0,-0.335475,-0.1701,-0.146475,0.00287532,-0.10351152,0.0191688
1779587833623699426,A_-,-0.2888577736878233,0.0,1.4730055288056545,-2.901156095835054,-0.09169959889978208,-0.017296212887263806,0.0,0.0,0.0,0.0,0.0,0.0,0.0,-0.335475,-0.1701,-0.146475,0.00287532,-0.10351152,0.0191688
1779587833623699426,A_-,-0.2908600590003516,0.0,1.4730055288056545,-2.901156095835054,-0.09169959889978208,-0.017296212887263806,0.0,0.0,0.0,0.0,0.0,0.0,0.0,-0.335475,-0.1701,-0.146475,0.00287532,-0.10351152,0.0191688
1779587833654800891,A_-,-0.29283800456278186,0.0,1.4730055288056545,-2.901156095835054,-0.09169959889978208,-0.017296212887263806,0.0,0.0,0.0,0.0,0.0,0.0,0.0,-0.335475,-0.165375,-0.16065,-0.00191688,-0.09967776,0.02204412
1779587833654800891,A_-,-0.29492201381253835,0.0,1.4730055288056545,-2.901156095835054,-0.09169959889978208,-0.017296212887263806,0.0,0.0,0.0,0.0,0.0,0.0,0.0,-0.335475,-0.165375,-0.16065,-0.00191688,-0.09967776,0.02204412
1779587833654800891,A_-,-0.2969147000628709,0.0,1.4730055288056545,-2.901156095835054,-0.09169959889978208,-0.017296212887263806,0.0,0.0,0.0,0.0,0.0,0.0,0.0,-0.335475,-0.165375,-0.16065,-0.00191688,-0.09967776,0.02204412
1779587833688846588,A_-,-0.2988826147504824,0.0,1.4730055288056545,-2.901156095835054,-0.09169959889978208,-0.017296212887263806,0.0,0.0,0.0,0.0,0.0,0.0,0.0,-0.3449249999999999,-0.155925,-0.16065,0.00095844,-0.09392712,0.01725192
1779587833688846588,A_-,-0.3009401184374383,0.0,1.4730055288056545,-2.901156095835054,-0.09169959889978208,-0.017296212887263806,0.0,0.0,0.0,0.0,0.0,0.0,0.0,-0.3449249999999999,-0.155925,-0.16065,0.00095844,-0.09392712,0.01725192
1779587833688846588,A_-,-0.30292058400050337,0.0,1.4730055288056545,-2.901156095835054,-0.09169959889978208,-0.017296212887263806,0.0,0.0,0.0,0.0,0.0,0.0,0.0,-0.3449249999999999,-0.155925,-0.16065,0.00095844,-0.09392712,0.01725192
1779587833719568252,A_-,-0.3049041750005017,0.0,1.4730055288056545,-2.901156095835054,-0.09169959889978208,-0.017296212887263806,0.0,0.0,0.0,0.0,0.0,0.0,0.0,-0.335475,-0.1701,-0.1701,-0.00670908,-0.09488556,0.0095844
1779587833719568252,A_-,-0.30698864025021066,0.0,1.4730055288056545,-2.901156095835054,-0.09169959889978208,-0.017296212887263806,0.0,0.0,0.0,0.0,0.0,0.0,0.0,-0.335475,-0.1701,-0.1701,-0.00670908,-0.09488556,0.0095844
1779587833719568252,A_-,-0.3089785186878089,0.0,1.4730055288056545,-2.901156095835054,-0.09169959889978208,-0.017296212887263806,0.0,0.0,0.0,0.0,0.0,0.0,0.0,-0.335475,-0.1701,-0.1701,-0.00670908,-0.09488556,0.0095844
1779587833754107236,A_-,-0.31094773518771035,0.0,1.4730055288056545,-2.901156095835054,-0.09169959889978208,-0.017296212887263806,0.0,0.0,0.0,0.0,0.0,0.0,0.0,-0.3402,-0.16065,-0.14175,-0.00383376,-0.10255307999999999,0.02108568
1779587833754107236,A_-,-0.31300709887545963,0.0,1.4730055288056545,-2.901156095835054,-0.09169959889978208,-0.017296212887263806,0.0,0.0,0.0,0.0,0.0,0.0,0.0,-0.3402,-0.16065,-0.14175,-0.00383376,-0.10255307999999999,0.02108568
1779587833754107236,A_-,-0.3149969713124392,0.0,1.4730055288056545,-2.901156095835054,-0.09169959889978208,-0.017296212887263806,0.0,0.0,0.0,0.0,0.0,0.0,0.0,-0.3402,-0.16065,-0.14175,-0.00383376,-0.10255307999999999,0.02108568
1779587833774339675,A_-,-0.31695593475024,0.0,1.4730055288056545,-2.901156095835054,-0.09169959889978208,-0.017296212887263806,0.0,0.0,0.0,0.0,0.0,0.0,0.0,-0.33075,-0.1701,-0.165375,0.00575064,-0.09871932,0.01054284
1779587833774339675,A_-,-0.31901153681269534,0.0,1.4730055288056545,-2.901156095835054,-0.09169959889978208,-0.017296212887263806,0.0,0.0,0.0,0.0,0.0,0.0,0.0,-0.33075,-0.1701,-0.165375,0.00575064,-0.09871932,0.01054284
1779587833774339675,A_-,-0.32098519893747834,0.0,1.4730055288056545,-2.901156095835054,-0.09169959889978208,-0.017296212887263806,0.0,0.0,0.0,0.0,0.0,0.0,0.0,-0.33075,-0.1701,-0.165375,0.00575064,-0.09871932,0.01054284
1779587833818527460,A_-,-0.32296023487515413,0.0,1.4730055288056545,-2.901156095835054,-0.09169959889978208,-0.017296212887263806,0.0,0.0,0.0,0.0,0.0,0.0,0.0,-0.335475,-0.19372499999999998,-0.16065,-0.00287532,-0.1006362,0.02491944
1779587833818527460,A_-,-0.32501389912522427,0.0,1.4730055288056545,-2.901156095835054,-0.09169959889978208,-0.017296212887263806,0.0,0.0,0.0,0.0,0.0,0.0,0.0,-0.335475,-0.19372499999999998,-0.16065,-0.00287532,-0.1006362,0.02491944
1779587833818527460,A_-,-0.32698540125034015,0.0,1.4730055288056545,-2.901156095835054,-0.09169959889978208,-0.017296212887263806,0.0,0.0,0.0,0.0,0.0,0.0,0.0,-0.335475,-0.19372499999999998,-0.16065,-0.00287532,-0.1006362,0.02491944
1779587833848513126,A_-,-0.32894608668766523,0.0,1.4730055288056545,-2.901156095835054,-0.09169959889978208,-0.017296212887263806,0.0,0.0,0.0,0.0,0.0,0.0,0.0,-0.335475,-0.1701,-0.17482499999999998,0.00670908,-0.1006362,0.01054284
1779587833848513126,A_-,-0.33102188868792837,0.0,1.4730055288056545,-2.901156095835054,-0.09169959889978208,-0.017296212887263806,0.0,0.0,0.0,0.0,0.0,0.0,0.0,-0.335475,-0.1701,-0.17482499999999998,0.00670908,-0.1006362,0.01054284
1779587833848513126,A_-,-0.3330086114999631,0.0,1.4730055288056545,-2.901156095835054,-0.09169959889978208,-0.017296212887263806,0.0,0.0,0.0,0.0,0.0,0.0,0.0,-0.335475,-0.1701,-0.17482499999999998,0.00670908,-0.1006362,0.01054284
1779587833879689693,A_-,-0.3349765561879394,0.0,1.4730055288056545,-2.901156095835054,-0.09169959889978208,-0.017296212887263806,0.0,0.0,0.0,0.0,0.0,0.0,0.0,-0.335475,-0.17955,-0.146475,-0.0191688,-0.095844,0.01629348
1779587833879689693,A_-,-0.33703187624996644,0.0,1.4730055288056545,-2.901156095835054,-0.09169959889978208,-0.017296212887263806,0.0,0.0,0.0,0.0,0.0,0.0,0.0,-0.335475,-0.17955,-0.146475,-0.0191688,-0.095844,0.01629348
1779587833879689693,A_-,-0.33900268256252275,0.0,1.4730055288056545,-2.901156095835054,-0.09169959889978208,-0.017296212887263806,0.0,0.0,0.0,0.0,0.0,0.0,0.0,-0.335475,-0.17955,-0.146475,-0.0191688,-0.095844,0.01629348
1779587833913498163,A_-,-0.34095997818781143,0.0,1.4730055288056545,-2.901156095835054,-0.09169959889978208,-0.017296212887263806,0.0,0.0,0.0,0.0,0.0,0.0,0.0,-0.307125,-0.1701,-0.146475,0.00191688,-0.10351152,0.01341816
1779587833913498163,A_-,-0.3430627715629271,0.0,1.4730055288056545,-2.901156095835054,-0.09169959889978208,-0.017296212887263806,0.0,0.0,0.0,0.0,0.0,0.0,0.0,-0.307125,-0.1701,-0.146475,0.00191688,-0.10351152,0.01341816
1779587833913498163,A_-,-0.34504375893766337,0.0,1.4730055288056545,-2.901156095835054,-0.09169959889978208,-0.017296212887263806,0.0,0.0,0.0,0.0,0.0,0.0,0.0,-0.307125,-0.1701,-0.146475,0.00191688,-0.10351152,0.01341816
1779587833944562911,A_-,-0.3470067660005043,0.0,1.4730055288056545,-2.901156095835054,-0.09169959889978208,-0.017296212887263806,0.0,0.0,0.0,0.0,0.0,0.0,0.0,-0.34964999999999996,-0.17955,-0.165375,-0.00191688,-0.09776088000000001,0.014376599999999998
1779587833944562911,A_-,-0.349049727375359,0.0,1.4730055288056545,-2.901156095835054,-0.09169959889978208,-0.017296212887263806,0.0,0.0,0.0,0.0,0.0,0.0,0.0,-0.34964999999999996,-0.17955,-0.165375,-0.00191688,-0.09776088000000001,0.014376599999999998
1779587833944562911,A_-,-0.35102361131293947,0.0,1.4730055288056545,-2.901156095835054,-0.09169959889978208,-0.017296212887263806,0.0,0.0,0.0,0.0,0.0,0.0,0.0,-0.34964999999999996,-0.17955,-0.165375,-0.00191688,-0.09776088000000001,0.014376599999999998
1779587833978507995,A_-,-0.3529882323750826,0.0,1.4730055288056545,-2.901156095835054,-0.09169959889978208,-0.017296212887263806,0.0,0.0,0.0,0.0,0.0,0.0,0.0,-0.326025,-0.16065,-0.127575,-0.00095844,-0.1006362,0.01725192
1779587833978507995,A_-,-0.3550649521876039,0.0,1.4730055288056545,-2.901156095835054,-0.09169959889978208,-0.017296212887263806,0.0,0.0,0.0,0.0,0.0,0.0,0.0,-0.326025,-0.16065,-0.127575,-0.00095844,-0.1006362,0.01725192
1779587833978507995,A_-,-0.35705562862494844,0.0,1.4730055288056545,-2.901156095835054,-0.09169959889978208,-0.017296212887263806,0.0,0.0,0.0,0.0,0.0,0.0,0.0,-0.326025,-0.16065,-0.127575,-0.00095844,-0.1006362,0.01725192
1779587834009207248,A_-,-0.35902288350030176,0.0,1.4730055288056545,-2.901156095835054,-0.09169959889978208,-0.017296212887263806,0.0,0.0,0.0,0.0,0.0,0.0,0.0,-0.3213,-0.19845,-0.165375,0.0,-0.10351152,0.01533504
1779587834009207248,A_-,-0.3610804295626622,0.0,1.4730055288056545,-2.901156095835054,-0.09169959889978208,-0.017296212887263806,0.0,0.0,0.0,0.0,0.0,0.0,0.0,-0.3213,-0.19845,-0.165375,0.0,-0.10351152,0.01533504
1779587834009207248,A_-,-0.3631691846251215,0.0,1.4730055288056545,-2.901156095835054,-0.09169959889978208,-0.017296212887263806,0.0,0.0,0.0,0.0,0.0,0.0,0.0,-0.3213,-0.19845,-0.165375,0.0,-0.10351152,0.01533504
1779587834038470983,A_-,-0.36513099206285915,0.0,1.4730055288056545,-2.901156095835054,-0.09169959889978208,-0.017296212887263806,0.0,0.0,0.0,0.0,0.0,0.0,0.0,-0.3449249999999999,-0.19372499999999998,-0.1512,0.00383376,-0.09680244,0.01821036
1779587834038470983,A_-,-0.36719837718760573,0.0,1.4730055288056545,-2.901156095835054,-0.09169959889978208,-0.017296212887263806,0.0,0.0,0.0,0.0,0.0,0.0,0.0,-0.3449249999999999,-0.19372499999999998,-0.1512,0.00383376,-0.09680244,0.01821036
1779587834038470983,A_-,-0.36919726706264555,0.0,1.4730055288056545,-2.901156095835054,-0.09169959889978208,-0.017296212887263806,0.0,0.0,0.0,0.0,0.0,0.0,0.0,-0.3449249999999999,-0.19372499999999998,-0.1512,0.00383376,-0.09680244,0.01821036
1779587834074257135,A_-,-0.3711691113751385,0.0,1.4730055288056545,-2.901156095835054,-0.09169959889978208,-0.017296212887263806,0.0,0.0,0.0,0.0,0.0,0.0,0.0,-0.335475,-0.16065,-0.155925,-0.00191688,-0.09488556,0.01533504
1779587834074257135,A_-,-0.3732347746879441,0.0,1.4730055288056545,-2.901156095835054,-0.09169959889978208,-0.017296212887263806,0.0,0.0,0.0,0.0,0.0,0.0,0.0,-0.335475,-0.16065,-0.155925,-0.00191688,-0.09488556,0.01533504
1779587834074257135,A_-,-0.3752170820630454,0.0,1.4730055288056545,-2.901156095835054,-0.09169959889978208,-0.017296212887263806,0.0,0.0,0.0,0.0,0.0,0.0,0.0,-0.335475,-0.16065,-0.155925,-0.00191688,-0.09488556,0.01533504
1779587834104601860,A_-,-0.37717019643787353,0.0,1.4730055288056545,-2.901156095835054,-0.09169959889978208,-0.017296212887263806,0.0,0.0,0.0,0.0,0.0,0.0,0.0,-0.3402,-0.184275,-0.137025,0.00383376,-0.10159463999999999,0.00862596
1779587834104601860,A_-,-0.3792485124374707,0.0,1.4730055288056545,-2.901156095835054,-0.09169959889978208,-0.017296212887263806,0.0,0.0,0.0,0.0,0.0,0.0,0.0,-0.3402,-0.184275,-0.137025,0.00383376,-0.10159463999999999,0.00862596
1779587834104601860,A_-,-0.381256299375309,0.0,1.4730055288056545,-2.901156095835054,-0.09169959889978208,-0.017296212887263806,0.0,0.0,0.0,0.0,0.0,0.0,0.0,-0.3402,-0.184275,-0.137025,0.00383376,-0.10159463999999999,0.00862596
1779587834133451461,A_-,-0.3832222464377537,0.0,1.4730055288056545,-2.901156095835054,-0.09169959889978208,-0.017296212887263806,0.0,0.0,0.0,0.0,0.0,0.0,0.0,-0.335475,-0.165375,-0.1323,0.0,-0.10446996,0.01341816
1779587834133451461,A_-,-0.38527915668760215,0.0,1.4730055288056545,-2.901156095835054,-0.09169959889978208,-0.017296212887263806,0.0,0.0,0.0,0.0,0.0,0.0,0.0,-0.335475,-0.165375,-0.1323,0.0,-0.10446996,0.01341816
1779587834133451461,A_-,-0.3872542048127343,0.0,1.4730055288056545,-2.901156095835054,-0.09169959889978208,-0.017296212887263806,0.0,0.0,0.0,0.0,0.0,0.0,0.0,-0.335475,-0.165375,-0.1323,0.0,-0.10446996,0.01341816
1779587834159600734,A_-,-0.38920617918802236,0.0,1.4730055288056545,-2.901156095835054,-0.09169959889978208,-0.017296212887263806,0.0,0.0,0.0,0.0,0.0,0.0,0.0,-0.3213,-0.165375,-0.16065,0.00095844,-0.10734528,0.014376599999999998
1779587834159600734,A_-,-0.3912340462504744,0.0,1.4730055288056545,-2.901156095835054,-0.09169959889978208,-0.017296212887263806,0.0,0.0,0.0,0.0,0.0,0.0,0.0,-0.3213,-0.165375,-0.16065,0.00095844,-0.10734528,0.014376599999999998
1779587834159600734,A_-,-0.3932129340000756,0.0,1.4730055288056545,-2.901156095835054,-0.09169959889978208,-0.017296212887263806,0.0,0.0,0.0,0.0,0.0,0.0,0.0,-0.3213,-0.165375,-0.16065,0.00095844,-0.10734528,0.014376599999999998
1779587834179566144,A_-,-0.3951747594376229,0.0,1.4730055288056545,-2.901156095835054,-0.09169959889978208,-0.017296212887263806,0.0,0.0,0.0,0.0,0.0,0.0,0.0,-0.335475,-0.16065,-0.155925,-0.00095844,-0.09776088000000001,0.01054284
1779587834179566144,A_-,-0.39724017675030154,0.0,1.4730055288056545,-2.901156095835054,-0.09169959889978208,-0.017296212887263806,0.0,0.0,0.0,0.0,0.0,0.0,0.0,-0.335475,-0.16065,-0.155925,-0.00095844,-0.09776088000000001,0.01054284
1779587834179566144,A_-,-0.39920522981265094,0.0,1.4730055288056545,-2.901156095835054,-0.09169959889978208,-0.017296212887263806,0.0,0.0,0.0,0.0,0.0,0.0,0.0,-0.335475,-0.16065,-0.155925,-0.00095844,-0.09776088000000001,0.01054284
1779587834198445796,A_-,-0.40116005400022914,0.0,1.4730055288056545,-2.901156095835054,-0.09169959889978208,-0.017296212887263806,0.0,0.0,0.0,0.0,0.0,0.0,0.0,-0.3402,-0.155925,-0.137025,-0.00862596,-0.10638684,0.01054284
1779587834198445796,A_-,-0.40319798793780137,0.0,1.4730055288056545,-2.901156095835054,-0.09169959889978208,-0.017296212887263806,0.0,0.0,0.0,0.0,0.0,0.0,0.0,-0.3402,-0.155925,-0.137025,-0.00862596,-0.10638684,0.01054284
1779587834198445796,A_-,-0.40517796168751374,0.0,1.4730055288056545,-2.901156095835054,-0.09169959889978208,-0.017296212887263806,0.0,0.0,0.0,0.0,0.0,0.0,0.0,-0.3402,-0.155925,-0.137025,-0.00862596,-0.10638684,0.01054284
1779587834208433866,A_-,-0.4071644626874331,0.0,1.4730055288056545,-2.901156095835054,-0.09169959889978208,-0.017296212887263806,0.0,0.0,0.0,0.0,0.0,0.0,0.0,-0.335475,-0.165375,-0.127575,-0.00766752,-0.09392712,0.014376599999999998
1779587834208433866,A_-,-0.40922685618761534,0.0,1.4730055288056545,-2.901156095835054,-0.09169959889978208,-0.017296212887263806,0.0,0.0,0.0,0.0,0.0,0.0,0.0,-0.335475,-0.165375,-0.127575,-0.00766752,-0.09392712,0.014376599999999998
1779587834208433866,A_-,-0.41119117143784933,0.0,1.4730055288056545,-2.901156095835054,-0.09169959889978208,-0.017296212887263806,0.0,0.0,0.0,0.0,0.0,0.0,0.0,-0.335475,-0.165375,-0.127575,-0.00766752,-0.09392712,0.014376599999999998
1779587834234020471,A_-,-0.41314532362503087,0.0,1.4730055288056545,-2.901156095835054,-0.09169959889978208,-0.017296212887263806,0.0,0.0,0.0,0.0,0.0,0.0,0.0,-0.34964999999999996,-0.155925,-0.1512,0.0,-0.10351152,0.01054284
1779587834234020471,A_-,-0.415199522062494,0.0,1.4730055288056545,-2.901156095835054,-0.09169959889978208,-0.017296212887263806,0.0,0.0,0.0,0.0,0.0,0.0,0.0,-0.34964999999999996,-0.155925,-0.1512,0.0,-0.10351152,0.01054284
1779587834234020471,A_-,-0.4171860950630162,0.0,1.4730055288056545,-2.901156095835054,-0.09169959889978208,-0.017296212887263806,0.0,0.0,0.0,0.0,0.0,0.0,0.0,-0.34964999999999996,-0.155925,-0.1512,0.0,-0.10351152,0.01054284
1779587834258465051,A_-,-0.4191505003129805,0.0,1.4730055288056545,-2.901156095835054,-0.09169959889978208,-0.017296212887263806,0.0,0.0,0.0,0.0,0.0,0.0,0.0,-0.3213,-0.1701,-0.127575,0.00095844,-0.1006362,0.01629348
1779587834258465051,A_-,-0.421213133812671,0.0,1.4730055288056545,-2.901156095835054,-0.09169959889978208,-0.017296212887263806,0.0,0.0,0.0,0.0,0.0,0.0,0.0,-0.3213,-0.1701,-0.127575,0.00095844,-0.1006362,0.01629348
1779587834258465051,A_-,-0.4231936055625738,0.0,1.4730055288056545,-2.901156095835054,-0.09169959889978208,-0.017296212887263806,0.0,0.0,0.0,0.0,0.0,0.0,0.0,-0.3213,-0.1701,-0.127575,0.00095844,-0.1006362,0.01629348
1779587834283438682,A_-,-0.4251521251878785,0.0,1.4730055288056545,-2.901156095835054,-0.09169959889978208,-0.017296212887263806,0.0,0.0,0.0,0.0,0.0,0.0,0.0,-0.33075,-0.165375,-0.1701,0.0,-0.10159463999999999,0.0191688
1779587834283438682,A_-,-0.42721094925036596,0.0,1.4730055288056545,-2.901156095835054,-0.09169959889978208,-0.017296212887263806,0.0,0.0,0.0,0.0,0.0,0.0,0.0,-0.33075,-0.165375,-0.1701,0.0,-0.10159463999999999,0.0191688
1779587834283438682,A_-,-0.42918707718740734,0.0,1.4730055288056545,-2.901156095835054,-0.09169959889978208,-0.017296212887263806,0.0,0.0,0.0,0.0,0.0,0.0,0.0,-0.33075,-0.165375,-0.1701,0.0,-0.10159463999999999,0.0191688
1779587834293416976,A_-,-0.43117890581243046,0.0,1.4730055288056545,-2.901156095835054,-0.09169959889978208,-0.017296212887263806,0.0,0.0,0.0,0.0,0.0,0.0,0.0,-0.3402,-0.189,-0.1512,-0.00575064,-0.1006362,-0.00575064
1779587834293416976,A_-,-0.4332516123754431,0.0,1.4730055288056545,-2.901156095835054,-0.09169959889978208,-0.017296212887263806,0.0,0.0,0.0,0.0,0.0,0.0,0.0,-0.3402,-0.189,-0.1512,-0.00575064,-0.1006362,-0.00575064
1779587834293416976,A_-,-0.43524723243785957,0.0,1.4730055288056545,-2.901156095835054,-0.09169959889978208,-0.017296212887263806,0.0,0.0,0.0,0.0,0.0,0.0,0.0,-0.3402,-0.189,-0.1512,-0.00575064,-0.1006362,-0.00575064
1779587834313413143,A_-,-0.43720206862531086,0.0,1.4730055288056545,-2.901156095835054,-0.09169959889978208,-0.017296212887263806,0.0,0.0,0.0,0.0,0.0,0.0,0.0,-0.335475,-0.1701,-0.14175,0.0,-0.10542839999999999,0.01821036
1779587834313413143,A_-,-0.4392585528748896,0.0,1.4730055288056545,-2.901156095835054,-0.09169959889978208,-0.017296212887263806,0.0,0.0,0.0,0.0,0.0,0.0,0.0,-0.335475,-0.1701,-0.14175,0.0,-0.10542839999999999,0.01821036
1779587834313413143,A_-,-0.4412315731879062,0.0,1.4730055288056545,-2.901156095835054,-0.09169959889978208,-0.017296212887263806,0.0,0.0,0.0,0.0,0.0,0.0,0.0,-0.335475,-0.1701,-0.14175,0.0,-0.10542839999999999,0.01821036
1779587834333939552,A_-,-0.44318091374998403,0.0,1.4730055288056545,-2.901156095835054,-0.09169959889978208,-0.017296212887263806,0.0,0.0,0.0,0.0,0.0,0.0,0.0,-0.3213,-0.1701,-0.155925,-0.00383376,-0.09488556,0.00670908
1779587834333939552,A_-,-0.44526089175042216,0.0,1.4730055288056545,-2.901156095835054,-0.09169959889978208,-0.017296212887263806,0.0,0.0,0.0,0.0,0.0,0.0,0.0,-0.3213,-0.1701,-0.155925,-0.00383376,-0.09488556,0.00670908
1779587834333939552,A_-,-0.4472536921878145,0.0,1.4730055288056545,-2.901156095835054,-0.09169959889978208,-0.017296212887263806,0.0,0.0,0.0,0.0,0.0,0.0,0.0,-0.3213,-0.1701,-0.155925,-0.00383376,-0.09488556,0.00670908
1779587834398392200,A_-,-0.44923695937541197,0.0,1.4730055288056545,-2.901156095835054,-0.09169959889978208,-0.017296212887263806,0.0,0.0,0.0,0.0,0.0,0.0,0.0,-0.33075,-0.146475,-0.14175,-0.00095844,-0.09967776,0.0095844
1779587834398392200,A_-,-0.4512976912499198,0.0,1.4730055288056545,-2.901156095835054,-0.09169959889978208,-0.017296212887263806,0.0,0.0,0.0,0.0,0.0,0.0,0.0,-0.33075,-0.146475,-0.14175,-0.00095844,-0.09967776,0.0095844
1779587834398392200,A_-,-0.45326745393776946,0.0,1.4730055288056545,-2.901156095835054,-0.09169959889978208,-0.017296212887263806,0.0,0.0,0.0,0.0,0.0,0.0,0.0,-0.33075,-0.146475,-0.14175,-0.00095844,-0.09967776,0.0095844
1779587834438858985,A_-,-0.4552199743127403,0.0,1.4730055288056545,-2.901156095835054,-0.09169959889978208,-0.017296212887263806,0.0,0.0,0.0,0.0,0.0,0.0,0.0,-0.3213,-0.155925,-0.17482499999999998,-0.00095844,-0.10159463999999999,0.02108568
1779587834438858985,A_-,-0.4572884332501417,0.0,1.4730055288056545,-2.901156095835054,-0.09169959889978208,-0.017296212887263806,0.0,0.0,0.0,0.0,0.0,0.0,0.0,-0.3213,-0.155925,-0.17482499999999998,-0.00095844,-0.10159463999999999,0.02108568
1779587834438858985,A_-,-0.45925840593781686,0.0,1.4730055288056545,-2.901156095835054,-0.09169959889978208,-0.017296212887263806,0.0,0.0,0.0,0.0,0.0,0.0,0.0,-0.3213,-0.155925,-0.17482499999999998,-0.00095844,-0.10159463999999999,0.02108568
1779587834453372001,A_-,-0.4612354338748901,0.0,1.4730055288056545,-2.901156095835054,-0.09169959889978208,-0.017296212887263806,0.0,0.0,0.0,0.0,0.0,0.0,0.0,-0.33075,-0.1701,-0.17955,-0.00670908,-0.10351152,0.01150128
1779587834453372001,A_-,-0.46326557456268347,0.0,1.4730055288056545,-2.901156095835054,-0.09169959889978208,-0.017296212887263806,0.0,0.0,0.0,0.0,0.0,0.0,0.0,-0.33075,-0.1701,-0.17955,-0.00670908,-0.10351152,0.01150128
1779587834453372001,A_-,-0.465204674250117,0.0,1.4730055288056545,-2.901156095835054,-0.09169959889978208,-0.017296212887263806,0.0,0.0,0.0,0.0,0.0,0.0,0.0,-0.33075,-0.1701,-0.17955,-0.00670908,-0.10351152,0.01150128
1779587834473493576,A_-,-0.4671615022500646,0.0,1.4730055288056545,-2.901156095835054,-0.09169959889978208,-0.017296212887263806,0.0,0.0,0.0,0.0,0.0,0.0,0.0,-0.3449249999999999,-0.17955,-0.1512,-0.00575064,-0.1006362,0.029711639999999997
1779587834473493576,A_-,-0.4692688014376927,0.0,1.4730055288056545,-2.901156095835054,-0.09169959889978208,-0.017296212887263806,0.0,0.0,0.0,0.0,0.0,0.0,0.0,-0.3449249999999999,-0.17955,-0.1512,-0.00575064,-0.1006362,0.029711639999999997
1779587834473493576,A_-,-0.47124197775042376,0.0,1.4730055288056545,-2.901156095835054,-0.09169959889978208,-0.017296212887263806,0.0,0.0,0.0,0.0,0.0,0.0,0.0,-0.3449249999999999,-0.17955,-0.1512,-0.00575064,-0.1006362,0.029711639999999997
1779587834543666124,A_-,-0.473189902500053,0.0,1.4730055288056545,-2.901156095835054,-0.09169959889978208,-0.017296212887263806,0.0,0.0,0.0,-0.008,0.0,0.0,0.0,-0.3402,-0.1701,-0.35437499999999994,0.00670908,-0.09392712,0.01533504
1779587834543666124,A_-,-0.47524281112509925,0.0,1.4730055288056545,-2.901156095835054,-0.09169959889978208,-0.017296212887263806,0.0,0.0,0.0,-0.008,0.0,0.0,0.0,-0.3402,-0.1701,-0.35437499999999994,0.00670908,-0.09392712,0.01533504
1779587834543666124,A_-,-0.4772186332502315,0.0,1.4730055288056545,-2.901156095835054,-0.09169959889978208,-0.017296212887263806,0.0,0.0,0.0,-0.008,0.0,0.0,0.0,-0.3402,-0.1701,-0.35437499999999994,0.00670908,-0.09392712,0.01533504
1779587834628364324,A_-,-0.47918913375019656,0.0,1.4730055288056545,-2.901156095835054,-0.09169959889978208,-0.017296212887263806,0.0,0.0,0.0,0.0,0.0,0.0,0.0,-0.335475,-0.155925,-0.38744999999999996,-0.00287532,-0.08913491999999999,0.01629348
1779587834628364324,A_-,-0.4812627883127334,0.0,1.4730055288056545,-2.901156095835054,-0.09169959889978208,-0.017296212887263806,0.0,0.0,0.0,0.0,0.0,0.0,0.0,-0.335475,-0.155925,-0.38744999999999996,-0.00287532,-0.08913491999999999,0.01629348
1779587834628364324,A_-,-0.4832450956878347,0.0,1.4730055288056545,-2.901156095835054,-0.09169959889978208,-0.017296212887263806,0.0,0.0,0.0,0.0,0.0,0.0,0.0,-0.335475,-0.155925,-0.38744999999999996,-0.00287532,-0.08913491999999999,0.01629348
1779587834683324813,A_-,-0.48521664018767297,0.0,1.4730055288056545,-2.901156095835054,-0.09169959889978208,-0.017296212887263806,0.0,0.0,0.0,0.0,0.0,0.0,0.0,-0.31185,-0.16065,-0.40635,-0.00383376,-0.09680244,0.01341816
1779587834683324813,A_-,-0.4872672270003022,0.0,1.4730055288056545,-2.901156095835054,-0.09169959889978208,-0.017296212887263806,0.0,0.0,0.0,0.0,0.0,0.0,0.0,-0.31185,-0.16065,-0.40635,-0.00383376,-0.09680244,0.01341816
1779587834683324813,A_-,-0.48925181418758257,0.0,1.4730055288056545,-2.901156095835054,-0.09169959889978208,-0.017296212887263806,0.0,0.0,0.0,0.0,0.0,0.0,0.0,-0.31185,-0.16065,-0.40635,-0.00383376,-0.09680244,0.01341816
1779587834713372230,A_-,-0.491211383812697,0.0,1.4730055288056545,-2.901156095835054,-0.09169959889978208,-0.017296212887263806,0.0,0.0,0.0,0.0,0.0,0.0,0.0,-0.34964999999999996,-0.1701,-0.392175,0.0,-0.09871932,0.01533504
1779587834713372230,A_-,-0.4932859261878093,0.0,1.4730055288056545,-2.901156095835054,-0.09169959889978208,-0.017296212887263806,0.0,0.0,0.0,0.0,0.0,0.0,0.0,-0.34964999999999996,-0.1701,-0.392175,0.0,-0.09871932,0.01533504
1779587834713372230,A_-,-0.49526784375052557,0.0,1.4730055288056545,-2.901156095835054,-0.09169959889978208,-0.017296212887263806,0.0,0.0,0.0,0.0,0.0,0.0,0.0,-0.34964999999999996,-0.1701,-0.392175,0.0,-0.09871932,0.01533504
1779587834744732856,A_-,-0.49723612462526035,0.0,1.4730055288056545,-2.901156095835054,-0.09169959889978208,-0.017296212887263806,0.0,0.0,0.0,0.0,0.0,0.0,0.0,-0.33075,-0.16065,-0.411075,-0.00766752,-0.10638684,0.01245972
1779587834744732856,A_-,-0.49932283368752906,0.0,1.4730055288056545,-2.901156095835054,-0.09169959889978208,-0.017296212887263806,0.0,0.0,0.0,0.0,0.0,0.0,0.0,-0.33075,-0.16065,-0.411075,-0.00766752,-0.10638684,0.01245972
1779587834744732856,A_-,-0.5013179559380205,0.0,1.4730055288056545,-2.901156095835054,-0.09169959889978208,-0.017296212887263806,0.0,0.0,0.0,0.0,0.0,0.0,0.0,-0.33075,-0.16065,-0.411075,-0.00766752,-0.10638684,0.01245972
1779587834778309106,A_-,-0.5032901004376527,0.0,1.4730055288056545,-2.901156095835054,-0.09169959889978208,-0.017296212887263806,0.0,0.0,0.0,0.0,0.0,0.0,0.0,-0.3449249999999999,-0.17955,-0.40635,0.00191688,-0.10351152,0.014376599999999998
1779587834778309106,A_-,-0.5053594413752762,0.0,1.4730055288056545,-2.901156095835054,-0.09169959889978208,-0.017296212887263806,0.0,0.0,0.0,0.0,0.0,0.0,0.0,-0.3449249999999999,-0.17955,-0.40635,0.00191688,-0.10351152,0.014376599999999998
1779587834778309106,A_-,-0.5073623386874715,0.0,1.4730055288056545,-2.901156095835054,-0.09169959889978208,-0.017296212887263806,0.0,0.0,0.0,0.0,0.0,0.0,0.0,-0.3449249999999999,-0.17955,-0.40635,0.00191688,-0.10351152,0.014376599999999998
1779587834809600114,A_-,-0.5093300495627773,0.0,1.4730055288056545,-2.901156095835054,-0.09169959889978208,-0.017296212887263806,0.0,0.0,0.0,0.0,0.0,0.0,0.0,-0.335475,-0.16065,-0.4205249999999999,0.00095844,-0.09967776,0.01821036
1779587834809600114,A_-,-0.5113781525626564,0.0,1.4730055288056545,-2.901156095835054,-0.09169959889978208,-0.017296212887263806,0.0,0.0,0.0,0.0,0.0,0.0,0.0,-0.335475,-0.16065,-0.4205249999999999,0.00095844,-0.09967776,0.01821036
1779587834809600114,A_-,-0.5133653375628455,0.0,1.4730055288056545,-2.901156095835054,-0.09169959889978208,-0.017296212887263806,0.0,0.0,0.0,0.0,0.0,0.0,0.0,-0.335475,-0.16065,-0.4205249999999999,0.00095844,-0.09967776,0.01821036
1779587834843711853,A_-,-0.5153501287500148,0.0,1.4730055288056545,-2.901156095835054,-0.09169959889978208,-0.017296212887263806,0.0,0.0,0.0,0.0,0.0,0.0,0.0,-0.34964999999999996,-0.17482499999999998,-0.41579999999999995,0.00862596,-0.09488556,0.01245972
1779587834843711853,A_-,-0.5174513685003603,0.0,1.4730055288056545,-2.901156095835054,-0.09169959889978208,-0.017296212887263806,0.0,0.0,0.0,0.0,0.0,0.0,0.0,-0.34964999999999996,-0.17482499999999998,-0.41579999999999995,0.00862596,-0.09488556,0.01245972
1779587834843711853,A_-,-0.5194459267499951,0.0,1.4730055288056545,-2.901156095835054,-0.09169959889978208,-0.017296212887263806,0.0,0.0,0.0,0.0,0.0,0.0,0.0,-0.34964999999999996,-0.17482499999999998,-0.41579999999999995,0.00862596,-0.09488556,0.01245972
1779587834873971939,A_-,-0.5214080461878439,0.0,1.4730055288056545,-2.901156095835054,-0.09169959889978208,-0.017296212887263806,0.0,0.0,0.0,0.0,0.0,0.0,0.0,-0.3213,-0.14175,-0.38744999999999996,-0.00287532,-0.09296868,0.01150128
1779587834873971939,A_-,-0.5234810467504758,0.0,1.4730055288056545,-2.901156095835054,-0.09169959889978208,-0.017296212887263806,0.0,0.0,0.0,0.0,0.0,0.0,0.0,-0.3213,-0.14175,-0.38744999999999996,-0.00287532,-0.09296868,0.01150128
1779587834873971939,A_-,-0.5254735351877571,0.0,1.4730055288056545,-2.901156095835054,-0.09169959889978208,-0.017296212887263806,0.0,0.0,0.0,0.0,0.0,0.0,0.0,-0.3213,-0.14175,-0.38744999999999996,-0.00287532,-0.09296868,0.01150128
1779587834908271312,A_-,-0.5274425358754797,0.0,1.4730055288056545,-2.901156095835054,-0.09169959889978208,-0.017296212887263806,0.0,0.0,0.0,0.0,0.0,0.0,0.0,-0.33075,-0.184275,-0.411075,0.0047922,-0.10255307999999999,0.01629348
1779587834908271312,A_-,-0.5295210858753308,0.0,1.4730055288056545,-2.901156095835054,-0.09169959889978208,-0.017296212887263806,0.0,0.0,0.0,0.0,0.0,0.0,0.0,-0.33075,-0.184275,-0.411075,0.0047922,-0.10255307999999999,0.01629348
1779587834908271312,A_-,-0.5315080068749012,0.0,1.4730055288056545,-2.901156095835054,-0.09169959889978208,-0.017296212887263806,0.0,0.0,0.0,0.0,0.0,0.0,0.0,-0.33075,-0.184275,-0.411075,0.0047922,-0.10255307999999999,0.01629348
1779587834938962697,A_-,-0.533492780062943,0.0,1.4730055288056545,-2.901156095835054,-0.09169959889978208,-0.017296212887263806,0.0,0.0,0.0,0.0,0.0,0.0,0.0,-0.34964999999999996,-0.17482499999999998,-0.38744999999999996,0.0,-0.10351152,0.00095844
1779587834938962697,A_-,-0.5355634410002494,0.0,1.4730055288056545,-2.901156095835054,-0.09169959889978208,-0.017296212887263806,0.0,0.0,0.0,0.0,0.0,0.0,0.0,-0.34964999999999996,-0.17482499999999998,-0.38744999999999996,0.0,-0.10351152,0.00095844
1779587834938962697,A_-,-0.5375318536880513,0.0,1.4730055288056545,-2.901156095835054,-0.09169959889978208,-0.017296212887263806,0.0,0.0,0.0,0.0,0.0,0.0,0.0,-0.34964999999999996,-0.17482499999999998,-0.38744999999999996,0.0,-0.10351152,0.00095844
1779587834973250627,A_-,-0.5394930493130232,0.0,1.4730055288056545,-2.901156095835054,-0.09169959889978208,-0.017296212887263806,0.0,0.0,0.0,0.0,0.0,0.0,0.0,-0.3402,-0.17955,-0.378,-0.0047922,-0.10638684,0.0095844
1779587834973250627,A_-,-0.5415590244376745,0.0,1.4730055288056545,-2.901156095835054,-0.09169959889978208,-0.017296212887263806,0.0,0.0,0.0,0.0,0.0,0.0,0.0,-0.3402,-0.17955,-0.378,-0.0047922,-0.10638684,0.0095844
1779587834973250627,A_-,-0.5435421658128234,0.0,1.4730055288056545,-2.901156095835054,-0.09169959889978208,-0.017296212887263806,0.0,0.0,0.0,0.0,0.0,0.0,0.0,-0.3402,-0.17955,-0.378,-0.0047922,-0.10638684,0.0095844
1779587835003422021,A_-,-0.5455012016250294,0.0,1.4730055288056545,-2.901156095835054,-0.09169959889978208,-0.017296212887263806,0.0,0.0,0.0,0.0,0.0,0.0,0.0,-0.3449249999999999,-0.20789999999999997,-0.401625,-0.00383376,-0.10159463999999999,0.01821036
1779587835003422021,A_-,-0.5475828956250552,0.0,1.4730055288056545,-2.901156095835054,-0.09169959889978208,-0.017296212887263806,0.0,0.0,0.0,0.0,0.0,0.0,0.0,-0.3449249999999999,-0.20789999999999997,-0.401625,-0.00383376,-0.10159463999999999,0.01821036
1779587835003422021,A_-,-0.5495646573749582,0.0,1.4730055288056545,-2.901156095835054,-0.09169959889978208,-0.017296212887263806,0.0,0.0,0.0,0.0,0.0,0.0,0.0,-0.3449249999999999,-0.20789999999999997,-0.401625,-0.00383376,-0.10159463999999999,0.01821036
1779587835034668922,A_-,-0.5515349420627444,0.0,1.4730055288056545,-2.901156095835054,-0.09169959889978208,-0.017296212887263806,0.0,0.0,0.0,0.0,0.0,0.0,0.0,-0.33075,-0.165375,-0.3969,0.00383376,-0.10542839999999999,0.01821036
1779587835034668922,A_-,-0.5536187958755363,0.0,1.4730055288056545,-2.901156095835054,-0.09169959889978208,-0.017296212887263806,0.0,0.0,0.0,0.0,0.0,0.0,0.0,-0.33075,-0.165375,-0.3969,0.00383376,-0.10542839999999999,0.01821036
1779587835034668922,A_-,-0.5556099826874288,0.0,1.4730055288056545,-2.901156095835054,-0.09169959889978208,-0.017296212887263806,0.0,0.0,0.0,0.0,0.0,0.0,0.0,-0.33075,-0.165375,-0.3969,0.00383376,-0.10542839999999999,0.01821036
1779587835068485736,A_-,-0.5575816233751993,0.0,1.4730055288056545,-2.901156095835054,-0.09169959889978208,-0.017296212887263806,0.0,0.0,0.0,0.0,0.0,0.0,0.0,-0.316575,-0.184275,-0.3969,0.00670908,-0.10638684,0.01150128
1779587835068485736,A_-,-0.5596706006249406,0.0,1.4730055288056545,-2.901156095835054,-0.09169959889978208,-0.017296212887263806,0.0,0.0,0.0,0.0,0.0,0.0,0.0,-0.316575,-0.184275,-0.3969,0.00670908,-0.10638684,0.01150128
1779587835068485736,A_-,-0.5616484207500889,0.0,1.4730055288056545,-2.901156095835054,-0.09169959889978208,-0.017296212887263806,0.0,0.0,0.0,0.0,0.0,0.0,0.0,-0.316575,-0.184275,-0.3969,0.00670908,-0.10638684,0.01150128
1779587835093230485,A_-,-0.5636143259998789,0.0,1.4730055288056545,-2.901156095835054,-0.09169959889978208,-0.017296212887263806,0.0,0.0,0.0,0.0,0.0,0.0,0.0,-0.335475,-0.165375,-0.392175,-0.00191688,-0.10351152,0.01629348
1779587835093230485,A_-,-0.5656758678753704,0.0,1.4730055288056545,-2.901156095835054,-0.09169959889978208,-0.017296212887263806,0.0,0.0,0.0,0.0,0.0,0.0,0.0,-0.335475,-0.165375,-0.392175,-0.00191688,-0.10351152,0.01629348
1779587835093230485,A_-,-0.5676633170623973,0.0,1.4730055288056545,-2.901156095835054,-0.09169959889978208,-0.017296212887263806,0.0,0.0,0.0,0.0,0.0,0.0,0.0,-0.335475,-0.165375,-0.392175,-0.00191688,-0.10351152,0.01629348
1779587835128223657,A_-,-0.5696300083127426,0.0,1.4730055288056545,-2.901156095835054,-0.09169959889978208,-0.017296212887263806,0.0,0.0,0.0,0.0,0.0,0.0,0.0,-0.33075,-0.1701,-0.401625,-0.00383376,-0.10734528,0.01341816
1779587835128223657,A_-,-0.5717084385000817,0.0,1.4730055288056545,-2.901156095835054,-0.09169959889978208,-0.017296212887263806,0.0,0.0,0.0,0.0,0.0,0.0,0.0,-0.33075,-0.1701,-0.401625,-0.00383376,-0.10734528,0.01341816
1779587835128223657,A_-,-0.5736938778754848,0.0,1.4730055288056545,-2.901156095835054,-0.09169959889978208,-0.017296212887263806,0.0,0.0,0.0,0.0,0.0,0.0,0.0,-0.33075,-0.1701,-0.401625,-0.00383376,-0.10734528,0.01341816
1779587835163797140,A_-,-0.5756700721876769,0.0,1.4730055288056545,-2.901156095835054,-0.09169959889978208,-0.017296212887263806,0.0,0.0,0.0,0.0,0.0,0.0,0.0,-0.33075,-0.17955,-0.38744999999999996,-0.01150128,-0.10351152,0.0095844
1779587835163797140,A_-,-0.5777472725626467,0.0,1.4730055288056545,-2.901156095835054,-0.09169959889978208,-0.017296212887263806,0.0,0.0,0.0,0.0,0.0,0.0,0.0,-0.33075,-0.17955,-0.38744999999999996,-0.01150128,-0.10351152,0.0095844
1779587835163797140,A_-,-0.5797478724380198,0.0,1.4730055288056545,-2.901156095835054,-0.09169959889978208,-0.017296212887263806,0.0,0.0,0.0,0.0,0.0,0.0,0.0,-0.33075,-0.17955,-0.38744999999999996,-0.01150128,-0.10351152,0.0095844
1779587835198733091,A_-,-0.5817141496879685,0.0,1.4730055288056545,-2.901156095835054,-0.09169959889978208,-0.017296212887263806,0.0,0.0,0.0,0.0,0.0,0.0,0.0,-0.31185,-0.165375,-0.3969,-0.00191688,-0.10446996,0.01054284
1779587835198733091,A_-,-0.5837841088127789,0.0,1.4730055288056545,-2.901156095835054,-0.09169959889978208,-0.017296212887263806,0.0,0.0,0.0,0.0,0.0,0.0,0.0,-0.31185,-0.165375,-0.3969,-0.00191688,-0.10446996,0.01054284
1779587835198733091,A_-,-0.5857478242501202,0.0,1.4730055288056545,-2.901156095835054,-0.09169959889978208,-0.017296212887263806,0.0,0.0,0.0,0.0,0.0,0.0,0.0,-0.31185,-0.165375,-0.3969,-0.00191688,-0.10446996,0.01054284
1779587835228677749,A_-,-0.5877134654999736,0.0,1.4730055288056545,-2.901156095835054,-0.09169959889978208,-0.017296212887263806,0.0,0.0,0.0,0.0,0.0,0.0,0.0,-0.335475,-0.1701,-0.37327499999999997,-0.00383376,-0.10255307999999999,0.00862596
1779587835228677749,A_-,-0.5897870242504268,0.0,1.4730055288056545,-2.901156095835054,-0.09169959889978208,-0.017296212887263806,0.0,0.0,0.0,0.0,0.0,0.0,0.0,-0.335475,-0.1701,-0.37327499999999997,-0.00383376,-0.10255307999999999,0.00862596
1779587835228677749,A_-,-0.5917904737505069,0.0,1.4730055288056545,-2.901156095835054,-0.09169959889978208,-0.017296212887263806,0.0,0.0,0.0,0.0,0.0,0.0,0.0,-0.335475,-0.1701,-0.37327499999999997,-0.00383376,-0.10255307999999999,0.00862596
1779587835258199214,A_-,-0.5937815945624152,0.0,1.4730055288056545,-2.901156095835054,-0.09169959889978208,-0.017296212887263806,0.0,0.0,0.0,0.0,0.0,0.0,0.0,-0.326025,-0.155925,-0.401625,-0.00095844,-0.1102206,0.01054284
1779587835258199214,A_-,-0.5958564433128686,0.0,1.4730055288056545,-2.901156095835054,-0.09169959889978208,-0.017296212887263806,0.0,0.0,0.0,0.0,0.0,0.0,0.0,-0.326025,-0.155925,-0.401625,-0.00095844,-0.1102206,0.01054284
1779587835258199214,A_-,-0.5978463581252527,0.0,1.4730055288056545,-2.901156095835054,-0.09169959889978208,-0.017296212887263806,0.0,0.0,0.0,0.0,0.0,0.0,0.0,-0.326025,-0.155925,-0.401625,-0.00095844,-0.1102206,0.01054284
1779587835278183460,A_-,-0.5998116155626576,0.0,1.4730055288056545,-2.901156095835054,-0.09169959889978208,-0.017296212887263806,0.0,0.0,0.0,0.0,0.0,0.0,0.0,-0.335475,-0.1701,-0.378,0.00191688,-0.095844,0.0191688
1779587835278183460,A_-,-0.6018835305003449,0.0,1.4730055288056545,-2.901156095835054,-0.09169959889978208,-0.017296212887263806,0.0,0.0,0.0,0.0,0.0,0.0,0.0,-0.335475,-0.1701,-0.378,0.00191688,-0.095844,0.0191688
1779587835278183460,A_-,-0.6038716335003755,0.0,1.4730055288056545,-2.901156095835054,-0.09169959889978208,-0.017296212887263806,0.0,0.0,0.0,0.0,0.0,0.0,0.0,-0.335475,-0.1701,-0.378,0.00191688,-0.095844,0.0191688
1779587835294134378,A_-,-0.6058402025630585,0.0,1.4730055288056545,-2.901156095835054,-0.09169959889978208,-0.017296212887263806,0.0,0.0,0.0,0.0,0.0,0.0,0.0,-0.33075,-0.165375,-0.392175,-0.00191688,-0.095844,0.01533504
1779587835294134378,A_-,-0.6079112355005236,0.0,1.4730055288056545,-2.901156095835054,-0.09169959889978208,-0.017296212887263806,0.0,0.0,0.0,0.0,0.0,0.0,0.0,-0.33075,-0.165375,-0.392175,-0.00191688,-0.095844,0.01533504
1779587835294134378,A_-,-0.6098899374376288,0.0,1.4730055288056545,-2.901156095835054,-0.09169959889978208,-0.017296212887263806,0.0,0.0,0.0,0.0,0.0,0.0,0.0,-0.33075,-0.165375,-0.392175,-0.00191688,-0.095844,0.01533504
1779587835333180189,A_-,-0.611824609875157,0.0,1.4730055288056545,-2.901156095835054,-0.09169959889978208,-0.017296212887263806,0.0,0.0,0.0,0.0,0.0,0.0,0.0,-0.326025,-0.184275,-0.411075,-0.0047922,-0.09680244,0.01245972
1779587835333180189,A_-,-0.6138883355624785,0.0,1.4730055288056545,-2.901156095835054,-0.09169959889978208,-0.017296212887263806,0.0,0.0,0.0,0.0,0.0,0.0,0.0,-0.326025,-0.184275,-0.411075,-0.0047922,-0.09680244,0.01245972
1779587835333180189,A_-,-0.6158742129380244,0.0,1.4730055288056545,-2.901156095835054,-0.09169959889978208,-0.017296212887263806,0.0,0.0,0.0,0.0,0.0,0.0,0.0,-0.326025,-0.184275,-0.411075,-0.0047922,-0.09680244,0.01245972
1779587835388247489,A_-,-0.6178315809377182,0.0,1.4730055288056545,-2.901156095835054,-0.09169959889978208,-0.017296212887263806,0.0,0.0,0.0,0.0,0.0,0.0,0.0,-0.3449249999999999,-0.16065,-0.3969,-0.00383376,-0.09776088000000001,0.0191688
1779587835388247489,A_-,-0.6198842737499035,0.0,1.4730055288056545,-2.901156095835054,-0.09169959889978208,-0.017296212887263806,0.0,0.0,0.0,0.0,0.0,0.0,0.0,-0.3449249999999999,-0.16065,-0.3969,-0.00383376,-0.09776088000000001,0.0191688
1779587835388247489,A_-,-0.6218746625627318,0.0,1.4730055288056545,-2.901156095835054,-0.09169959889978208,-0.017296212887263806,0.0,0.0,0.0,0.0,0.0,0.0,0.0,-0.3449249999999999,-0.16065,-0.3969,-0.00383376,-0.09776088000000001,0.0191688
1779587835418268442,A_-,-0.6238348805629812,0.0,1.4730055288056545,-2.901156095835054,-0.09169959889978208,-0.017296212887263806,0.0,0.0,0.0,0.0,0.0,0.0,0.0,-0.3591,-0.17482499999999998,-0.411075,-0.00095844,-0.10734528,0.01725192
1779587835418268442,A_-,-0.6259001240630369,0.0,1.4730055288056545,-2.901156095835054,-0.09169959889978208,-0.017296212887263806,0.0,0.0,0.0,0.0,0.0,0.0,0.0,-0.3591,-0.17482499999999998,-0.411075,-0.00095844,-0.10734528,0.01725192
1779587835418268442,A_-,-0.6278818918128763,0.0,1.4730055288056545,-2.901156095835054,-0.09169959889978208,-0.017296212887263806,0.0,0.0,0.0,0.0,0.0,0.0,0.0,-0.3591,-0.17482499999999998,-0.411075,-0.00095844,-0.10734528,0.01725192
1779587835454030752,A_-,-0.6298573121250683,0.0,1.4730055288056545,-2.901156095835054,-0.09169959889978208,-0.017296212887263806,0.0,0.0,0.0,0.0,0.0,0.0,0.0,-0.335475,-0.17955,-0.401625,-0.00383376,-0.09871932,0.02204412
1779587835454030752,A_-,-0.6319353703129309,0.0,1.4730055288056545,-2.901156095835054,-0.09169959889978208,-0.017296212887263806,0.0,0.0,0.0,0.0,0.0,0.0,0.0,-0.335475,-0.17955,-0.401625,-0.00383376,-0.09871932,0.02204412
1779587835454030752,A_-,-0.6339143664379208,0.0,1.4730055288056545,-2.901156095835054,-0.09169959889978208,-0.017296212887263806,0.0,0.0,0.0,0.0,0.0,0.0,0.0,-0.335475,-0.17955,-0.401625,-0.00383376,-0.09871932,0.02204412
1779587835474128723,A_-,-0.6358759340630513,0.0,1.4730055288056545,-2.901156095835054,-0.09169959889978208,-0.017296212887263806,0.0,0.0,0.0,0.0,0.0,0.0,0.0,-0.33075,-0.184275,-0.40635,-0.00575064,-0.1006362,0.00575064
1779587835474128723,A_-,-0.6379297126877645,0.0,1.4730055288056545,-2.901156095835054,-0.09169959889978208,-0.017296212887263806,0.0,0.0,0.0,0.0,0.0,0.0,0.0,-0.33075,-0.184275,-0.40635,-0.00575064,-0.1006362,0.00575064
1779587835474128723,A_-,-0.6399100646251554,0.0,1.4730055288056545,-2.901156095835054,-0.09169959889978208,-0.017296212887263806,0.0,0.0,0.0,0.0,0.0,0.0,0.0,-0.33075,-0.184275,-0.40635,-0.00575064,-0.1006362,0.00575064
1779587835498182058,A_-,-0.6418633411879,0.0,1.4730055288056545,-2.901156095835054,-0.09169959889978208,-0.017296212887263806,0.0,0.0,0.0,0.0,0.0,0.0,0.0,-0.34964999999999996,-0.1701,-0.43942499999999995,-0.00670908,-0.1006362,0.01341816
1779587835498182058,A_-,-0.6439480888125217,0.0,1.4730055288056545,-2.901156095835054,-0.09169959889978208,-0.017296212887263806,0.0,0.0,0.0,0.0,0.0,0.0,0.0,-0.34964999999999996,-0.1701,-0.43942499999999995,-0.00670908,-0.1006362,0.01341816
1779587835498182058,A_-,-0.6459303543749684,0.0,1.4730055288056545,-2.901156095835054,-0.09169959889978208,-0.017296212887263806,0.0,0.0,0.0,0.0,0.0,0.0,0.0,-0.34964999999999996,-0.1701,-0.43942499999999995,-0.00670908,-0.1006362,0.01341816
1779587835519069433,A_-,-0.6478961158125003,0.0,1.4730055288056545,-2.901156095835054,-0.09169959889978208,-0.017296212887263806,0.0,0.0,0.0,0.0,0.0,0.0,0.0,-0.34964999999999996,-0.1701,-0.382725,-0.00383376,-0.09680244,0.01054284
1779587835519069433,A_-,-0.6499657867500446,0.0,1.4730055288056545,-2.901156095835054,-0.09169959889978208,-0.017296212887263806,0.0,0.0,0.0,0.0,0.0,0.0,0.0,-0.34964999999999996,-0.1701,-0.382725,-0.00383376,-0.09680244,0.01054284
1779587835519069433,A_-,-0.6519496723124121,0.0,1.4730055288056545,-2.901156095835054,-0.09169959889978208,-0.017296212887263806,0.0,0.0,0.0,0.0,0.0,0.0,0.0,-0.34964999999999996,-0.1701,-0.382725,-0.00383376,-0.09680244,0.01054284
1779587835538323163,A_-,-0.6539153075630111,0.0,1.4730055288056545,-2.901156095835054,-0.09169959889978208,-0.017296212887263806,0.0,0.0,0.0,0.0,0.0,0.0,0.0,-0.335475,-0.146475,-0.40635,-0.00766752,-0.09871932,0.01533504
1779587835538323163,A_-,-0.6559898863129092,0.0,1.4730055288056545,-2.901156095835054,-0.09169959889978208,-0.017296212887263806,0.0,0.0,0.0,0.0,0.0,0.0,0.0,-0.335475,-0.146475,-0.40635,-0.00766752,-0.09871932,0.01533504
1779587835538323163,A_-,-0.657969410250189,0.0,1.4730055288056545,-2.901156095835054,-0.09169959889978208,-0.017296212887263806,0.0,0.0,0.0,0.0,0.0,0.0,0.0,-0.335475,-0.146475,-0.40635,-0.00766752,-0.09871932,0.01533504
1779587835563118934,A_-,-0.6599333536878476,0.0,1.4730055288056545,-2.901156095835054,-0.09169959889978208,-0.017296212887263806,0.0,0.0,0.0,0.0,0.0,0.0,0.0,-0.3449249999999999,-0.155925,-0.411075,-0.00383376,-0.1006362,0.01245972
1779587835563118934,A_-,-0.6620092942500833,0.0,1.4730055288056545,-2.901156095835054,-0.09169959889978208,-0.017296212887263806,0.0,0.0,0.0,0.0,0.0,0.0,0.0,-0.3449249999999999,-0.155925,-0.411075,-0.00383376,-0.1006362,0.01245972
1779587835563118934,A_-,-0.6639892081880134,0.0,1.4730055288056545,-2.901156095835054,-0.09169959889978208,-0.017296212887263806,0.0,0.0,0.0,0.0,0.0,0.0,0.0,-0.3449249999999999,-0.155925,-0.411075,-0.00383376,-0.1006362,0.01245972
1779587835588126182,A_-,-0.6659415787501075,0.0,1.4730055288056545,-2.901156095835054,-0.09169959889978208,-0.017296212887263806,0.0,0.0,0.0,0.0,0.0,0.0,0.0,-0.33075,-0.16065,-0.411075,-0.00095844,-0.09296868,0.00670908
1779587835588126182,A_-,-0.6680038346255515,0.0,1.4730055288056545,-2.901156095835054,-0.09169959889978208,-0.017296212887263806,0.0,0.0,0.0,0.0,0.0,0.0,0.0,-0.33075,-0.16065,-0.411075,-0.00095844,-0.09296868,0.00670908
1779587835588126182,A_-,-0.6700078301253143,0.0,1.4730055288056545,-2.901156095835054,-0.09169959889978208,-0.017296212887263806,0.0,0.0,0.0,0.0,0.0,0.0,0.0,-0.33075,-0.16065,-0.411075,-0.00095844,-0.09296868,0.00670908
1779587835608128547,A_-,-0.6719845042503039,0.0,1.4730055288056545,-2.901156095835054,-0.09169959889978208,-0.017296212887263806,0.0,0.0,0.0,0.0,0.0,0.0,0.0,-0.3402,-0.17482499999999998,-0.41579999999999995,0.0,-0.08721804,0.01821036
1779587835608128547,A_-,-0.6740476241254783,0.0,1.4730055288056545,-2.901156095835054,-0.09169959889978208,-0.017296212887263806,0.0,0.0,0.0,0.0,0.0,0.0,0.0,-0.3402,-0.17482499999999998,-0.41579999999999995,0.0,-0.08721804,0.01821036
1779587835608128547,A_-,-0.6760283538753811,0.0,1.4730055288056545,-2.901156095835054,-0.09169959889978208,-0.017296212887263806,0.0,0.0,0.0,0.0,0.0,0.0,0.0,-0.3402,-0.17482499999999998,-0.41579999999999995,0.0,-0.08721804,0.01821036
1779587835623833417,A_-,-0.6779902575003689,0.0,1.4730055288056545,-2.901156095835054,-0.09169959889978208,-0.017296212887263806,0.0,0.0,0.0,0.0,0.0,0.0,0.0,-0.335475,-0.25987499999999997,-0.4347,-0.00287532,-0.10830371999999999,0.0191688
1779587835623833417,A_-,-0.6800647882500925,0.0,1.4730055288056545,-2.901156095835054,-0.09169959889978208,-0.017296212887263806,0.0,0.0,0.0,0.0,0.0,0.0,0.0,-0.335475,-0.25987499999999997,-0.4347,-0.00287532,-0.10830371999999999,0.0191688
1779587835623833417,A_-,-0.6820423203755581,0.0,1.4730055288056545,-2.901156095835054,-0.09169959889978208,-0.017296212887263806,0.0,0.0,0.0,0.0,0.0,0.0,0.0,-0.335475,-0.25987499999999997,-0.4347,-0.00287532,-0.10830371999999999,0.0191688
1779587835643113374,A_-,-0.6839817082502577,0.0,1.4730055288056545,-2.901156095835054,-0.09169959889978208,-0.017296212887263806,0.0,0.0,0.0,0.0,0.0,0.0,0.0,-0.33075,-0.1701,-0.36855,-0.00095844,-0.11597123999999999,0.01150128
1779587835643113374,A_-,-0.6860124911249841,0.0,1.4730055288056545,-2.901156095835054,-0.09169959889978208,-0.017296212887263806,0.0,0.0,0.0,0.0,0.0,0.0,0.0,-0.33075,-0.1701,-0.36855,-0.00095844,-0.11597123999999999,0.01150128
1779587835643113374,A_-,-0.687978684375139,0.0,1.4730055288056545,-2.901156095835054,-0.09169959889978208,-0.017296212887263806,0.0,0.0,0.0,0.0,0.0,0.0,0.0,-0.33075,-0.1701,-0.36855,-0.00095844,-0.11597123999999999,0.01150128
1779587835658374071,A_-,-0.6899757206251707,0.0,1.4730055288056545,-2.901156095835054,-0.09169959889978208,-0.017296212887263806,0.0,0.0,0.0,0.0,0.0,0.0,0.0,-0.335475,-0.165375,-0.4205249999999999,-0.00766752,-0.10255307999999999,0.014376599999999998
1779587835658374071,A_-,-0.6920542588127319,0.0,1.4730055288056545,-2.901156095835054,-0.09169959889978208,-0.017296212887263806,0.0,0.0,0.0,0.0,0.0,0.0,0.0,-0.335475,-0.165375,-0.4205249999999999,-0.00766752,-0.10255307999999999,0.014376599999999998
1779587835658374071,A_-,-0.6940487692504576,0.0,1.4730055288056545,-2.901156095835054,-0.09169959889978208,-0.017296212887263806,0.0,0.0,0.0,0.0,0.0,0.0,0.0,-0.335475,-0.165375,-0.4205249999999999,-0.00766752,-0.10255307999999999,0.014376599999999998
1779587835753882169,A_-,-0.6960025378127739,0.0,1.4730055288056545,-2.901156095835054,-0.09169959889978208,-0.017296212887263806,0.0,0.0,0.0,0.0,0.0,0.0,0.0,-0.35437499999999994,-0.16065,-0.4347,-0.00287532,-0.07763364,0.014376599999999998
1779587835753882169,A_-,-0.6980563644376616,0.0,1.4730055288056545,-2.901156095835054,-0.09169959889978208,-0.017296212887263806,0.0,0.0,0.0,0.0,0.0,0.0,0.0,-0.35437499999999994,-0.16065,-0.4347,-0.00287532,-0.07763364,0.014376599999999998
1779587835753882169,A_-,-0.7000370701878182,0.0,1.4730055288056545,-2.901156095835054,-0.09169959889978208,-0.017296212887263806,0.0,0.0,0.0,0.0,0.0,0.0,0.0,-0.35437499999999994,-0.16065,-0.4347,-0.00287532,-0.07763364,0.014376599999999998
1779587835838067054,A_-,-0.7020027536254929,0.0,1.4730055288056545,-2.901156095835054,-0.09169959889978208,-0.017296212887263806,0.0,0.0,0.0,0.0,0.0,0.0,0.0,-0.335475,-0.17482499999999998,-0.411075,-0.00766752,-0.10542839999999999,0.01533504
1779587835838067054,A_-,-0.7040806378124671,0.0,1.4730055288056545,-2.901156095835054,-0.09169959889978208,-0.017296212887263806,0.0,0.0,0.0,0.0,0.0,0.0,0.0,-0.335475,-0.17482499999999998,-0.411075,-0.00766752,-0.10542839999999999,0.01533504
1779587835838067054,A_-,-0.7060684050002237,0.0,1.4730055288056545,-2.901156095835054,-0.09169959889978208,-0.017296212887263806,0.0,0.0,0.0,0.0,0.0,0.0,0.0,-0.335475,-0.17482499999999998,-0.411075,-0.00766752,-0.10542839999999999,0.01533504
1779587835869275808,A_-,-0.7081216738124567,0.0,1.4730055288056545,-2.901156095835054,-0.09169959889978208,-0.017296212887263806,0.0,0.0,0.0,-0.038,0.0,0.0,0.0,-0.34964999999999996,-0.16065,-0.5244749999999999,-0.0191688,-0.1006362,0.014376599999999998
1779587835869275808,A_-,-0.7102435156880347,0.0,1.4730055288056545,-2.901156095835054,-0.09169959889978208,-0.017296212887263806,0.0,0.0,0.0,-0.038,0.0,0.0,0.0,-0.34964999999999996,-0.16065,-0.5244749999999999,-0.0191688,-0.1006362,0.014376599999999998
1779587835869275808,A_-,-0.7122204120003062,0.0,1.4730055288056545,-2.901156095835054,-0.09169959889978208,-0.017296212887263806,0.0,0.0,0.0,-0.038,0.0,0.0,0.0,-0.34964999999999996,-0.16065,-0.5244749999999999,-0.0191688,-0.1006362,0.014376599999999998
1779587835903053283,A_-,-0.7141796578130197,0.0,1.4730055288056545,-2.903180677767368,-0.09169959889978208,-0.017296212887263806,0.0,0.0,-0.006,-0.14300000000000002,0.0,0.0,0.0,-0.31185,-0.184275,-0.17482499999999998,0.0,-0.11117904,0.01725192
1779587835903053283,A_-,-0.7162347744379076,0.0,1.4730055288056545,-2.903180677767368,-0.09169959889978208,-0.017296212887263806,0.0,0.0,-0.006,-0.14300000000000002,0.0,0.0,0.0,-0.31185,-0.184275,-0.17482499999999998,0.0,-0.11117904,0.01725192
1779587835903053283,A_-,-0.7182437313749688,0.0,1.4730055288056545,-2.903180677767368,-0.09169959889978208,-0.017296212887263806,0.0,0.0,-0.006,-0.14300000000000002,0.0,0.0,0.0,-0.31185,-0.184275,-0.17482499999999998,0.0,-0.11117904,0.01725192
