deepaktalwardt/rage-cage-arm-hackstorm/ros2/ws/sysid/runs/sysid_20260524_015656/raw/joint3_phaseA_pos.csv
t_ns,phase,tau_cmd,q1,q2,q3,q4,q5,q6,qd1,qd2,qd3,qd4,qd5,qd6,tau1,tau2,tau3,tau4,tau5,tau6
1779587823555836200,A_+,9.600034900358878e-08,0.0,1.4730055288056545,-2.9144205981502114,-0.09169959889978208,-0.017296212887263806,0.0,0.0,0.0,0.0,0.0,0.0,0.0,-0.34964999999999996,-0.17482499999999998,0.307125,0.0,-0.09392712,0.01533504
1779587826975061893,A_+,0.0019714948127784737,0.0,1.4730055288056545,-2.9144205981502114,-0.09169959889978208,-0.017296212887263806,0.0,0.0,0.0,0.0,0.0,0.0,0.0,-0.307125,-0.19845,0.316575,-0.00191688,-0.09392712,0.01821036
1779587826975061893,A_+,0.004033754812326151,0.0,1.4730055288056545,-2.9144205981502114,-0.09169959889978208,-0.017296212887263806,0.0,0.0,0.0,0.0,0.0,0.0,0.0,-0.307125,-0.19845,0.316575,-0.00191688,-0.09392712,0.01821036
1779587826975061893,A_+,0.006014110875184997,0.0,1.4730055288056545,-2.9144205981502114,-0.09169959889978208,-0.017296212887263806,0.0,0.0,0.0,0.0,0.0,0.0,0.0,-0.307125,-0.19845,0.316575,-0.00191688,-0.09392712,0.01821036
1779587827005083322,A_+,0.007978124437613587,0.0,1.4730055288056545,-2.9144205981502114,-0.09169959889978208,-0.017296212887263806,0.0,0.0,0.0,0.0,0.0,0.0,0.0,-0.316575,-0.19372499999999998,0.31185,0.0,-0.10255307999999999,0.01341816
1779587827005083322,A_+,0.010029327562961043,0.0,1.4730055288056545,-2.9144205981502114,-0.09169959889978208,-0.017296212887263806,0.0,0.0,0.0,0.0,0.0,0.0,0.0,-0.316575,-0.19372499999999998,0.31185,0.0,-0.10255307999999999,0.01341816
1779587827005083322,A_+,0.01202444812520298,0.0,1.4730055288056545,-2.9144205981502114,-0.09169959889978208,-0.017296212887263806,0.0,0.0,0.0,0.0,0.0,0.0,0.0,-0.316575,-0.19372499999999998,0.31185,0.0,-0.10255307999999999,0.01341816
1779587827030046701,A_+,0.013998708750477817,0.0,1.4730055288056545,-2.9144205981502114,-0.09169959889978208,-0.017296212887263806,0.0,0.0,0.0,0.0,0.0,0.0,0.0,-0.33075,-0.203175,0.316575,-0.00287532,-0.09680244,0.0095844
1779587827030046701,A_+,0.01605554531283815,0.0,1.4730055288056545,-2.9144205981502114,-0.09169959889978208,-0.017296212887263806,0.0,0.0,0.0,0.0,0.0,0.0,0.0,-0.33075,-0.203175,0.316575,-0.00287532,-0.09680244,0.0095844
1779587827030046701,A_+,0.018032187749895456,0.0,1.4730055288056545,-2.9144205981502114,-0.09169959889978208,-0.017296212887263806,0.0,0.0,0.0,0.0,0.0,0.0,0.0,-0.33075,-0.203175,0.316575,-0.00287532,-0.09680244,0.0095844
1779587827060039281,A_+,0.019975431375087283,0.0,1.4730055288056545,-2.9144205981502114,-0.09169959889978208,-0.017296212887263806,0.0,0.0,0.0,0.0,0.0,0.0,0.0,-0.3449249999999999,-0.189,0.33075,0.0,-0.09680244,0.00862596
1779587827060039281,A_+,0.022040757000468147,0.0,1.4730055288056545,-2.9144205981502114,-0.09169959889978208,-0.017296212887263806,0.0,0.0,0.0,0.0,0.0,0.0,0.0,-0.3449249999999999,-0.189,0.33075,0.0,-0.09680244,0.00862596
1779587827060039281,A_+,0.024020951062311724,0.0,1.4730055288056545,-2.9144205981502114,-0.09169959889978208,-0.017296212887263806,0.0,0.0,0.0,0.0,0.0,0.0,0.0,-0.3449249999999999,-0.189,0.33075,0.0,-0.09680244,0.00862596
1779587827080151081,A_+,0.02598863643788718,0.0,1.4730055288056545,-2.9144205981502114,-0.09169959889978208,-0.017296212887263806,0.0,0.0,0.0,0.0,0.0,0.0,0.0,-0.33075,-0.16065,0.31185,0.01533504,-0.08721804,0.01629348
1779587827080151081,A_+,0.02803140431274187,0.0,1.4730055288056545,-2.9144205981502114,-0.09169959889978208,-0.017296212887263806,0.0,0.0,0.0,0.0,0.0,0.0,0.0,-0.33075,-0.16065,0.31185,0.01533504,-0.08721804,0.01629348
1779587827080151081,A_+,0.030020909437780574,0.0,1.4730055288056545,-2.9144205981502114,-0.09169959889978208,-0.017296212887263806,0.0,0.0,0.0,0.0,0.0,0.0,0.0,-0.33075,-0.16065,0.31185,0.01533504,-0.08721804,0.01629348
1779587827135350465,A_+,0.03197601993747412,0.0,1.4730055288056545,-2.9144205981502114,-0.09169959889978208,-0.017296212887263806,0.0,0.0,0.0,-0.001,0.0,0.0,0.0,-0.335475,-0.17482499999999998,0.10394999999999999,-0.00095844,-0.09680244,0.01725192
1779587827135350465,A_+,0.034079045812859476,0.0,1.4730055288056545,-2.9144205981502114,-0.09169959889978208,-0.017296212887263806,0.0,0.0,0.0,-0.001,0.0,0.0,0.0,-0.335475,-0.17482499999999998,0.10394999999999999,-0.00095844,-0.09680244,0.01725192
1779587827135350465,A_+,0.03611274262539155,0.0,1.4730055288056545,-2.9144205981502114,-0.09169959889978208,-0.017296212887263806,0.0,0.0,0.0,-0.001,0.0,0.0,0.0,-0.335475,-0.17482499999999998,0.10394999999999999,-0.00095844,-0.09680244,0.01725192
1779587827180015325,A_+,0.038081381812844484,0.0,1.4730055288056545,-2.9144205981502114,-0.09169959889978208,-0.017296212887263806,0.0,0.0,0.0,0.0,0.0,0.0,0.0,-0.3449249999999999,-0.1701,0.061425,0.00287532,-0.09680244,0.01533504
1779587827180015325,A_+,0.04014118200007033,0.0,1.4730055288056545,-2.9144205981502114,-0.09169959889978208,-0.017296212887263806,0.0,0.0,0.0,0.0,0.0,0.0,0.0,-0.3449249999999999,-0.1701,0.061425,0.00287532,-0.09680244,0.01533504
1779587827180015325,A_+,0.042117056625329496,0.0,1.4730055288056545,-2.9144205981502114,-0.09169959889978208,-0.017296212887263806,0.0,0.0,0.0,0.0,0.0,0.0,0.0,-0.3449249999999999,-0.1701,0.061425,0.00287532,-0.09680244,0.01533504
1779587827235067129,A_+,0.04407883837507143,0.0,1.4730055288056545,-2.9144205981502114,-0.09169959889978208,-0.017296212887263806,0.0,0.0,0.0,0.0,0.0,0.0,0.0,-0.316575,-0.184275,0.0756,-0.00287532,-0.09680244,0.02012724
1779587827235067129,A_+,0.04614295818782921,0.0,1.4730055288056545,-2.9144205981502114,-0.09169959889978208,-0.017296212887263806,0.0,0.0,0.0,0.0,0.0,0.0,0.0,-0.316575,-0.184275,0.0756,-0.00287532,-0.09680244,0.02012724
1779587827235067129,A_+,0.04814569200038932,0.0,1.4730055288056545,-2.9144205981502114,-0.09169959889978208,-0.017296212887263806,0.0,0.0,0.0,0.0,0.0,0.0,0.0,-0.316575,-0.184275,0.0756,-0.00287532,-0.09680244,0.02012724
1779587827275001287,A_+,0.05010638793760336,0.0,1.4730055288056545,-2.9144205981502114,-0.09169959889978208,-0.017296212887263806,0.0,0.0,0.0,0.0,0.0,0.0,0.0,-0.316575,-0.203175,0.070875,-0.00191688,-0.09967776,0.01725192
1779587827275001287,A_+,0.05217646518735819,0.0,1.4730055288056545,-2.9144205981502114,-0.09169959889978208,-0.017296212887263806,0.0,0.0,0.0,0.0,0.0,0.0,0.0,-0.316575,-0.203175,0.070875,-0.00191688,-0.09967776,0.01725192
1779587827275001287,A_+,0.05416390050004338,0.0,1.4730055288056545,-2.9144205981502114,-0.09169959889978208,-0.017296212887263806,0.0,0.0,0.0,0.0,0.0,0.0,0.0,-0.316575,-0.203175,0.070875,-0.00191688,-0.09967776,0.01725192
1779587827304980039,A_+,0.05612082281277253,0.0,1.4730055288056545,-2.9144205981502114,-0.09169959889978208,-0.017296212887263806,0.0,0.0,0.0,0.0,0.0,0.0,0.0,-0.34964999999999996,-0.203175,0.08505,0.00191688,-0.09392712,0.014376599999999998
1779587827304980039,A_+,0.058186328437614065,0.0,1.4730055288056545,-2.9144205981502114,-0.09169959889978208,-0.017296212887263806,0.0,0.0,0.0,0.0,0.0,0.0,0.0,-0.34964999999999996,-0.203175,0.08505,0.00191688,-0.09392712,0.014376599999999998
1779587827304980039,A_+,0.060165118687564245,0.0,1.4730055288056545,-2.9144205981502114,-0.09169959889978208,-0.017296212887263806,0.0,0.0,0.0,0.0,0.0,0.0,0.0,-0.34964999999999996,-0.203175,0.08505,0.00191688,-0.09392712,0.014376599999999998
1779587827330037355,A_+,0.0621287304377347,0.0,1.4730055288056545,-2.9144205981502114,-0.09169959889978208,-0.017296212887263806,0.0,0.0,0.0,0.0,0.0,0.0,0.0,-0.34964999999999996,-0.19845,0.08505,-0.0191688,-0.09680244,0.01821036
1779587827330037355,A_+,0.0642026233128945,0.0,1.4730055288056545,-2.9144205981502114,-0.09169959889978208,-0.017296212887263806,0.0,0.0,0.0,0.0,0.0,0.0,0.0,-0.34964999999999996,-0.19845,0.08505,-0.0191688,-0.09680244,0.01821036
1779587827330037355,A_+,0.06635018868792031,0.0,1.4730055288056545,-2.9144205981502114,-0.09169959889978208,-0.017296212887263806,0.0,0.0,0.0,0.0,0.0,0.0,0.0,-0.34964999999999996,-0.19845,0.08505,-0.0191688,-0.09680244,0.01821036
1779587827350019931,A_+,0.06836849700016501,0.0,1.4730055288056545,-2.9144205981502114,-0.09169959889978208,-0.017296212887263806,0.0,0.0,0.0,0.0,0.0,0.0,0.0,-0.34964999999999996,-0.19845,0.08505,0.0,-0.0910518,0.00670908
1779587827350019931,A_+,0.0705565584373744,0.0,1.4730055288056545,-2.9144205981502114,-0.09169959889978208,-0.017296212887263806,0.0,0.0,0.0,0.0,0.0,0.0,0.0,-0.34964999999999996,-0.19845,0.08505,0.0,-0.0910518,0.00670908
1779587827350019931,A_+,0.07272954956260946,0.0,1.4730055288056545,-2.9144205981502114,-0.09169959889978208,-0.017296212887263806,0.0,0.0,0.0,0.0,0.0,0.0,0.0,-0.34964999999999996,-0.19845,0.08505,0.0,-0.0910518,0.00670908
1779587827375890493,A_+,0.0747993926252093,0.0,1.4730055288056545,-2.9144205981502114,-0.09169959889978208,-0.017296212887263806,0.0,0.0,0.0,0.0,0.0,0.0,0.0,-0.3449249999999999,-0.1701,0.203175,-0.00670908,-0.0910518,0.01533504
1779587827375890493,A_+,0.07696862212515043,0.0,1.4730055288056545,-2.9144205981502114,-0.09169959889978208,-0.017296212887263806,0.0,0.0,0.0,0.0,0.0,0.0,0.0,-0.3449249999999999,-0.1701,0.203175,-0.00670908,-0.0910518,0.01533504
1779587827375890493,A_+,0.07900118493739683,0.0,1.4730055288056545,-2.9144205981502114,-0.09169959889978208,-0.017296212887263806,0.0,0.0,0.0,0.0,0.0,0.0,0.0,-0.3449249999999999,-0.1701,0.203175,-0.00670908,-0.0910518,0.01533504
1779587827490254878,A_+,0.0809921478751221,0.0,1.4730055288056545,-2.9144205981502114,-0.09169959889978208,-0.017296212887263806,0.0,0.0,0.0,0.0,0.0,0.0,0.0,-0.3402,-0.19372499999999998,0.3449249999999999,0.00862596,-0.08625959999999999,0.00095844
1779587827490254878,A_+,0.08324932256232387,0.0,1.4730055288056545,-2.9144205981502114,-0.09169959889978208,-0.017296212887263806,0.0,0.0,0.0,0.0,0.0,0.0,0.0,-0.3402,-0.19372499999999998,0.3449249999999999,0.00862596,-0.08625959999999999,0.00095844
1779587827490254878,A_+,0.08529665006290088,0.0,1.4730055288056545,-2.9144205981502114,-0.09169959889978208,-0.017296212887263806,0.0,0.0,0.0,0.0,0.0,0.0,0.0,-0.3402,-0.19372499999999998,0.3449249999999999,0.00862596,-0.08625959999999999,0.00095844
1779587827534950494,A_+,0.08730340950000937,0.0,1.4730055288056545,-2.9144205981502114,-0.09169959889978208,-0.017296212887263806,0.0,0.0,0.0,0.0,0.0,0.0,0.0,-0.326025,-0.17955,0.35437499999999994,0.00287532,-0.10446996,0.01054284
1779587827534950494,A_+,0.08949173493783746,0.0,1.4730055288056545,-2.9144205981502114,-0.09169959889978208,-0.017296212887263806,0.0,0.0,0.0,0.0,0.0,0.0,0.0,-0.326025,-0.17955,0.35437499999999994,0.00287532,-0.10446996,0.01054284
1779587827534950494,A_+,0.09150380381265677,0.0,1.4730055288056545,-2.9144205981502114,-0.09169959889978208,-0.017296212887263806,0.0,0.0,0.0,0.0,0.0,0.0,0.0,-0.326025,-0.17955,0.35437499999999994,0.00287532,-0.10446996,0.01054284
1779587827564934253,A_+,0.09348432187516664,0.0,1.4730055288056545,-2.9144205981502114,-0.09169959889978208,-0.017296212887263806,0.0,0.0,0.0,0.0,0.0,0.0,0.0,-0.3449249999999999,-0.17955,0.335475,-0.00287532,-0.09680244,0.0191688
1779587827564934253,A_+,0.09561328912491263,0.0,1.4730055288056545,-2.9144205981502114,-0.09169959889978208,-0.017296212887263806,0.0,0.0,0.0,0.0,0.0,0.0,0.0,-0.3449249999999999,-0.17955,0.335475,-0.00287532,-0.09680244,0.0191688
1779587827564934253,A_+,0.09765709500038611,0.0,1.4730055288056545,-2.9144205981502114,-0.09169959889978208,-0.017296212887263806,0.0,0.0,0.0,0.0,0.0,0.0,0.0,-0.3449249999999999,-0.17955,0.335475,-0.00287532,-0.09680244,0.0191688
1779587827599963665,A_+,0.09964938975008408,0.0,1.4730055288056545,-2.9144205981502114,-0.09169959889978208,-0.017296212887263806,0.0,0.0,0.0,0.0,0.0,0.0,0.0,-0.3449249999999999,-0.184275,0.3449249999999999,-0.00287532,-0.09009336,0.01245972
1779587827599963665,A_+,0.10179872512549082,0.0,1.4730055288056545,-2.9144205981502114,-0.09169959889978208,-0.017296212887263806,0.0,0.0,0.0,0.0,0.0,0.0,0.0,-0.3449249999999999,-0.184275,0.3449249999999999,-0.00287532,-0.09009336,0.01245972
1779587827599963665,A_+,0.10379218987509375,0.0,1.4730055288056545,-2.9144205981502114,-0.09169959889978208,-0.017296212887263806,0.0,0.0,0.0,0.0,0.0,0.0,0.0,-0.3449249999999999,-0.184275,0.3449249999999999,-0.00287532,-0.09009336,0.01245972
1779587827629929542,A_+,0.1057576014377446,0.0,1.4730055288056545,-2.9144205981502114,-0.09169959889978208,-0.017296212887263806,0.0,0.0,0.0,0.0,0.0,0.0,0.0,-0.3449249999999999,-0.155925,0.36382499999999995,-0.00575064,-0.11213748,0.00766752
1779587827629929542,A_+,0.10793681381233,0.0,1.4730055288056545,-2.9144205981502114,-0.09169959889978208,-0.017296212887263806,0.0,0.0,0.0,0.0,0.0,0.0,0.0,-0.3449249999999999,-0.155925,0.36382499999999995,-0.00575064,-0.11213748,0.00766752
1779587827629929542,A_+,0.1099819875000776,0.0,1.4730055288056545,-2.9144205981502114,-0.09169959889978208,-0.017296212887263806,0.0,0.0,0.0,0.0,0.0,0.0,0.0,-0.3449249999999999,-0.155925,0.36382499999999995,-0.00575064,-0.11213748,0.00766752
1779587827664908885,A_+,0.11199789000011151,0.0,1.4730055288056545,-2.9144205981502114,-0.09169959889978208,-0.017296212887263806,0.0,0.0,0.0,0.0,0.0,0.0,0.0,-0.335475,-0.1701,0.335475,0.0,-0.09776088000000001,0.01245972
1779587827664908885,A_+,0.11421392662509788,0.0,1.4730055288056545,-2.9144205981502114,-0.09169959889978208,-0.017296212887263806,0.0,0.0,0.0,0.0,0.0,0.0,0.0,-0.335475,-0.1701,0.335475,0.0,-0.09776088000000001,0.01245972
1779587827664908885,A_+,0.11625497268732943,0.0,1.4730055288056545,-2.9144205981502114,-0.09169959889978208,-0.017296212887263806,0.0,0.0,0.0,0.0,0.0,0.0,0.0,-0.335475,-0.1701,0.335475,0.0,-0.09776088000000001,0.01245972
1779587827699905633,A_+,0.11826975937515272,0.0,1.4730055288056545,-2.9144205981502114,-0.09169959889978208,-0.017296212887263806,0.0,0.0,0.0,0.0,0.0,0.0,0.0,-0.326025,-0.21262499999999998,0.326025,0.00095844,-0.095844,0.014376599999999998
1779587827699905633,A_+,0.12037469306255844,0.0,1.4730055288056545,-2.9144205981502114,-0.09169959889978208,-0.017296212887263806,0.0,0.0,0.0,0.0,0.0,0.0,0.0,-0.326025,-0.21262499999999998,0.326025,0.00095844,-0.095844,0.014376599999999998
1779587827699905633,A_+,0.12239795099981166,0.0,1.4730055288056545,-2.9144205981502114,-0.09169959889978208,-0.017296212887263806,0.0,0.0,0.0,0.0,0.0,0.0,0.0,-0.326025,-0.21262499999999998,0.326025,0.00095844,-0.095844,0.014376599999999998
1779587827729890584,A_+,0.1244009428123718,0.0,1.4730055288056545,-2.9144205981502114,-0.09169959889978208,-0.017296212887263806,0.0,0.0,0.0,0.0,0.0,0.0,0.0,-0.33075,-0.1701,0.35437499999999994,0.0,-0.10159463999999999,0.01629348
1779587827729890584,A_+,0.12652117500033455,0.0,1.4730055288056545,-2.9144205981502114,-0.09169959889978208,-0.017296212887263806,0.0,0.0,0.0,0.0,0.0,0.0,0.0,-0.33075,-0.1701,0.35437499999999994,0.0,-0.10159463999999999,0.01629348
1779587827729890584,A_+,0.1285093301253255,0.0,1.4730055288056545,-2.9144205981502114,-0.09169959889978208,-0.017296212887263806,0.0,0.0,0.0,0.0,0.0,0.0,0.0,-0.33075,-0.1701,0.35437499999999994,0.0,-0.10159463999999999,0.01629348
1779587827764883756,A_+,0.13047667350042502,0.0,1.4730055288056545,-2.9144205981502114,-0.09169959889978208,-0.017296212887263806,0.0,0.0,0.0,0.0,0.0,0.0,0.0,-0.3213,-0.19845,0.3591,0.0095844,-0.09680244,0.014376599999999998
1779587827764883756,A_+,0.1325890164375778,0.0,1.4730055288056545,-2.9144205981502114,-0.09169959889978208,-0.017296212887263806,0.0,0.0,0.0,0.0,0.0,0.0,0.0,-0.3213,-0.19845,0.3591,0.0095844,-0.09680244,0.014376599999999998
1779587827764883756,A_+,0.13461255037532283,0.0,1.4730055288056545,-2.9144205981502114,-0.09169959889978208,-0.017296212887263806,0.0,0.0,0.0,0.0,0.0,0.0,0.0,-0.3213,-0.19845,0.3591,0.0095844,-0.09680244,0.014376599999999998
1779587827789874792,A_+,0.13662274743774105,0.0,1.4730055288056545,-2.9144205981502114,-0.09169959889978208,-0.017296212887263806,0.0,0.0,0.0,0.0,0.0,0.0,0.0,-0.335475,-0.184275,0.3591,-0.00766752,-0.1006362,0.02012724
1779587827789874792,A_+,0.1388197839376062,0.0,1.4730055288056545,-2.9144205981502114,-0.09169959889978208,-0.017296212887263806,0.0,0.0,0.0,0.0,0.0,0.0,0.0,-0.335475,-0.184275,0.3591,-0.00766752,-0.1006362,0.02012724
1779587827789874792,A_+,0.14083251281294906,0.0,1.4730055288056545,-2.9144205981502114,-0.09169959889978208,-0.017296212887263806,0.0,0.0,0.0,0.0,0.0,0.0,0.0,-0.335475,-0.184275,0.3591,-0.00766752,-0.1006362,0.02012724
1779587827829866409,A_+,0.14281820831251935,0.0,1.4730055288056545,-2.9144205981502114,-0.09169959889978208,-0.017296212887263806,0.0,0.0,0.0,0.0,0.0,0.0,0.0,-0.33075,-0.17482499999999998,0.33075,-0.02204412,-0.09296868,0.01821036
1779587827829866409,A_+,0.14499080943778608,0.0,1.4730055288056545,-2.9144205981502114,-0.09169959889978208,-0.017296212887263806,0.0,0.0,0.0,0.0,0.0,0.0,0.0,-0.33075,-0.17482499999999998,0.33075,-0.02204412,-0.09296868,0.01821036
1779587827829866409,A_+,0.14702895768755297,0.0,1.4730055288056545,-2.9144205981502114,-0.09169959889978208,-0.017296212887263806,0.0,0.0,0.0,0.0,0.0,0.0,0.0,-0.33075,-0.17482499999999998,0.33075,-0.02204412,-0.09296868,0.01821036
1779587827854863166,A_+,0.14902781587534264,0.0,1.4730055288056545,-2.9144205981502114,-0.09169959889978208,-0.017296212887263806,0.0,0.0,0.0,0.0,0.0,0.0,0.0,-0.33075,-0.165375,0.33075,-0.00766752,-0.095844,0.01725192
1779587827854863166,A_+,0.15123441562536755,0.0,1.4730055288056545,-2.9144205981502114,-0.09169959889978208,-0.017296212887263806,0.0,0.0,0.0,0.0,0.0,0.0,0.0,-0.33075,-0.165375,0.33075,-0.00766752,-0.095844,0.01725192
1779587827854863166,A_+,0.15328605656259242,0.0,1.4730055288056545,-2.9144205981502114,-0.09169959889978208,-0.017296212887263806,0.0,0.0,0.0,0.0,0.0,0.0,0.0,-0.33075,-0.165375,0.33075,-0.00766752,-0.095844,0.01725192
1779587827879853963,A_+,0.1553053308748531,0.0,1.4730055288056545,-2.9144205981502114,-0.09169959889978208,-0.017296212887263806,0.0,0.0,0.0,0.0,0.0,0.0,0.0,-0.326025,-0.19372499999999998,0.35437499999999994,-0.0047922,-0.09296868,0.01245972
1779587827879853963,A_+,0.15749397431272882,0.0,1.4730055288056545,-2.9144205981502114,-0.09169959889978208,-0.017296212887263806,0.0,0.0,0.0,0.0,0.0,0.0,0.0,-0.326025,-0.19372499999999998,0.35437499999999994,-0.0047922,-0.09296868,0.01245972
1779587827879853963,A_+,0.15952492931251072,0.0,1.4730055288056545,-2.9144205981502114,-0.09169959889978208,-0.017296212887263806,0.0,0.0,0.0,0.0,0.0,0.0,0.0,-0.326025,-0.19372499999999998,0.35437499999999994,-0.0047922,-0.09296868,0.01245972
1779587827909844398,A_+,0.1615335965623217,0.0,1.4730055288056545,-2.9144205981502114,-0.09169959889978208,-0.017296212887263806,0.0,0.0,0.0,0.0,0.0,0.0,0.0,-0.335475,-0.17482499999999998,0.35437499999999994,0.00095844,-0.09296868,0.0191688
1779587827909844398,A_+,0.1637506051879427,0.0,1.4730055288056545,-2.9144205981502114,-0.09169959889978208,-0.017296212887263806,0.0,0.0,0.0,0.0,0.0,0.0,0.0,-0.335475,-0.17482499999999998,0.35437499999999994,0.00095844,-0.09296868,0.0191688
1779587827909844398,A_+,0.16576516987538525,0.0,1.4730055288056545,-2.9144205981502114,-0.09169959889978208,-0.017296212887263806,0.0,0.0,0.0,0.0,0.0,0.0,0.0,-0.335475,-0.17482499999999998,0.35437499999999994,0.00095844,-0.09296868,0.0191688
1779587827960534811,A_+,0.1677500013752251,0.0,1.4730055288056545,-2.9144205981502114,-0.09169959889978208,-0.017296212887263806,0.0,0.0,0.0,0.0,0.0,0.0,0.0,-0.33075,-0.17482499999999998,0.3449249999999999,-0.00191688,-0.09776088000000001,0.023961
1779587827960534811,A_+,0.16987455318735556,0.0,1.4730055288056545,-2.9144205981502114,-0.09169959889978208,-0.017296212887263806,0.0,0.0,0.0,0.0,0.0,0.0,0.0,-0.33075,-0.17482499999999998,0.3449249999999999,-0.00191688,-0.09776088000000001,0.023961
1779587827960534811,A_+,0.1719004567501088,0.0,1.4730055288056545,-2.9144205981502114,-0.09169959889978208,-0.017296212887263806,0.0,0.0,0.0,0.0,0.0,0.0,0.0,-0.33075,-0.17482499999999998,0.3449249999999999,-0.00191688,-0.09776088000000001,0.023961
1779587827989823341,A_+,0.17388492843792847,0.0,1.4730055288056545,-2.9144205981502114,-0.09169959889978208,-0.017296212887263806,0.0,0.0,0.0,0.0,0.0,0.0,0.0,-0.335475,-0.189,0.3402,-0.00095844,-0.09009336,0.0095844
1779587827989823341,A_+,0.17602813256235095,0.0,1.4730055288056545,-2.9144205981502114,-0.09169959889978208,-0.017296212887263806,0.0,0.0,0.0,0.0,0.0,0.0,0.0,-0.335475,-0.189,0.3402,-0.00095844,-0.09009336,0.0095844
1779587827989823341,A_+,0.17806160156283113,0.0,1.4730055288056545,-2.9144205981502114,-0.09169959889978208,-0.017296212887263806,0.0,0.0,0.0,0.0,0.0,0.0,0.0,-0.335475,-0.189,0.3402,-0.00095844,-0.09009336,0.0095844
1779587828009878635,A_+,0.1800622297503196,0.0,1.4730055288056545,-2.9144205981502114,-0.09169959889978208,-0.017296212887263806,0.0,0.0,0.0,0.0,0.0,0.0,0.0,-0.3449249999999999,-0.203175,0.35437499999999994,-0.00095844,-0.08721804,0.00766752
1779587828009878635,A_+,0.18222839362510967,0.0,1.4730055288056545,-2.9144205981502114,-0.09169959889978208,-0.017296212887263806,0.0,0.0,0.0,0.0,0.0,0.0,0.0,-0.3449249999999999,-0.203175,0.35437499999999994,-0.00095844,-0.08721804,0.00766752
1779587828009878635,A_+,0.18426230062505056,0.0,1.4730055288056545,-2.9144205981502114,-0.09169959889978208,-0.017296212887263806,0.0,0.0,0.0,0.0,0.0,0.0,0.0,-0.3449249999999999,-0.203175,0.35437499999999994,-0.00095844,-0.08721804,0.00766752
1779587828029839038,A_+,0.18627067425040877,0.0,1.4730055288056545,-2.9144205981502114,-0.09169959889978208,-0.017296212887263806,0.0,0.0,0.0,0.0,0.0,0.0,0.0,-0.3402,-0.146475,0.335475,-0.0095844,-0.10351152,0.01150128
1779587828029839038,A_+,0.18845828006283227,0.0,1.4730055288056545,-2.9144205981502114,-0.09169959889978208,-0.017296212887263806,0.0,0.0,0.0,0.0,0.0,0.0,0.0,-0.3402,-0.146475,0.335475,-0.0095844,-0.10351152,0.01150128
1779587828029839038,A_+,0.19051041918783085,0.0,1.4730055288056545,-2.9144205981502114,-0.09169959889978208,-0.017296212887263806,0.0,0.0,0.0,0.0,0.0,0.0,0.0,-0.3402,-0.146475,0.335475,-0.0095844,-0.10351152,0.01150128
1779587828054811000,A_+,0.19251928462517753,0.0,1.4730055288056545,-2.9144205981502114,-0.09169959889978208,-0.017296212887263806,0.0,0.0,0.0,0.0,0.0,0.0,0.0,-0.326025,-0.184275,0.34964999999999996,-0.00383376,-0.095844,0.01821036
1779587828054811000,A_+,0.1946939617503176,0.0,1.4730055288056545,-2.9144205981502114,-0.09169959889978208,-0.017296212887263806,0.0,0.0,0.0,0.0,0.0,0.0,0.0,-0.326025,-0.184275,0.34964999999999996,-0.00383376,-0.095844,0.01821036
1779587828054811000,A_+,0.19672333912490103,0.0,1.4730055288056545,-2.9144205981502114,-0.09169959889978208,-0.017296212887263806,0.0,0.0,0.0,0.0,0.0,0.0,0.0,-0.326025,-0.184275,0.34964999999999996,-0.00383376,-0.095844,0.01821036
1779587828119834661,A_+,0.19872273150008368,0.0,1.4730055288056545,-2.9144205981502114,-0.09169959889978208,-0.017296212887263806,0.0,0.0,0.0,0.0,0.0,0.0,0.0,-0.3449249999999999,-0.17482499999999998,0.3402,0.0,-0.09967776,0.01341816
1779587828119834661,A_+,0.20089902843756136,0.0,1.4730055288056545,-2.9144205981502114,-0.09169959889978208,-0.017296212887263806,0.0,0.0,0.0,0.0,0.0,0.0,0.0,-0.3449249999999999,-0.17482499999999998,0.3402,0.0,-0.09967776,0.01341816
1779587828119834661,A_+,0.20291136749983707,0.0,1.4730055288056545,-2.9144205981502114,-0.09169959889978208,-0.017296212887263806,0.0,0.0,0.0,0.0,0.0,0.0,0.0,-0.3449249999999999,-0.17482499999999998,0.3402,0.0,-0.09967776,0.01341816
1779587828159816265,A_+,0.20489484356244247,0.0,1.4730055288056545,-2.9144205981502114,-0.09169959889978208,-0.017296212887263806,0.0,0.0,0.0,0.0,0.0,0.0,0.0,-0.33075,-0.189,0.3591,0.0,-0.095844,0.01054284
1779587828159816265,A_+,0.20704669293786537,0.0,1.4730055288056545,-2.9144205981502114,-0.09169959889978208,-0.017296212887263806,0.0,0.0,0.0,0.0,0.0,0.0,0.0,-0.33075,-0.189,0.3591,0.0,-0.095844,0.01054284
1779587828159816265,A_+,0.20906878706273346,0.0,1.4730055288056545,-2.9144205981502114,-0.09169959889978208,-0.017296212887263806,0.0,0.0,0.0,0.0,0.0,0.0,0.0,-0.33075,-0.189,0.3591,0.0,-0.095844,0.01054284
1779587828194781541,A_+,0.21107386687504004,0.0,1.4730055288056545,-2.9144205981502114,-0.09169959889978208,-0.017296212887263806,0.0,0.0,0.0,0.0,0.0,0.0,0.0,-0.3402,-0.20789999999999997,0.335475,-0.00575064,-0.10255307999999999,0.02012724
1779587828194781541,A_+,0.21328563224983554,0.0,1.4730055288056545,-2.9144205981502114,-0.09169959889978208,-0.017296212887263806,0.0,0.0,0.0,0.0,0.0,0.0,0.0,-0.3402,-0.20789999999999997,0.335475,-0.00575064,-0.10255307999999999,0.02012724
1779587828194781541,A_+,0.21531165600026725,0.0,1.4730055288056545,-2.9144205981502114,-0.09169959889978208,-0.017296212887263806,0.0,0.0,0.0,0.0,0.0,0.0,0.0,-0.3402,-0.20789999999999997,0.335475,-0.00575064,-0.10255307999999999,0.02012724
1779587828224798679,A_+,0.2173485686253116,0.0,1.4730055288056545,-2.9144205981502114,-0.09169959889978208,-0.017296212887263806,0.0,0.0,0.0,0.0,0.0,0.0,0.0,-0.3213,-0.203175,0.3402,-0.00862596,-0.09488556,0.01725192
1779587828224798679,A_+,0.21953532262546105,0.0,1.4730055288056545,-2.9144205981502114,-0.09169959889978208,-0.017296212887263806,0.0,0.0,0.0,0.0,0.0,0.0,0.0,-0.3213,-0.203175,0.3402,-0.00862596,-0.09488556,0.01725192
1779587828224798679,A_+,0.2216921394374367,0.0,1.4730055288056545,-2.9144205981502114,-0.09169959889978208,-0.017296212887263806,0.0,0.0,0.0,0.0,0.0,0.0,0.0,-0.3213,-0.203175,0.3402,-0.00862596,-0.09488556,0.01725192
1779587828259776115,A_+,0.22371134193735998,0.0,1.4730055288056545,-2.9144205981502114,-0.09169959889978208,-0.017296212887263806,0.0,0.0,0.0,0.0,0.0,0.0,0.0,-0.326025,-0.19372499999999998,0.335475,-0.0095844,-0.08817648,0.01533504
1779587828259776115,A_+,0.2257879706253334,0.0,1.4730055288056545,-2.9144205981502114,-0.09169959889978208,-0.017296212887263806,0.0,0.0,0.0,0.0,0.0,0.0,0.0,-0.326025,-0.19372499999999998,0.335475,-0.0095844,-0.08817648,0.01533504
1779587828259776115,A_+,0.2277748543128837,0.0,1.4730055288056545,-2.9144205981502114,-0.09169959889978208,-0.017296212887263806,0.0,0.0,0.0,0.0,0.0,0.0,0.0,-0.326025,-0.19372499999999998,0.335475,-0.0095844,-0.08817648,0.01533504
1779587828294763326,A_+,0.22975420256238976,0.0,1.4730055288056545,-2.9144205981502114,-0.09169959889978208,-0.017296212887263806,0.0,0.0,0.0,0.0,0.0,0.0,0.0,-0.326025,-0.19845,0.3402,-0.00191688,-0.09967776,0.01245972
1779587828294763326,A_+,0.23191825481285377,0.0,1.4730055288056545,-2.9144205981502114,-0.09169959889978208,-0.017296212887263806,0.0,0.0,0.0,0.0,0.0,0.0,0.0,-0.326025,-0.19845,0.3402,-0.00191688,-0.09967776,0.01245972
1779587828294763326,A_+,0.2339232806250493,0.0,1.4730055288056545,-2.9144205981502114,-0.09169959889978208,-0.017296212887263806,0.0,0.0,0.0,0.0,0.0,0.0,0.0,-0.326025,-0.19845,0.3402,-0.00191688,-0.09967776,0.01245972
1779587828324750900,A_+,0.23594008331269833,0.0,1.4730055288056545,-2.9144205981502114,-0.09169959889978208,-0.017296212887263806,0.0,0.0,0.0,0.0,0.0,0.0,0.0,-0.33075,-0.17482499999999998,0.34964999999999996,0.0,-0.10159463999999999,0.01533504
1779587828324750900,A_+,0.23819139675015322,0.0,1.4730055288056545,-2.9144205981502114,-0.09169959889978208,-0.017296212887263806,0.0,0.0,0.0,0.0,0.0,0.0,0.0,-0.33075,-0.17482499999999998,0.34964999999999996,0.0,-0.10159463999999999,0.01533504
1779587828324750900,A_+,0.24021528468756514,0.0,1.4730055288056545,-2.9144205981502114,-0.09169959889978208,-0.017296212887263806,0.0,0.0,0.0,0.0,0.0,0.0,0.0,-0.33075,-0.17482499999999998,0.34964999999999996,0.0,-0.10159463999999999,0.01533504
1779587828359762191,A_+,0.24220585199987,0.0,1.4730055288056545,-2.9144205981502114,-0.09169959889978208,-0.017296212887263806,0.0,0.0,0.0,0.0,0.0,0.0,0.0,-0.326025,-0.19845,0.31185,0.0,-0.09871932,0.0095844
1779587828359762191,A_+,0.24437818931278343,0.0,1.4730055288056545,-2.9144205981502114,-0.09169959889978208,-0.017296212887263806,0.0,0.0,0.0,0.0,0.0,0.0,0.0,-0.326025,-0.19845,0.31185,0.0,-0.09871932,0.0095844
1779587828359762191,A_+,0.24638384512513767,0.0,1.4730055288056545,-2.9144205981502114,-0.09169959889978208,-0.017296212887263806,0.0,0.0,0.0,0.0,0.0,0.0,0.0,-0.326025,-0.19845,0.31185,0.0,-0.09871932,0.0095844
1779587828389760017,A_+,0.24839527218750845,0.0,1.4730055288056545,-2.9144205981502114,-0.09169959889978208,-0.017296212887263806,0.0,0.0,0.0,0.0,0.0,0.0,0.0,-0.335475,-0.19845,0.335475,-0.00191688,-0.1102206,0.01150128
1779587828389760017,A_+,0.25056811349986674,0.0,1.4730055288056545,-2.9144205981502114,-0.09169959889978208,-0.017296212887263806,0.0,0.0,0.0,0.0,0.0,0.0,0.0,-0.335475,-0.19845,0.335475,-0.00191688,-0.1102206,0.01150128
1779587828389760017,A_+,0.25256739187489075,0.0,1.4730055288056545,-2.9144205981502114,-0.09169959889978208,-0.017296212887263806,0.0,0.0,0.0,0.0,0.0,0.0,0.0,-0.335475,-0.19845,0.335475,-0.00191688,-0.1102206,0.01150128
1779587828424728393,A_+,0.25454490449988043,0.0,1.4730055288056545,-2.9144205981502114,-0.09169959889978208,-0.017296212887263806,0.0,0.0,0.0,0.0,0.0,0.0,0.0,-0.3449249999999999,-0.189,0.34964999999999996,-0.00383376,-0.0910518,0.01533504
1779587828424728393,A_+,0.25664970637490114,0.0,1.4730055288056545,-2.9144205981502114,-0.09169959889978208,-0.017296212887263806,0.0,0.0,0.0,0.0,0.0,0.0,0.0,-0.3449249999999999,-0.189,0.34964999999999996,-0.00383376,-0.0910518,0.01533504
1779587828424728393,A_+,0.25869078881260066,0.0,1.4730055288056545,-2.9144205981502114,-0.09169959889978208,-0.017296212887263806,0.0,0.0,0.0,0.0,0.0,0.0,0.0,-0.3449249999999999,-0.189,0.34964999999999996,-0.00383376,-0.0910518,0.01533504
1779587828454737424,A_+,0.26072387381236695,0.0,1.4730055288056545,-2.9144205981502114,-0.09169959889978208,-0.017296212887263806,0.0,0.0,0.0,0.0,0.0,0.0,0.0,-0.34964999999999996,-0.17955,0.335475,-0.01054284,-0.09009336,0.01725192
1779587828454737424,A_+,0.2632169574378622,0.0,1.4730055288056545,-2.9144205981502114,-0.09169959889978208,-0.017296212887263806,0.0,0.0,0.0,0.0,0.0,0.0,0.0,-0.34964999999999996,-0.17955,0.335475,-0.01054284,-0.09009336,0.01725192
1779587828454737424,A_+,0.26526720674996795,0.0,1.4730055288056545,-2.9144205981502114,-0.09169959889978208,-0.017296212887263806,0.0,0.0,0.0,0.0,0.0,0.0,0.0,-0.34964999999999996,-0.17955,0.335475,-0.01054284,-0.09009336,0.01725192
1779587828479716062,A_+,0.2672695149374249,0.0,1.4730055288056545,-2.9144205981502114,-0.09169959889978208,-0.017296212887263806,0.0,0.0,0.0,0.0,0.0,0.0,0.0,-0.3213,-0.146475,0.34964999999999996,0.0,-0.09871932,0.00670908
1779587828479716062,A_+,0.26948841956277647,0.0,1.4730055288056545,-2.9144205981502114,-0.09169959889978208,-0.017296212887263806,0.0,0.0,0.0,0.0,0.0,0.0,0.0,-0.3213,-0.146475,0.34964999999999996,0.0,-0.09871932,0.00670908
1779587828479716062,A_+,0.2716206148124911,0.0,1.4730055288056545,-2.9144205981502114,-0.09169959889978208,-0.017296212887263806,0.0,0.0,0.0,0.0,0.0,0.0,0.0,-0.3213,-0.146475,0.34964999999999996,0.0,-0.09871932,0.00670908
1779587828494761228,A_+,0.2736365416874378,0.0,1.4730055288056545,-2.9144205981502114,-0.09169959889978208,-0.017296212887263806,0.0,0.0,0.0,0.0,0.0,0.0,0.0,-0.33075,-0.1512,0.33075,0.00095844,-0.08721804,0.01245972
1779587828494761228,A_+,0.27599211881283736,0.0,1.4730055288056545,-2.9144205981502114,-0.09169959889978208,-0.017296212887263806,0.0,0.0,0.0,0.0,0.0,0.0,0.0,-0.33075,-0.1512,0.33075,0.00095844,-0.08721804,0.01245972
1779587828494761228,A_+,0.2782169208751384,0.0,1.4730055288056545,-2.9144205981502114,-0.09169959889978208,-0.017296212887263806,0.0,0.0,0.0,0.0,0.0,0.0,0.0,-0.33075,-0.1512,0.33075,0.00095844,-0.08721804,0.01245972
1779587828519712209,A_+,0.2802249945002586,0.0,1.4730055288056545,-2.9144205981502114,-0.09169959889978208,-0.017296212887263806,0.0,0.0,0.0,0.0,0.0,0.0,0.0,-0.326025,-0.184275,0.3402,-0.00095844,-0.12938940000000002,0.01629348
1779587828519712209,A_+,0.28241813175009156,0.0,1.4730055288056545,-2.9144205981502114,-0.09169959889978208,-0.017296212887263806,0.0,0.0,0.0,0.0,0.0,0.0,0.0,-0.326025,-0.184275,0.3402,-0.00095844,-0.12938940000000002,0.01629348
1779587828519712209,A_+,0.28453509449991543,0.0,1.4730055288056545,-2.9144205981502114,-0.09169959889978208,-0.017296212887263806,0.0,0.0,0.0,0.0,0.0,0.0,0.0,-0.326025,-0.184275,0.3402,-0.00095844,-0.12938940000000002,0.01629348
1779587828544760704,A_+,0.28663477893792333,0.0,1.4730055288056545,-2.9144205981502114,-0.09169959889978208,-0.017296212887263806,0.0,0.0,0.0,0.0,0.0,0.0,0.0,-0.335475,-0.184275,0.3449249999999999,0.00287532,-0.08434272,0.0191688
1779587828544760704,A_+,0.2888976772501337,0.0,1.4730055288056545,-2.9144205981502114,-0.09169959889978208,-0.017296212887263806,0.0,0.0,0.0,0.0,0.0,0.0,0.0,-0.335475,-0.184275,0.3449249999999999,0.00287532,-0.08434272,0.0191688
1779587828544760704,A_+,0.29093925750044036,0.0,1.4730055288056545,-2.9144205981502114,-0.09169959889978208,-0.017296212887263806,0.0,0.0,0.0,0.0,0.0,0.0,0.0,-0.335475,-0.184275,0.3449249999999999,0.00287532,-0.08434272,0.0191688
1779587828579706907,A_+,0.29298348356246606,0.0,1.4730055288056545,-2.9144205981502114,-0.09169959889978208,-0.017296212887263806,0.0,0.0,0.0,0.0,0.0,0.0,0.0,-0.326025,-0.19372499999999998,0.35437499999999994,-0.01533504,-0.0910518,0.02012724
1779587828579706907,A_+,0.2951694213754763,0.0,1.4730055288056545,-2.9144205981502114,-0.09169959889978208,-0.017296212887263806,0.0,0.0,0.0,0.0,0.0,0.0,0.0,-0.326025,-0.19372499999999998,0.35437499999999994,-0.01533504,-0.0910518,0.02012724
1779587828579706907,A_+,0.2972228984999674,0.0,1.4730055288056545,-2.9144205981502114,-0.09169959889978208,-0.017296212887263806,0.0,0.0,0.0,0.0,0.0,0.0,0.0,-0.326025,-0.19372499999999998,0.35437499999999994,-0.01533504,-0.0910518,0.02012724
1779587828639696359,A_+,0.2992503020625463,0.0,1.4730055288056545,-2.9144205981502114,-0.09169959889978208,-0.017296212887263806,0.0,0.0,0.0,0.0,0.0,0.0,0.0,-0.33075,-0.184275,0.3591,-0.00575064,-0.09871932,0.0095844
1779587828639696359,A_+,0.3017169403128719,0.0,1.4730055288056545,-2.9144205981502114,-0.09169959889978208,-0.017296212887263806,0.0,0.0,0.0,0.0,0.0,0.0,0.0,-0.33075,-0.184275,0.3591,-0.00575064,-0.09871932,0.0095844
1779587828639696359,A_+,0.3038546010000118,0.0,1.4730055288056545,-2.9144205981502114,-0.09169959889978208,-0.017296212887263806,0.0,0.0,0.0,0.0,0.0,0.0,0.0,-0.33075,-0.184275,0.3591,-0.00575064,-0.09871932,0.0095844
1779587828669692993,A_+,0.30586664025031496,0.0,1.4730055288056545,-2.9144205981502114,-0.09169959889978208,-0.017296212887263806,0.0,0.0,0.0,0.0,0.0,0.0,0.0,-0.33075,-0.203175,0.378,-0.00287532,-0.09009336,0.01054284
1779587828669692993,A_+,0.3081825313124682,0.0,1.4730055288056545,-2.9144205981502114,-0.09169959889978208,-0.017296212887263806,0.0,0.0,0.0,0.0,0.0,0.0,0.0,-0.33075,-0.203175,0.378,-0.00287532,-0.09009336,0.01054284
1779587828669692993,A_+,0.31023752025043905,0.0,1.4730055288056545,-2.9144205981502114,-0.09169959889978208,-0.017296212887263806,0.0,0.0,0.0,0.0,0.0,0.0,0.0,-0.33075,-0.203175,0.378,-0.00287532,-0.09009336,0.01054284
1779587828714681625,A_+,0.3122433260625712,0.0,1.4730055288056545,-2.9144205981502114,-0.09169959889978208,-0.017296212887263806,0.0,0.0,0.0,0.0,0.0,0.0,0.0,-0.34964999999999996,-0.19845,0.42997499999999994,0.00383376,-0.09967776,0.01341816
1779587828714681625,A_+,0.3147311900625027,0.0,1.4730055288056545,-2.9144205981502114,-0.09169959889978208,-0.017296212887263806,0.0,0.0,0.0,0.0,0.0,0.0,0.0,-0.34964999999999996,-0.19845,0.42997499999999994,0.00383376,-0.09967776,0.01341816
1779587828714681625,A_+,0.3167724823124445,0.0,1.4730055288056545,-2.9144205981502114,-0.09169959889978208,-0.017296212887263806,0.0,0.0,0.0,0.0,0.0,0.0,0.0,-0.34964999999999996,-0.19845,0.42997499999999994,0.00383376,-0.09967776,0.01341816
1779587828739661216,A_+,0.31876608525021766,0.0,1.4730055288056545,-2.9144205981502114,-0.09169959889978208,-0.017296212887263806,0.0,0.0,0.0,0.04,0.0,0.0,0.0,-0.316575,-0.1701,0.505575,-0.00383376,-0.08721804,0.014376599999999998
1779587828739661216,A_+,0.3208915852501377,0.0,1.4730055288056545,-2.9144205981502114,-0.09169959889978208,-0.017296212887263806,0.0,0.0,0.0,0.04,0.0,0.0,0.0,-0.316575,-0.1701,0.505575,-0.00383376,-0.08721804,0.014376599999999998
1779587828739661216,A_+,0.3229232184378361,0.0,1.4730055288056545,-2.9144205981502114,-0.09169959889978208,-0.017296212887263806,0.0,0.0,0.0,0.04,0.0,0.0,0.0,-0.316575,-0.1701,0.505575,-0.00383376,-0.08721804,0.014376599999999998
1779587828759666442,A_+,0.324927536437599,0.0,1.4730055288056545,-2.9125007359730173,-0.09169959889978208,-0.017296212887263806,0.0,0.0,0.0,0.031,0.0,0.0,0.0,-0.33075,-0.189,0.6804,-0.00670908,-0.09967776,0.01245972
1779587828759666442,A_+,0.327268529062394,0.0,1.4730055288056545,-2.9125007359730173,-0.09169959889978208,-0.017296212887263806,0.0,0.0,0.0,0.031,0.0,0.0,0.0,-0.33075,-0.189,0.6804,-0.00670908,-0.09967776,0.01245972
1779587828759666442,A_+,0.32928635756252334,0.0,1.4730055288056545,-2.9125007359730173,-0.09169959889978208,-0.017296212887263806,0.0,0.0,0.0,0.031,0.0,0.0,0.0,-0.33075,-0.189,0.6804,-0.00670908,-0.09967776,0.01245972
1779587828779705286,A_+,0.33130397025047387,0.0,1.4730055288056545,-2.9125007359730173,-0.09169959889978208,-0.017296212887263806,0.0,0.0,0.0,0.0,0.0,0.0,0.0,-0.335475,-0.17482499999999998,0.562275,-0.0047922,-0.10351152,0.0191688
1779587828779705286,A_+,0.33359820937516815,0.0,1.4730055288056545,-2.9125007359730173,-0.09169959889978208,-0.017296212887263806,0.0,0.0,0.0,0.0,0.0,0.0,0.0,-0.335475,-0.17482499999999998,0.562275,-0.0047922,-0.10351152,0.0191688
1779587828779705286,A_+,0.3356136862500989,0.0,1.4730055288056545,-2.9125007359730173,-0.09169959889978208,-0.017296212887263806,0.0,0.0,0.0,0.0,0.0,0.0,0.0,-0.335475,-0.17482499999999998,0.562275,-0.0047922,-0.10351152,0.0191688
1779587828800459146,A_+,0.3376467592499921,0.0,1.4730055288056545,-2.9125007359730173,-0.09169959889978208,-0.017296212887263806,0.0,0.0,0.0,0.0,0.0,0.0,0.0,-0.3402,-0.17482499999999998,0.609525,0.00191688,-0.09488556,0.00862596
1779587828800459146,A_+,0.33986106843758535,0.0,1.4730055288056545,-2.9125007359730173,-0.09169959889978208,-0.017296212887263806,0.0,0.0,0.0,0.0,0.0,0.0,0.0,-0.3402,-0.17482499999999998,0.609525,0.00191688,-0.09488556,0.00862596
1779587828800459146,A_+,0.34189461543792277,0.0,1.4730055288056545,-2.9125007359730173,-0.09169959889978208,-0.017296212887263806,0.0,0.0,0.0,0.0,0.0,0.0,0.0,-0.3402,-0.17482499999999998,0.609525,0.00191688,-0.09488556,0.00862596
1779587828899627208,A_+,0.3438996052498169,0.0,1.4730055288056545,-2.9125007359730173,-0.09169959889978208,-0.017296212887263806,0.0,0.0,0.0,0.0,0.0,0.0,0.0,-0.3402,-0.189,0.5859,0.00095844,-0.09871932,0.014376599999999998
1779587828899627208,A_+,0.3460786260002351,0.0,1.4730055288056545,-2.9125007359730173,-0.09169959889978208,-0.017296212887263806,0.0,0.0,0.0,0.0,0.0,0.0,0.0,-0.3402,-0.189,0.5859,0.00095844,-0.09871932,0.014376599999999998
1779587828899627208,A_+,0.34813008731248374,0.0,1.4730055288056545,-2.9125007359730173,-0.09169959889978208,-0.017296212887263806,0.0,0.0,0.0,0.0,0.0,0.0,0.0,-0.3402,-0.189,0.5859,0.00095844,-0.09871932,0.014376599999999998
1779587828929621458,A_+,0.35013121350016263,0.0,1.4730055288056545,-2.9125007359730173,-0.09169959889978208,-0.017296212887263806,0.0,0.0,0.0,0.0,0.0,0.0,0.0,-0.3449249999999999,-0.1701,0.5859,-0.00862596,-0.09776088000000001,0.01533504
1779587828929621458,A_+,0.35228866012539584,0.0,1.4730055288056545,-2.9125007359730173,-0.09169959889978208,-0.017296212887263806,0.0,0.0,0.0,0.0,0.0,0.0,0.0,-0.3449249999999999,-0.1701,0.5859,-0.00862596,-0.09776088000000001,0.01533504
1779587828929621458,A_+,0.35428076925018104,0.0,1.4730055288056545,-2.9125007359730173,-0.09169959889978208,-0.017296212887263806,0.0,0.0,0.0,0.0,0.0,0.0,0.0,-0.3449249999999999,-0.1701,0.5859,-0.00862596,-0.09776088000000001,0.01533504
1779587828965099811,A_+,0.356252618437793,0.0,1.4730055288056545,-2.9125007359730173,-0.09169959889978208,-0.017296212887263806,0.0,0.0,0.0,0.0,0.0,0.0,0.0,-0.34964999999999996,-0.17482499999999998,0.6000749999999999,-0.00670908,-0.10255307999999999,0.02204412
1779587828965099811,A_+,0.35841902831271,0.0,1.4730055288056545,-2.9125007359730173,-0.09169959889978208,-0.017296212887263806,0.0,0.0,0.0,0.0,0.0,0.0,0.0,-0.34964999999999996,-0.17482499999999998,0.6000749999999999,-0.00670908,-0.10255307999999999,0.02204412
1779587828965099811,A_+,0.36045249731250806,0.0,1.4730055288056545,-2.9125007359730173,-0.09169959889978208,-0.017296212887263806,0.0,0.0,0.0,0.0,0.0,0.0,0.0,-0.34964999999999996,-0.17482499999999998,0.6000749999999999,-0.00670908,-0.10255307999999999,0.02204412
1779587829004603147,A_+,0.3625240927501636,0.0,1.4730055288056545,-2.9125007359730173,-0.09169959889978208,-0.017296212887263806,0.0,0.0,0.0,0.0,0.0,0.0,0.0,-0.326025,-0.184275,0.590625,-0.00095844,-0.09488556,0.01245972
1779587829004603147,A_+,0.36517173337483655,0.0,1.4730055288056545,-2.9125007359730173,-0.09169959889978208,-0.017296212887263806,0.0,0.0,0.0,0.0,0.0,0.0,0.0,-0.326025,-0.184275,0.590625,-0.00095844,-0.09488556,0.01245972
1779587829004603147,A_+,0.3671978233128357,0.0,1.4730055288056545,-2.9125007359730173,-0.09169959889978208,-0.017296212887263806,0.0,0.0,0.0,0.0,0.0,0.0,0.0,-0.326025,-0.184275,0.590625,-0.00095844,-0.09488556,0.01245972
1779587829034595966,A_+,0.3692181478124894,0.0,1.4730055288056545,-2.9125007359730173,-0.09169959889978208,-0.017296212887263806,0.0,0.0,0.0,0.0,0.0,0.0,0.0,-0.3449249999999999,-0.155925,0.6048,0.00191688,-0.09871932,0.00670908
1779587829034595966,A_+,0.37154215650025435,0.0,1.4730055288056545,-2.9125007359730173,-0.09169959889978208,-0.017296212887263806,0.0,0.0,0.0,0.0,0.0,0.0,0.0,-0.3449249999999999,-0.155925,0.6048,0.00191688,-0.09871932,0.00670908
1779587829034595966,A_+,0.37373711774989715,0.0,1.4730055288056545,-2.9125007359730173,-0.09169959889978208,-0.017296212887263806,0.0,0.0,0.0,0.0,0.0,0.0,0.0,-0.3449249999999999,-0.155925,0.6048,0.00191688,-0.09871932,0.00670908
1779587829069602966,A_+,0.3757764003751163,0.0,1.4730055288056545,-2.9125007359730173,-0.09169959889978208,-0.017296212887263806,0.0,0.0,0.0,0.0,0.0,0.0,0.0,-0.3449249999999999,-0.146475,0.609525,-0.00670908,-0.095844,0.02108568
1779587829069602966,A_+,0.37798576031286757,0.0,1.4730055288056545,-2.9125007359730173,-0.09169959889978208,-0.017296212887263806,0.0,0.0,0.0,0.0,0.0,0.0,0.0,-0.3449249999999999,-0.146475,0.609525,-0.00670908,-0.095844,0.02108568
1779587829069602966,A_+,0.38001335025001026,0.0,1.4730055288056545,-2.9125007359730173,-0.09169959889978208,-0.017296212887263806,0.0,0.0,0.0,0.0,0.0,0.0,0.0,-0.3449249999999999,-0.146475,0.609525,-0.00670908,-0.095844,0.02108568
1779587829104579925,A_+,0.38200934118776786,0.0,1.4730055288056545,-2.9125007359730173,-0.09169959889978208,-0.017296212887263806,0.0,0.0,0.0,0.0,0.0,0.0,0.0,-0.3402,-0.165375,0.5953499999999999,0.00383376,-0.09967776,0.01533504
1779587829104579925,A_+,0.38419754118763194,0.0,1.4730055288056545,-2.9125007359730173,-0.09169959889978208,-0.017296212887263806,0.0,0.0,0.0,0.0,0.0,0.0,0.0,-0.3402,-0.165375,0.5953499999999999,0.00383376,-0.09967776,0.01533504
1779587829104579925,A_+,0.3862195755000357,0.0,1.4730055288056545,-2.9125007359730173,-0.09169959889978208,-0.017296212887263806,0.0,0.0,0.0,0.0,0.0,0.0,0.0,-0.3402,-0.165375,0.5953499999999999,0.00383376,-0.09967776,0.01533504
1779587829139664173,A_+,0.3882388321876533,0.0,1.4730055288056545,-2.9125007359730173,-0.09169959889978208,-0.017296212887263806,0.0,0.0,0.0,0.0,0.0,0.0,0.0,-0.335475,-0.127575,0.6048,0.00287532,-0.09392712,-0.00095844
1779587829139664173,A_+,0.39045255375049237,0.0,1.4730055288056545,-2.9125007359730173,-0.09169959889978208,-0.017296212887263806,0.0,0.0,0.0,0.0,0.0,0.0,0.0,-0.335475,-0.127575,0.6048,0.00287532,-0.09392712,-0.00095844
1779587829139664173,A_+,0.3924699144376973,0.0,1.4730055288056545,-2.9125007359730173,-0.09169959889978208,-0.017296212887263806,0.0,0.0,0.0,0.0,0.0,0.0,0.0,-0.335475,-0.127575,0.6048,0.00287532,-0.09392712,-0.00095844
1779587829169572114,A_+,0.3944552924999698,0.0,1.4730055288056545,-2.9125007359730173,-0.09169959889978208,-0.017296212887263806,0.0,0.0,0.0,0.0,0.0,0.0,0.0,-0.316575,-0.19845,0.581175,0.0,-0.10446996,0.0191688
1779587829169572114,A_+,0.3966246783754741,0.0,1.4730055288056545,-2.9125007359730173,-0.09169959889978208,-0.017296212887263806,0.0,0.0,0.0,0.0,0.0,0.0,0.0,-0.316575,-0.19845,0.581175,0.0,-0.10446996,0.0191688
1779587829169572114,A_+,0.3986746100626988,0.0,1.4730055288056545,-2.9125007359730173,-0.09169959889978208,-0.017296212887263806,0.0,0.0,0.0,0.0,0.0,0.0,0.0,-0.316575,-0.19845,0.581175,0.0,-0.10446996,0.0191688
1779587829204612016,A_+,0.400688251312431,0.0,1.4730055288056545,-2.9125007359730173,-0.09169959889978208,-0.017296212887263806,0.0,0.0,0.0,0.0,0.0,0.0,0.0,-0.335475,-0.189,0.5953499999999999,-0.00670908,-0.09680244,0.014376599999999998
1779587829204612016,A_+,0.40288009293749383,0.0,1.4730055288056545,-2.9125007359730173,-0.09169959889978208,-0.017296212887263806,0.0,0.0,0.0,0.0,0.0,0.0,0.0,-0.335475,-0.189,0.5953499999999999,-0.00670908,-0.09680244,0.014376599999999998
1779587829204612016,A_+,0.40488574893743134,0.0,1.4730055288056545,-2.9125007359730173,-0.09169959889978208,-0.017296212887263806,0.0,0.0,0.0,0.0,0.0,0.0,0.0,-0.335475,-0.189,0.5953499999999999,-0.00670908,-0.09680244,0.014376599999999998
1779587829239561557,A_+,0.40687155881232684,0.0,1.4730055288056545,-2.9125007359730173,-0.09169959889978208,-0.017296212887263806,0.0,0.0,0.0,0.0,0.0,0.0,0.0,-0.3449249999999999,-0.184275,0.5953499999999999,-0.00766752,-0.09776088000000001,0.0191688
1779587829239561557,A_+,0.4090499497501696,0.0,1.4730055288056545,-2.9125007359730173,-0.09169959889978208,-0.017296212887263806,0.0,0.0,0.0,0.0,0.0,0.0,0.0,-0.3449249999999999,-0.184275,0.5953499999999999,-0.00766752,-0.09776088000000001,0.0191688
1779587829239561557,A_+,0.41109183618755196,0.0,1.4730055288056545,-2.9125007359730173,-0.09169959889978208,-0.017296212887263806,0.0,0.0,0.0,0.0,0.0,0.0,0.0,-0.3449249999999999,-0.184275,0.5953499999999999,-0.00766752,-0.09776088000000001,0.0191688
1779587829269546508,A_+,0.4130883791249289,0.0,1.4730055288056545,-2.9125007359730173,-0.09169959889978208,-0.017296212887263806,0.0,0.0,0.0,0.0,0.0,0.0,0.0,-0.335475,-0.17955,0.6000749999999999,-0.00575064,-0.09392712,0.01725192
1779587829269546508,A_+,0.41527726312506275,0.0,1.4730055288056545,-2.9125007359730173,-0.09169959889978208,-0.017296212887263806,0.0,0.0,0.0,0.0,0.0,0.0,0.0,-0.335475,-0.17955,0.6000749999999999,-0.00575064,-0.09392712,0.01725192
1779587829269546508,A_+,0.4173139359375,0.0,1.4730055288056545,-2.9125007359730173,-0.09169959889978208,-0.017296212887263806,0.0,0.0,0.0,0.0,0.0,0.0,0.0,-0.335475,-0.17955,0.6000749999999999,-0.00575064,-0.09392712,0.01725192
1779587829304563283,A_+,0.41934048787538813,0.0,1.4730055288056545,-2.9125007359730173,-0.09169959889978208,-0.017296212887263806,0.0,0.0,0.0,0.0,0.0,0.0,0.0,-0.3449249999999999,-0.189,0.590625,0.0,-0.09871932,0.01245972
1779587829304563283,A_+,0.4215290598754109,0.0,1.4730055288056545,-2.9125007359730173,-0.09169959889978208,-0.017296212887263806,0.0,0.0,0.0,0.0,0.0,0.0,0.0,-0.3449249999999999,-0.189,0.590625,0.0,-0.09871932,0.01245972
1779587829304563283,A_+,0.42356474287498713,0.0,1.4730055288056545,-2.9125007359730173,-0.09169959889978208,-0.017296212887263806,0.0,0.0,0.0,0.0,0.0,0.0,0.0,-0.3449249999999999,-0.189,0.590625,0.0,-0.09871932,0.01245972
1779587829334650516,A_+,0.4255759423128893,0.0,1.4730055288056545,-2.9125007359730173,-0.09169959889978208,-0.017296212887263806,0.0,0.0,0.0,0.0,0.0,0.0,0.0,-0.3213,-0.189,0.5953499999999999,0.0,-0.09392712,0.01245972
1779587829334650516,A_+,0.42777986681289804,0.0,1.4730055288056545,-2.9125007359730173,-0.09169959889978208,-0.017296212887263806,0.0,0.0,0.0,0.0,0.0,0.0,0.0,-0.3213,-0.189,0.5953499999999999,0.0,-0.09392712,0.01245972
1779587829334650516,A_+,0.4298529682503158,0.0,1.4730055288056545,-2.9125007359730173,-0.09169959889978208,-0.017296212887263806,0.0,0.0,0.0,0.0,0.0,0.0,0.0,-0.3213,-0.189,0.5953499999999999,0.0,-0.09392712,0.01245972
1779587829364529848,A_+,0.43187113893782225,0.0,1.4730055288056545,-2.9125007359730173,-0.09169959889978208,-0.017296212887263806,0.0,0.0,0.0,0.0,0.0,0.0,0.0,-0.35437499999999994,-0.21262499999999998,0.590625,-0.0047922,-0.095844,0.01821036
1779587829364529848,A_+,0.43406160075005573,0.0,1.4730055288056545,-2.9125007359730173,-0.09169959889978208,-0.017296212887263806,0.0,0.0,0.0,0.0,0.0,0.0,0.0,-0.35437499999999994,-0.21262499999999998,0.590625,-0.0047922,-0.095844,0.01821036
1779587829364529848,A_+,0.4360682645626639,0.0,1.4730055288056545,-2.9125007359730173,-0.09169959889978208,-0.017296212887263806,0.0,0.0,0.0,0.0,0.0,0.0,0.0,-0.35437499999999994,-0.21262499999999998,0.590625,-0.0047922,-0.095844,0.01821036
1779587829399520158,A_+,0.43808497743748376,0.0,1.4730055288056545,-2.9125007359730173,-0.09169959889978208,-0.017296212887263806,0.0,0.0,0.0,0.0,0.0,0.0,0.0,-0.326025,-0.1512,0.5953499999999999,0.00191688,-0.09871932,0.01341816
1779587829399520158,A_+,0.4403069422501176,0.0,1.4730055288056545,-2.9125007359730173,-0.09169959889978208,-0.017296212887263806,0.0,0.0,0.0,0.0,0.0,0.0,0.0,-0.326025,-0.1512,0.5953499999999999,0.00191688,-0.09871932,0.01341816
1779587829399520158,A_+,0.4422997893752836,0.0,1.4730055288056545,-2.9125007359730173,-0.09169959889978208,-0.017296212887263806,0.0,0.0,0.0,0.0,0.0,0.0,0.0,-0.326025,-0.1512,0.5953499999999999,0.00191688,-0.09871932,0.01341816
1779587829434510946,A_+,0.4442662933124666,0.0,1.4730055288056545,-2.9125007359730173,-0.09169959889978208,-0.017296212887263806,0.0,0.0,0.0,0.0,0.0,0.0,0.0,-0.335475,-0.165375,0.6000749999999999,0.00287532,-0.09680244,0.01150128
1779587829434510946,A_+,0.4463960231250894,0.0,1.4730055288056545,-2.9125007359730173,-0.09169959889978208,-0.017296212887263806,0.0,0.0,0.0,0.0,0.0,0.0,0.0,-0.335475,-0.165375,0.6000749999999999,0.00287532,-0.09680244,0.01150128
1779587829434510946,A_+,0.44840706056265844,0.0,1.4730055288056545,-2.9125007359730173,-0.09169959889978208,-0.017296212887263806,0.0,0.0,0.0,0.0,0.0,0.0,0.0,-0.335475,-0.165375,0.6000749999999999,0.00287532,-0.09680244,0.01150128
1779587829454508066,A_+,0.4504178580000371,0.0,1.4730055288056545,-2.9125007359730173,-0.09169959889978208,-0.017296212887263806,0.0,0.0,0.0,0.0,0.0,0.0,0.0,-0.335475,-0.20789999999999997,0.5953499999999999,-0.00575064,-0.1006362,0.0191688
1779587829454508066,A_+,0.4525946351254788,0.0,1.4730055288056545,-2.9125007359730173,-0.09169959889978208,-0.017296212887263806,0.0,0.0,0.0,0.0,0.0,0.0,0.0,-0.335475,-0.20789999999999997,0.5953499999999999,-0.00575064,-0.1006362,0.0191688
1779587829454508066,A_+,0.45464908443750573,0.0,1.4730055288056545,-2.9125007359730173,-0.09169959889978208,-0.017296212887263806,0.0,0.0,0.0,0.0,0.0,0.0,0.0,-0.335475,-0.20789999999999997,0.5953499999999999,-0.00575064,-0.1006362,0.0191688
1779587829480702877,A_+,0.45662812706268596,0.0,1.4730055288056545,-2.9125007359730173,-0.09169959889978208,-0.017296212887263806,0.0,0.0,0.0,0.0,0.0,0.0,0.0,-0.335475,-0.19372499999999998,0.5859,0.00095844,-0.09871932,0.014376599999999998
1779587829480702877,A_+,0.4587764788127515,0.0,1.4730055288056545,-2.9125007359730173,-0.09169959889978208,-0.017296212887263806,0.0,0.0,0.0,0.0,0.0,0.0,0.0,-0.335475,-0.19372499999999998,0.5859,0.00095844,-0.09871932,0.014376599999999998
1779587829480702877,A_+,0.4608146936252524,0.0,1.4730055288056545,-2.9125007359730173,-0.09169959889978208,-0.017296212887263806,0.0,0.0,0.0,0.0,0.0,0.0,0.0,-0.335475,-0.19372499999999998,0.5859,0.00095844,-0.09871932,0.014376599999999998
1779587829509493350,A_+,0.46283509631234665,0.0,1.4730055288056545,-2.9125007359730173,-0.09169959889978208,-0.017296212887263806,0.0,0.0,0.0,0.0,0.0,0.0,0.0,-0.33075,-0.19372499999999998,0.6000749999999999,0.0,-0.09967776,0.01533504
1779587829509493350,A_+,0.4650455000623879,0.0,1.4730055288056545,-2.9125007359730173,-0.09169959889978208,-0.017296212887263806,0.0,0.0,0.0,0.0,0.0,0.0,0.0,-0.33075,-0.19372499999999998,0.6000749999999999,0.0,-0.09967776,0.01533504
1779587829509493350,A_+,0.46710655462516115,0.0,1.4730055288056545,-2.9125007359730173,-0.09169959889978208,-0.017296212887263806,0.0,0.0,0.0,0.0,0.0,0.0,0.0,-0.33075,-0.19372499999999998,0.6000749999999999,0.0,-0.09967776,0.01533504
1779587829539500951,A_+,0.46910604318759397,0.0,1.4730055288056545,-2.9125007359730173,-0.09169959889978208,-0.017296212887263806,0.0,0.0,0.0,0.0,0.0,0.0,0.0,-0.3213,-0.189,0.590625,-0.01150128,-0.08721804,0.02683632
1779587829539500951,A_+,0.47127770287534076,0.0,1.4730055288056545,-2.9125007359730173,-0.09169959889978208,-0.017296212887263806,0.0,0.0,0.0,0.0,0.0,0.0,0.0,-0.3213,-0.189,0.590625,-0.01150128,-0.08721804,0.02683632
1779587829539500951,A_+,0.4733031688124356,0.0,1.4730055288056545,-2.9125007359730173,-0.09169959889978208,-0.017296212887263806,0.0,0.0,0.0,0.0,0.0,0.0,0.0,-0.3213,-0.189,0.590625,-0.01150128,-0.08721804,0.02683632
1779587829554500579,A_+,0.4752949123128474,0.0,1.4730055288056545,-2.9125007359730173,-0.09169959889978208,-0.017296212887263806,0.0,0.0,0.0,0.0,0.0,0.0,0.0,-0.3402,-0.184275,0.6048,-0.00095844,-0.10255307999999999,0.023961
1779587829554500579,A_+,0.47748316031288596,0.0,1.4730055288056545,-2.9125007359730173,-0.09169959889978208,-0.017296212887263806,0.0,0.0,0.0,0.0,0.0,0.0,0.0,-0.3402,-0.184275,0.6048,-0.00095844,-0.10255307999999999,0.023961
1779587829554500579,A_+,0.4794955175625546,0.0,1.4730055288056545,-2.9125007359730173,-0.09169959889978208,-0.017296212887263806,0.0,0.0,0.0,0.0,0.0,0.0,0.0,-0.3402,-0.184275,0.6048,-0.00095844,-0.10255307999999999,0.023961
1779587829580421209,A_+,0.48148312743751376,0.0,1.4730055288056545,-2.9125007359730173,-0.09169959889978208,-0.017296212887263806,0.0,0.0,0.0,0.0,0.0,0.0,0.0,-0.33075,-0.17955,0.61425,0.0,-0.08913491999999999,0.02012724
1779587829580421209,A_+,0.48364635787538646,0.0,1.4730055288056545,-2.9125007359730173,-0.09169959889978208,-0.017296212887263806,0.0,0.0,0.0,0.0,0.0,0.0,0.0,-0.33075,-0.17955,0.61425,0.0,-0.08913491999999999,0.02012724
1779587829580421209,A_+,0.48568924012488424,0.0,1.4730055288056545,-2.9125007359730173,-0.09169959889978208,-0.017296212887263806,0.0,0.0,0.0,0.0,0.0,0.0,0.0,-0.33075,-0.17955,0.61425,0.0,-0.08913491999999999,0.02012724
1779587829614702463,A_+,0.48768012562482,0.0,1.4730055288056545,-2.9125007359730173,-0.09169959889978208,-0.017296212887263806,0.0,0.0,0.0,0.0,0.0,0.0,0.0,-0.33075,-0.17482499999999998,0.6000749999999999,-0.0047922,-0.1006362,0.02108568
1779587829614702463,A_+,0.489909427500379,0.0,1.4730055288056545,-2.9125007359730173,-0.09169959889978208,-0.017296212887263806,0.0,0.0,0.0,0.0,0.0,0.0,0.0,-0.33075,-0.17482499999999998,0.6000749999999999,-0.0047922,-0.1006362,0.02108568
1779587829614702463,A_+,0.4919592511873816,0.0,1.4730055288056545,-2.9125007359730173,-0.09169959889978208,-0.017296212887263806,0.0,0.0,0.0,0.0,0.0,0.0,0.0,-0.33075,-0.17482499999999998,0.6000749999999999,-0.0047922,-0.1006362,0.02108568
1779587829704453945,A_+,0.4940160041251147,0.0,1.4730055288056545,-2.9125007359730173,-0.09169959889978208,-0.017296212887263806,0.0,0.0,0.0,0.0,0.0,0.0,0.0,-0.35437499999999994,-0.21262499999999998,0.581175,-0.00287532,-0.09680244,0.00383376
1779587829704453945,A_+,0.49640703806244346,0.0,1.4730055288056545,-2.9125007359730173,-0.09169959889978208,-0.017296212887263806,0.0,0.0,0.0,0.0,0.0,0.0,0.0,-0.35437499999999994,-0.21262499999999998,0.581175,-0.00287532,-0.09680244,0.00383376
1779587829704453945,A_+,0.49844875650023823,0.0,1.4730055288056545,-2.9125007359730173,-0.09169959889978208,-0.017296212887263806,0.0,0.0,0.0,0.0,0.0,0.0,0.0,-0.35437499999999994,-0.21262499999999998,0.581175,-0.00287532,-0.09680244,0.00383376
1779587829729460954,A_+,0.5005013100001179,0.0,1.4730055288056545,-2.9125007359730173,-0.09169959889978208,-0.017296212887263806,0.0,0.0,0.0,0.0,0.0,0.0,0.0,-0.3449249999999999,-0.17955,0.6000749999999999,0.00287532,-0.09776088000000001,0.0095844
1779587829729460954,A_+,0.5028988771875902,0.0,1.4730055288056545,-2.9125007359730173,-0.09169959889978208,-0.017296212887263806,0.0,0.0,0.0,0.0,0.0,0.0,0.0,-0.3449249999999999,-0.17955,0.6000749999999999,0.00287532,-0.09776088000000001,0.0095844
1779587829729460954,A_+,0.5050043574374286,0.0,1.4730055288056545,-2.9125007359730173,-0.09169959889978208,-0.017296212887263806,0.0,0.0,0.0,0.0,0.0,0.0,0.0,-0.3449249999999999,-0.17955,0.6000749999999999,0.00287532,-0.09776088000000001,0.0095844
1779587829754435300,A_+,0.5070104274377627,0.0,1.4730055288056545,-2.9125007359730173,-0.09169959889978208,-0.017296212887263806,0.0,0.0,0.0,0.0,0.0,0.0,0.0,-0.3213,-0.20789999999999997,0.581175,-0.00191688,-0.09201024,0.01245972
1779587829754435300,A_+,0.5091942958129039,0.0,1.4730055288056545,-2.9125007359730173,-0.09169959889978208,-0.017296212887263806,0.0,0.0,0.0,0.0,0.0,0.0,0.0,-0.3213,-0.20789999999999997,0.581175,-0.00191688,-0.09201024,0.01245972
1779587829754435300,A_+,0.5112421636877116,0.0,1.4730055288056545,-2.9125007359730173,-0.09169959889978208,-0.017296212887263806,0.0,0.0,0.0,0.0,0.0,0.0,0.0,-0.3213,-0.20789999999999997,0.581175,-0.00191688,-0.09201024,0.01245972
1779587829770263195,A_+,0.5132896895627255,0.0,1.4730055288056545,-2.9125007359730173,-0.09169959889978208,-0.017296212887263806,0.0,0.0,0.0,0.0,0.0,0.0,0.0,-0.335475,-0.16065,0.5953499999999999,-0.00191688,-0.09201024,0.028753199999999996
1779587829770263195,A_+,0.5154505921875625,0.0,1.4730055288056545,-2.9125007359730173,-0.09169959889978208,-0.017296212887263806,0.0,0.0,0.0,0.0,0.0,0.0,0.0,-0.335475,-0.16065,0.5953499999999999,-0.00191688,-0.09201024,0.028753199999999996
1779587829770263195,A_+,0.5174426535004386,0.0,1.4730055288056545,-2.9125007359730173,-0.09169959889978208,-0.017296212887263806,0.0,0.0,0.0,0.0,0.0,0.0,0.0,-0.335475,-0.16065,0.5953499999999999,-0.00191688,-0.09201024,0.028753199999999996
1779587829789448976,A_+,0.5194087074376057,0.0,1.4730055288056545,-2.9125007359730173,-0.09169959889978208,-0.017296212887263806,0.0,0.0,0.0,0.0,0.0,0.0,0.0,-0.3402,-0.189,0.6189749999999999,0.0,-0.09776088000000001,0.0095844
1779587829789448976,A_+,0.5215572213749056,0.0,1.4730055288056545,-2.9125007359730173,-0.09169959889978208,-0.017296212887263806,0.0,0.0,0.0,0.0,0.0,0.0,0.0,-0.3402,-0.189,0.6189749999999999,0.0,-0.09776088000000001,0.0095844
1779587829789448976,A_+,0.5236268550004297,0.0,1.4730055288056545,-2.9125007359730173,-0.09169959889978208,-0.017296212887263806,0.0,0.0,0.0,0.0,0.0,0.0,0.0,-0.3402,-0.189,0.6189749999999999,0.0,-0.09776088000000001,0.0095844
1779587829814667224,A_+,0.5256599763749819,0.0,1.4730055288056545,-2.9125007359730173,-0.09169959889978208,-0.017296212887263806,0.0,0.0,0.0,0.0,0.0,0.0,0.0,-0.33075,-0.203175,0.590625,0.00095844,-0.09488556,0.01054284
1779587829814667224,A_+,0.5279179554377151,0.0,1.4730055288056545,-2.9125007359730173,-0.09169959889978208,-0.017296212887263806,0.0,0.0,0.0,0.0,0.0,0.0,0.0,-0.33075,-0.203175,0.590625,0.00095844,-0.09488556,0.01054284
1779587829814667224,A_+,0.5300035235625273,0.0,1.4730055288056545,-2.9125007359730173,-0.09169959889978208,-0.017296212887263806,0.0,0.0,0.0,0.0,0.0,0.0,0.0,-0.33075,-0.203175,0.590625,0.00095844,-0.09488556,0.01054284
1779587829834416866,A_+,0.5319902034377719,0.0,1.4730055288056545,-2.9125007359730173,-0.09169959889978208,-0.017296212887263806,0.0,0.0,0.0,0.0,0.0,0.0,0.0,-0.3402,-0.203175,0.590625,-0.00383376,-0.09488556,0.01725192
1779587829834416866,A_+,0.5341690203752023,0.0,1.4730055288056545,-2.9125007359730173,-0.09169959889978208,-0.017296212887263806,0.0,0.0,0.0,0.0,0.0,0.0,0.0,-0.3402,-0.203175,0.590625,-0.00383376,-0.09488556,0.01725192
1779587829834416866,A_+,0.5362239795003916,0.0,1.4730055288056545,-2.9125007359730173,-0.09169959889978208,-0.017296212887263806,0.0,0.0,0.0,0.0,0.0,0.0,0.0,-0.3402,-0.203175,0.590625,-0.00383376,-0.09488556,0.01725192
1779587829849740505,A_+,0.5382176126254308,0.0,1.4730055288056545,-2.9125007359730173,-0.09169959889978208,-0.017296212887263806,0.0,0.0,0.0,0.0,0.0,0.0,0.0,-0.335475,-0.17955,0.5859,0.00191688,-0.09488556,0.02300256
1779587829849740505,A_+,0.5403912581250552,0.0,1.4730055288056545,-2.9125007359730173,-0.09169959889978208,-0.017296212887263806,0.0,0.0,0.0,0.0,0.0,0.0,0.0,-0.335475,-0.17955,0.5859,0.00191688,-0.09488556,0.02300256
1779587829849740505,A_+,0.5423947843125916,0.0,1.4730055288056545,-2.9125007359730173,-0.09169959889978208,-0.017296212887263806,0.0,0.0,0.0,0.0,0.0,0.0,0.0,-0.335475,-0.17955,0.5859,0.00191688,-0.09488556,0.02300256
1779587829874405145,A_+,0.5443683615003465,0.0,1.4730055288056545,-2.9125007359730173,-0.09169959889978208,-0.017296212887263806,0.0,0.0,0.0,0.0,0.0,0.0,0.0,-0.3213,-0.19372499999999998,0.5953499999999999,-0.00383376,-0.10255307999999999,0.0191688
1779587829874405145,A_+,0.5465184172501267,0.0,1.4730055288056545,-2.9125007359730173,-0.09169959889978208,-0.017296212887263806,0.0,0.0,0.0,0.0,0.0,0.0,0.0,-0.3213,-0.19372499999999998,0.5953499999999999,-0.00383376,-0.10255307999999999,0.0191688
1779587829874405145,A_+,0.5485631473129615,0.0,1.4730055288056545,-2.9125007359730173,-0.09169959889978208,-0.017296212887263806,0.0,0.0,0.0,0.0,0.0,0.0,0.0,-0.3213,-0.19372499999999998,0.5953499999999999,-0.00383376,-0.10255307999999999,0.0191688
1779587829895101308,A_+,0.5506325533126528,0.0,1.4730055288056545,-2.9125007359730173,-0.09169959889978208,-0.017296212887263806,0.0,0.0,0.0,0.0,0.0,0.0,0.0,-0.316575,-0.17482499999999998,0.5717249999999999,0.0,-0.09871932,0.01245972
1779587829895101308,A_+,0.5531406540003445,0.0,1.4730055288056545,-2.9125007359730173,-0.09169959889978208,-0.017296212887263806,0.0,0.0,0.0,0.0,0.0,0.0,0.0,-0.316575,-0.17482499999999998,0.5717249999999999,0.0,-0.09871932,0.01245972
1779587829895101308,A_+,0.5552302599378436,0.0,1.4730055288056545,-2.9125007359730173,-0.09169959889978208,-0.017296212887263806,0.0,0.0,0.0,0.0,0.0,0.0,0.0,-0.316575,-0.17482499999999998,0.5717249999999999,0.0,-0.09871932,0.01245972
1779587829909403324,A_+,0.557304645375325,0.0,1.4730055288056545,-2.9125007359730173,-0.09169959889978208,-0.017296212887263806,0.0,0.0,0.0,0.0,0.0,0.0,0.0,-0.326025,-0.19372499999999998,0.581175,-0.00383376,-0.09488556,0.01629348
1779587829909403324,A_+,0.5595423766876593,0.0,1.4730055288056545,-2.9125007359730173,-0.09169959889978208,-0.017296212887263806,0.0,0.0,0.0,0.0,0.0,0.0,0.0,-0.326025,-0.19372499999999998,0.581175,-0.00383376,-0.09488556,0.01629348
1779587829909403324,A_+,0.561601949624901,0.0,1.4730055288056545,-2.9125007359730173,-0.09169959889978208,-0.017296212887263806,0.0,0.0,0.0,0.0,0.0,0.0,0.0,-0.326025,-0.19372499999999998,0.581175,-0.00383376,-0.09488556,0.01629348
1779587829930269241,A_+,0.5636114154378902,0.0,1.4730055288056545,-2.9125007359730173,-0.09169959889978208,-0.017296212887263806,0.0,0.0,0.0,0.0,0.0,0.0,0.0,-0.3449249999999999,-0.189,0.5953499999999999,0.0,-0.08434272,0.0191688
1779587829930269241,A_+,0.5662668736879368,0.0,1.4730055288056545,-2.9125007359730173,-0.09169959889978208,-0.017296212887263806,0.0,0.0,0.0,0.0,0.0,0.0,0.0,-0.3449249999999999,-0.189,0.5953499999999999,0.0,-0.08434272,0.0191688
1779587829930269241,A_+,0.5684031189377947,0.0,1.4730055288056545,-2.9125007359730173,-0.09169959889978208,-0.017296212887263806,0.0,0.0,0.0,0.0,0.0,0.0,0.0,-0.3449249999999999,-0.189,0.5953499999999999,0.0,-0.08434272,0.0191688
1779587829960417747,A_+,0.5704986643124812,0.0,1.4730055288056545,-2.9125007359730173,-0.09169959889978208,-0.017296212887263806,0.0,0.0,0.0,0.0,0.0,0.0,0.0,-0.3449249999999999,-0.203175,0.590625,-0.00287532,-0.09680244,0.01725192
1779587829960417747,A_+,0.5727396414376926,0.0,1.4730055288056545,-2.9125007359730173,-0.09169959889978208,-0.017296212887263806,0.0,0.0,0.0,0.0,0.0,0.0,0.0,-0.3449249999999999,-0.203175,0.590625,-0.00287532,-0.09680244,0.01725192
1779587829960417747,A_+,0.5747856076873177,0.0,1.4730055288056545,-2.9125007359730173,-0.09169959889978208,-0.017296212887263806,0.0,0.0,0.0,0.0,0.0,0.0,0.0,-0.3449249999999999,-0.203175,0.590625,-0.00287532,-0.09680244,0.01725192
1779587829994812250,A_+,0.5769418010625031,0.0,1.4730055288056545,-2.9125007359730173,-0.09169959889978208,-0.017296212887263806,0.0,0.0,0.0,0.0,0.0,0.0,0.0,-0.3402,-0.17955,0.6000749999999999,-0.0047922,-0.09871932,0.01533504
1779587829994812250,A_+,0.5793773088753369,0.0,1.4730055288056545,-2.9125007359730173,-0.09169959889978208,-0.017296212887263806,0.0,0.0,0.0,0.0,0.0,0.0,0.0,-0.3402,-0.17955,0.6000749999999999,-0.0047922,-0.09871932,0.01533504
1779587829994812250,A_+,0.5814289325624031,0.0,1.4730055288056545,-2.9125007359730173,-0.09169959889978208,-0.017296212887263806,0.0,0.0,0.0,0.0,0.0,0.0,0.0,-0.3402,-0.17955,0.6000749999999999,-0.0047922,-0.09871932,0.01533504
1779587830029370307,A_+,0.5834400783753608,0.0,1.4730055288056545,-2.9125007359730173,-0.09169959889978208,-0.017296212887263806,0.0,0.0,0.0,0.0,0.0,0.0,0.0,-0.326025,-0.21735,0.590625,0.00575064,-0.09776088000000001,0.01341816
1779587830029370307,A_+,0.5857630672498999,0.0,1.4730055288056545,-2.9125007359730173,-0.09169959889978208,-0.017296212887263806,0.0,0.0,0.0,0.0,0.0,0.0,0.0,-0.326025,-0.21735,0.590625,0.00575064,-0.09776088000000001,0.01341816
1779587830029370307,A_+,0.5878506153749186,0.0,1.4730055288056545,-2.9125007359730173,-0.09169959889978208,-0.017296212887263806,0.0,0.0,0.0,0.0,0.0,0.0,0.0,-0.326025,-0.21735,0.590625,0.00575064,-0.09776088000000001,0.01341816
1779587830074950218,A_+,0.5898553897504826,0.0,1.4730055288056545,-2.9125007359730173,-0.09169959889978208,-0.017296212887263806,0.0,0.0,0.0,0.0,0.0,0.0,0.0,-0.335475,-0.1512,0.8552249999999999,0.00383376,-0.09488556,0.02204412
1779587830074950218,A_+,0.5920556668129393,0.0,1.4730055288056545,-2.9125007359730173,-0.09169959889978208,-0.017296212887263806,0.0,0.0,0.0,0.0,0.0,0.0,0.0,-0.335475,-0.1512,0.8552249999999999,0.00383376,-0.09488556,0.02204412
1779587830074950218,A_+,0.5940629248129881,0.0,1.4730055288056545,-2.9125007359730173,-0.09169959889978208,-0.017296212887263806,0.0,0.0,0.0,0.0,0.0,0.0,0.0,-0.335475,-0.1512,0.8552249999999999,0.00383376,-0.09488556,0.02204412
1779587830094399452,A_+,0.5960616817501432,0.0,1.4730055288056545,-2.9125007359730173,-0.09169959889978208,-0.017296212887263806,0.0,0.0,0.0,0.0,0.0,0.0,0.0,-0.3402,-0.155925,0.8410499999999999,-0.00670908,-0.095844,0.01821036
1779587830094399452,A_+,0.5982584671878612,0.0,1.4730055288056545,-2.9125007359730173,-0.09169959889978208,-0.017296212887263806,0.0,0.0,0.0,0.0,0.0,0.0,0.0,-0.3402,-0.155925,0.8410499999999999,-0.00670908,-0.095844,0.01821036
1779587830094399452,A_+,0.6003068032500778,0.0,1.4730055288056545,-2.9125007359730173,-0.09169959889978208,-0.017296212887263806,0.0,0.0,0.0,0.0,0.0,0.0,0.0,-0.3402,-0.155925,0.8410499999999999,-0.00670908,-0.095844,0.01821036
1779587830129410743,A_+,0.6024742395002249,0.0,1.4730055288056545,-2.9125007359730173,-0.09169959889978208,-0.017296212887263806,0.0,0.0,0.0,0.0,0.0,0.0,0.0,-0.326025,-0.184275,0.8552249999999999,0.00191688,-0.09776088000000001,0.01725192
1779587830129410743,A_+,0.6047009739377245,0.0,1.4730055288056545,-2.9125007359730173,-0.09169959889978208,-0.017296212887263806,0.0,0.0,0.0,0.0,0.0,0.0,0.0,-0.326025,-0.184275,0.8552249999999999,0.00191688,-0.09776088000000001,0.01725192
1779587830129410743,A_+,0.6067477021874765,0.0,1.4730055288056545,-2.9125007359730173,-0.09169959889978208,-0.017296212887263806,0.0,0.0,0.0,0.0,0.0,0.0,0.0,-0.326025,-0.184275,0.8552249999999999,0.00191688,-0.09776088000000001,0.01725192
1779587830190335035,A_+,0.6087554401879061,0.0,1.4730055288056545,-2.9125007359730173,-0.09169959889978208,-0.017296212887263806,0.0,0.0,0.0,0.0,0.0,0.0,0.0,-0.3402,-0.184275,0.864675,0.0,-0.09296868,0.01341816
1779587830190335035,A_+,0.6109601148750698,0.0,1.4730055288056545,-2.9125007359730173,-0.09169959889978208,-0.017296212887263806,0.0,0.0,0.0,0.0,0.0,0.0,0.0,-0.3402,-0.184275,0.864675,0.0,-0.09296868,0.01341816
1779587830190335035,A_+,0.6129931582504469,0.0,1.4730055288056545,-2.9125007359730173,-0.09169959889978208,-0.017296212887263806,0.0,0.0,0.0,0.0,0.0,0.0,0.0,-0.3402,-0.184275,0.864675,0.0,-0.09296868,0.01341816
1779587830225353956,A_+,0.6150023062502896,0.0,1.4730055288056545,-2.9125007359730173,-0.09169959889978208,-0.017296212887263806,0.0,0.0,0.0,0.0,0.0,0.0,0.0,-0.3402,-0.19372499999999998,0.8552249999999999,-0.0047922,-0.09967776,0.0047922
1779587830225353956,A_+,0.61718818462532,0.0,1.4730055288056545,-2.9125007359730173,-0.09169959889978208,-0.017296212887263806,0.0,0.0,0.0,0.0,0.0,0.0,0.0,-0.3402,-0.19372499999999998,0.8552249999999999,-0.0047922,-0.09967776,0.0047922
1779587830225353956,A_+,0.6192259618128446,0.0,1.4730055288056545,-2.9125007359730173,-0.09169959889978208,-0.017296212887263806,0.0,0.0,0.0,0.0,0.0,0.0,0.0,-0.3402,-0.19372499999999998,0.8552249999999999,-0.0047922,-0.09967776,0.0047922
1779587830254979610,A_+,0.6212437608753589,0.0,1.4730055288056545,-2.9125007359730173,-0.09169959889978208,-0.017296212887263806,0.0,0.0,0.0,0.0,0.0,0.0,0.0,-0.326025,-0.19845,0.8504999999999999,0.0,-0.09680244,0.01245972
1779587830254979610,A_+,0.6234529650002969,0.0,1.4730055288056545,-2.9125007359730173,-0.09169959889978208,-0.017296212887263806,0.0,0.0,0.0,0.0,0.0,0.0,0.0,-0.326025,-0.19845,0.8504999999999999,0.0,-0.09680244,0.01245972
1779587830254979610,A_+,0.6254705060628112,0.0,1.4730055288056545,-2.9125007359730173,-0.09169959889978208,-0.017296212887263806,0.0,0.0,0.0,0.0,0.0,0.0,0.0,-0.326025,-0.19845,0.8504999999999999,0.0,-0.09680244,0.01245972
1779587830279730558,A_+,0.6274926365624651,0.0,1.4730055288056545,-2.9125007359730173,-0.09169959889978208,-0.017296212887263806,0.0,0.0,0.0,0.0,0.0,0.0,0.0,-0.33075,-0.184275,0.8552249999999999,-0.00095844,-0.09296868,0.01054284
1779587830279730558,A_+,0.6296552253754726,0.0,1.4730055288056545,-2.9125007359730173,-0.09169959889978208,-0.017296212887263806,0.0,0.0,0.0,0.0,0.0,0.0,0.0,-0.33075,-0.184275,0.8552249999999999,-0.00095844,-0.09296868,0.01054284
1779587830279730558,A_+,0.6316798216873849,0.0,1.4730055288056545,-2.9125007359730173,-0.09169959889978208,-0.017296212887263806,0.0,0.0,0.0,0.0,0.0,0.0,0.0,-0.33075,-0.184275,0.8552249999999999,-0.00095844,-0.09296868,0.01054284
1779587830309353828,A_+,0.633667845750324,0.0,1.4730055288056545,-2.9125007359730173,-0.09169959889978208,-0.017296212887263806,0.0,0.0,0.0,0.0,0.0,0.0,0.0,-0.3449249999999999,-0.20789999999999997,0.8504999999999999,-0.00095844,-0.09680244,0.023961
1779587830309353828,A_+,0.6358486366873422,0.0,1.4730055288056545,-2.9125007359730173,-0.09169959889978208,-0.017296212887263806,0.0,0.0,0.0,0.0,0.0,0.0,0.0,-0.3449249999999999,-0.20789999999999997,0.8504999999999999,-0.00095844,-0.09680244,0.023961
1779587830309353828,A_+,0.6378985625628957,0.0,1.4730055288056545,-2.9125007359730173,-0.09169959889978208,-0.017296212887263806,0.0,0.0,0.0,0.0,0.0,0.0,0.0,-0.3449249999999999,-0.20789999999999997,0.8504999999999999,-0.00095844,-0.09680244,0.023961
1779587830324344635,A_+,0.639909630375314,0.0,1.4730055288056545,-2.9125007359730173,-0.09169959889978208,-0.017296212887263806,0.0,0.0,0.0,0.0,0.0,0.0,0.0,-0.3449249999999999,-0.184275,0.8410499999999999,-0.00095844,-0.09009336,0.00862596
1779587830324344635,A_+,0.6421274555625587,0.0,1.4730055288056545,-2.9125007359730173,-0.09169959889978208,-0.017296212887263806,0.0,0.0,0.0,0.0,0.0,0.0,0.0,-0.3449249999999999,-0.184275,0.8410499999999999,-0.00095844,-0.09009336,0.00862596
1779587830324344635,A_+,0.6441684543749489,0.0,1.4730055288056545,-2.9125007359730173,-0.09169959889978208,-0.017296212887263806,0.0,0.0,0.0,0.0,0.0,0.0,0.0,-0.3449249999999999,-0.184275,0.8410499999999999,-0.00095844,-0.09009336,0.00862596
1779587830349472761,A_+,0.6461660353129446,0.0,1.4730055288056545,-2.9125007359730173,-0.09169959889978208,-0.017296212887263806,0.0,0.0,0.0,0.0,0.0,0.0,0.0,-0.316575,-0.184275,0.8457749999999999,-0.00670908,-0.09776088000000001,0.02012724
1779587830349472761,A_+,0.6483753236252596,0.0,1.4730055288056545,-2.9125007359730173,-0.09169959889978208,-0.017296212887263806,0.0,0.0,0.0,0.0,0.0,0.0,0.0,-0.316575,-0.184275,0.8457749999999999,-0.00670908,-0.09776088000000001,0.02012724
1779587830349472761,A_+,0.6504096689998278,0.0,1.4730055288056545,-2.9125007359730173,-0.09169959889978208,-0.017296212887263806,0.0,0.0,0.0,0.0,0.0,0.0,0.0,-0.316575,-0.184275,0.8457749999999999,-0.00670908,-0.09776088000000001,0.02012724
1779587830374307155,A_+,0.6524188708128804,0.0,1.4730055288056545,-2.9125007359730173,-0.09169959889978208,-0.017296212887263806,0.0,0.0,0.0,0.0,0.0,0.0,0.0,-0.3402,-0.184275,0.8504999999999999,0.00287532,-0.09871932,0.01341816
1779587830374307155,A_+,0.6545851552498334,0.0,1.4730055288056545,-2.9125007359730173,-0.09169959889978208,-0.017296212887263806,0.0,0.0,0.0,0.0,0.0,0.0,0.0,-0.3402,-0.184275,0.8504999999999999,0.00287532,-0.09871932,0.01341816
1779587830374307155,A_+,0.6565927912499774,0.0,1.4730055288056545,-2.9125007359730173,-0.09169959889978208,-0.017296212887263806,0.0,0.0,0.0,0.0,0.0,0.0,0.0,-0.3402,-0.184275,0.8504999999999999,0.00287532,-0.09871932,0.01341816
1779587830415057420,A_+,0.6585872645625841,0.0,1.4730055288056545,-2.9125007359730173,-0.09169959889978208,-0.017296212887263806,0.0,0.0,0.0,0.0,0.0,0.0,0.0,-0.34964999999999996,-0.19372499999999998,0.8504999999999999,-0.00095844,-0.095844,0.01341816
1779587830415057420,A_+,0.6608038541251062,0.0,1.4730055288056545,-2.9125007359730173,-0.09169959889978208,-0.017296212887263806,0.0,0.0,0.0,0.0,0.0,0.0,0.0,-0.34964999999999996,-0.19372499999999998,0.8504999999999999,-0.00095844,-0.095844,0.01341816
1779587830415057420,A_+,0.6628209751879695,0.0,1.4730055288056545,-2.9125007359730173,-0.09169959889978208,-0.017296212887263806,0.0,0.0,0.0,0.0,0.0,0.0,0.0,-0.34964999999999996,-0.19372499999999998,0.8504999999999999,-0.00095844,-0.095844,0.01341816
1779587830449281215,A_+,0.664833164812535,0.0,1.4730055288056545,-2.9125007359730173,-0.09169959889978208,-0.017296212887263806,0.0,0.0,0.0,0.0,0.0,0.0,0.0,-0.3402,-0.17482499999999998,0.8457749999999999,-0.0047922,-0.09776088000000001,0.01054284
1779587830449281215,A_+,0.6669522397501169,0.0,1.4730055288056545,-2.9125007359730173,-0.09169959889978208,-0.017296212887263806,0.0,0.0,0.0,0.0,0.0,0.0,0.0,-0.3402,-0.17482499999999998,0.8457749999999999,-0.0047922,-0.09776088000000001,0.01054284
1779587830449281215,A_+,0.6689605897502133,0.0,1.4730055288056545,-2.9125007359730173,-0.09169959889978208,-0.017296212887263806,0.0,0.0,0.0,0.0,0.0,0.0,0.0,-0.3402,-0.17482499999999998,0.8457749999999999,-0.0047922,-0.09776088000000001,0.01054284
1779587830470127344,A_+,0.6709417443748862,0.0,1.4730055288056545,-2.9125007359730173,-0.09169959889978208,-0.017296212887263806,0.0,0.0,0.0,0.0,0.0,0.0,0.0,-0.33075,-0.184275,0.8504999999999999,0.00095844,-0.095844,0.01245972
1779587830470127344,A_+,0.6731147482503275,0.0,1.4730055288056545,-2.9125007359730173,-0.09169959889978208,-0.017296212887263806,0.0,0.0,0.0,0.0,0.0,0.0,0.0,-0.33075,-0.184275,0.8504999999999999,0.00095844,-0.095844,0.01245972
1779587830470127344,A_+,0.6751586206878528,0.0,1.4730055288056545,-2.9125007359730173,-0.09169959889978208,-0.017296212887263806,0.0,0.0,0.0,0.0,0.0,0.0,0.0,-0.33075,-0.184275,0.8504999999999999,0.00095844,-0.095844,0.01245972
1779587830514270067,A_+,0.6771885024377298,0.0,1.4730055288056545,-2.9125007359730173,-0.09169959889978208,-0.017296212887263806,0.0,0.0,0.0,0.0,0.0,0.0,0.0,-0.3449249999999999,-0.189,0.8363249999999999,-0.00095844,-0.09296868,0.03642072
1779587830514270067,A_+,0.6794312673748664,0.0,1.4730055288056545,-2.9125007359730173,-0.09169959889978208,-0.017296212887263806,0.0,0.0,0.0,0.0,0.0,0.0,0.0,-0.3449249999999999,-0.189,0.8363249999999999,-0.00095844,-0.09296868,0.03642072
1779587830514270067,A_+,0.681485386875238,0.0,1.4730055288056545,-2.9125007359730173,-0.09169959889978208,-0.017296212887263806,0.0,0.0,0.0,0.0,0.0,0.0,0.0,-0.3449249999999999,-0.189,0.8363249999999999,-0.00095844,-0.09296868,0.03642072
1779587830549372911,A_+,0.6834942286873229,0.0,1.4730055288056545,-2.9125007359730173,-0.09169959889978208,-0.017296212887263806,0.0,0.0,0.0,0.0,0.0,0.0,0.0,-0.33075,-0.1701,0.826875,-0.01725192,-0.0910518,0.0095844
1779587830549372911,A_+,0.685734311812439,0.0,1.4730055288056545,-2.9125007359730173,-0.09169959889978208,-0.017296212887263806,0.0,0.0,0.0,0.0,0.0,0.0,0.0,-0.33075,-0.1701,0.826875,-0.01725192,-0.0910518,0.0095844
1779587830549372911,A_+,0.6877726468126184,0.0,1.4730055288056545,-2.9125007359730173,-0.09169959889978208,-0.017296212887263806,0.0,0.0,0.0,0.0,0.0,0.0,0.0,-0.33075,-0.1701,0.826875,-0.01725192,-0.0910518,0.0095844
1779587830655075788,A_+,0.689780318999965,0.0,1.4730055288056545,-2.9125007359730173,-0.09169959889978208,-0.017296212887263806,0.0,0.0,0.0,0.0,0.0,0.0,0.0,-0.335475,-0.184275,0.8410499999999999,-0.00383376,-0.09392712,0.014376599999999998
1779587830655075788,A_+,0.6919692990004478,0.0,1.4730055288056545,-2.9125007359730173,-0.09169959889978208,-0.017296212887263806,0.0,0.0,0.0,0.0,0.0,0.0,0.0,-0.335475,-0.184275,0.8410499999999999,-0.00383376,-0.09392712,0.014376599999999998
1779587830655075788,A_+,0.6939782309998463,0.0,1.4730055288056545,-2.9125007359730173,-0.09169959889978208,-0.017296212887263806,0.0,0.0,0.0,0.0,0.0,0.0,0.0,-0.335475,-0.184275,0.8410499999999999,-0.00383376,-0.09392712,0.014376599999999998
1779587830739238739,A_+,0.6959669928749008,0.0,1.4730055288056545,-2.9125007359730173,-0.09169959889978208,-0.017296212887263806,0.0,0.0,0.0,0.0,0.0,0.0,0.0,-0.3449249999999999,-0.16065,0.8552249999999999,-0.00191688,-0.09009336,0.01054284
1779587830739238739,A_+,0.6981538252500741,0.0,1.4730055288056545,-2.9125007359730173,-0.09169959889978208,-0.017296212887263806,0.0,0.0,0.0,0.0,0.0,0.0,0.0,-0.3449249999999999,-0.16065,0.8552249999999999,-0.00191688,-0.09009336,0.01054284
1779587830739238739,A_+,0.7001909064374559,0.0,1.4730055288056545,-2.9125007359730173,-0.09169959889978208,-0.017296212887263806,0.0,0.0,0.0,0.0,0.0,0.0,0.0,-0.3449249999999999,-0.16065,0.8552249999999999,-0.00191688,-0.09009336,0.01054284
1779587830784193754,A_+,0.7021955188126867,0.0,1.4730055288056545,-2.9125007359730173,-0.09169959889978208,-0.017296212887263806,0.0,0.0,0.0,0.0,0.0,0.0,0.0,-0.33075,-0.17955,0.8410499999999999,-0.00670908,-0.10159463999999999,0.02108568
1779587830784193754,A_+,0.7044475886248165,0.0,1.4730055288056545,-2.9125007359730173,-0.09169959889978208,-0.017296212887263806,0.0,0.0,0.0,0.0,0.0,0.0,0.0,-0.33075,-0.17955,0.8410499999999999,-0.00670908,-0.10159463999999999,0.02108568
1779587830784193754,A_+,0.7064687953129578,0.0,1.4730055288056545,-2.9125007359730173,-0.09169959889978208,-0.017296212887263806,0.0,0.0,0.0,0.0,0.0,0.0,0.0,-0.33075,-0.17955,0.8410499999999999,-0.00670908,-0.10159463999999999,0.02108568
1779587830834201097,A_+,0.7084618528124338,0.0,1.4730055288056545,-2.9125007359730173,-0.09169959889978208,-0.017296212887263806,0.0,0.0,0.0,0.0,0.0,0.0,0.0,-0.35437499999999994,-0.1701,0.8694,-0.00191688,-0.09009336,0.01341816
1779587830834201097,A_+,0.7106392361251892,0.0,1.4730055288056545,-2.9125007359730173,-0.09169959889978208,-0.017296212887263806,0.0,0.0,0.0,0.0,0.0,0.0,0.0,-0.35437499999999994,-0.1701,0.8694,-0.00191688,-0.09009336,0.01341816
1779587830834201097,A_+,0.7126878481878975,0.0,1.4730055288056545,-2.9125007359730173,-0.09169959889978208,-0.017296212887263806,0.0,0.0,0.0,0.0,0.0,0.0,0.0,-0.35437499999999994,-0.1701,0.8694,-0.00191688,-0.09009336,0.01341816
1779587830879226207,A_+,0.7146806476873735,0.0,1.4730055288056545,-2.9125007359730173,-0.09169959889978208,-0.017296212887263806,0.0,0.0,0.0,0.0,0.0,0.0,0.0,-0.3449249999999999,-0.21262499999999998,0.8552249999999999,-0.00287532,-0.09488556,0.02108568
1779587830879226207,A_+,0.7168555051878229,0.0,1.4730055288056545,-2.9125007359730173,-0.09169959889978208,-0.017296212887263806,0.0,0.0,0.0,0.0,0.0,0.0,0.0,-0.3449249999999999,-0.21262499999999998,0.8552249999999999,-0.00287532,-0.09488556,0.02108568
1779587830879226207,A_+,0.7188928203754585,0.0,1.4730055288056545,-2.9125007359730173,-0.09169959889978208,-0.017296212887263806,0.0,0.0,0.0,0.0,0.0,0.0,0.0,-0.3449249999999999,-0.21262499999999998,0.8552249999999999,-0.00287532,-0.09488556,0.02108568
1779587830909677505,A_+,0.7209033001879561,0.0,1.4730055288056545,-2.9125007359730173,-0.09169959889978208,-0.017296212887263806,0.0,0.0,0.0,0.0,0.0,0.0,0.0,-0.31185,-0.17482499999999998,0.8363249999999999,-0.00383376,-0.09776088000000001,0.01245972
1779587830909677505,A_+,0.7231850191878948,0.0,1.4730055288056545,-2.9125007359730173,-0.09169959889978208,-0.017296212887263806,0.0,0.0,0.0,0.0,0.0,0.0,0.0,-0.31185,-0.17482499999999998,0.8363249999999999,-0.00383376,-0.09776088000000001,0.01245972
1779587830909677505,A_+,0.7252312494374564,0.0,1.4730055288056545,-2.9125007359730173,-0.09169959889978208,-0.017296212887263806,0.0,0.0,0.0,0.0,0.0,0.0,0.0,-0.31185,-0.17482499999999998,0.8363249999999999,-0.00383376,-0.09776088000000001,0.01245972
1779587830944179534,A_+,0.7272420050628625,0.0,1.4730055288056545,-2.9125007359730173,-0.09169959889978208,-0.017296212887263806,0.0,0.0,0.0,0.0,0.0,0.0,0.0,-0.326025,-0.184275,0.8457749999999999,-0.00095844,-0.09392712,0.014376599999999998
1779587830944179534,A_+,0.7294365946875132,0.0,1.4730055288056545,-2.9125007359730173,-0.09169959889978208,-0.017296212887263806,0.0,0.0,0.0,0.0,0.0,0.0,0.0,-0.326025,-0.184275,0.8457749999999999,-0.00095844,-0.09392712,0.014376599999999998
1779587830944179534,A_+,0.7314849487502215,0.0,1.4730055288056545,-2.9125007359730173,-0.09169959889978208,-0.017296212887263806,0.0,0.0,0.0,0.0,0.0,0.0,0.0,-0.326025,-0.184275,0.8457749999999999,-0.00095844,-0.09392712,0.014376599999999998
1779587830979177713,A_+,0.7334905329378216,0.0,1.4730055288056545,-2.9125007359730173,-0.09169959889978208,-0.017296212887263806,0.0,0.0,0.0,0.0,0.0,0.0,0.0,-0.33075,-0.184275,0.8410499999999999,0.0,-0.09680244,0.01821036
1779587830979177713,A_+,0.7358860366873614,0.0,1.4730055288056545,-2.9125007359730173,-0.09169959889978208,-0.017296212887263806,0.0,0.0,0.0,0.0,0.0,0.0,0.0,-0.33075,-0.184275,0.8410499999999999,0.0,-0.09680244,0.01821036
1779587830979177713,A_+,0.7379327469379859,0.0,1.4730055288056545,-2.9125007359730173,-0.09169959889978208,-0.017296212887263806,0.0,0.0,0.0,0.0,0.0,0.0,0.0,-0.33075,-0.184275,0.8410499999999999,0.0,-0.09680244,0.01821036
1779587831014214754,A_+,0.7399471685628214,0.0,1.4730055288056545,-2.9125007359730173,-0.09169959889978208,-0.017296212887263806,0.0,0.0,0.0,0.0,0.0,0.0,0.0,-0.33075,-0.17482499999999998,0.8363249999999999,-0.00383376,-0.09201024,0.02108568
1779587831014214754,A_+,0.742355169375287,0.0,1.4730055288056545,-2.9125007359730173,-0.09169959889978208,-0.017296212887263806,0.0,0.0,0.0,0.0,0.0,0.0,0.0,-0.33075,-0.17482499999999998,0.8363249999999999,-0.00383376,-0.09201024,0.02108568
1779587831014214754,A_+,0.7443993841877727,0.0,1.4730055288056545,-2.9125007359730173,-0.09169959889978208,-0.017296212887263806,0.0,0.0,0.0,0.0,0.0,0.0,0.0,-0.33075,-0.17482499999999998,0.8363249999999999,-0.00383376,-0.09201024,0.02108568
1779587831049149513,A_+,0.7464106920003815,0.0,1.4730055288056545,-2.9125007359730173,-0.09169959889978208,-0.017296212887263806,0.0,0.0,0.0,0.0,0.0,0.0,0.0,-0.335475,-0.165375,0.8457749999999999,0.0,-0.09296868,0.0095844
1779587831049149513,A_+,0.7488075819378537,0.0,1.4730055288056545,-2.9125007359730173,-0.09169959889978208,-0.017296212887263806,0.0,0.0,0.0,0.0,0.0,0.0,0.0,-0.335475,-0.165375,0.8457749999999999,0.0,-0.09296868,0.0095844
1779587831049149513,A_+,0.7508503387500696,0.0,1.4730055288056545,-2.9125007359730173,-0.09169959889978208,-0.017296212887263806,0.0,0.0,0.0,0.0,0.0,0.0,0.0,-0.335475,-0.165375,0.8457749999999999,0.0,-0.09296868,0.0095844
1779587831084147691,A_+,0.7528595649373528,0.0,1.4730055288056545,-2.9125007359730173,-0.09169959889978208,-0.017296212887263806,0.0,0.0,0.0,0.0,0.0,0.0,0.0,-0.326025,-0.165375,0.8504999999999999,-0.00191688,-0.095844,0.01821036
1779587831084147691,A_+,0.755023095749948,0.0,1.4730055288056545,-2.9125007359730173,-0.09169959889978208,-0.017296212887263806,0.0,0.0,0.0,0.0,0.0,0.0,0.0,-0.326025,-0.165375,0.8504999999999999,-0.00191688,-0.095844,0.01821036
1779587831084147691,A_+,0.75703715737518,0.0,1.4730055288056545,-2.9125007359730173,-0.09169959889978208,-0.017296212887263806,0.0,0.0,0.0,0.0,0.0,0.0,0.0,-0.326025,-0.165375,0.8504999999999999,-0.00191688,-0.095844,0.01821036
1779587831114143133,A_+,0.7590199561877853,0.0,1.4730055288056545,-2.9125007359730173,-0.09169959889978208,-0.017296212887263806,0.0,0.0,0.0,0.0,0.0,0.0,0.0,-0.335475,-0.19845,0.8315999999999999,-0.00095844,-0.10255307999999999,0.01533504
1779587831114143133,A_+,0.7611540840002817,0.0,1.4730055288056545,-2.9125007359730173,-0.09169959889978208,-0.017296212887263806,0.0,0.0,0.0,0.0,0.0,0.0,0.0,-0.335475,-0.19845,0.8315999999999999,-0.00095844,-0.10255307999999999,0.01533504
1779587831114143133,A_+,0.7631779426876619,0.0,1.4730055288056545,-2.9125007359730173,-0.09169959889978208,-0.017296212887263806,0.0,0.0,0.0,0.0,0.0,0.0,0.0,-0.335475,-0.19845,0.8315999999999999,-0.00095844,-0.10255307999999999,0.01533504
1779587831149114608,A_+,0.7651701483748639,0.0,1.4730055288056545,-2.9125007359730173,-0.09169959889978208,-0.017296212887263806,0.0,0.0,0.0,0.0,0.0,0.0,0.0,-0.3402,-0.21735,0.8504999999999999,-0.00287532,-0.09201024,0.014376599999999998
1779587831149114608,A_+,0.7672751371878803,0.0,1.4730055288056545,-2.9125007359730173,-0.09169959889978208,-0.017296212887263806,0.0,0.0,0.0,0.0,0.0,0.0,0.0,-0.3402,-0.21735,0.8504999999999999,-0.00287532,-0.09201024,0.014376599999999998
1779587831149114608,A_+,0.7692602696251924,0.0,1.4730055288056545,-2.9125007359730173,-0.09169959889978208,-0.017296212887263806,0.0,0.0,0.0,0.0,0.0,0.0,0.0,-0.3402,-0.21735,0.8504999999999999,-0.00287532,-0.09201024,0.014376599999999998
1779587831179123640,A_+,0.7712282797504031,0.0,1.4730055288056545,-2.9125007359730173,-0.09169959889978208,-0.017296212887263806,0.0,0.0,0.0,0.0,0.0,0.0,0.0,-0.3402,-0.21735,0.8410499999999999,0.00191688,-0.09488556,0.01533504
1779587831179123640,A_+,0.7733523585000057,0.0,1.4730055288056545,-2.9125007359730173,-0.09169959889978208,-0.017296212887263806,0.0,0.0,0.0,0.0,0.0,0.0,0.0,-0.3402,-0.21735,0.8410499999999999,0.00191688,-0.09488556,0.01533504
1779587831179123640,A_+,0.7753649203123132,0.0,1.4730055288056545,-2.9125007359730173,-0.09169959889978208,-0.017296212887263806,0.0,0.0,0.0,0.0,0.0,0.0,0.0,-0.3402,-0.21735,0.8410499999999999,0.00191688,-0.09488556,0.01533504
1779587831214097976,A_+,0.777379161937688,0.0,1.4730055288056545,-2.9125007359730173,-0.09169959889978208,-0.017296212887263806,0.0,0.0,0.0,0.0,0.0,0.0,0.0,-0.33075,-0.155925,0.8504999999999999,0.00191688,-0.09871932,0.01245972
1779587831214097976,A_+,0.7795395433129215,0.0,1.4730055288056545,-2.9125007359730173,-0.09169959889978208,-0.017296212887263806,0.0,0.0,0.0,0.0,0.0,0.0,0.0,-0.33075,-0.155925,0.8504999999999999,0.00191688,-0.09871932,0.01245972
1779587831214097976,A_+,0.781547203500395,0.0,1.4730055288056545,-2.9125007359730173,-0.09169959889978208,-0.017296212887263806,0.0,0.0,0.0,0.0,0.0,0.0,0.0,-0.33075,-0.155925,0.8504999999999999,0.00191688,-0.09871932,0.01245972
1779587831244108676,A_+,0.7835522000625588,0.0,1.4730055288056545,-2.9125007359730173,-0.09169959889978208,-0.017296212887263806,0.0,0.0,0.0,0.0,0.0,0.0,0.0,-0.33075,-0.20789999999999997,0.8457749999999999,0.0,-0.09488556,0.023961
1779587831244108676,A_+,0.7857313173753937,0.0,1.4730055288056545,-2.9125007359730173,-0.09169959889978208,-0.017296212887263806,0.0,0.0,0.0,0.0,0.0,0.0,0.0,-0.33075,-0.20789999999999997,0.8457749999999999,0.0,-0.09488556,0.023961
1779587831244108676,A_+,0.7878208336876469,0.0,1.4730055288056545,-2.9125007359730173,-0.09169959889978208,-0.017296212887263806,0.0,0.0,0.0,0.0,0.0,0.0,0.0,-0.33075,-0.20789999999999997,0.8457749999999999,0.0,-0.09488556,0.023961
1779587831279104948,A_+,0.7900052244378912,0.0,1.4730055288056545,-2.9125007359730173,-0.09169959889978208,-0.017296212887263806,0.0,0.0,0.0,0.0,0.0,0.0,0.0,-0.34964999999999996,-0.19372499999999998,0.8410499999999999,0.0,-0.09201024,0.01821036
1779587831279104948,A_+,0.7921556647504531,0.0,1.4730055288056545,-2.9125007359730173,-0.09169959889978208,-0.017296212887263806,0.0,0.0,0.0,0.0,0.0,0.0,0.0,-0.34964999999999996,-0.19372499999999998,0.8410499999999999,0.0,-0.09201024,0.01821036
1779587831279104948,A_+,0.7941709021879433,0.0,1.4730055288056545,-2.9125007359730173,-0.09169959889978208,-0.017296212887263806,0.0,0.0,0.0,0.0,0.0,0.0,0.0,-0.34964999999999996,-0.19372499999999998,0.8410499999999999,0.0,-0.09201024,0.01821036
1779587831314087629,A_+,0.7961646018750344,0.0,1.4730055288056545,-2.9125007359730173,-0.09169959889978208,-0.017296212887263806,0.0,0.0,0.0,0.0,0.0,0.0,0.0,-0.326025,-0.19372499999999998,0.8315999999999999,-0.00383376,-0.0910518,0.01245972
1779587831314087629,A_+,0.7983316005002052,0.0,1.4730055288056545,-2.9125007359730173,-0.09169959889978208,-0.017296212887263806,0.0,0.0,0.0,0.0,0.0,0.0,0.0,-0.326025,-0.19372499999999998,0.8315999999999999,-0.00383376,-0.0910518,0.01245972
1779587831314087629,A_+,0.8004082299378297,0.0,1.4730055288056545,-2.9125007359730173,-0.09169959889978208,-0.017296212887263806,0.0,0.0,0.0,0.0,0.0,0.0,0.0,-0.326025,-0.19372499999999998,0.8315999999999999,-0.00383376,-0.0910518,0.01245972
1779587831344315767,A_+,0.8024259031878955,0.0,1.4730055288056545,-2.9125007359730173,-0.09169959889978208,-0.017296212887263806,0.0,0.0,0.0,0.0,0.0,0.0,0.0,-0.3449249999999999,-0.189,0.864675,-0.01629348,-0.09680244,0.01533504
1779587831344315767,A_+,0.8045828227504899,0.0,1.4730055288056545,-2.9125007359730173,-0.09169959889978208,-0.017296212887263806,0.0,0.0,0.0,0.0,0.0,0.0,0.0,-0.3449249999999999,-0.189,0.864675,-0.01629348,-0.09680244,0.01533504
1779587831344315767,A_+,0.8065991581879643,0.0,1.4730055288056545,-2.9125007359730173,-0.09169959889978208,-0.017296212887263806,0.0,0.0,0.0,0.0,0.0,0.0,0.0,-0.3449249999999999,-0.189,0.864675,-0.01629348,-0.09680244,0.01533504
1779587831379098176,A_+,0.8086753856250652,0.0,1.4730055288056545,-2.9125007359730173,-0.09169959889978208,-0.017296212887263806,0.0,0.0,0.0,0.0,0.0,0.0,0.0,-0.34964999999999996,-0.165375,0.8363249999999999,0.0,-0.09392712,0.014376599999999998
1779587831379098176,A_+,0.8110387509375414,0.0,1.4730055288056545,-2.9125007359730173,-0.09169959889978208,-0.017296212887263806,0.0,0.0,0.0,0.0,0.0,0.0,0.0,-0.34964999999999996,-0.165375,0.8363249999999999,0.0,-0.09392712,0.014376599999999998
1779587831379098176,A_+,0.8131593380624054,0.0,1.4730055288056545,-2.9125007359730173,-0.09169959889978208,-0.017296212887263806,0.0,0.0,0.0,0.0,0.0,0.0,0.0,-0.34964999999999996,-0.165375,0.8363249999999999,0.0,-0.09392712,0.014376599999999998
1779587831414085149,A_+,0.8153123340000548,0.0,1.4730055288056545,-2.9125007359730173,-0.09169959889978208,-0.017296212887263806,0.0,0.0,0.0,0.115,0.0,0.0,0.0,-0.326025,-0.189,0.4725,-0.0047922,-0.09680244,0.01245972
1779587831414085149,A_+,0.8176368170627484,0.0,1.4730055288056545,-2.9125007359730173,-0.09169959889978208,-0.017296212887263806,0.0,0.0,0.0,0.115,0.0,0.0,0.0,-0.326025,-0.189,0.4725,-0.0047922,-0.09680244,0.01245972
1779587831414085149,A_+,0.8197039074375425,0.0,1.4730055288056545,-2.9125007359730173,-0.09169959889978208,-0.017296212887263806,0.0,0.0,0.0,0.115,0.0,0.0,0.0,-0.326025,-0.189,0.4725,-0.0047922,-0.09680244,0.01245972
