deepaktalwardt/rage-cage-arm-hackstorm/ros2/ws/sysid/runs/sysid_20260524_010901/raw/joint2_phaseA_neg.csv
t_ns,phase,tau_cmd,q1,q2,q3,q4,q5,q6,qd1,qd2,qd3,qd4,qd5,qd6,tau1,tau2,tau3,tau4,tau5,tau6
1779584996378417730,A_-,-9.999985195463523e-08,0.0,-0.039426987802551904,-1.999519004254784,0.0,-0.013002702927357754,0.0,0.0,0.0,0.0,0.0,0.0,0.0,-0.3591,0.061425,3.5106749999999995,-0.06421548,0.6038171999999999,0.01821036
1779584996378417730,A_-,-0.0014547107498401601,0.0,-0.039426987802551904,-1.999519004254784,0.0,-0.013002702927357754,0.0,0.0,0.0,0.0,0.0,0.0,0.0,-0.3591,0.061425,3.5106749999999995,-0.06421548,0.6038171999999999,0.01821036
1779584996378417730,A_-,-0.0028092781249142718,0.0,-0.039426987802551904,-1.999519004254784,0.0,-0.013002702927357754,0.0,0.0,0.0,0.0,0.0,0.0,0.0,-0.3591,0.061425,3.5106749999999995,-0.06421548,0.6038171999999999,0.01821036
1779584996394470691,A_-,-0.004145185625020531,0.0,-0.039426987802551904,-1.999519004254784,0.0,-0.013002702927357754,0.0,0.0,0.0,0.0,0.0,0.0,0.0,-0.36855,0.0945,3.4964999999999997,-0.0622986,0.60573408,0.00383376
1779584996394470691,A_-,-0.005615560249680129,0.0,-0.039426987802551904,-1.999519004254784,0.0,-0.013002702927357754,0.0,0.0,0.0,0.0,0.0,0.0,0.0,-0.36855,0.0945,3.4964999999999997,-0.0622986,0.60573408,0.00383376
1779584996394470691,A_-,-0.006923703999746067,0.0,-0.039426987802551904,-1.999519004254784,0.0,-0.013002702927357754,0.0,0.0,0.0,0.0,0.0,0.0,0.0,-0.36855,0.0945,3.4964999999999997,-0.0622986,0.60573408,0.00383376
1779584996408483505,A_-,-0.008215195749926352,0.0,-0.039426987802551904,-1.999519004254784,0.0,-0.013002702927357754,0.0,0.0,0.0,0.0,0.0,0.0,0.0,-0.36855,0.06615,3.5153999999999996,-0.06613236,0.60477564,0.0095844
1779584996408483505,A_-,-0.009569115125032113,0.0,-0.039426987802551904,-1.999519004254784,0.0,-0.013002702927357754,0.0,0.0,0.0,0.0,0.0,0.0,0.0,-0.36855,0.06615,3.5153999999999996,-0.06613236,0.60477564,0.0095844
1779584996408483505,A_-,-0.010901682624989917,0.0,-0.039426987802551904,-1.999519004254784,0.0,-0.013002702927357754,0.0,0.0,0.0,0.0,0.0,0.0,0.0,-0.36855,0.06615,3.5153999999999996,-0.06613236,0.60477564,0.0095844
1779584996423399209,A_-,-0.012213878374950582,0.0,-0.039426987802551904,-1.999519004254784,0.0,-0.013002702927357754,0.0,0.0,0.0,0.0,0.0,0.0,0.0,-0.35437499999999994,0.118125,3.501225,-0.06134016,0.60956784,0.0095844
1779584996423399209,A_-,-0.013599909500044305,0.0,-0.039426987802551904,-1.999519004254784,0.0,-0.013002702927357754,0.0,0.0,0.0,0.0,0.0,0.0,0.0,-0.35437499999999994,0.118125,3.501225,-0.06134016,0.60956784,0.0095844
1779584996423399209,A_-,-0.01493040099967402,0.0,-0.039426987802551904,-1.999519004254784,0.0,-0.013002702927357754,0.0,0.0,0.0,0.0,0.0,0.0,0.0,-0.35437499999999994,0.118125,3.501225,-0.06134016,0.60956784,0.0095844
1779584996443406820,A_-,-0.016240520749761345,0.0,-0.039426987802551904,-1.999519004254784,0.0,-0.013002702927357754,0.0,0.0,0.0,0.0,0.0,0.0,0.0,-0.3591,0.06615,3.4917749999999996,-0.059423279999999995,0.60573408,0.01150128
1779584996443406820,A_-,-0.017625655874780932,0.0,-0.039426987802551904,-1.999519004254784,0.0,-0.013002702927357754,0.0,0.0,0.0,0.0,0.0,0.0,0.0,-0.3591,0.06615,3.4917749999999996,-0.059423279999999995,0.60573408,0.01150128
1779584996443406820,A_-,-0.018939187500109256,0.0,-0.039426987802551904,-1.999519004254784,0.0,-0.013002702927357754,0.0,0.0,0.0,0.0,0.0,0.0,0.0,-0.3591,0.06615,3.4917749999999996,-0.059423279999999995,0.60573408,0.01150128
1779584996468410730,A_-,-0.020257575125015137,0.0,-0.039426987802551904,-1.999519004254784,0.0,-0.013002702927357754,0.0,0.0,0.0,0.0,0.0,0.0,0.0,-0.37327499999999997,0.10394999999999999,3.4870499999999995,-0.06613236,0.6009418799999999,0.00191688
1779584996468410730,A_-,-0.02164316237485764,0.0,-0.039426987802551904,-1.999519004254784,0.0,-0.013002702927357754,0.0,0.0,0.0,0.0,0.0,0.0,0.0,-0.37327499999999997,0.10394999999999999,3.4870499999999995,-0.06613236,0.6009418799999999,0.00191688
1779584996468410730,A_-,-0.02296083000010185,0.0,-0.039426987802551904,-1.999519004254784,0.0,-0.013002702927357754,0.0,0.0,0.0,0.0,0.0,0.0,0.0,-0.37327499999999997,0.10394999999999999,3.4870499999999995,-0.06613236,0.6009418799999999,0.00191688
1779584996493427753,A_-,-0.024274065624922514,0.0,-0.039426987802551904,-1.999519004254784,0.0,-0.013002702927357754,0.0,0.0,0.0,0.0,0.0,0.0,0.0,-0.38744999999999996,0.089775,3.4776,-0.0622986,0.6009418799999999,0.00575064
1779584996493427753,A_-,-0.025645076874752704,0.0,-0.039426987802551904,-1.999519004254784,0.0,-0.013002702927357754,0.0,0.0,0.0,0.0,0.0,0.0,0.0,-0.38744999999999996,0.089775,3.4776,-0.0622986,0.6009418799999999,0.00575064
1779584996493427753,A_-,-0.02697065250004016,0.0,-0.039426987802551904,-1.999519004254784,0.0,-0.013002702927357754,0.0,0.0,0.0,0.0,0.0,0.0,0.0,-0.38744999999999996,0.089775,3.4776,-0.0622986,0.6009418799999999,0.00575064
1779584996513417243,A_-,-0.028276572124923405,0.0,-0.039426987802551904,-1.999519004254784,0.0,-0.013002702927357754,0.0,0.0,0.0,0.0,0.0,0.0,0.0,-0.36855,0.0945,3.50595,-0.05846484,0.60573408,0.014376599999999998
1779584996513417243,A_-,-0.029656775374860445,0.0,-0.039426987802551904,-1.999519004254784,0.0,-0.013002702927357754,0.0,0.0,0.0,0.0,0.0,0.0,0.0,-0.36855,0.0945,3.50595,-0.05846484,0.60573408,0.014376599999999998
1779584996513417243,A_-,-0.030973734999861335,0.0,-0.039426987802551904,-1.999519004254784,0.0,-0.013002702927357754,0.0,0.0,0.0,0.0,0.0,0.0,0.0,-0.36855,0.0945,3.50595,-0.05846484,0.60573408,0.014376599999999998
1779584996569050788,A_-,-0.03228666662471369,0.0,-0.039426987802551904,-1.999519004254784,0.0,-0.013002702927357754,0.0,0.0,0.0,0.0,0.0,0.0,0.0,-0.36855,0.070875,3.5201249999999997,-0.0622986,0.60765096,0.0
1779584996569050788,A_-,-0.033659113999874535,0.0,-0.039426987802551904,-1.999519004254784,0.0,-0.013002702927357754,0.0,0.0,0.0,0.0,0.0,0.0,0.0,-0.36855,0.070875,3.5201249999999997,-0.0622986,0.60765096,0.0
1779584996569050788,A_-,-0.03497186962476917,0.0,-0.039426987802551904,-1.999519004254784,0.0,-0.013002702927357754,0.0,0.0,0.0,0.0,0.0,0.0,0.0,-0.36855,0.070875,3.5201249999999997,-0.0622986,0.60765096,0.0
1779584996588978528,A_-,-0.03627453324997987,0.0,-0.039426987802551904,-1.999519004254784,0.0,-0.013002702927357754,0.0,0.0,0.0,0.0,0.0,0.0,0.0,-0.37327499999999997,0.099225,3.50595,-0.0622986,0.60573408,0.00095844
1779584996588978528,A_-,-0.03769210824975744,0.0,-0.039426987802551904,-1.999519004254784,0.0,-0.013002702927357754,0.0,0.0,0.0,0.0,0.0,0.0,0.0,-0.37327499999999997,0.099225,3.50595,-0.0622986,0.60573408,0.00095844
1779584996588978528,A_-,-0.03901849987505557,0.0,-0.039426987802551904,-1.999519004254784,0.0,-0.013002702927357754,0.0,0.0,0.0,0.0,0.0,0.0,0.0,-0.37327499999999997,0.099225,3.50595,-0.0622986,0.60573408,0.00095844
1779584996618970870,A_-,-0.040338503499697254,0.0,-0.039426987802551904,-1.999519004254784,0.0,-0.013002702927357754,0.0,0.0,0.0,0.0,0.0,0.0,0.0,-0.36382499999999995,0.08505,3.5342999999999996,-0.05846484,0.60477564,0.00575064
1779584996618970870,A_-,-0.041731198624802346,0.0,-0.039426987802551904,-1.999519004254784,0.0,-0.013002702927357754,0.0,0.0,0.0,0.0,0.0,0.0,0.0,-0.36382499999999995,0.08505,3.5342999999999996,-0.05846484,0.60477564,0.00575064
1779584996618970870,A_-,-0.043057978125034424,0.0,-0.039426987802551904,-1.999519004254784,0.0,-0.013002702927357754,0.0,0.0,0.0,0.0,0.0,0.0,0.0,-0.36382499999999995,0.08505,3.5342999999999996,-0.05846484,0.60477564,0.00575064
1779584996644630908,A_-,-0.04436644587485716,0.0,-0.039426987802551904,-1.999519004254784,0.0,-0.013002702927357754,0.0,0.0,0.0,0.0,0.0,0.0,0.0,-0.37327499999999997,0.11339999999999999,3.548475,-0.06134016,0.6009418799999999,0.01054284
1779584996644630908,A_-,-0.04575182100006714,0.0,-0.039426987802551904,-1.999519004254784,0.0,-0.013002702927357754,0.0,0.0,0.0,0.0,0.0,0.0,0.0,-0.37327499999999997,0.11339999999999999,3.548475,-0.06134016,0.6009418799999999,0.01054284
1779584996644630908,A_-,-0.04707414462473025,0.0,-0.039426987802551904,-1.999519004254784,0.0,-0.013002702927357754,0.0,0.0,0.0,0.0,0.0,0.0,0.0,-0.37327499999999997,0.11339999999999999,3.548475,-0.06134016,0.6009418799999999,0.01054284
1779584996673845052,A_-,-0.048386840249804663,0.0,-0.039426987802551904,-1.999519004254784,0.0,-0.013002702927357754,0.0,0.0,0.0,0.0,0.0,0.0,0.0,-0.37327499999999997,0.05197499999999999,3.5390249999999996,-0.0622986,0.6028587599999999,-0.00766752
1779584996673845052,A_-,-0.04978201537505811,0.0,-0.039426987802551904,-1.999519004254784,0.0,-0.013002702927357754,0.0,0.0,0.0,0.0,0.0,0.0,0.0,-0.37327499999999997,0.05197499999999999,3.5390249999999996,-0.0622986,0.6028587599999999,-0.00766752
1779584996673845052,A_-,-0.05110587899980601,0.0,-0.039426987802551904,-1.999519004254784,0.0,-0.013002702927357754,0.0,0.0,0.0,0.0,0.0,0.0,0.0,-0.37327499999999997,0.05197499999999999,3.5390249999999996,-0.0622986,0.6028587599999999,-0.00766752
1779584996703444480,A_-,-0.05241848262494386,0.0,-0.039426987802551904,-1.999519004254784,0.0,-0.013002702927357754,0.0,0.0,0.0,0.0,0.0,0.0,0.0,-0.378,0.10394999999999999,3.529575,-0.06517392,0.6028587599999999,0.00383376
1779584996703444480,A_-,-0.05380385787475461,0.0,-0.039426987802551904,-1.999519004254784,0.0,-0.013002702927357754,0.0,0.0,0.0,0.0,0.0,0.0,0.0,-0.378,0.10394999999999999,3.529575,-0.06517392,0.6028587599999999,0.00383376
1779584996703444480,A_-,-0.055124353375049395,0.0,-0.039426987802551904,-1.999519004254784,0.0,-0.013002702927357754,0.0,0.0,0.0,0.0,0.0,0.0,0.0,-0.378,0.10394999999999999,3.529575,-0.06517392,0.6028587599999999,0.00383376
1779584996719638109,A_-,-0.0564193172499472,0.0,-0.039426987802551904,-1.999519004254784,0.0,-0.013002702927357754,0.0,0.0,0.0,0.0,0.0,0.0,0.0,-0.35437499999999994,0.108675,3.4917749999999996,-0.0622986,0.60765096,0.00095844
1779584996719638109,A_-,-0.05779064850003124,0.0,-0.039426987802551904,-1.999519004254784,0.0,-0.013002702927357754,0.0,0.0,0.0,0.0,0.0,0.0,0.0,-0.35437499999999994,0.108675,3.4917749999999996,-0.0622986,0.60765096,0.00095844
1779584996719638109,A_-,-0.0591115681249903,0.0,-0.039426987802551904,-1.999519004254784,0.0,-0.013002702927357754,0.0,0.0,0.0,0.0,0.0,0.0,0.0,-0.35437499999999994,0.108675,3.4917749999999996,-0.0622986,0.60765096,0.00095844
1779584996783447027,A_-,-0.060420559749672975,0.0,-0.039426987802551904,-1.999519004254784,0.0,-0.013002702927357754,0.0,0.0,0.0,0.0,0.0,0.0,0.0,-0.36382499999999995,0.089775,3.5390249999999996,-0.06804924000000001,0.60573408,0.00287532
1779584996783447027,A_-,-0.06180826687477747,0.0,-0.039426987802551904,-1.999519004254784,0.0,-0.013002702927357754,0.0,0.0,0.0,0.0,0.0,0.0,0.0,-0.36382499999999995,0.089775,3.5390249999999996,-0.06804924000000001,0.60573408,0.00287532
1779584996783447027,A_-,-0.06313634649995947,0.0,-0.039426987802551904,-1.999519004254784,0.0,-0.013002702927357754,0.0,0.0,0.0,0.0,0.0,0.0,0.0,-0.36382499999999995,0.089775,3.5390249999999996,-0.06804924000000001,0.60573408,0.00287532
1779584996868475437,A_-,-0.06444861812497038,0.0,-0.039426987802551904,-1.999519004254784,0.0,-0.013002702927357754,0.0,0.0,0.0,0.0,0.0,0.0,0.0,-0.36855,0.089775,3.52485,-0.0622986,0.6019003199999999,0.01245972
1779584996868475437,A_-,-0.06592053274971477,0.0,-0.039426987802551904,-1.999519004254784,0.0,-0.013002702927357754,0.0,0.0,0.0,0.0,0.0,0.0,0.0,-0.36855,0.089775,3.52485,-0.0622986,0.6019003199999999,0.01245972
1779584996868475437,A_-,-0.06724270037511815,0.0,-0.039426987802551904,-1.999519004254784,0.0,-0.013002702927357754,0.0,0.0,0.0,0.0,0.0,0.0,0.0,-0.36855,0.089775,3.52485,-0.0622986,0.6019003199999999,0.01245972
1779584996933482408,A_-,-0.06855063600005451,0.0,-0.039426987802551904,-1.999519004254784,0.0,-0.013002702927357754,0.0,0.0,0.0,0.0,0.0,0.0,0.0,-0.3591,0.118125,3.501225,-0.06421548,0.6038171999999999,0.0047922
1779584996933482408,A_-,-0.06993288324974856,0.0,-0.039426987802551904,-1.999519004254784,0.0,-0.013002702927357754,0.0,0.0,0.0,0.0,0.0,0.0,0.0,-0.3591,0.118125,3.501225,-0.06421548,0.6038171999999999,0.0047922
1779584996933482408,A_-,-0.07124869087510888,0.0,-0.039426987802551904,-1.999519004254784,0.0,-0.013002702927357754,0.0,0.0,0.0,0.0,0.0,0.0,0.0,-0.3591,0.118125,3.501225,-0.06421548,0.6038171999999999,0.0047922
1779584996958916187,A_-,-0.07255518262491023,0.0,-0.039426987802551904,-1.999519004254784,0.0,-0.013002702927357754,0.0,0.0,0.0,0.0,0.0,0.0,0.0,-0.3402,0.08505,3.501225,-0.06517392,0.6028587599999999,0.01150128
1779584996958916187,A_-,-0.0739369977500246,0.0,-0.039426987802551904,-1.999519004254784,0.0,-0.013002702927357754,0.0,0.0,0.0,0.0,0.0,0.0,0.0,-0.3402,0.08505,3.501225,-0.06517392,0.6028587599999999,0.01150128
1779584996958916187,A_-,-0.07526166137495238,0.0,-0.039426987802551904,-1.999519004254784,0.0,-0.013002702927357754,0.0,0.0,0.0,0.0,0.0,0.0,0.0,-0.3402,0.08505,3.501225,-0.06517392,0.6028587599999999,0.01150128
1779584996994923591,A_-,-0.07657960899996397,0.0,-0.039426987802551904,-1.999519004254784,0.0,-0.013002702927357754,0.0,0.0,0.0,0.0,0.0,0.0,0.0,-0.36382499999999995,0.08505,3.5153999999999996,-0.06804924000000001,0.60477564,0.01054284
1779584996994923591,A_-,-0.07816393087477991,0.0,-0.039426987802551904,-1.999519004254784,0.0,-0.013002702927357754,0.0,0.0,0.0,0.0,0.0,0.0,0.0,-0.36382499999999995,0.08505,3.5153999999999996,-0.06804924000000001,0.60477564,0.01054284
1779584996994923591,A_-,-0.07961679362506402,0.0,-0.039426987802551904,-1.999519004254784,0.0,-0.013002702927357754,0.0,0.0,0.0,0.0,0.0,0.0,0.0,-0.36382499999999995,0.08505,3.5153999999999996,-0.06804924000000001,0.60477564,0.01054284
1779584997033496618,A_-,-0.08093257724976866,0.0,-0.039426987802551904,-1.999519004254784,0.0,-0.013002702927357754,0.0,0.0,0.0,0.0,0.0,0.0,0.0,-0.35437499999999994,0.070875,3.52485,-0.07284144,0.6038171999999999,0.00766752
1779584997033496618,A_-,-0.08235794024994902,0.0,-0.039426987802551904,-1.999519004254784,0.0,-0.013002702927357754,0.0,0.0,0.0,0.0,0.0,0.0,0.0,-0.35437499999999994,0.070875,3.52485,-0.07284144,0.6038171999999999,0.00766752
1779584997033496618,A_-,-0.08371335962510784,0.0,-0.039426987802551904,-1.999519004254784,0.0,-0.013002702927357754,0.0,0.0,0.0,0.0,0.0,0.0,0.0,-0.35437499999999994,0.070875,3.52485,-0.07284144,0.6038171999999999,0.00766752
1779584997063542127,A_-,-0.08503968712511778,0.0,-0.039426987802551904,-1.999519004254784,0.0,-0.013002702927357754,0.0,0.0,0.0,0.0,0.0,0.0,0.0,-0.37327499999999997,0.0756,3.5342999999999996,-0.059423279999999995,0.60669252,0.01245972
1779584997063542127,A_-,-0.08647515399979966,0.0,-0.039426987802551904,-1.999519004254784,0.0,-0.013002702927357754,0.0,0.0,0.0,0.0,0.0,0.0,0.0,-0.37327499999999997,0.0756,3.5342999999999996,-0.059423279999999995,0.60669252,0.01245972
1779584997063542127,A_-,-0.08785455325005387,0.0,-0.039426987802551904,-1.999519004254784,0.0,-0.013002702927357754,0.0,0.0,0.0,0.0,0.0,0.0,0.0,-0.37327499999999997,0.0756,3.5342999999999996,-0.059423279999999995,0.60669252,0.01245972
1779584997098497390,A_-,-0.08918282474996886,0.0,-0.039426987802551904,-1.999519004254784,0.0,-0.013002702927357754,0.0,0.0,0.0,0.0,0.0,0.0,0.0,-0.382725,0.118125,3.501225,-0.06038172,0.6028587599999999,0.01629348
1779584997098497390,A_-,-0.09058039987485245,0.0,-0.039426987802551904,-1.999519004254784,0.0,-0.013002702927357754,0.0,0.0,0.0,0.0,0.0,0.0,0.0,-0.382725,0.118125,3.501225,-0.06038172,0.6028587599999999,0.01629348
1779584997098497390,A_-,-0.09195459112470417,0.0,-0.039426987802551904,-1.999519004254784,0.0,-0.013002702927357754,0.0,0.0,0.0,0.0,0.0,0.0,0.0,-0.382725,0.118125,3.501225,-0.06038172,0.6028587599999999,0.01629348
1779584997128763914,A_-,-0.09327400675010722,0.0,-0.039426987802551904,-1.999519004254784,0.0,-0.013002702927357754,0.0,0.0,0.0,0.0,0.0,0.0,0.0,-0.37327499999999997,0.099225,3.5342999999999996,-0.0670908,0.6019003199999999,0.0047922
1779584997128763914,A_-,-0.09472939750003206,0.0,-0.039426987802551904,-1.999519004254784,0.0,-0.013002702927357754,0.0,0.0,0.0,0.0,0.0,0.0,0.0,-0.37327499999999997,0.099225,3.5342999999999996,-0.0670908,0.6019003199999999,0.0047922
1779584997128763914,A_-,-0.09607855687499978,0.0,-0.039426987802551904,-1.999519004254784,0.0,-0.013002702927357754,0.0,0.0,0.0,0.0,0.0,0.0,0.0,-0.37327499999999997,0.099225,3.5342999999999996,-0.0670908,0.6019003199999999,0.0047922
1779584997164698600,A_-,-0.09741230037479909,0.0,-0.039426987802551904,-1.999519004254784,0.0,-0.013002702927357754,0.0,0.0,0.0,0.0,0.0,0.0,0.0,-0.35437499999999994,0.12285,3.482325,-0.0622986,0.6028587599999999,0.00670908
1779584997164698600,A_-,-0.0988595752501169,0.0,-0.039426987802551904,-1.999519004254784,0.0,-0.013002702927357754,0.0,0.0,0.0,0.0,0.0,0.0,0.0,-0.35437499999999994,0.12285,3.482325,-0.0622986,0.6028587599999999,0.00670908
1779584997164698600,A_-,-0.10020031862495671,0.0,-0.039426987802551904,-1.999519004254784,0.0,-0.013002702927357754,0.0,0.0,0.0,0.0,0.0,0.0,0.0,-0.35437499999999994,0.12285,3.482325,-0.0622986,0.6028587599999999,0.00670908
1779584997194767713,A_-,-0.10153194224994877,0.0,-0.039426987802551904,-1.999519004254784,0.0,-0.013002702927357754,0.0,0.0,0.0,0.0,0.0,0.0,0.0,-0.3591,0.10394999999999999,3.5437499999999997,-0.06517392,0.61052628,0.00287532
1779584997194767713,A_-,-0.10299058887494539,0.0,-0.039426987802551904,-1.999519004254784,0.0,-0.013002702927357754,0.0,0.0,0.0,0.0,0.0,0.0,0.0,-0.3591,0.10394999999999999,3.5437499999999997,-0.06517392,0.61052628,0.00287532
1779584997194767713,A_-,-0.10440851587509314,0.0,-0.039426987802551904,-1.999519004254784,0.0,-0.013002702927357754,0.0,0.0,0.0,0.0,0.0,0.0,0.0,-0.3591,0.10394999999999999,3.5437499999999997,-0.06517392,0.61052628,0.00287532
1779584997219616889,A_-,-0.10575823537510587,0.0,-0.039426987802551904,-1.999519004254784,0.0,-0.013002702927357754,0.0,0.0,0.0,0.0,0.0,0.0,0.0,-0.3591,0.08505,3.4492499999999997,-0.06325704,0.6028587599999999,0.0
1779584997219616889,A_-,-0.10725148587471267,0.0,-0.039426987802551904,-1.999519004254784,0.0,-0.013002702927357754,0.0,0.0,0.0,0.0,0.0,0.0,0.0,-0.3591,0.08505,3.4492499999999997,-0.06325704,0.6028587599999999,0.0
1779584997219616889,A_-,-0.10874484837495402,0.0,-0.039426987802551904,-1.999519004254784,0.0,-0.013002702927357754,0.0,0.0,0.0,0.0,0.0,0.0,0.0,-0.3591,0.08505,3.4492499999999997,-0.06325704,0.6028587599999999,0.0
1779584997243529319,A_-,-0.11010374362467701,0.0,-0.039426987802551904,-1.999519004254784,0.0,-0.013002702927357754,0.0,0.0,0.0,0.0,0.0,0.0,0.0,-0.378,0.070875,3.501225,-0.059423279999999995,0.6019003199999999,0.00287532
1779584997243529319,A_-,-0.11159486212500269,0.0,-0.039426987802551904,-1.999519004254784,0.0,-0.013002702927357754,0.0,0.0,0.0,0.0,0.0,0.0,0.0,-0.378,0.070875,3.501225,-0.059423279999999995,0.6019003199999999,0.00287532
1779584997243529319,A_-,-0.11302247712501412,0.0,-0.039426987802551904,-1.999519004254784,0.0,-0.013002702927357754,0.0,0.0,0.0,0.0,0.0,0.0,0.0,-0.378,0.070875,3.501225,-0.059423279999999995,0.6019003199999999,0.00287532
1779584997263769388,A_-,-0.11460220299977664,0.0,-0.039426987802551904,-1.999519004254784,0.0,-0.013002702927357754,0.0,0.0,0.0,0.0,0.0,0.0,0.0,-0.36855,0.05669999999999999,3.501225,-0.06613236,0.60573408,0.0095844
1779584997263769388,A_-,-0.11606793774990365,0.0,-0.039426987802551904,-1.999519004254784,0.0,-0.013002702927357754,0.0,0.0,0.0,0.0,0.0,0.0,0.0,-0.36855,0.05669999999999999,3.501225,-0.06613236,0.60573408,0.0095844
1779584997263769388,A_-,-0.11741926112472356,0.0,-0.039426987802551904,-1.999519004254784,0.0,-0.013002702927357754,0.0,0.0,0.0,0.0,0.0,0.0,0.0,-0.36855,0.05669999999999999,3.501225,-0.06613236,0.60573408,0.0095844
1779584997278683900,A_-,-0.1187464486247336,0.0,-0.039426987802551904,-1.999519004254784,0.0,-0.013002702927357754,0.0,0.0,0.0,0.0,0.0,0.0,0.0,-0.36382499999999995,0.08505,3.50595,-0.06517392,0.60573408,0.01533504
1779584997278683900,A_-,-0.120192155499808,0.0,-0.039426987802551904,-1.999519004254784,0.0,-0.013002702927357754,0.0,0.0,0.0,0.0,0.0,0.0,0.0,-0.36382499999999995,0.08505,3.50595,-0.06517392,0.60573408,0.01533504
1779584997278683900,A_-,-0.12161950237486963,0.0,-0.039426987802551904,-1.999519004254784,0.0,-0.013002702927357754,0.0,0.0,0.0,0.0,0.0,0.0,0.0,-0.36382499999999995,0.08505,3.50595,-0.06517392,0.60573408,0.01533504
1779584997299375057,A_-,-0.12299546162466868,0.0,-0.039426987802551904,-1.999519004254784,0.0,-0.013002702927357754,0.0,0.0,0.0,0.0,0.0,0.0,0.0,-0.3591,0.08505,3.482325,-0.05846484,0.60765096,0.01150128
1779584997299375057,A_-,-0.12445146037498489,0.0,-0.039426987802551904,-1.999519004254784,0.0,-0.013002702927357754,0.0,0.0,0.0,0.0,0.0,0.0,0.0,-0.3591,0.08505,3.482325,-0.05846484,0.60765096,0.01150128
1779584997299375057,A_-,-0.12578372387497438,0.0,-0.039426987802551904,-1.999519004254784,0.0,-0.013002702927357754,0.0,0.0,0.0,0.0,0.0,0.0,0.0,-0.3591,0.08505,3.482325,-0.05846484,0.60765096,0.01150128
1779584997314385890,A_-,-0.12710433150004974,0.0,-0.039426987802551904,-1.999519004254784,0.0,-0.013002702927357754,0.0,0.0,0.0,0.0,0.0,0.0,0.0,-0.36855,0.089775,3.5437499999999997,-0.05750639999999999,0.60573408,0.014376599999999998
1779584997314385890,A_-,-0.12855113824980435,0.0,-0.039426987802551904,-1.999519004254784,0.0,-0.013002702927357754,0.0,0.0,0.0,0.0,0.0,0.0,0.0,-0.36855,0.089775,3.5437499999999997,-0.05750639999999999,0.60573408,0.014376599999999998
1779584997314385890,A_-,-0.12991564562480562,0.0,-0.039426987802551904,-1.999519004254784,0.0,-0.013002702927357754,0.0,0.0,0.0,0.0,0.0,0.0,0.0,-0.36855,0.089775,3.5437499999999997,-0.05750639999999999,0.60573408,0.014376599999999998
1779584997328531026,A_-,-0.13124205312487902,0.0,-0.039426987802551904,-1.999519004254784,0.0,-0.013002702927357754,0.0,0.0,0.0,0.0,0.0,0.0,0.0,-0.35437499999999994,0.05197499999999999,3.5201249999999997,-0.052714199999999996,0.60669252,0.01150128
1779584997328531026,A_-,-0.13266496812502737,0.0,-0.039426987802551904,-1.999519004254784,0.0,-0.013002702927357754,0.0,0.0,0.0,0.0,0.0,0.0,0.0,-0.35437499999999994,0.05197499999999999,3.5201249999999997,-0.052714199999999996,0.60669252,0.01150128
1779584997328531026,A_-,-0.13401848749981582,0.0,-0.039426987802551904,-1.999519004254784,0.0,-0.013002702927357754,0.0,0.0,0.0,0.0,0.0,0.0,0.0,-0.35437499999999994,0.05197499999999999,3.5201249999999997,-0.052714199999999996,0.60669252,0.01150128
1779584997348548412,A_-,-0.1353844548748384,0.0,-0.039426987802551904,-1.999519004254784,0.0,-0.013002702927357754,0.0,0.0,0.0,0.0,0.0,0.0,0.0,-0.382725,0.089775,3.52485,-0.06038172,0.6028587599999999,0.00670908
1779584997348548412,A_-,-0.13684522950006794,0.0,-0.039426987802551904,-1.999519004254784,0.0,-0.013002702927357754,0.0,0.0,0.0,0.0,0.0,0.0,0.0,-0.382725,0.089775,3.52485,-0.06038172,0.6028587599999999,0.00670908
1779584997348548412,A_-,-0.1383458119998977,0.0,-0.039426987802551904,-1.999519004254784,0.0,-0.013002702927357754,0.0,0.0,0.0,0.0,0.0,0.0,0.0,-0.382725,0.089775,3.52485,-0.06038172,0.6028587599999999,0.00670908
1779584997398568153,A_-,-0.13965613162508816,0.0,-0.039426987802551904,-1.999519004254784,0.0,-0.013002702927357754,0.0,0.0,0.0,0.0,0.0,0.0,0.0,-0.3591,0.070875,3.548475,-0.0622986,0.5999834399999999,0.01054284
1779584997398568153,A_-,-0.14103641087467622,0.0,-0.039426987802551904,-1.999519004254784,0.0,-0.013002702927357754,0.0,0.0,0.0,0.0,0.0,0.0,0.0,-0.3591,0.070875,3.548475,-0.0622986,0.5999834399999999,0.01054284
1779584997398568153,A_-,-0.142353418500079,0.0,-0.039426987802551904,-1.999519004254784,0.0,-0.013002702927357754,0.0,0.0,0.0,0.0,0.0,0.0,0.0,-0.3591,0.070875,3.548475,-0.0622986,0.5999834399999999,0.01054284
1779584997518625259,A_-,-0.14365939412482476,0.0,-0.039426987802551904,-1.999519004254784,0.0,-0.013002702927357754,0.0,0.0,0.0,0.0,0.0,0.0,0.0,-0.36382499999999995,-0.3969,3.5342999999999996,-0.0622986,0.6009418799999999,0.00383376
1779584997518625259,A_-,-0.14521553624990702,0.0,-0.039426987802551904,-1.999519004254784,0.0,-0.013002702927357754,0.0,0.0,0.0,0.0,0.0,0.0,0.0,-0.36382499999999995,-0.3969,3.5342999999999996,-0.0622986,0.6009418799999999,0.00383376
1779584997518625259,A_-,-0.14656481562496992,0.0,-0.039426987802551904,-1.999519004254784,0.0,-0.013002702927357754,0.0,0.0,0.0,0.0,0.0,0.0,0.0,-0.36382499999999995,-0.3969,3.5342999999999996,-0.0622986,0.6009418799999999,0.00383376
1779584997544258832,A_-,-0.14791054712486584,0.0,-0.039426987802551904,-1.999519004254784,0.0,-0.013002702927357754,0.0,0.0,0.0,0.0,0.0,0.0,0.0,-0.392175,-0.401625,3.5437499999999997,-0.059423279999999995,0.60669252,0.00095844
1779584997544258832,A_-,-0.14936545387490696,0.0,-0.039426987802551904,-1.999519004254784,0.0,-0.013002702927357754,0.0,0.0,0.0,0.0,0.0,0.0,0.0,-0.392175,-0.401625,3.5437499999999997,-0.059423279999999995,0.60669252,0.00095844
1779584997544258832,A_-,-0.15071556524981133,0.0,-0.039426987802551904,-1.999519004254784,0.0,-0.013002702927357754,0.0,0.0,0.0,0.0,0.0,0.0,0.0,-0.392175,-0.401625,3.5437499999999997,-0.059423279999999995,0.60669252,0.00095844
1779584997588834047,A_-,-0.15205207674989651,0.0,-0.039426987802551904,-1.999519004254784,0.0,-0.013002702927357754,0.0,0.0,0.0,0.0,0.0,0.0,0.0,-0.35437499999999994,-0.3969,3.52485,-0.06325704,0.60477564,0.0
1779584997588834047,A_-,-0.1534751117496853,0.0,-0.039426987802551904,-1.999519004254784,0.0,-0.013002702927357754,0.0,0.0,0.0,0.0,0.0,0.0,0.0,-0.35437499999999994,-0.3969,3.52485,-0.06325704,0.60477564,0.0
1779584997588834047,A_-,-0.15481823112486381,0.0,-0.039426987802551904,-1.999519004254784,0.0,-0.013002702927357754,0.0,0.0,0.0,0.0,0.0,0.0,0.0,-0.35437499999999994,-0.3969,3.52485,-0.06325704,0.60477564,0.0
1779584997628590822,A_-,-0.15613739074979094,0.0,-0.039426987802551904,-1.999519004254784,0.0,-0.013002702927357754,0.0,0.0,0.0,0.0,0.0,0.0,0.0,-0.37327499999999997,-0.392175,3.5106749999999995,-0.0622986,0.60477564,0.00670908
1779584997628590822,A_-,-0.15754973774983227,0.0,-0.039426987802551904,-1.999519004254784,0.0,-0.013002702927357754,0.0,0.0,0.0,0.0,0.0,0.0,0.0,-0.37327499999999997,-0.392175,3.5106749999999995,-0.0622986,0.60477564,0.00670908
1779584997628590822,A_-,-0.15891530912495,0.0,-0.039426987802551904,-1.999519004254784,0.0,-0.013002702927357754,0.0,0.0,0.0,0.0,0.0,0.0,0.0,-0.37327499999999997,-0.392175,3.5106749999999995,-0.0622986,0.60477564,0.00670908
1779584997664369583,A_-,-0.1602513206248659,0.0,-0.039426987802551904,-1.999519004254784,0.0,-0.013002702927357754,0.0,0.0,0.0,0.0,0.0,0.0,0.0,-0.34964999999999996,-0.37327499999999997,3.482325,-0.06613236,0.6028587599999999,0.01341816
1779584997664369583,A_-,-0.16169071149988667,0.0,-0.039426987802551904,-1.999519004254784,0.0,-0.013002702927357754,0.0,0.0,0.0,0.0,0.0,0.0,0.0,-0.34964999999999996,-0.37327499999999997,3.482325,-0.06613236,0.6028587599999999,0.01341816
1779584997664369583,A_-,-0.16311771037499057,0.0,-0.039426987802551904,-1.999519004254784,0.0,-0.013002702927357754,0.0,0.0,0.0,0.0,0.0,0.0,0.0,-0.34964999999999996,-0.37327499999999997,3.482325,-0.06613236,0.6028587599999999,0.01341816
1779584997693653821,A_-,-0.1644912096248845,0.0,-0.039426987802551904,-1.999519004254784,0.0,-0.013002702927357754,0.0,0.0,0.0,0.0,0.0,0.0,0.0,-0.378,-0.392175,3.5153999999999996,-0.059423279999999995,0.6028587599999999,0.0095844
1779584997693653821,A_-,-0.16592270049977742,0.0,-0.039426987802551904,-1.999519004254784,0.0,-0.013002702927357754,0.0,0.0,0.0,0.0,0.0,0.0,0.0,-0.378,-0.392175,3.5153999999999996,-0.059423279999999995,0.6028587599999999,0.0095844
1779584997693653821,A_-,-0.16728128787508467,0.0,-0.039426987802551904,-1.999519004254784,0.0,-0.013002702927357754,0.0,0.0,0.0,0.0,0.0,0.0,0.0,-0.378,-0.392175,3.5153999999999996,-0.059423279999999995,0.6028587599999999,0.0095844
1779584997733603477,A_-,-0.1686197753747365,0.0,-0.039426987802551904,-1.999519004254784,0.0,-0.013002702927357754,0.0,0.0,0.0,0.0,0.0,0.0,0.0,-0.378,-0.411075,3.5153999999999996,-0.06804924000000001,0.6038171999999999,0.00575064
1779584997733603477,A_-,-0.17008059399995545,0.0,-0.039426987802551904,-1.999519004254784,0.0,-0.013002702927357754,0.0,0.0,0.0,0.0,0.0,0.0,0.0,-0.378,-0.411075,3.5153999999999996,-0.06804924000000001,0.6038171999999999,0.00575064
1779584997733603477,A_-,-0.17145608124974387,0.0,-0.039426987802551904,-1.999519004254784,0.0,-0.013002702927357754,0.0,0.0,0.0,0.0,0.0,0.0,0.0,-0.378,-0.411075,3.5153999999999996,-0.06804924000000001,0.6038171999999999,0.00575064
1779584997758656263,A_-,-0.17279730075006228,0.0,-0.039426987802551904,-1.999519004254784,0.0,-0.013002702927357754,0.0,0.0,0.0,0.0,0.0,0.0,0.0,-0.3591,-0.3449249999999999,3.50595,-0.06517392,0.60477564,0.00670908
1779584997758656263,A_-,-0.17424989949995506,0.0,-0.039426987802551904,-1.999519004254784,0.0,-0.013002702927357754,0.0,0.0,0.0,0.0,0.0,0.0,0.0,-0.3591,-0.3449249999999999,3.50595,-0.06517392,0.60477564,0.00670908
1779584997758656263,A_-,-0.17560632687491307,0.0,-0.039426987802551904,-1.999519004254784,0.0,-0.013002702927357754,0.0,0.0,0.0,0.0,0.0,0.0,0.0,-0.3591,-0.3449249999999999,3.50595,-0.06517392,0.60477564,0.00670908
1779584997789262294,A_-,-0.17694703037477666,0.0,-0.039426987802551904,-1.999519004254784,0.0,-0.013002702927357754,0.0,0.0,0.0,0.0,0.0,0.0,0.0,-0.3591,-0.382725,3.4964999999999997,-0.06421548,0.6028587599999999,0.0095844
1779584997789262294,A_-,-0.17841063300011228,0.0,-0.039426987802551904,-1.999519004254784,0.0,-0.013002702927357754,0.0,0.0,0.0,0.0,0.0,0.0,0.0,-0.3591,-0.382725,3.4964999999999997,-0.06421548,0.6028587599999999,0.0095844
1779584997789262294,A_-,-0.1797797963749872,0.0,-0.039426987802551904,-1.999519004254784,0.0,-0.013002702927357754,0.0,0.0,0.0,0.0,0.0,0.0,0.0,-0.3591,-0.382725,3.4964999999999997,-0.06421548,0.6028587599999999,0.0095844
1779584997818626880,A_-,-0.18111786387498796,0.0,-0.039426987802551904,-1.999519004254784,0.0,-0.013002702927357754,0.0,0.0,0.0,0.0,0.0,0.0,0.0,-0.378,-0.36855,3.4728749999999997,-0.06038172,0.6019003199999999,0.00766752
1779584997818626880,A_-,-0.1825682706248699,0.0,-0.039426987802551904,-1.999519004254784,0.0,-0.013002702927357754,0.0,0.0,0.0,0.0,0.0,0.0,0.0,-0.378,-0.36855,3.4728749999999997,-0.06038172,0.6019003199999999,0.00766752
1779584997818626880,A_-,-0.18390859812507188,0.0,-0.039426987802551904,-1.999519004254784,0.0,-0.013002702927357754,0.0,0.0,0.0,0.0,0.0,0.0,0.0,-0.378,-0.36855,3.4728749999999997,-0.06038172,0.6019003199999999,0.00766752
1779584997844495058,A_-,-0.18523840962507165,0.0,-0.039426987802551904,-1.999519004254784,0.0,-0.013002702927357754,0.0,0.0,0.0,0.0,0.0,0.0,0.0,-0.36855,-0.45359999999999995,3.482325,-0.06134016,0.60573408,0.0095844
1779584997844495058,A_-,-0.18668757237492173,0.0,-0.039426987802551904,-1.999519004254784,0.0,-0.013002702927357754,0.0,0.0,0.0,0.0,0.0,0.0,0.0,-0.36855,-0.45359999999999995,3.482325,-0.06134016,0.60573408,0.0095844
1779584997844495058,A_-,-0.18805247174987016,0.0,-0.039426987802551904,-1.999519004254784,0.0,-0.013002702927357754,0.0,0.0,0.0,0.0,0.0,0.0,0.0,-0.36855,-0.45359999999999995,3.482325,-0.06134016,0.60573408,0.0095844
1779584997868629932,A_-,-0.1893789072501022,0.0,-0.039426987802551904,-1.999519004254784,0.0,-0.013002702927357754,0.0,0.0,0.0,0.0,0.0,0.0,0.0,-0.36855,-0.40635,3.50595,-0.059423279999999995,0.59614968,0.00287532
1779584997868629932,A_-,-0.19079200624992154,0.0,-0.039426987802551904,-1.999519004254784,0.0,-0.013002702927357754,0.0,0.0,0.0,0.0,0.0,0.0,0.0,-0.36855,-0.40635,3.50595,-0.059423279999999995,0.59614968,0.00287532
1779584997868629932,A_-,-0.19213618574985958,0.0,-0.039426987802551904,-1.999519004254784,0.0,-0.013002702927357754,0.0,0.0,0.0,0.0,0.0,0.0,0.0,-0.36855,-0.40635,3.50595,-0.059423279999999995,0.59614968,0.00287532
1779584997893616914,A_-,-0.19345650937475511,0.0,-0.039426987802551904,-1.999519004254784,0.0,-0.013002702927357754,0.0,0.0,0.0,0.0,0.0,0.0,0.0,-0.36382499999999995,-0.38744999999999996,3.52485,-0.05846484,0.6028587599999999,-0.0047922
1779584997893616914,A_-,-0.19487128037508228,0.0,-0.039426987802551904,-1.999519004254784,0.0,-0.013002702927357754,0.0,0.0,0.0,0.0,0.0,0.0,0.0,-0.36382499999999995,-0.38744999999999996,3.52485,-0.05846484,0.6028587599999999,-0.0047922
1779584997893616914,A_-,-0.19621372374967905,0.0,-0.039426987802551904,-1.999519004254784,0.0,-0.013002702927357754,0.0,0.0,0.0,0.0,0.0,0.0,0.0,-0.36382499999999995,-0.38744999999999996,3.52485,-0.05846484,0.6028587599999999,-0.0047922
1779584997919148206,A_-,-0.19755010724975364,0.0,-0.039426987802551904,-1.999519004254784,0.0,-0.013002702927357754,0.0,0.0,0.0,0.0,0.0,0.0,0.0,-0.36855,-0.3969,3.5153999999999996,-0.06517392,0.61148472,0.00862596
1779584997919148206,A_-,-0.1990086139999221,0.0,-0.039426987802551904,-1.999519004254784,0.0,-0.013002702927357754,0.0,0.0,0.0,0.0,0.0,0.0,0.0,-0.36855,-0.3969,3.5153999999999996,-0.06517392,0.61148472,0.00862596
1779584997919148206,A_-,-0.20036550137501763,0.0,-0.039426987802551904,-1.999519004254784,0.0,-0.013002702927357754,0.0,0.0,0.0,0.0,0.0,0.0,0.0,-0.36855,-0.3969,3.5153999999999996,-0.06517392,0.61148472,0.00862596
1779584997948642730,A_-,-0.20170439687490216,0.0,-0.039426987802551904,-1.999519004254784,0.0,-0.013002702927357754,0.0,0.0,0.0,0.0,0.0,0.0,0.0,-0.36382499999999995,-0.392175,3.4964999999999997,-0.05367264,0.6009418799999999,0.01245972
1779584997948642730,A_-,-0.2031386357498377,0.0,-0.039426987802551904,-1.999519004254784,0.0,-0.013002702927357754,0.0,0.0,0.0,0.0,0.0,0.0,0.0,-0.36382499999999995,-0.392175,3.4964999999999997,-0.05367264,0.6009418799999999,0.01245972
1779584997948642730,A_-,-0.2044986391247221,0.0,-0.039426987802551904,-1.999519004254784,0.0,-0.013002702927357754,0.0,0.0,0.0,0.0,0.0,0.0,0.0,-0.36382499999999995,-0.392175,3.4964999999999997,-0.05367264,0.6009418799999999,0.01245972
1779584997978635787,A_-,-0.20582068662497477,0.0,-0.039426987802551904,-1.999519004254784,0.0,-0.013002702927357754,0.0,0.0,0.0,0.0,0.0,0.0,0.0,-0.36382499999999995,-0.36855,3.548475,-0.07859208,0.60669252,0.0047922
1779584997978635787,A_-,-0.2072123057500903,0.0,-0.039426987802551904,-1.999519004254784,0.0,-0.013002702927357754,0.0,0.0,0.0,0.0,0.0,0.0,0.0,-0.36382499999999995,-0.36855,3.548475,-0.07859208,0.60669252,0.0047922
1779584997978635787,A_-,-0.20854002137502903,0.0,-0.039426987802551904,-1.999519004254784,0.0,-0.013002702927357754,0.0,0.0,0.0,0.0,0.0,0.0,0.0,-0.36382499999999995,-0.36855,3.548475,-0.07859208,0.60669252,0.0047922
1779584998063660383,A_-,-0.20984663699982775,0.0,-0.039426987802551904,-1.999519004254784,0.0,-0.013002702927357754,0.0,0.0,0.0,0.0,0.0,0.0,0.0,-0.36855,-0.40635,3.501225,-0.0622986,0.6038171999999999,0.00287532
1779584998063660383,A_-,-0.2112690199996905,0.0,-0.039426987802551904,-1.999519004254784,0.0,-0.013002702927357754,0.0,0.0,0.0,0.0,0.0,0.0,0.0,-0.36855,-0.40635,3.501225,-0.0622986,0.6038171999999999,0.00287532
1779584998063660383,A_-,-0.21261596337490118,0.0,-0.039426987802551904,-1.999519004254784,0.0,-0.013002702927357754,0.0,0.0,0.0,0.0,0.0,0.0,0.0,-0.36855,-0.40635,3.501225,-0.0622986,0.6038171999999999,0.00287532
1779584998094063758,A_-,-0.21395871087497653,0.0,-0.039426987802551904,-1.999519004254784,0.0,-0.013002702927357754,0.0,0.0,0.0,0.0,0.0,0.0,0.0,-0.36855,-0.41579999999999995,3.5106749999999995,-0.06325704,0.6019003199999999,0.00287532
1779584998094063758,A_-,-0.21541490562503895,0.0,-0.039426987802551904,-1.999519004254784,0.0,-0.013002702927357754,0.0,0.0,0.0,0.0,0.0,0.0,0.0,-0.36855,-0.41579999999999995,3.5106749999999995,-0.06325704,0.6019003199999999,0.00287532
1779584998094063758,A_-,-0.2167515251248915,0.0,-0.039426987802551904,-1.999519004254784,0.0,-0.013002702927357754,0.0,0.0,0.0,0.0,0.0,0.0,0.0,-0.36855,-0.41579999999999995,3.5106749999999995,-0.06325704,0.6019003199999999,0.00287532
1779584998128667593,A_-,-0.21807671662509165,0.0,-0.039426987802551904,-1.999519004254784,0.0,-0.013002702927357754,0.0,0.0,0.0,0.0,0.0,0.0,0.0,-0.378,-0.42524999999999996,3.5342999999999996,-0.05846484,0.5999834399999999,0.00383376
1779584998128667593,A_-,-0.21950968349983668,0.0,-0.039426987802551904,-1.999519004254784,0.0,-0.013002702927357754,0.0,0.0,0.0,0.0,0.0,0.0,0.0,-0.378,-0.42524999999999996,3.5342999999999996,-0.05846484,0.5999834399999999,0.00383376
1779584998128667593,A_-,-0.22085568700003932,0.0,-0.039426987802551904,-1.999519004254784,0.0,-0.013002702927357754,0.0,0.0,0.0,0.0,0.0,0.0,0.0,-0.378,-0.42524999999999996,3.5342999999999996,-0.05846484,0.5999834399999999,0.00383376
1779584998159909963,A_-,-0.22218263449985898,0.0,-0.039426987802551904,-1.999519004254784,0.0,-0.013002702927357754,0.0,0.0,0.0,0.0,0.0,0.0,0.0,-0.378,-0.411075,3.5201249999999997,-0.0670908,0.6028587599999999,0.00766752
1779584998159909963,A_-,-0.22360326950001763,0.0,-0.039426987802551904,-1.999519004254784,0.0,-0.013002702927357754,0.0,0.0,0.0,0.0,0.0,0.0,0.0,-0.378,-0.411075,3.5201249999999997,-0.0670908,0.6028587599999999,0.00766752
1779584998159909963,A_-,-0.22493448499972146,0.0,-0.039426987802551904,-1.999519004254784,0.0,-0.013002702927357754,0.0,0.0,0.0,0.0,0.0,0.0,0.0,-0.378,-0.411075,3.5201249999999997,-0.0670908,0.6028587599999999,0.00766752
1779584998193676471,A_-,-0.22625774849984737,0.0,-0.039426987802551904,-1.999519004254784,0.0,-0.013002702927357754,0.0,0.0,0.0,0.0,0.0,0.0,0.0,-0.37327499999999997,-0.382725,3.501225,-0.0622986,0.6038171999999999,0.00575064
1779584998193676471,A_-,-0.22767815950010117,0.0,-0.039426987802551904,-1.999519004254784,0.0,-0.013002702927357754,0.0,0.0,0.0,0.0,0.0,0.0,0.0,-0.37327499999999997,-0.382725,3.501225,-0.0622986,0.6038171999999999,0.00575064
1779584998193676471,A_-,-0.22902470700000777,0.0,-0.039426987802551904,-1.999519004254784,0.0,-0.013002702927357754,0.0,0.0,0.0,0.0,0.0,0.0,0.0,-0.37327499999999997,-0.382725,3.501225,-0.0622986,0.6038171999999999,0.00575064
1779584998223819971,A_-,-0.2303533304998382,0.0,-0.039426987802551904,-1.999519004254784,0.0,-0.013002702927357754,0.0,0.0,0.0,0.0,0.0,0.0,0.0,-0.36855,-0.392175,3.4917749999999996,-0.06038172,0.60669252,0.00191688
1779584998223819971,A_-,-0.23178612137508026,0.0,-0.039426987802551904,-1.999519004254784,0.0,-0.013002702927357754,0.0,0.0,0.0,0.0,0.0,0.0,0.0,-0.36855,-0.392175,3.4917749999999996,-0.06038172,0.60669252,0.00191688
1779584998223819971,A_-,-0.2331261768749755,0.0,-0.039426987802551904,-1.999519004254784,0.0,-0.013002702927357754,0.0,0.0,0.0,0.0,0.0,0.0,0.0,-0.36855,-0.392175,3.4917749999999996,-0.06038172,0.60669252,0.00191688
1779584998248696804,A_-,-0.23444229249980708,0.0,-0.039426987802551904,-1.999519004254784,0.0,-0.013002702927357754,0.0,0.0,0.0,0.0,0.0,0.0,0.0,-0.35437499999999994,-0.4347,3.5153999999999996,-0.06325704,0.6028587599999999,0.0095844
1779584998248696804,A_-,-0.23586960337479468,0.0,-0.039426987802551904,-1.999519004254784,0.0,-0.013002702927357754,0.0,0.0,0.0,0.0,0.0,0.0,0.0,-0.35437499999999994,-0.4347,3.5153999999999996,-0.06325704,0.6028587599999999,0.0095844
1779584998248696804,A_-,-0.23721320687491243,0.0,-0.039426987802551904,-1.999519004254784,0.0,-0.013002702927357754,0.0,0.0,0.0,0.0,0.0,0.0,0.0,-0.35437499999999994,-0.4347,3.5153999999999996,-0.06325704,0.6028587599999999,0.0095844
1779584998269630193,A_-,-0.23854448237489123,0.0,-0.039426987802551904,-1.999519004254784,0.0,-0.013002702927357754,0.0,0.0,0.0,0.0,0.0,0.0,0.0,-0.382725,-0.411075,3.4870499999999995,-0.05846484,0.6009418799999999,0.01245972
1779584998269630193,A_-,-0.23995862537503854,0.0,-0.039426987802551904,-1.999519004254784,0.0,-0.013002702927357754,0.0,0.0,0.0,0.0,0.0,0.0,0.0,-0.382725,-0.411075,3.4870499999999995,-0.05846484,0.6009418799999999,0.01245972
1779584998269630193,A_-,-0.24127909699973316,0.0,-0.039426987802551904,-1.999519004254784,0.0,-0.013002702927357754,0.0,0.0,0.0,0.0,0.0,0.0,0.0,-0.382725,-0.411075,3.4870499999999995,-0.05846484,0.6009418799999999,0.01245972
1779584998323968410,A_-,-0.24259682049978437,0.0,-0.039426987802551904,-1.999519004254784,0.0,-0.013002702927357754,0.0,0.0,0.0,0.0,0.0,0.0,0.0,-0.36382499999999995,-0.42997499999999994,3.4681499999999996,-0.06804924000000001,0.60765096,0.01054284
1779584998323968410,A_-,-0.2440114474998154,0.0,-0.039426987802551904,-1.999519004254784,0.0,-0.013002702927357754,0.0,0.0,0.0,0.0,0.0,0.0,0.0,-0.36382499999999995,-0.42997499999999994,3.4681499999999996,-0.06804924000000001,0.60765096,0.01054284
1779584998323968410,A_-,-0.24535215500009144,0.0,-0.039426987802551904,-1.999519004254784,0.0,-0.013002702927357754,0.0,0.0,0.0,0.0,0.0,0.0,0.0,-0.36382499999999995,-0.42997499999999994,3.4681499999999996,-0.06804924000000001,0.60765096,0.01054284
1779584998345127820,A_-,-0.2466720906249975,0.0,-0.039426987802551904,-1.999519004254784,0.0,-0.013002702927357754,0.0,0.0,0.0,0.0,0.0,0.0,0.0,-0.36382499999999995,-0.42524999999999996,3.50595,-0.0670908,0.60477564,0.0047922
1779584998345127820,A_-,-0.24811629737496332,0.0,-0.039426987802551904,-1.999519004254784,0.0,-0.013002702927357754,0.0,0.0,0.0,0.0,0.0,0.0,0.0,-0.36382499999999995,-0.42524999999999996,3.50595,-0.0670908,0.60477564,0.0047922
1779584998345127820,A_-,-0.24944474899984925,0.0,-0.039426987802551904,-1.999519004254784,0.0,-0.013002702927357754,0.0,0.0,0.0,0.0,0.0,0.0,0.0,-0.36382499999999995,-0.42524999999999996,3.50595,-0.0670908,0.60477564,0.0047922
1779584998388981819,A_-,-0.2507633646250724,0.0,-0.039426987802551904,-1.999519004254784,0.0,-0.013002702927357754,0.0,0.0,0.0,0.0,0.0,0.0,0.0,-0.3591,-0.41579999999999995,3.5579249999999996,-0.06134016,0.60477564,0.0047922
1779584998388981819,A_-,-0.25216847562478506,0.0,-0.039426987802551904,-1.999519004254784,0.0,-0.013002702927357754,0.0,0.0,0.0,0.0,0.0,0.0,0.0,-0.3591,-0.41579999999999995,3.5579249999999996,-0.06134016,0.60477564,0.0047922
1779584998388981819,A_-,-0.253510503124744,0.0,-0.039426987802551904,-1.999519004254784,0.0,-0.013002702927357754,0.0,0.0,0.0,0.0,0.0,0.0,0.0,-0.3591,-0.41579999999999995,3.5579249999999996,-0.06134016,0.60477564,0.0047922
1779584998418713092,A_-,-0.2548383186249339,0.0,-0.039426987802551904,-1.999519004254784,0.0,-0.013002702927357754,0.0,0.0,0.0,0.0,0.0,0.0,0.0,-0.378,-0.401625,3.50595,-0.06421548,0.5990249999999999,0.00670908
1779584998418713092,A_-,-0.25623096975004955,0.0,-0.039426987802551904,-1.999519004254784,0.0,-0.013002702927357754,0.0,0.0,0.0,0.0,0.0,0.0,0.0,-0.378,-0.401625,3.50595,-0.06421548,0.5990249999999999,0.00670908
1779584998418713092,A_-,-0.25755907737493544,0.0,-0.039426987802551904,-1.999519004254784,0.0,-0.013002702927357754,0.0,0.0,0.0,0.0,0.0,0.0,0.0,-0.378,-0.401625,3.50595,-0.06421548,0.5990249999999999,0.00670908
1779584998448711633,A_-,-0.25888494887476554,0.0,-0.039426987802551904,-1.999519004254784,0.0,-0.013002702927357754,0.0,0.0,0.0,0.0,0.0,0.0,0.0,-0.37327499999999997,-0.45359999999999995,3.4728749999999997,-0.06325704,0.6019003199999999,0.0095844
1779584998448711633,A_-,-0.2603224917497755,0.0,-0.039426987802551904,-1.999519004254784,0.0,-0.013002702927357754,0.0,0.0,0.0,0.0,0.0,0.0,0.0,-0.37327499999999997,-0.45359999999999995,3.4728749999999997,-0.06325704,0.6019003199999999,0.0095844
1779584998448711633,A_-,-0.26167839112486035,0.0,-0.039426987802551904,-1.999519004254784,0.0,-0.013002702927357754,0.0,0.0,0.0,0.0,0.0,0.0,0.0,-0.37327499999999997,-0.45359999999999995,3.4728749999999997,-0.06325704,0.6019003199999999,0.0095844
1779584998468704700,A_-,-0.26300651462497626,0.0,-0.039426987802551904,-1.999519004254784,0.0,-0.013002702927357754,0.0,0.0,0.0,0.0,0.0,0.0,0.0,-0.36382499999999995,-0.378,3.5106749999999995,-0.06804924000000001,0.6009418799999999,0.01150128
1779584998468704700,A_-,-0.2644319976247971,0.0,-0.039426987802551904,-1.999519004254784,0.0,-0.013002702927357754,0.0,0.0,0.0,0.0,0.0,0.0,0.0,-0.36382499999999995,-0.378,3.5106749999999995,-0.06804924000000001,0.6009418799999999,0.01150128
1779584998468704700,A_-,-0.265778692999902,0.0,-0.039426987802551904,-1.999519004254784,0.0,-0.013002702927357754,0.0,0.0,0.0,0.0,0.0,0.0,0.0,-0.36382499999999995,-0.378,3.5106749999999995,-0.06804924000000001,0.6009418799999999,0.01150128
1779584998493722200,A_-,-0.26711778849994516,0.0,-0.039426987802551904,-1.999519004254784,0.0,-0.013002702927357754,0.0,0.0,0.0,0.0,0.0,0.0,0.0,-0.3591,-0.44887499999999997,3.5579249999999996,-0.06421548,0.60765096,0.01341816
1779584998493722200,A_-,-0.26856120725005894,0.0,-0.039426987802551904,-1.999519004254784,0.0,-0.013002702927357754,0.0,0.0,0.0,0.0,0.0,0.0,0.0,-0.3591,-0.44887499999999997,3.5579249999999996,-0.06421548,0.60765096,0.01341816
1779584998493722200,A_-,-0.2699071147499126,0.0,-0.039426987802551904,-1.999519004254784,0.0,-0.013002702927357754,0.0,0.0,0.0,0.0,0.0,0.0,0.0,-0.3591,-0.44887499999999997,3.5579249999999996,-0.06421548,0.60765096,0.01341816
1779584998523728132,A_-,-0.27122851824969985,0.0,-0.039426987802551904,-1.999519004254784,0.0,-0.013002702927357754,0.0,0.0,0.0,0.0,0.0,0.0,0.0,-0.36855,-0.401625,3.5106749999999995,-0.06613236,0.60669252,0.01245972
1779584998523728132,A_-,-0.2726882490001117,0.0,-0.039426987802551904,-1.999519004254784,0.0,-0.013002702927357754,0.0,0.0,0.0,0.0,0.0,0.0,0.0,-0.36855,-0.401625,3.5106749999999995,-0.06613236,0.60669252,0.01245972
1779584998523728132,A_-,-0.27403719237508994,0.0,-0.039426987802551904,-1.999519004254784,0.0,-0.013002702927357754,0.0,0.0,0.0,0.0,0.0,0.0,0.0,-0.36855,-0.401625,3.5106749999999995,-0.06613236,0.60669252,0.01245972
1779584998558725833,A_-,-0.27537019999999757,0.0,-0.039426987802551904,-1.999519004254784,0.0,-0.013002702927357754,0.0,0.0,0.0,0.0,0.0,0.0,0.0,-0.36382499999999995,-0.41579999999999995,3.4870499999999995,-0.06038172,0.6009418799999999,0.00766752
1779584998558725833,A_-,-0.2768171227498897,0.0,-0.039426987802551904,-1.999519004254784,0.0,-0.013002702927357754,0.0,0.0,0.0,0.0,0.0,0.0,0.0,-0.36382499999999995,-0.41579999999999995,3.4870499999999995,-0.06038172,0.6009418799999999,0.00766752
1779584998558725833,A_-,-0.2781631821248993,0.0,-0.039426987802551904,-1.999519004254784,0.0,-0.013002702927357754,0.0,0.0,0.0,0.0,0.0,0.0,0.0,-0.36382499999999995,-0.41579999999999995,3.4870499999999995,-0.06038172,0.6009418799999999,0.00766752
1779584998593724012,A_-,-0.27949503762511085,0.0,-0.039426987802551904,-1.999519004254784,0.0,-0.013002702927357754,0.0,0.0,0.0,0.0,0.0,0.0,0.0,-0.378,-0.34964999999999996,3.5342999999999996,-0.06804924000000001,0.6019003199999999,0.00287532
1779584998593724012,A_-,-0.2809596803749628,0.0,-0.039426987802551904,-1.999519004254784,0.0,-0.013002702927357754,0.0,0.0,0.0,0.0,0.0,0.0,0.0,-0.378,-0.34964999999999996,3.5342999999999996,-0.06804924000000001,0.6019003199999999,0.00287532
1779584998593724012,A_-,-0.28230349975001445,0.0,-0.039426987802551904,-1.999519004254784,0.0,-0.013002702927357754,0.0,0.0,0.0,0.0,0.0,0.0,0.0,-0.378,-0.34964999999999996,3.5342999999999996,-0.06804924000000001,0.6019003199999999,0.00287532
1779584998653772830,A_-,-0.283627119375069,0.0,-0.039426987802551904,-1.999519004254784,0.0,-0.013002702927357754,0.0,0.0,0.0,0.0,0.0,0.0,0.0,-0.36855,-0.401625,3.5390249999999996,-0.05558952,0.6038171999999999,0.00766752
1779584998653772830,A_-,-0.28506261424990953,0.0,-0.039426987802551904,-1.999519004254784,0.0,-0.013002702927357754,0.0,0.0,0.0,0.0,0.0,0.0,0.0,-0.36855,-0.401625,3.5390249999999996,-0.05558952,0.6038171999999999,0.00766752
1779584998653772830,A_-,-0.2864048737496887,0.0,-0.039426987802551904,-1.999519004254784,0.0,-0.013002702927357754,0.0,0.0,0.0,0.0,0.0,0.0,0.0,-0.36855,-0.401625,3.5390249999999996,-0.05558952,0.6038171999999999,0.00766752
1779584998684217214,A_-,-0.287731133249963,0.0,-0.039426987802551904,-1.999519004254784,0.0,-0.013002702927357754,0.0,0.0,0.0,0.0,0.0,0.0,0.0,-0.36382499999999995,-0.401625,3.501225,-0.06804924000000001,0.59806656,-0.00862596
1779584998684217214,A_-,-0.2892111478749939,0.0,-0.039426987802551904,-1.999519004254784,0.0,-0.013002702927357754,0.0,0.0,0.0,0.0,0.0,0.0,0.0,-0.36382499999999995,-0.401625,3.501225,-0.06804924000000001,0.59806656,-0.00862596
1779584998684217214,A_-,-0.2905787231247814,0.0,-0.039426987802551904,-1.999519004254784,0.0,-0.013002702927357754,0.0,0.0,0.0,0.0,0.0,0.0,0.0,-0.36382499999999995,-0.401625,3.501225,-0.06804924000000001,0.59806656,-0.00862596
1779584998718748569,A_-,-0.29193326249969687,0.0,-0.039426987802551904,-1.999519004254784,0.0,-0.013002702927357754,0.0,0.0,0.0,0.0,0.0,0.0,0.0,-0.378,-0.411075,3.52485,-0.052714199999999996,0.6019003199999999,0.014376599999999998
1779584998718748569,A_-,-0.29339194524982304,0.0,-0.039426987802551904,-1.999519004254784,0.0,-0.013002702927357754,0.0,0.0,0.0,0.0,0.0,0.0,0.0,-0.378,-0.411075,3.52485,-0.052714199999999996,0.6019003199999999,0.014376599999999998
1779584998718748569,A_-,-0.2947342846250649,0.0,-0.039426987802551904,-1.999519004254784,0.0,-0.013002702927357754,0.0,0.0,0.0,0.0,0.0,0.0,0.0,-0.378,-0.411075,3.52485,-0.052714199999999996,0.6019003199999999,0.014376599999999998
1779584998753748655,A_-,-0.29609036400006516,0.0,-0.039426987802551904,-1.999519004254784,0.0,-0.013002702927357754,0.0,0.0,0.0,0.0,0.0,0.0,0.0,-0.3591,-0.378,3.501225,-0.06517392,0.6009418799999999,0.01341816
1779584998753748655,A_-,-0.2974983831250029,0.0,-0.039426987802551904,-1.999519004254784,0.0,-0.013002702927357754,0.0,0.0,0.0,0.0,0.0,0.0,0.0,-0.3591,-0.378,3.501225,-0.06517392,0.6009418799999999,0.01341816
1779584998753748655,A_-,-0.2988486505000765,0.0,-0.039426987802551904,-1.999519004254784,0.0,-0.013002702927357754,0.0,0.0,0.0,0.0,0.0,0.0,0.0,-0.3591,-0.378,3.501225,-0.06517392,0.6009418799999999,0.01341816
1779584998778794288,A_-,-0.30018380599995,0.0,-0.039426987802551904,-1.999519004254784,0.0,-0.013002702927357754,0.0,0.0,0.0,0.0,0.0,0.0,0.0,-0.378,-0.401625,3.5390249999999996,-0.06517392,0.60573408,0.00670908
1779584998778794288,A_-,-0.3016148688748217,0.0,-0.039426987802551904,-1.999519004254784,0.0,-0.013002702927357754,0.0,0.0,0.0,0.0,0.0,0.0,0.0,-0.378,-0.401625,3.5390249999999996,-0.06517392,0.60573408,0.00670908
1779584998778794288,A_-,-0.30295367637472737,0.0,-0.039426987802551904,-1.999519004254784,0.0,-0.013002702927357754,0.0,0.0,0.0,0.0,0.0,0.0,0.0,-0.378,-0.401625,3.5390249999999996,-0.06517392,0.60573408,0.00670908
1779584998809475183,A_-,-0.30429059587504526,0.0,-0.039426987802551904,-1.999519004254784,0.0,-0.013002702927357754,0.0,0.0,0.0,0.0,0.0,0.0,0.0,-0.36382499999999995,-0.42997499999999994,3.4964999999999997,-0.06134016,0.6038171999999999,0.01150128
1779584998809475183,A_-,-0.30573907862481065,0.0,-0.039426987802551904,-1.999519004254784,0.0,-0.013002702927357754,0.0,0.0,0.0,0.0,0.0,0.0,0.0,-0.36382499999999995,-0.42997499999999994,3.4964999999999997,-0.06134016,0.6038171999999999,0.01150128
1779584998809475183,A_-,-0.30711578187492705,0.0,-0.039426987802551904,-1.999519004254784,0.0,-0.013002702927357754,0.0,0.0,0.0,0.0,0.0,0.0,0.0,-0.36382499999999995,-0.42997499999999994,3.4964999999999997,-0.06134016,0.6038171999999999,0.01150128
1779584998849363803,A_-,-0.3084496973747264,0.0,-0.039426987802551904,-1.999519004254784,0.0,-0.013002702927357754,0.0,0.0,0.0,0.0,0.0,0.0,0.0,-0.3591,-0.36382499999999995,3.4728749999999997,-0.06134016,0.59806656,0.0095844
1779584998849363803,A_-,-0.309905088125106,0.0,-0.039426987802551904,-1.999519004254784,0.0,-0.013002702927357754,0.0,0.0,0.0,0.0,0.0,0.0,0.0,-0.3591,-0.36382499999999995,3.4728749999999997,-0.06134016,0.59806656,0.0095844
1779584998849363803,A_-,-0.3112515395000628,0.0,-0.039426987802551904,-1.999519004254784,0.0,-0.013002702927357754,0.0,0.0,0.0,0.0,0.0,0.0,0.0,-0.3591,-0.36382499999999995,3.4728749999999997,-0.06134016,0.59806656,0.0095844
1779584998883768081,A_-,-0.31260192299987466,0.0,-0.039426987802551904,-1.999519004254784,0.0,-0.013002702927357754,0.0,0.0,0.0,0.0,0.0,0.0,0.0,-0.37327499999999997,-0.38744999999999996,3.529575,-0.0670908,0.6019003199999999,0.00383376
1779584998883768081,A_-,-0.3141101213750517,0.0,-0.039426987802551904,-1.999519004254784,0.0,-0.013002702927357754,0.0,0.0,0.0,0.0,0.0,0.0,0.0,-0.37327499999999997,-0.38744999999999996,3.529575,-0.0670908,0.6019003199999999,0.00383376
1779584998883768081,A_-,-0.3154586607497549,0.0,-0.039426987802551904,-1.999519004254784,0.0,-0.013002702927357754,0.0,0.0,0.0,0.0,0.0,0.0,0.0,-0.37327499999999997,-0.38744999999999996,3.529575,-0.0670908,0.6019003199999999,0.00383376
1779584998919740676,A_-,-0.31678882024971244,0.0,-0.039426987802551904,-1.999519004254784,0.0,-0.013002702927357754,0.0,0.0,0.0,0.0,0.0,0.0,0.0,-0.378,-0.3591,3.501225,-0.06517392,0.6038171999999999,0.0047922
1779584998919740676,A_-,-0.31831530662475416,0.0,-0.039426987802551904,-1.999519004254784,0.0,-0.013002702927357754,0.0,0.0,0.0,0.0,0.0,0.0,0.0,-0.378,-0.3591,3.501225,-0.06517392,0.6038171999999999,0.0047922
1779584998919740676,A_-,-0.3196627180000178,0.0,-0.039426987802551904,-1.999519004254784,0.0,-0.013002702927357754,0.0,0.0,0.0,0.0,0.0,0.0,0.0,-0.378,-0.3591,3.501225,-0.06517392,0.6038171999999999,0.0047922
1779584998948781967,A_-,-0.3209980014999019,0.0,-0.039426987802551904,-1.999519004254784,0.0,-0.013002702927357754,0.0,0.0,0.0,0.0,0.0,0.0,0.0,-0.36855,-0.382725,3.5437499999999997,-0.06134016,0.5990249999999999,0.0047922
1779584998948781967,A_-,-0.32245642425004917,0.0,-0.039426987802551904,-1.999519004254784,0.0,-0.013002702927357754,0.0,0.0,0.0,0.0,0.0,0.0,0.0,-0.36855,-0.382725,3.5437499999999997,-0.06134016,0.5990249999999999,0.0047922
1779584998948781967,A_-,-0.32380980362495393,0.0,-0.039426987802551904,-1.999519004254784,0.0,-0.013002702927357754,0.0,0.0,0.0,0.0,0.0,0.0,0.0,-0.36855,-0.382725,3.5437499999999997,-0.06134016,0.5990249999999999,0.0047922
1779584998984911203,A_-,-0.32513653112482643,0.0,-0.039426987802551904,-1.999519004254784,0.0,-0.013002702927357754,0.0,0.0,0.0,0.0,0.0,0.0,0.0,-0.36855,-0.382725,3.482325,-0.06325704,0.60765096,0.01150128
1779584998984911203,A_-,-0.32653949025007023,0.0,-0.039426987802551904,-1.999519004254784,0.0,-0.013002702927357754,0.0,0.0,0.0,0.0,0.0,0.0,0.0,-0.36855,-0.382725,3.482325,-0.06325704,0.60765096,0.01150128
1779584998984911203,A_-,-0.32788310162504786,0.0,-0.039426987802551904,-1.999519004254784,0.0,-0.013002702927357754,0.0,0.0,0.0,0.0,0.0,0.0,0.0,-0.36855,-0.382725,3.482325,-0.06325704,0.60765096,0.01150128
1779584999018804311,A_-,-0.3292105972500394,0.0,-0.039426987802551904,-1.999519004254784,0.0,-0.013002702927357754,0.0,0.0,0.0,0.0,0.0,0.0,0.0,-0.37327499999999997,-0.42524999999999996,3.4870499999999995,-0.06325704,0.60669252,0.00383376
1779584999018804311,A_-,-0.3306323401247937,0.0,-0.039426987802551904,-1.999519004254784,0.0,-0.013002702927357754,0.0,0.0,0.0,0.0,0.0,0.0,0.0,-0.37327499999999997,-0.42524999999999996,3.4870499999999995,-0.06325704,0.60669252,0.00383376
1779584999018804311,A_-,-0.33196904762507984,0.0,-0.039426987802551904,-1.999519004254784,0.0,-0.013002702927357754,0.0,0.0,0.0,0.0,0.0,0.0,0.0,-0.37327499999999997,-0.42524999999999996,3.4870499999999995,-0.06325704,0.60669252,0.00383376
1779584999048809289,A_-,-0.33329192724977474,0.0,-0.039426987802551904,-1.999519004254784,0.0,-0.013002702927357754,0.0,0.0,0.0,0.0,0.0,0.0,0.0,-0.36855,-0.4205249999999999,3.5201249999999997,-0.059423279999999995,0.5990249999999999,0.00287532
1779584999048809289,A_-,-0.33470935824971093,0.0,-0.039426987802551904,-1.999519004254784,0.0,-0.013002702927357754,0.0,0.0,0.0,0.0,0.0,0.0,0.0,-0.36855,-0.4205249999999999,3.5201249999999997,-0.059423279999999995,0.5990249999999999,0.00287532
1779584999048809289,A_-,-0.3360558576250696,0.0,-0.039426987802551904,-1.999519004254784,0.0,-0.013002702927357754,0.0,0.0,0.0,0.0,0.0,0.0,0.0,-0.36855,-0.4205249999999999,3.5201249999999997,-0.059423279999999995,0.5990249999999999,0.00287532
1779584999083792448,A_-,-0.3373943731248801,0.0,-0.039426987802551904,-1.999519004254784,0.0,-0.013002702927357754,0.0,0.0,0.0,0.0,0.0,0.0,0.0,-0.37327499999999997,-0.392175,3.5342999999999996,-0.05750639999999999,0.60477564,0.00862596
1779584999083792448,A_-,-0.33883174399989,0.0,-0.039426987802551904,-1.999519004254784,0.0,-0.013002702927357754,0.0,0.0,0.0,0.0,0.0,0.0,0.0,-0.37327499999999997,-0.392175,3.5342999999999996,-0.05750639999999999,0.60477564,0.00862596
1779584999083792448,A_-,-0.34017835137501606,0.0,-0.039426987802551904,-1.999519004254784,0.0,-0.013002702927357754,0.0,0.0,0.0,0.0,0.0,0.0,0.0,-0.37327499999999997,-0.392175,3.5342999999999996,-0.05750639999999999,0.60477564,0.00862596
1779584999114424705,A_-,-0.341505258874804,0.0,-0.039426987802551904,-1.999519004254784,0.0,-0.013002702927357754,0.0,0.0,0.0,0.0,0.0,0.0,0.0,-0.378,-0.411075,3.5390249999999996,-0.059423279999999995,0.60573408,0.0047922
1779584999114424705,A_-,-0.3429371817496758,0.0,-0.039426987802551904,-1.999519004254784,0.0,-0.013002702927357754,0.0,0.0,0.0,0.0,0.0,0.0,0.0,-0.378,-0.411075,3.5390249999999996,-0.059423279999999995,0.60573408,0.0047922
1779584999114424705,A_-,-0.34436924462488605,0.0,-0.039426987802551904,-1.999519004254784,0.0,-0.013002702927357754,0.0,0.0,0.0,0.0,0.0,0.0,0.0,-0.378,-0.411075,3.5390249999999996,-0.059423279999999995,0.60573408,0.0047922
1779584999148811101,A_-,-0.34572806799997124,0.0,-0.039426987802551904,-1.999519004254784,0.0,-0.013002702927357754,0.0,0.0,0.0,0.0,0.0,0.0,0.0,-0.3449249999999999,-0.41579999999999995,3.5342999999999996,-0.0622986,0.6086094,0.00862596
1779584999148811101,A_-,-0.34717725475002226,0.0,-0.039426987802551904,-1.999519004254784,0.0,-0.013002702927357754,0.0,0.0,0.0,0.0,0.0,0.0,0.0,-0.3449249999999999,-0.41579999999999995,3.5342999999999996,-0.0622986,0.6086094,0.00862596
1779584999148811101,A_-,-0.34853595812501226,0.0,-0.039426987802551904,-1.999519004254784,0.0,-0.013002702927357754,0.0,0.0,0.0,0.0,0.0,0.0,0.0,-0.3449249999999999,-0.41579999999999995,3.5342999999999996,-0.0622986,0.6086094,0.00862596
1779584999183811902,A_-,-0.3498555497499183,0.0,-0.039426987802551904,-1.999519004254784,0.0,-0.013002702927357754,0.0,0.0,0.0,0.0,0.0,0.0,0.0,-0.392175,-0.4347,3.482325,-0.0670908,0.60477564,0.00383376
1779584999183811902,A_-,-0.3512847686247369,0.0,-0.039426987802551904,-1.999519004254784,0.0,-0.013002702927357754,0.0,0.0,0.0,0.0,0.0,0.0,0.0,-0.392175,-0.4347,3.482325,-0.0670908,0.60477564,0.00383376
1779584999183811902,A_-,-0.3526447439999174,0.0,-0.039426987802551904,-1.999519004254784,0.0,-0.013002702927357754,0.0,0.0,0.0,0.0,0.0,0.0,0.0,-0.392175,-0.4347,3.482325,-0.0670908,0.60477564,0.00383376
1779584999214326620,A_-,-0.35397291150002275,0.0,-0.039426987802551904,-1.999519004254784,0.0,-0.013002702927357754,0.0,0.0,0.0,0.0,0.0,0.0,0.0,-0.36855,-0.43942499999999995,3.482325,-0.05558952,0.6038171999999999,0.00383376
1779584999214326620,A_-,-0.35544968212479944,0.0,-0.039426987802551904,-1.999519004254784,0.0,-0.013002702927357754,0.0,0.0,0.0,0.0,0.0,0.0,0.0,-0.36855,-0.43942499999999995,3.482325,-0.05558952,0.6038171999999999,0.00383376
1779584999214326620,A_-,-0.35679924150008446,0.0,-0.039426987802551904,-1.999519004254784,0.0,-0.013002702927357754,0.0,0.0,0.0,0.0,0.0,0.0,0.0,-0.36855,-0.43942499999999995,3.482325,-0.05558952,0.6038171999999999,0.00383376
1779584999248826265,A_-,-0.3581225411248852,0.0,-0.039426987802551904,-1.999519004254784,0.0,-0.013002702927357754,0.0,0.0,0.0,0.0,0.0,0.0,0.0,-0.36855,-0.36382499999999995,3.5106749999999995,-0.06421548,0.6019003199999999,0.00670908
1779584999248826265,A_-,-0.3595617358751042,0.0,-0.039426987802551904,-1.999519004254784,0.0,-0.013002702927357754,0.0,0.0,0.0,0.0,0.0,0.0,0.0,-0.36855,-0.36382499999999995,3.5106749999999995,-0.06421548,0.6019003199999999,0.00670908
1779584999248826265,A_-,-0.3609127873746729,0.0,-0.039426987802551904,-1.999519004254784,0.0,-0.013002702927357754,0.0,0.0,0.0,0.0,0.0,0.0,0.0,-0.36855,-0.36382499999999995,3.5106749999999995,-0.06421548,0.6019003199999999,0.00670908
1779584999278847455,A_-,-0.3622301149998748,0.0,-0.039426987802551904,-1.999519004254784,0.0,-0.013002702927357754,0.0,0.0,0.0,0.0,0.0,0.0,0.0,-0.3449249999999999,-0.382725,3.50595,-0.06325704,0.6019003199999999,0.01245972
1779584999278847455,A_-,-0.36364650587483993,0.0,-0.039426987802551904,-1.999519004254784,0.0,-0.013002702927357754,0.0,0.0,0.0,0.0,0.0,0.0,0.0,-0.3449249999999999,-0.382725,3.50595,-0.06325704,0.6019003199999999,0.01245972
1779584999278847455,A_-,-0.36501036924983055,0.0,-0.039426987802551904,-1.999519004254784,0.0,-0.013002702927357754,0.0,0.0,0.0,0.0,0.0,0.0,0.0,-0.3449249999999999,-0.382725,3.50595,-0.06325704,0.6019003199999999,0.01245972
1779584999308903217,A_-,-0.3663501047499267,0.0,-0.039426987802551904,-1.999519004254784,0.0,-0.013002702927357754,0.0,0.0,0.0,0.0,0.0,0.0,0.0,-0.3591,-0.3969,3.5153999999999996,-0.06134016,0.6028587599999999,0.02491944
1779584999308903217,A_-,-0.36778081962484066,0.0,-0.039426987802551904,-1.999519004254784,0.0,-0.013002702927357754,0.0,0.0,0.0,0.0,0.0,0.0,0.0,-0.3591,-0.3969,3.5153999999999996,-0.06134016,0.6028587599999999,0.02491944
1779584999308903217,A_-,-0.36912591899999825,0.0,-0.039426987802551904,-1.999519004254784,0.0,-0.013002702927357754,0.0,0.0,0.0,0.0,0.0,0.0,0.0,-0.3591,-0.3969,3.5153999999999996,-0.06134016,0.6028587599999999,0.02491944
1779584999348854780,A_-,-0.37045860650005125,0.0,-0.039426987802551904,-1.999519004254784,0.0,-0.013002702927357754,0.0,0.0,0.0,0.0,0.0,0.0,0.0,-0.3591,-0.4205249999999999,3.482325,-0.0622986,0.6038171999999999,0.01150128
1779584999348854780,A_-,-0.37192478125007256,0.0,-0.039426987802551904,-1.999519004254784,0.0,-0.013002702927357754,0.0,0.0,0.0,0.0,0.0,0.0,0.0,-0.3591,-0.4205249999999999,3.482325,-0.0622986,0.6038171999999999,0.01150128
1779584999348854780,A_-,-0.373283140500007,0.0,-0.039426987802551904,-1.999519004254784,0.0,-0.013002702927357754,0.0,0.0,0.0,0.0,0.0,0.0,0.0,-0.3591,-0.4205249999999999,3.482325,-0.0622986,0.6038171999999999,0.01150128
1779584999379265785,A_-,-0.37461809999967954,0.0,-0.039426987802551904,-1.999519004254784,0.0,-0.013002702927357754,0.0,0.0,0.0,0.0,0.0,0.0,0.0,-0.36855,-0.40635,3.5106749999999995,-0.06421548,0.60765096,0.0095844
1779584999379265785,A_-,-0.3760714787499637,0.0,-0.039426987802551904,-1.999519004254784,0.0,-0.013002702927357754,0.0,0.0,0.0,0.0,0.0,0.0,0.0,-0.36855,-0.40635,3.5106749999999995,-0.06421548,0.60765096,0.0095844
1779584999379265785,A_-,-0.3774311461247635,0.0,-0.039426987802551904,-1.999519004254784,0.0,-0.013002702927357754,0.0,0.0,0.0,0.0,0.0,0.0,0.0,-0.36855,-0.40635,3.5106749999999995,-0.06421548,0.60765096,0.0095844
1779584999413866519,A_-,-0.37876548562508106,0.0,-0.039426987802551904,-1.999519004254784,0.0,-0.013002702927357754,0.0,0.0,0.0,0.0,0.0,0.0,0.0,-0.37327499999999997,-0.40635,3.50595,-0.06038172,0.60669252,0.0
1779584999413866519,A_-,-0.3802165843749208,0.0,-0.039426987802551904,-1.999519004254784,0.0,-0.013002702927357754,0.0,0.0,0.0,0.0,0.0,0.0,0.0,-0.37327499999999997,-0.40635,3.50595,-0.06038172,0.60669252,0.0
1779584999413866519,A_-,-0.38158926362484635,0.0,-0.039426987802551904,-1.999519004254784,0.0,-0.013002702927357754,0.0,0.0,0.0,0.0,0.0,0.0,0.0,-0.37327499999999997,-0.40635,3.50595,-0.06038172,0.60669252,0.0
1779584999448849201,A_-,-0.3829285791248367,0.0,-0.039426987802551904,-1.999519004254784,0.0,-0.013002702927357754,0.0,0.0,0.0,0.0,0.0,0.0,0.0,-0.37327499999999997,-0.36855,3.501225,-0.0622986,0.60477564,0.0047922
1779584999448849201,A_-,-0.38438627787490987,0.0,-0.039426987802551904,-1.999519004254784,0.0,-0.013002702927357754,0.0,0.0,0.0,0.0,0.0,0.0,0.0,-0.37327499999999997,-0.36855,3.501225,-0.0622986,0.60477564,0.0047922
1779584999448849201,A_-,-0.38573704925011043,0.0,-0.039426987802551904,-1.999519004254784,0.0,-0.013002702927357754,0.0,0.0,0.0,0.0,0.0,0.0,0.0,-0.37327499999999997,-0.36855,3.501225,-0.0622986,0.60477564,0.0047922
1779584999478902578,A_-,-0.3870737607498995,0.0,-0.039426987802551904,-1.999519004254784,0.0,-0.013002702927357754,0.0,0.0,0.0,0.0,0.0,0.0,0.0,-0.3591,-0.401625,3.501225,-0.059423279999999995,0.6019003199999999,0.00095844
1779584999478902578,A_-,-0.38853571937488596,0.0,-0.039426987802551904,-1.999519004254784,0.0,-0.013002702927357754,0.0,0.0,0.0,0.0,0.0,0.0,0.0,-0.3591,-0.401625,3.501225,-0.059423279999999995,0.6019003199999999,0.00095844
1779584999478902578,A_-,-0.38991181862502344,0.0,-0.039426987802551904,-1.999519004254784,0.0,-0.013002702927357754,0.0,0.0,0.0,0.0,0.0,0.0,0.0,-0.3591,-0.401625,3.501225,-0.059423279999999995,0.6019003199999999,0.00095844
1779584999513869524,A_-,-0.39123051824981303,0.0,-0.039426987802551904,-1.999519004254784,0.0,-0.013002702927357754,0.0,0.0,0.0,0.0,0.0,0.0,0.0,-0.36382499999999995,-0.38744999999999996,3.4964999999999997,-0.0670908,0.6038171999999999,0.0
1779584999513869524,A_-,-0.39263124937497196,0.0,-0.039426987802551904,-1.999519004254784,0.0,-0.013002702927357754,0.0,0.0,0.0,0.0,0.0,0.0,0.0,-0.36382499999999995,-0.38744999999999996,3.4964999999999997,-0.0670908,0.6038171999999999,0.0
1779584999513869524,A_-,-0.3939559808750346,0.0,-0.039426987802551904,-1.999519004254784,0.0,-0.013002702927357754,0.0,0.0,0.0,0.0,0.0,0.0,0.0,-0.36382499999999995,-0.38744999999999996,3.4964999999999997,-0.0670908,0.6038171999999999,0.0
1779584999544581890,A_-,-0.39529023637487626,0.0,-0.039426987802551904,-1.999519004254784,0.0,-0.013002702927357754,0.0,0.0,0.0,0.0,0.0,0.0,0.0,-0.382725,-0.401625,3.52485,-0.05654796,0.60477564,0.0095844
1779584999544581890,A_-,-0.3967060153750026,0.0,-0.039426987802551904,-1.999519004254784,0.0,-0.013002702927357754,0.0,0.0,0.0,0.0,0.0,0.0,0.0,-0.382725,-0.401625,3.52485,-0.05654796,0.60477564,0.0095844
1779584999544581890,A_-,-0.3980439988749822,0.0,-0.039426987802551904,-1.999519004254784,0.0,-0.013002702927357754,0.0,0.0,0.0,0.0,0.0,0.0,0.0,-0.382725,-0.401625,3.52485,-0.05654796,0.60477564,0.0095844
1779584999578874111,A_-,-0.3993781343747287,0.0,-0.039426987802551904,-1.999519004254784,0.0,-0.013002702927357754,0.0,0.0,0.0,0.0,0.0,0.0,0.0,-0.36855,-0.38744999999999996,3.482325,-0.0622986,0.6086094,0.00766752
1779584999578874111,A_-,-0.40078589737504444,0.0,-0.039426987802551904,-1.999519004254784,0.0,-0.013002702927357754,0.0,0.0,0.0,0.0,0.0,0.0,0.0,-0.36855,-0.38744999999999996,3.482325,-0.0622986,0.6086094,0.00766752
1779584999578874111,A_-,-0.4021203888751188,0.0,-0.039426987802551904,-1.999519004254784,0.0,-0.013002702927357754,0.0,0.0,0.0,0.0,0.0,0.0,0.0,-0.36855,-0.38744999999999996,3.482325,-0.0622986,0.6086094,0.00766752
1779584999613876104,A_-,-0.403447276499719,0.0,-0.039426987802551904,-1.999519004254784,0.0,-0.013002702927357754,0.0,0.0,0.0,0.0,0.0,0.0,0.0,-0.3591,-0.3969,3.4964999999999997,-0.06613236,0.60956784,0.01150128
1779584999613876104,A_-,-0.4049019552498976,0.0,-0.039426987802551904,-1.999519004254784,0.0,-0.013002702927357754,0.0,0.0,0.0,0.0,0.0,0.0,0.0,-0.3591,-0.3969,3.4964999999999997,-0.06613236,0.60956784,0.01150128
1779584999613876104,A_-,-0.406292002374812,0.0,-0.039426987802551904,-1.999519004254784,0.0,-0.013002702927357754,0.0,0.0,0.0,0.0,0.0,0.0,0.0,-0.3591,-0.3969,3.4964999999999997,-0.06613236,0.60956784,0.01150128
1779584999644028186,A_-,-0.4076325098749294,0.0,-0.039426987802551904,-1.999519004254784,0.0,-0.013002702927357754,0.0,0.0,0.0,0.0,0.0,0.0,0.0,-0.382725,-0.3969,3.5153999999999996,-0.06325704,0.6028587599999999,0.0047922
1779584999644028186,A_-,-0.4090742006246728,0.0,-0.039426987802551904,-1.999519004254784,0.0,-0.013002702927357754,0.0,0.0,0.0,0.0,0.0,0.0,0.0,-0.382725,-0.3969,3.5153999999999996,-0.06325704,0.6028587599999999,0.0047922
1779584999644028186,A_-,-0.4104162961248221,0.0,-0.039426987802551904,-1.999519004254784,0.0,-0.013002702927357754,0.0,0.0,0.0,0.0,0.0,0.0,0.0,-0.382725,-0.3969,3.5153999999999996,-0.06325704,0.6028587599999999,0.0047922
1779584999678887844,A_-,-0.4117408036249799,0.0,-0.039426987802551904,-1.999519004254784,0.0,-0.013002702927357754,0.0,0.0,0.0,0.0,0.0,0.0,0.0,-0.382725,-0.3402,3.4870499999999995,-0.06325704,0.6038171999999999,0.0047922
1779584999678887844,A_-,-0.41320309037473635,0.0,-0.039426987802551904,-1.999519004254784,0.0,-0.013002702927357754,0.0,0.0,0.0,0.0,0.0,0.0,0.0,-0.382725,-0.3402,3.4870499999999995,-0.06325704,0.6038171999999999,0.0047922
1779584999678887844,A_-,-0.4145491297499575,0.0,-0.039426987802551904,-1.999519004254784,0.0,-0.013002702927357754,0.0,0.0,0.0,0.0,0.0,0.0,0.0,-0.382725,-0.3402,3.4870499999999995,-0.06325704,0.6038171999999999,0.0047922
1779584999699079036,A_-,-0.4158861972500745,0.0,-0.039426987802551904,-1.999519004254784,0.0,-0.013002702927357754,0.0,0.0,0.0,0.0,0.0,0.0,0.0,-0.37327499999999997,-0.4205249999999999,3.501225,-0.06421548,0.60573408,0.00287532
1779584999699079036,A_-,-0.41730444425002133,0.0,-0.039426987802551904,-1.999519004254784,0.0,-0.013002702927357754,0.0,0.0,0.0,0.0,0.0,0.0,0.0,-0.37327499999999997,-0.4205249999999999,3.501225,-0.06421548,0.60573408,0.00287532
1779584999699079036,A_-,-0.41863079974973516,0.0,-0.039426987802551904,-1.999519004254784,0.0,-0.013002702927357754,0.0,0.0,0.0,0.0,0.0,0.0,0.0,-0.37327499999999997,-0.4205249999999999,3.501225,-0.06421548,0.60573408,0.00287532
1779584999738902568,A_-,-0.41994786737495815,0.0,-0.039426987802551904,-1.999519004254784,0.0,-0.013002702927357754,0.0,0.0,0.0,0.0,0.0,0.0,0.0,-0.36382499999999995,-0.42524999999999996,3.5201249999999997,-0.06038172,0.6038171999999999,-0.00575064
1779584999738902568,A_-,-0.42136996637509583,0.0,-0.039426987802551904,-1.999519004254784,0.0,-0.013002702927357754,0.0,0.0,0.0,0.0,0.0,0.0,0.0,-0.36382499999999995,-0.42524999999999996,3.5201249999999997,-0.06038172,0.6038171999999999,-0.00575064
1779584999738902568,A_-,-0.42272889362493515,0.0,-0.039426987802551904,-1.999519004254784,0.0,-0.013002702927357754,0.0,0.0,0.0,0.0,0.0,0.0,0.0,-0.36382499999999995,-0.42524999999999996,3.5201249999999997,-0.06038172,0.6038171999999999,-0.00575064
1779584999778901815,A_-,-0.4240587492499799,0.0,-0.039426987802551904,-1.999519004254784,0.0,-0.013002702927357754,0.0,0.0,0.0,0.0,0.0,0.0,0.0,-0.37327499999999997,-0.411075,3.5390249999999996,-0.06517392,0.6086094,0.00191688
1779584999778901815,A_-,-0.4255116399999679,0.0,-0.039426987802551904,-1.999519004254784,0.0,-0.013002702927357754,0.0,0.0,0.0,0.0,0.0,0.0,0.0,-0.37327499999999997,-0.411075,3.5390249999999996,-0.06517392,0.6086094,0.00191688
1779584999778901815,A_-,-0.4268541353749242,0.0,-0.039426987802551904,-1.999519004254784,0.0,-0.013002702927357754,0.0,0.0,0.0,0.0,0.0,0.0,0.0,-0.37327499999999997,-0.411075,3.5390249999999996,-0.06517392,0.6086094,0.00191688
1779584999808930158,A_-,-0.42818712287498784,0.0,-0.039426987802551904,-1.999519004254784,0.0,-0.013002702927357754,0.0,0.0,0.0,0.0,0.0,0.0,0.0,-0.36382499999999995,-0.401625,3.529575,-0.06134016,0.6086094,0.0047922
1779584999808930158,A_-,-0.4296486856246702,0.0,-0.039426987802551904,-1.999519004254784,0.0,-0.013002702927357754,0.0,0.0,0.0,0.0,0.0,0.0,0.0,-0.36382499999999995,-0.401625,3.529575,-0.06134016,0.6086094,0.0047922
1779584999808930158,A_-,-0.4310059609997552,0.0,-0.039426987802551904,-1.999519004254784,0.0,-0.013002702927357754,0.0,0.0,0.0,0.0,0.0,0.0,0.0,-0.36382499999999995,-0.401625,3.529575,-0.06134016,0.6086094,0.0047922
1779584999843927145,A_-,-0.43234798837511335,0.0,-0.039426987802551904,-1.999519004254784,0.0,-0.013002702927357754,0.0,0.0,0.0,0.0,0.0,0.0,0.0,-0.3591,-0.4347,3.4917749999999996,-0.06038172,0.5999834399999999,0.00575064
1779584999843927145,A_-,-0.4338104111247958,0.0,-0.039426987802551904,-1.999519004254784,0.0,-0.013002702927357754,0.0,0.0,0.0,0.0,0.0,0.0,0.0,-0.3591,-0.4347,3.4917749999999996,-0.06038172,0.5999834399999999,0.00575064
1779584999843927145,A_-,-0.43516389050000726,0.0,-0.039426987802551904,-1.999519004254784,0.0,-0.013002702927357754,0.0,0.0,0.0,0.0,0.0,0.0,0.0,-0.3591,-0.4347,3.4917749999999996,-0.06038172,0.5999834399999999,0.00575064
1779584999874342203,A_-,-0.43650160199968013,0.0,-0.039426987802551904,-1.999519004254784,0.0,-0.013002702927357754,0.0,0.0,0.0,0.0,0.0,0.0,0.0,-0.36382499999999995,-0.41579999999999995,3.4208999999999996,-0.05750639999999999,0.60765096,-0.00287532
1779584999874342203,A_-,-0.43796804462499495,0.0,-0.039426987802551904,-1.999519004254784,0.0,-0.013002702927357754,0.0,0.0,0.0,0.0,0.0,0.0,0.0,-0.36382499999999995,-0.41579999999999995,3.4208999999999996,-0.05750639999999999,0.60765096,-0.00287532
1779584999874342203,A_-,-0.4393222439998681,0.0,-0.039426987802551904,-1.999519004254784,0.0,-0.013002702927357754,0.0,0.0,0.0,0.0,0.0,0.0,0.0,-0.36382499999999995,-0.41579999999999995,3.4208999999999996,-0.05750639999999999,0.60765096,-0.00287532
1779584999908931016,A_-,-0.44073567099985667,0.0,-0.039426987802551904,-1.999519004254784,0.0,-0.013002702927357754,0.0,0.0,0.0,0.0,0.0,0.0,0.0,-0.35437499999999994,-0.378,3.5106749999999995,-0.06421548,0.60956784,0.014376599999999998
1779584999908931016,A_-,-0.44219954562504427,0.0,-0.039426987802551904,-1.999519004254784,0.0,-0.013002702927357754,0.0,0.0,0.0,0.0,0.0,0.0,0.0,-0.35437499999999994,-0.378,3.5106749999999995,-0.06421548,0.60956784,0.014376599999999998
1779584999908931016,A_-,-0.44355882499985455,0.0,-0.039426987802551904,-1.999519004254784,0.0,-0.013002702927357754,0.0,0.0,0.0,0.0,0.0,0.0,0.0,-0.35437499999999994,-0.378,3.5106749999999995,-0.06421548,0.60956784,0.014376599999999998
1779584999943964958,A_-,-0.444918188374686,0.0,-0.039426987802551904,-1.999519004254784,0.0,-0.013002702927357754,0.0,0.0,0.0,0.0,0.0,0.0,0.0,-0.3591,-0.36855,3.52485,-0.06325704,0.6038171999999999,0.00766752
1779584999943964958,A_-,-0.4463560312497066,0.0,-0.039426987802551904,-1.999519004254784,0.0,-0.013002702927357754,0.0,0.0,0.0,0.0,0.0,0.0,0.0,-0.3591,-0.36855,3.52485,-0.06325704,0.6038171999999999,0.00766752
1779584999943964958,A_-,-0.44771513449995837,0.0,-0.039426987802551904,-1.999519004254784,0.0,-0.013002702927357754,0.0,0.0,0.0,0.0,0.0,0.0,0.0,-0.3591,-0.36855,3.52485,-0.06325704,0.6038171999999999,0.00766752
1779584999975104570,A_-,-0.44905720599990673,0.0,-0.039426987802551904,-1.999519004254784,0.0,-0.013002702927357754,0.0,0.0,0.0,0.0,0.0,0.0,0.0,-0.36855,-0.401625,3.4870499999999995,-0.06517392,0.6028587599999999,0.0047922
1779584999975104570,A_-,-0.450478313000076,0.0,-0.039426987802551904,-1.999519004254784,0.0,-0.013002702927357754,0.0,0.0,0.0,0.0,0.0,0.0,0.0,-0.36855,-0.401625,3.4870499999999995,-0.06517392,0.6028587599999999,0.0047922
1779584999975104570,A_-,-0.451810964500055,0.0,-0.039426987802551904,-1.999519004254784,0.0,-0.013002702927357754,0.0,0.0,0.0,0.0,0.0,0.0,0.0,-0.36855,-0.401625,3.4870499999999995,-0.06517392,0.6028587599999999,0.0047922
1779585000008947134,A_-,-0.45314564799991786,0.0,-0.039426987802551904,-1.999519004254784,0.0,-0.013002702927357754,0.0,0.0,0.0,0.0,0.0,0.0,0.0,-0.36382499999999995,-0.401625,3.5106749999999995,-0.059423279999999995,0.6086094,0.01533504
1779585000008947134,A_-,-0.4546294824999677,0.0,-0.039426987802551904,-1.999519004254784,0.0,-0.013002702927357754,0.0,0.0,0.0,0.0,0.0,0.0,0.0,-0.36382499999999995,-0.401625,3.5106749999999995,-0.059423279999999995,0.6086094,0.01533504
1779585000008947134,A_-,-0.4560215776250516,0.0,-0.039426987802551904,-1.999519004254784,0.0,-0.013002702927357754,0.0,0.0,0.0,0.0,0.0,0.0,0.0,-0.36382499999999995,-0.401625,3.5106749999999995,-0.059423279999999995,0.6086094,0.01533504
1779585000043954372,A_-,-0.4573354732497137,0.0,-0.039426987802551904,-1.999519004254784,0.0,-0.013002702927357754,0.0,0.0,0.0,0.0,0.0,0.0,0.0,-0.36855,-0.392175,3.5201249999999997,-0.059423279999999995,0.6028587599999999,0.01054284
1779585000043954372,A_-,-0.45873557237473506,0.0,-0.039426987802551904,-1.999519004254784,0.0,-0.013002702927357754,0.0,0.0,0.0,0.0,0.0,0.0,0.0,-0.36855,-0.392175,3.5201249999999997,-0.059423279999999995,0.6028587599999999,0.01054284
1779585000043954372,A_-,-0.46006481587482995,0.0,-0.039426987802551904,-1.999519004254784,0.0,-0.013002702927357754,0.0,0.0,0.0,0.0,0.0,0.0,0.0,-0.36855,-0.392175,3.5201249999999997,-0.059423279999999995,0.6028587599999999,0.01054284
1779585000073949575,A_-,-0.46138549950001106,0.0,-0.039426987802551904,-1.999519004254784,0.0,-0.013002702927357754,0.0,0.0,0.0,0.0,0.0,0.0,0.0,-0.36382499999999995,-0.41579999999999995,3.5342999999999996,-0.06134016,0.61052628,0.0
1779585000073949575,A_-,-0.46296174549979696,0.0,-0.039426987802551904,-1.999519004254784,0.0,-0.013002702927357754,0.0,0.0,0.0,0.0,0.0,0.0,0.0,-0.36382499999999995,-0.41579999999999995,3.5342999999999996,-0.06134016,0.61052628,0.0
1779585000073949575,A_-,-0.46442878012476285,0.0,-0.039426987802551904,-1.999519004254784,0.0,-0.013002702927357754,0.0,0.0,0.0,0.0,0.0,0.0,0.0,-0.36382499999999995,-0.41579999999999995,3.5342999999999996,-0.06134016,0.61052628,0.0
1779585000108952283,A_-,-0.46576614362493274,0.0,-0.039426987802551904,-1.999519004254784,0.0,-0.013002702927357754,0.0,0.0,0.0,0.0,0.0,0.0,0.0,-0.3591,-0.42997499999999994,3.529575,-0.06421548,0.60765096,0.00287532
1779585000108952283,A_-,-0.467290425875035,0.0,-0.039426987802551904,-1.999519004254784,0.0,-0.013002702927357754,0.0,0.0,0.0,0.0,0.0,0.0,0.0,-0.3591,-0.42997499999999994,3.529575,-0.06421548,0.60765096,0.00287532
1779585000108952283,A_-,-0.46867213699988497,0.0,-0.039426987802551904,-1.999519004254784,0.0,-0.013002702927357754,0.0,0.0,0.0,0.0,0.0,0.0,0.0,-0.3591,-0.42997499999999994,3.529575,-0.06421548,0.60765096,0.00287532
1779585000143965959,A_-,-0.47002037249967543,0.0,-0.039426987802551904,-1.999519004254784,0.0,-0.013002702927357754,0.0,0.0,0.0,0.0,0.0,0.0,0.0,-0.36855,-0.401625,3.50595,-0.06517392,0.6028587599999999,0.00383376
1779585000143965959,A_-,-0.4714324514998225,0.0,-0.039426987802551904,-1.999519004254784,0.0,-0.013002702927357754,0.0,0.0,0.0,0.0,0.0,0.0,0.0,-0.36855,-0.401625,3.50595,-0.06517392,0.6028587599999999,0.00383376
1779585000143965959,A_-,-0.47276221899983284,0.0,-0.039426987802551904,-1.999519004254784,0.0,-0.013002702927357754,0.0,0.0,0.0,0.0,0.0,0.0,0.0,-0.36855,-0.401625,3.50595,-0.06517392,0.6028587599999999,0.00383376
1779585000175160169,A_-,-0.47408148662498206,0.0,-0.039426987802551904,-1.999519004254784,0.0,-0.013002702927357754,0.0,0.0,0.0,0.0,0.0,0.0,0.0,-0.36855,-0.401625,3.4917749999999996,-0.06038172,0.6086094,0.00191688
1779585000175160169,A_-,-0.4754822576251172,0.0,-0.039426987802551904,-1.999519004254784,0.0,-0.013002702927357754,0.0,0.0,0.0,0.0,0.0,0.0,0.0,-0.36855,-0.401625,3.4917749999999996,-0.06038172,0.6086094,0.00191688
1779585000175160169,A_-,-0.47686120887510697,0.0,-0.039426987802551904,-1.999519004254784,0.0,-0.013002702927357754,0.0,0.0,0.0,0.0,0.0,0.0,0.0,-0.36855,-0.401625,3.4917749999999996,-0.06038172,0.6086094,0.00191688
1779585000208974361,A_-,-0.478222572249706,0.0,-0.039426987802551904,-1.999519004254784,0.0,-0.013002702927357754,0.0,0.0,0.0,0.0,0.0,0.0,0.0,-0.378,-0.38744999999999996,3.5390249999999996,-0.06325704,0.6019003199999999,0.01054284
1779585000208974361,A_-,-0.4796228712498305,0.0,-0.039426987802551904,-1.999519004254784,0.0,-0.013002702927357754,0.0,0.0,0.0,0.0,0.0,0.0,0.0,-0.378,-0.38744999999999996,3.5390249999999996,-0.06325704,0.6019003199999999,0.01054284
1779585000208974361,A_-,-0.48096266274978916,0.0,-0.039426987802551904,-1.999519004254784,0.0,-0.013002702927357754,0.0,0.0,0.0,0.0,0.0,0.0,0.0,-0.378,-0.38744999999999996,3.5390249999999996,-0.06325704,0.6019003199999999,0.01054284
1779585000243976593,A_-,-0.48230474625006536,0.0,-0.039426987802551904,-1.999519004254784,0.0,-0.013002702927357754,0.0,0.0,0.0,0.0,0.0,0.0,0.0,-0.36382499999999995,-0.3969,3.501225,-0.05846484,0.6028587599999999,0.0095844
1779585000243976593,A_-,-0.483715565249895,0.0,-0.039426987802551904,-1.999519004254784,0.0,-0.013002702927357754,0.0,0.0,0.0,0.0,0.0,0.0,0.0,-0.36382499999999995,-0.3969,3.501225,-0.05846484,0.6028587599999999,0.0095844
1779585000243976593,A_-,-0.48505155275006473,0.0,-0.039426987802551904,-1.999519004254784,0.0,-0.013002702927357754,0.0,0.0,0.0,0.0,0.0,0.0,0.0,-0.36382499999999995,-0.3969,3.501225,-0.05846484,0.6028587599999999,0.0095844
1779585000274000644,A_-,-0.4863749362498311,0.0,-0.039426987802551904,-1.999519004254784,0.0,-0.013002702927357754,0.0,0.0,0.0,0.0,0.0,0.0,0.0,-0.37327499999999997,-0.382725,3.4964999999999997,-0.06517392,0.6019003199999999,0.00383376
1779585000274000644,A_-,-0.4878369869998096,0.0,-0.039426987802551904,-1.999519004254784,0.0,-0.013002702927357754,0.0,0.0,0.0,0.0,0.0,0.0,0.0,-0.37327499999999997,-0.382725,3.4964999999999997,-0.06517392,0.6019003199999999,0.00383376
1779585000274000644,A_-,-0.489226958125073,0.0,-0.039426987802551904,-1.999519004254784,0.0,-0.013002702927357754,0.0,0.0,0.0,0.0,0.0,0.0,0.0,-0.37327499999999997,-0.382725,3.4964999999999997,-0.06517392,0.6019003199999999,0.00383376
1779585000308995246,A_-,-0.4906239932497556,0.0,-0.039426987802551904,-1.999519004254784,0.0,-0.013002702927357754,0.0,0.0,0.0,0.0,0.0,0.0,0.0,-0.3591,-0.42997499999999994,3.5153999999999996,-0.06325704,0.60765096,0.00766752
1779585000308995246,A_-,-0.4920477281248168,0.0,-0.039426987802551904,-1.999519004254784,0.0,-0.013002702927357754,0.0,0.0,0.0,0.0,0.0,0.0,0.0,-0.3591,-0.42997499999999994,3.5153999999999996,-0.06325704,0.60765096,0.00766752
1779585000308995246,A_-,-0.49339004762487093,0.0,-0.039426987802551904,-1.999519004254784,0.0,-0.013002702927357754,0.0,0.0,0.0,0.0,0.0,0.0,0.0,-0.3591,-0.42997499999999994,3.5153999999999996,-0.06325704,0.60765096,0.00766752
1779585000340169429,A_-,-0.4947301189999962,0.0,-0.039426987802551904,-1.999519004254784,0.0,-0.013002702927357754,0.0,0.0,0.0,0.0,0.0,0.0,0.0,-0.382725,-0.40635,3.501225,-0.06325704,0.60573408,0.00766752
1779585000340169429,A_-,-0.4962249014997724,0.0,-0.039426987802551904,-1.999519004254784,0.0,-0.013002702927357754,0.0,0.0,0.0,0.0,0.0,0.0,0.0,-0.382725,-0.40635,3.501225,-0.06325704,0.60573408,0.00766752
1779585000340169429,A_-,-0.4976056647496989,0.0,-0.039426987802551904,-1.999519004254784,0.0,-0.013002702927357754,0.0,0.0,0.0,0.0,0.0,0.0,0.0,-0.382725,-0.40635,3.501225,-0.06325704,0.60573408,0.00766752
1779585000374092817,A_-,-0.4989480481249302,0.0,-0.039426987802551904,-1.999519004254784,0.0,-0.013002702927357754,0.0,0.0,0.0,0.0,0.0,0.0,0.0,-0.38744999999999996,-0.38744999999999996,3.4964999999999997,-0.05367264,0.6028587599999999,0.00191688
1779585000374092817,A_-,-0.5005310941251082,0.0,-0.039426987802551904,-1.999519004254784,0.0,-0.013002702927357754,0.0,0.0,0.0,0.0,0.0,0.0,0.0,-0.38744999999999996,-0.38744999999999996,3.4964999999999997,-0.05367264,0.6028587599999999,0.00191688
1779585000374092817,A_-,-0.5019498849997035,0.0,-0.039426987802551904,-1.999519004254784,0.0,-0.013002702927357754,0.0,0.0,0.0,0.0,0.0,0.0,0.0,-0.38744999999999996,-0.38744999999999996,3.4964999999999997,-0.05367264,0.6028587599999999,0.00191688
1779585000408997535,A_-,-0.5032846004996827,0.0,-0.039426987802551904,-1.999519004254784,0.0,-0.013002702927357754,0.0,0.0,0.0,0.0,0.0,0.0,0.0,-0.36855,-0.45359999999999995,3.4776,-0.07188299999999999,0.6038171999999999,-0.00670908
1779585000408997535,A_-,-0.5047880749998512,0.0,-0.039426987802551904,-1.999519004254784,0.0,-0.013002702927357754,0.0,0.0,0.0,0.0,0.0,0.0,0.0,-0.36855,-0.45359999999999995,3.4776,-0.07188299999999999,0.6038171999999999,-0.00670908
1779585000408997535,A_-,-0.5061316543747125,0.0,-0.039426987802551904,-1.999519004254784,0.0,-0.013002702927357754,0.0,0.0,0.0,0.0,0.0,0.0,0.0,-0.36855,-0.45359999999999995,3.4776,-0.07188299999999999,0.6038171999999999,-0.00670908
1779585000439013957,A_-,-0.5074594220000108,0.0,-0.039426987802551904,-1.999519004254784,0.0,-0.013002702927357754,0.0,0.0,0.0,0.0,0.0,0.0,0.0,-0.3969,-0.392175,3.4870499999999995,-0.05463108,0.6038171999999999,0.02012724
1779585000439013957,A_-,-0.5088988527500078,0.0,-0.039426987802551904,-1.999519004254784,0.0,-0.013002702927357754,0.0,0.0,0.0,0.0,0.0,0.0,0.0,-0.3969,-0.392175,3.4870499999999995,-0.05463108,0.6038171999999999,0.02012724
1779585000439013957,A_-,-0.5102354962500613,0.0,-0.039426987802551904,-1.999519004254784,0.0,-0.013002702927357754,0.0,0.0,0.0,0.0,0.0,0.0,0.0,-0.3969,-0.392175,3.4870499999999995,-0.05463108,0.6038171999999999,0.02012724
1779585000459007501,A_-,-0.5115611558749151,0.0,-0.039426987802551904,-1.999519004254784,0.0,-0.013002702927357754,0.0,0.0,0.0,0.0,0.0,0.0,0.0,-0.37327499999999997,-0.3969,3.50595,-0.06804924000000001,0.5999834399999999,0.01341816
1779585000459007501,A_-,-0.5130002466248698,0.0,-0.039426987802551904,-1.999519004254784,0.0,-0.013002702927357754,0.0,0.0,0.0,0.0,0.0,0.0,0.0,-0.37327499999999997,-0.3969,3.50595,-0.06804924000000001,0.5999834399999999,0.01341816
1779585000459007501,A_-,-0.5144446374997642,0.0,-0.039426987802551904,-1.999519004254784,0.0,-0.013002702927357754,0.0,0.0,0.0,0.0,0.0,0.0,0.0,-0.37327499999999997,-0.3969,3.50595,-0.06804924000000001,0.5999834399999999,0.01341816
1779585000484012126,A_-,-0.5157548531246903,0.0,-0.039426987802551904,-1.999519004254784,0.0,-0.013002702927357754,0.0,0.0,0.0,0.0,0.0,0.0,0.0,-0.36855,-0.44415,3.5437499999999997,-0.0670908,0.6009418799999999,-0.00095844
1779585000484012126,A_-,-0.5171271283747956,0.0,-0.039426987802551904,-1.999519004254784,0.0,-0.013002702927357754,0.0,0.0,0.0,0.0,0.0,0.0,0.0,-0.36855,-0.44415,3.5437499999999997,-0.0670908,0.6009418799999999,-0.00095844
1779585000484012126,A_-,-0.5184480119996806,0.0,-0.039426987802551904,-1.999519004254784,0.0,-0.013002702927357754,0.0,0.0,0.0,0.0,0.0,0.0,0.0,-0.36855,-0.44415,3.5437499999999997,-0.0670908,0.6009418799999999,-0.00095844
1779585000524017333,A_-,-0.5197583796248182,0.0,-0.039426987802551904,-1.999519004254784,0.0,-0.013002702927357754,0.0,0.0,0.0,0.0,0.0,0.0,0.0,-0.34964999999999996,-0.3969,3.5106749999999995,-0.06134016,0.60477564,0.00287532
1779585000524017333,A_-,-0.5211375667499851,0.0,-0.039426987802551904,-1.999519004254784,0.0,-0.013002702927357754,0.0,0.0,0.0,0.0,0.0,0.0,0.0,-0.34964999999999996,-0.3969,3.5106749999999995,-0.06134016,0.60477564,0.00287532
1779585000524017333,A_-,-0.5224662943746807,0.0,-0.039426987802551904,-1.999519004254784,0.0,-0.013002702927357754,0.0,0.0,0.0,0.0,0.0,0.0,0.0,-0.34964999999999996,-0.3969,3.5106749999999995,-0.06134016,0.60477564,0.00287532
1779585000554030895,A_-,-0.5237774299998819,0.0,-0.039426987802551904,-1.999519004254784,0.0,-0.013002702927357754,0.0,0.0,0.0,0.0,0.0,0.0,0.0,-0.35437499999999994,-0.40635,3.4964999999999997,-0.05846484,0.6009418799999999,0.0047922
1779585000554030895,A_-,-0.5251664771249125,0.0,-0.039426987802551904,-1.999519004254784,0.0,-0.013002702927357754,0.0,0.0,0.0,0.0,0.0,0.0,0.0,-0.35437499999999994,-0.40635,3.4964999999999997,-0.05846484,0.6009418799999999,0.0047922
1779585000554030895,A_-,-0.5264835687498817,0.0,-0.039426987802551904,-1.999519004254784,0.0,-0.013002702927357754,0.0,0.0,0.0,0.0,0.0,0.0,0.0,-0.35437499999999994,-0.40635,3.4964999999999997,-0.05846484,0.6009418799999999,0.0047922
1779585000594455003,A_-,-0.5277998723749988,0.0,-0.039426987802551904,-1.999519004254784,0.0,-0.013002702927357754,0.0,0.0,0.0,0.0,0.0,0.0,0.0,-0.378,-0.411075,3.4964999999999997,-0.06421548,0.60477564,0.00670908
1779585000594455003,A_-,-0.5291764756248085,0.0,-0.039426987802551904,-1.999519004254784,0.0,-0.013002702927357754,0.0,0.0,0.0,0.0,0.0,0.0,0.0,-0.378,-0.411075,3.4964999999999997,-0.06421548,0.60477564,0.00670908
1779585000594455003,A_-,-0.5305028071247762,0.0,-0.039426987802551904,-1.999519004254784,0.0,-0.013002702927357754,0.0,0.0,0.0,0.0,0.0,0.0,0.0,-0.378,-0.411075,3.4964999999999997,-0.06421548,0.60477564,0.00670908
1779585000639058351,A_-,-0.5318222947498725,0.0,-0.039426987802551904,-1.999519004254784,0.0,-0.013002702927357754,0.0,0.0,0.0,0.0,0.0,0.0,0.0,-0.36855,-0.38744999999999996,3.5106749999999995,-0.0622986,0.60477564,0.00670908
1779585000639058351,A_-,-0.5331924019997132,0.0,-0.039426987802551904,-1.999519004254784,0.0,-0.013002702927357754,0.0,0.0,0.0,0.0,0.0,0.0,0.0,-0.36855,-0.38744999999999996,3.5106749999999995,-0.0622986,0.60477564,0.00670908
1779585000639058351,A_-,-0.5345138616248732,0.0,-0.039426987802551904,-1.999519004254784,0.0,-0.013002702927357754,0.0,0.0,0.0,0.0,0.0,0.0,0.0,-0.36855,-0.38744999999999996,3.5106749999999995,-0.0622986,0.60477564,0.00670908
1779585000669303178,A_-,-0.535834493125094,0.0,-0.039426987802551904,-1.999519004254784,0.0,-0.013002702927357754,0.0,0.0,0.0,0.0,0.0,0.0,0.0,-0.35437499999999994,-0.3969,3.50595,-0.06134016,0.60765096,0.00287532
1779585000669303178,A_-,-0.5372112923751047,0.0,-0.039426987802551904,-1.999519004254784,0.0,-0.013002702927357754,0.0,0.0,0.0,0.0,0.0,0.0,0.0,-0.35437499999999994,-0.3969,3.50595,-0.06134016,0.60765096,0.00287532
1779585000669303178,A_-,-0.5385384559999693,0.0,-0.039426987802551904,-1.999519004254784,0.0,-0.013002702927357754,0.0,0.0,0.0,0.0,0.0,0.0,0.0,-0.35437499999999994,-0.3969,3.50595,-0.06134016,0.60765096,0.00287532
1779585000704054594,A_-,-0.5398594714997671,0.0,-0.039426987802551904,-1.999519004254784,0.0,-0.013002702927357754,0.0,0.0,0.0,0.0,0.0,0.0,0.0,-0.37327499999999997,-0.392175,3.4964999999999997,-0.06325704,0.60477564,0.00862596
1779585000704054594,A_-,-0.5412368227498519,0.0,-0.039426987802551904,-1.999519004254784,0.0,-0.013002702927357754,0.0,0.0,0.0,0.0,0.0,0.0,0.0,-0.37327499999999997,-0.392175,3.4964999999999997,-0.06325704,0.60477564,0.00862596
1779585000704054594,A_-,-0.5425673342497248,0.0,-0.039426987802551904,-1.999519004254784,0.0,-0.013002702927357754,0.0,0.0,0.0,0.0,0.0,0.0,0.0,-0.37327499999999997,-0.392175,3.4964999999999997,-0.06325704,0.60477564,0.00862596
1779585000734050273,A_-,-0.5438840978749795,0.0,-0.039426987802551904,-1.999519004254784,0.0,-0.013002702927357754,0.0,0.0,0.0,0.0,0.0,0.0,0.0,-0.37327499999999997,-0.37327499999999997,3.5201249999999997,-0.06134016,0.6009418799999999,0.01054284
1779585000734050273,A_-,-0.5452407652496731,0.0,-0.039426987802551904,-1.999519004254784,0.0,-0.013002702927357754,0.0,0.0,0.0,0.0,0.0,0.0,0.0,-0.37327499999999997,-0.37327499999999997,3.5201249999999997,-0.06134016,0.6009418799999999,0.01054284
1779585000734050273,A_-,-0.5465574648746951,0.0,-0.039426987802551904,-1.999519004254784,0.0,-0.013002702927357754,0.0,0.0,0.0,0.0,0.0,0.0,0.0,-0.37327499999999997,-0.37327499999999997,3.5201249999999997,-0.06134016,0.6009418799999999,0.01054284
1779585000769065141,A_-,-0.547879880374694,0.0,-0.039426987802551904,-1.999519004254784,0.0,-0.013002702927357754,0.0,0.0,0.0,0.0,0.0,0.0,0.0,-0.378,-0.36382499999999995,3.5153999999999996,-0.06038172,0.6038171999999999,0.00095844
1779585000769065141,A_-,-0.5492510557501191,0.0,-0.039426987802551904,-1.999519004254784,0.0,-0.013002702927357754,0.0,0.0,0.0,0.0,0.0,0.0,0.0,-0.378,-0.36382499999999995,3.5153999999999996,-0.06038172,0.6038171999999999,0.00095844
1779585000769065141,A_-,-0.5505712552499062,0.0,-0.039426987802551904,-1.999519004254784,0.0,-0.013002702927357754,0.0,0.0,0.0,0.0,0.0,0.0,0.0,-0.378,-0.36382499999999995,3.5153999999999996,-0.06038172,0.6038171999999999,0.00095844
1779585000799075365,A_-,-0.5518916268747489,0.0,-0.039426987802551904,-1.999519004254784,0.0,-0.013002702927357754,0.0,0.0,0.0,0.0,0.0,0.0,0.0,-0.35437499999999994,-0.3969,3.5342999999999996,-0.05846484,0.60669252,0.01054284
1779585000799075365,A_-,-0.5532631701248647,0.0,-0.039426987802551904,-1.999519004254784,0.0,-0.013002702927357754,0.0,0.0,0.0,0.0,0.0,0.0,0.0,-0.35437499999999994,-0.3969,3.5342999999999996,-0.05846484,0.60669252,0.01054284
1779585000799075365,A_-,-0.5545899176249804,0.0,-0.039426987802551904,-1.999519004254784,0.0,-0.013002702927357754,0.0,0.0,0.0,0.0,0.0,0.0,0.0,-0.35437499999999994,-0.3969,3.5342999999999996,-0.05846484,0.60669252,0.01054284
1779585000829605102,A_-,-0.5559042852501079,0.0,-0.039426987802551904,-1.999519004254784,0.0,-0.013002702927357754,0.0,0.0,0.0,0.0,0.0,0.0,0.0,-0.36855,-0.401625,3.5532,-0.05846484,0.5990249999999999,0.00575064
1779585000829605102,A_-,-0.5572788724998645,0.0,-0.039426987802551904,-1.999519004254784,0.0,-0.013002702927357754,0.0,0.0,0.0,0.0,0.0,0.0,0.0,-0.36855,-0.401625,3.5532,-0.05846484,0.5990249999999999,0.00575064
1779585000829605102,A_-,-0.5585963721250664,0.0,-0.039426987802551904,-1.999519004254784,0.0,-0.013002702927357754,0.0,0.0,0.0,0.0,0.0,0.0,0.0,-0.36855,-0.401625,3.5532,-0.05846484,0.5990249999999999,0.00575064
1779585000864061355,A_-,-0.5599044438749843,0.0,-0.039426987802551904,-1.999519004254784,0.0,-0.013002702927357754,0.0,0.0,0.0,0.0,0.0,0.0,0.0,-0.35437499999999994,-0.392175,3.4728749999999997,-0.059423279999999995,0.5999834399999999,0.01054284
1779585000864061355,A_-,-0.5612839870000244,0.0,-0.039426987802551904,-1.999519004254784,0.0,-0.013002702927357754,0.0,0.0,0.0,0.0,0.0,0.0,0.0,-0.35437499999999994,-0.392175,3.4728749999999997,-0.059423279999999995,0.5999834399999999,0.01054284
1779585000864061355,A_-,-0.5626045146250362,0.0,-0.039426987802551904,-1.999519004254784,0.0,-0.013002702927357754,0.0,0.0,0.0,0.0,0.0,0.0,0.0,-0.35437499999999994,-0.392175,3.4728749999999997,-0.059423279999999995,0.5999834399999999,0.01054284
1779585000894087553,A_-,-0.5639168462498674,0.0,-0.039426987802551904,-1.999519004254784,0.0,-0.013002702927357754,0.0,0.0,0.0,0.0,0.0,0.0,0.0,-0.3591,-0.36382499999999995,3.52485,-0.0622986,0.59519124,0.01054284
1779585000894087553,A_-,-0.565310213374687,0.0,-0.039426987802551904,-1.999519004254784,0.0,-0.013002702927357754,0.0,0.0,0.0,0.0,0.0,0.0,0.0,-0.3591,-0.36382499999999995,3.52485,-0.0622986,0.59519124,0.01054284
1779585000894087553,A_-,-0.5666380248749192,0.0,-0.039426987802551904,-1.999519004254784,0.0,-0.013002702927357754,0.0,0.0,0.0,0.0,0.0,0.0,0.0,-0.3591,-0.36382499999999995,3.52485,-0.0622986,0.59519124,0.01054284
1779585000929089546,A_-,-0.5679468606249429,0.0,-0.039426987802551904,-1.999519004254784,0.0,-0.013002702927357754,0.0,0.0,0.0,0.0,0.0,0.0,0.0,-0.35437499999999994,-0.41579999999999995,3.4964999999999997,-0.0670908,0.5999834399999999,0.0047922
1779585000929089546,A_-,-0.5693199198749426,0.0,-0.039426987802551904,-1.999519004254784,0.0,-0.013002702927357754,0.0,0.0,0.0,0.0,0.0,0.0,0.0,-0.35437499999999994,-0.41579999999999995,3.4964999999999997,-0.0670908,0.5999834399999999,0.0047922
1779585000929089546,A_-,-0.5706407873749413,0.0,-0.039426987802551904,-1.999519004254784,0.0,-0.013002702927357754,0.0,0.0,0.0,0.0,0.0,0.0,0.0,-0.35437499999999994,-0.41579999999999995,3.4964999999999997,-0.0670908,0.5999834399999999,0.0047922
1779585000959101915,A_-,-0.5719474991246898,0.0,-0.039426987802551904,-1.999519004254784,0.0,-0.013002702927357754,0.0,0.0,0.0,0.0,0.0,0.0,0.0,-0.36855,-0.42524999999999996,3.548475,-0.06613236,0.59519124,0.0047922
1779585000959101915,A_-,-0.5733182503749958,0.0,-0.039426987802551904,-1.999519004254784,0.0,-0.013002702927357754,0.0,0.0,0.0,0.0,0.0,0.0,0.0,-0.36855,-0.42524999999999996,3.548475,-0.06613236,0.59519124,0.0047922
1779585000959101915,A_-,-0.5746537178747531,0.0,-0.039426987802551904,-1.999519004254784,0.0,-0.013002702927357754,0.0,0.0,0.0,0.0,0.0,0.0,0.0,-0.36855,-0.42524999999999996,3.548475,-0.06613236,0.59519124,0.0047922
1779585000990102052,A_-,-0.5759640614996897,0.0,-0.039426987802551904,-1.999519004254784,0.0,-0.013002702927357754,0.0,0.0,0.0,0.0,0.0,0.0,0.0,-0.382725,-0.36382499999999995,3.482325,-0.05367264,0.6028587599999999,0.00670908
1779585000990102052,A_-,-0.5773397607499646,0.0,-0.039426987802551904,-1.999519004254784,0.0,-0.013002702927357754,0.0,0.0,0.0,0.0,0.0,0.0,0.0,-0.382725,-0.36382499999999995,3.482325,-0.05367264,0.6028587599999999,0.00670908
1779585000990102052,A_-,-0.5786700602498058,0.0,-0.039426987802551904,-1.999519004254784,0.0,-0.013002702927357754,0.0,0.0,0.0,0.0,0.0,0.0,0.0,-0.382725,-0.36382499999999995,3.482325,-0.05367264,0.6028587599999999,0.00670908
1779585001024159669,A_-,-0.5799937438750931,0.0,-0.039426987802551904,-1.999519004254784,0.0,-0.013002702927357754,0.0,0.0,0.0,0.0,0.0,0.0,0.0,-0.35437499999999994,-0.41579999999999995,3.5106749999999995,-0.05846484,0.60669252,0.00575064
1779585001024159669,A_-,-0.5813701309998578,0.0,-0.039426987802551904,-1.999519004254784,0.0,-0.013002702927357754,0.0,0.0,0.0,0.0,0.0,0.0,0.0,-0.35437499999999994,-0.41579999999999995,3.5106749999999995,-0.05846484,0.60669252,0.00575064
1779585001024159669,A_-,-0.5826930266248382,0.0,-0.039426987802551904,-1.999519004254784,0.0,-0.013002702927357754,0.0,0.0,0.0,0.0,0.0,0.0,0.0,-0.35437499999999994,-0.41579999999999995,3.5106749999999995,-0.05846484,0.60669252,0.00575064
1779585001054388999,A_-,-0.5840035942496797,0.0,-0.039426987802551904,-1.999519004254784,0.0,-0.013002702927357754,0.0,0.0,0.0,0.0,0.0,0.0,0.0,-0.38744999999999996,-0.382725,3.5342999999999996,-0.05846484,0.6028587599999999,0.0047922
1779585001054388999,A_-,-0.585379941499923,0.0,-0.039426987802551904,-1.999519004254784,0.0,-0.013002702927357754,0.0,0.0,0.0,0.0,0.0,0.0,0.0,-0.38744999999999996,-0.382725,3.5342999999999996,-0.05846484,0.6028587599999999,0.0047922
1779585001054388999,A_-,-0.5867024211247553,0.0,-0.039426987802551904,-1.999519004254784,0.0,-0.013002702927357754,0.0,0.0,0.0,0.0,0.0,0.0,0.0,-0.38744999999999996,-0.382725,3.5342999999999996,-0.05846484,0.6028587599999999,0.0047922
1779585001089119434,A_-,-0.5880175767497349,0.0,-0.039426987802551904,-1.999519004254784,0.0,-0.013002702927357754,0.0,0.0,0.0,0.0,0.0,0.0,0.0,-0.38744999999999996,-0.37327499999999997,3.5201249999999997,-0.06325704,0.60573408,-0.00095844
1779585001089119434,A_-,-0.5894192917498913,0.0,-0.039426987802551904,-1.999519004254784,0.0,-0.013002702927357754,0.0,0.0,0.0,0.0,0.0,0.0,0.0,-0.38744999999999996,-0.37327499999999997,3.5201249999999997,-0.06325704,0.60573408,-0.00095844
1779585001089119434,A_-,-0.5907588352497442,0.0,-0.039426987802551904,-1.999519004254784,0.0,-0.013002702927357754,0.0,0.0,0.0,0.0,0.0,0.0,0.0,-0.38744999999999996,-0.37327499999999997,3.5201249999999997,-0.06325704,0.60573408,-0.00095844
1779585001119109630,A_-,-0.5920661988748179,0.0,-0.039426987802551904,-1.999519004254784,0.0,-0.013002702927357754,0.0,0.0,0.0,0.0,0.0,0.0,0.0,-0.36382499999999995,-0.401625,3.5153999999999996,-0.0622986,0.60669252,0.00575064
1779585001119109630,A_-,-0.5934282182497554,0.0,-0.039426987802551904,-1.999519004254784,0.0,-0.013002702927357754,0.0,0.0,0.0,0.0,0.0,0.0,0.0,-0.36382499999999995,-0.401625,3.5153999999999996,-0.0622986,0.60669252,0.00575064
1779585001119109630,A_-,-0.5947428418749041,0.0,-0.039426987802551904,-1.999519004254784,0.0,-0.013002702927357754,0.0,0.0,0.0,0.0,0.0,0.0,0.0,-0.36382499999999995,-0.401625,3.5153999999999996,-0.0622986,0.60669252,0.00575064
1779585001149118423,A_-,-0.5960485854998296,0.0,-0.039426987802551904,-1.999519004254784,0.0,-0.013002702927357754,0.0,0.0,0.0,0.0,0.0,0.0,0.0,-0.36855,-0.42524999999999996,3.482325,-0.05750639999999999,0.60477564,0.00575064
1779585001149118423,A_-,-0.5974448806250621,0.0,-0.039426987802551904,-1.999519004254784,0.0,-0.013002702927357754,0.0,0.0,0.0,0.0,0.0,0.0,0.0,-0.36855,-0.42524999999999996,3.482325,-0.05750639999999999,0.60477564,0.00575064
1779585001149118423,A_-,-0.5987620842497563,0.0,-0.039426987802551904,-1.999519004254784,0.0,-0.013002702927357754,0.0,0.0,0.0,0.0,0.0,0.0,0.0,-0.36855,-0.42524999999999996,3.482325,-0.05750639999999999,0.60477564,0.00575064
1779585001184127569,A_-,-0.6000715038749149,0.0,-0.039426987802551904,-1.999519004254784,0.0,-0.013002702927357754,0.0,0.0,0.0,0.0,0.0,0.0,0.0,-0.3591,-0.392175,3.4917749999999996,-0.06517392,0.60573408,0.00287532
1779585001184127569,A_-,-0.6014450031248089,0.0,-0.039426987802551904,-1.999519004254784,0.0,-0.013002702927357754,0.0,0.0,0.0,0.0,0.0,0.0,0.0,-0.3591,-0.392175,3.4917749999999996,-0.06517392,0.60573408,0.00287532
1779585001184127569,A_-,-0.6027765946250838,0.0,-0.039426987802551904,-1.999519004254784,0.0,-0.013002702927357754,0.0,0.0,0.0,0.0,0.0,0.0,0.0,-0.3591,-0.392175,3.4917749999999996,-0.06517392,0.60573408,0.00287532
1779585001214153289,A_-,-0.6040978622500006,0.0,-0.039426987802551904,-1.999519004254784,0.0,-0.013002702927357754,0.0,0.0,0.0,0.0,0.0,0.0,0.0,-0.36855,-0.40635,3.5153999999999996,-0.06134016,0.6028587599999999,0.0047922
