deepaktalwardt/rage-cage-arm-hackstorm/ros2/ws/sysid/runs/sysid_20260524_010901/raw/joint2_phaseA_pos.csv
t_ns,phase,tau_cmd,q1,q2,q3,q4,q5,q6,qd1,qd2,qd3,qd4,qd5,qd6,tau1,tau2,tau3,tau4,tau5,tau6
1779584984551594257,A_+,1.280000105907675e-07,0.0,-0.024626595745639992,-1.999519004254784,0.0,-0.016755160819145562,0.0,0.0,0.0,0.0,0.0,0.0,0.0,-0.240975,9.577575,2.8397249999999996,-0.05175576,0.5549367599999999,0.02108568
1779584984551594257,A_+,0.0014914665002834226,0.0,-0.024626595745639992,-1.999519004254784,0.0,-0.016755160819145562,0.0,0.0,0.0,0.0,0.0,0.0,0.0,-0.240975,9.577575,2.8397249999999996,-0.05175576,0.5549367599999999,0.02108568
1779584987902109622,A_+,0.0028411860002961475,0.0,-0.029722957161463434,-1.999519004254784,0.0,-0.012915436464758038,0.0,0.0,-0.318,0.0,0.0,0.0,0.0,-0.4205249999999999,6.496874999999999,3.60045,-0.06134016,0.6373626,0.00862596
1779584987902109622,A_+,0.004313316625029984,0.0,-0.029722957161463434,-1.999519004254784,0.0,-0.012915436464758038,0.0,0.0,-0.318,0.0,0.0,0.0,0.0,-0.4205249999999999,6.496874999999999,3.60045,-0.06134016,0.6373626,0.00862596
1779584987902109622,A_+,0.005677959999957238,0.0,-0.029722957161463434,-1.999519004254784,0.0,-0.012915436464758038,0.0,0.0,-0.318,0.0,0.0,0.0,0.0,-0.4205249999999999,6.496874999999999,3.60045,-0.06134016,0.6373626,0.00862596
1779584987932214021,A_+,0.0070203395002863545,0.0,-0.039479347680111736,-1.999519004254784,0.0,0.0,0.0,0.0,-0.17500000000000002,0.077,-0.007,0.28500000000000003,0.0,-0.3024,0.0189,0.2646,-0.03642072,-0.4696356,-0.00862596
1779584987932214021,A_+,0.00850160212485207,0.0,-0.039479347680111736,-1.999519004254784,0.0,0.0,0.0,0.0,-0.17500000000000002,0.077,-0.007,0.28500000000000003,0.0,-0.3024,0.0189,0.2646,-0.03642072,-0.4696356,-0.00862596
1779584987932214021,A_+,0.00987665337515864,0.0,-0.039479347680111736,-1.999519004254784,0.0,0.0,0.0,0.0,-0.17500000000000002,0.077,-0.007,0.28500000000000003,0.0,-0.3024,0.0189,0.2646,-0.03642072,-0.4696356,-0.00862596
1779584987963478803,A_+,0.011216372874969238,0.0,-0.039426987802551904,-1.999519004254784,0.0,-0.009512044423369097,0.0,0.002,0.0,-0.005,0.0,-0.028,0.0,-0.467775,0.070875,3.9784499999999996,-0.06038172,1.05524244,0.00191688
1779584987963478803,A_+,0.012683583624948369,0.0,-0.039426987802551904,-1.999519004254784,0.0,-0.009512044423369097,0.0,0.002,0.0,-0.005,0.0,-0.028,0.0,-0.467775,0.070875,3.9784499999999996,-0.06038172,1.05524244,0.00191688
1779584987963478803,A_+,0.01403481900024417,0.0,-0.039426987802551904,-1.999519004254784,0.0,-0.009512044423369097,0.0,0.002,0.0,-0.005,0.0,-0.028,0.0,-0.467775,0.070875,3.9784499999999996,-0.06038172,1.05524244,0.00191688
1779584988002116203,A_+,0.015367494625024847,0.0,-0.039426987802551904,-1.999519004254784,0.0,-0.016441001553786586,0.0,0.0,0.0,-0.016,0.0,-0.157,0.0,-0.307125,0.089775,5.3439749999999995,-0.06613236,0.96419064,0.00287532
1779584988002116203,A_+,0.016825109375076863,0.0,-0.039426987802551904,-1.999519004254784,0.0,-0.016441001553786586,0.0,0.0,0.0,-0.016,0.0,-0.157,0.0,-0.307125,0.089775,5.3439749999999995,-0.06613236,0.96419064,0.00287532
1779584988002116203,A_+,0.018226940499971533,0.0,-0.039426987802551904,-1.999519004254784,0.0,-0.016441001553786586,0.0,0.0,0.0,-0.016,0.0,-0.157,0.0,-0.307125,0.089775,5.3439749999999995,-0.06613236,0.96419064,0.00287532
1779584988027129411,A_+,0.019546684125089087,0.0,-0.039426987802551904,-1.999519004254784,0.0,-0.018622663118779494,0.0,0.0,0.0,0.0,0.0,-0.069,0.0,-0.335475,0.080325,3.78945,-0.0622986,0.9632322000000001,0.00095844
1779584988027129411,A_+,0.0209601631249825,0.0,-0.039426987802551904,-1.999519004254784,0.0,-0.018622663118779494,0.0,0.0,0.0,0.0,0.0,-0.069,0.0,-0.335475,0.080325,3.78945,-0.0622986,0.9632322000000001,0.00095844
1779584988027129411,A_+,0.02230093462503646,0.0,-0.039426987802551904,-1.999519004254784,0.0,-0.018622663118779494,0.0,0.0,0.0,0.0,0.0,-0.069,0.0,-0.335475,0.080325,3.78945,-0.0622986,0.9632322000000001,0.00095844
1779584988067127943,A_+,0.02362116624999544,0.0,-0.039426987802551904,-1.999519004254784,0.0,-0.015865042900628457,0.0,0.0,0.0,0.019,0.0,0.063,0.0,-0.3969,0.108675,3.161025,-0.0622986,0.66036516,0.00766752
1779584988067127943,A_+,0.025078457000290655,0.0,-0.039426987802551904,-1.999519004254784,0.0,-0.015865042900628457,0.0,0.0,0.0,0.019,0.0,0.063,0.0,-0.3969,0.108675,3.161025,-0.0622986,0.66036516,0.00766752
1779584988067127943,A_+,0.026421804499932477,0.0,-0.039426987802551904,-1.999519004254784,0.0,-0.015865042900628457,0.0,0.0,0.0,0.019,0.0,0.063,0.0,-0.3969,0.108675,3.161025,-0.0622986,0.66036516,0.00766752
1779584988092163562,A_+,0.027748176124987367,0.0,-0.039426987802551904,-1.999519004254784,0.0,-0.012967796342317869,0.0,0.0,0.0,0.023,0.0,0.14300000000000002,0.0,-0.3969,0.11339999999999999,2.707425,-0.05846484,0.26740476,0.0
1779584988092163562,A_+,0.029240110624868976,0.0,-0.039426987802551904,-1.999519004254784,0.0,-0.012967796342317869,0.0,0.0,0.0,0.023,0.0,0.14300000000000002,0.0,-0.3969,0.11339999999999999,2.707425,-0.05846484,0.26740476,0.0
1779584988092163562,A_+,0.030604366000261507,0.0,-0.039426987802551904,-1.999519004254784,0.0,-0.012967796342317869,0.0,0.0,0.0,0.023,0.0,0.14300000000000002,0.0,-0.3969,0.11339999999999999,2.707425,-0.05846484,0.26740476,0.0
1779584988118590593,A_+,0.031921117625188344,0.0,-0.039426987802551904,-1.999519004254784,0.0,-0.010943214410004447,0.0,0.0,0.0,0.002,0.0,0.101,0.0,-0.23625,0.10394999999999999,2.54205,-0.06421548,0.22906716000000002,0.00191688
1779584988118590593,A_+,0.03334633262511488,0.0,-0.039426987802551904,-1.999519004254784,0.0,-0.010943214410004447,0.0,0.0,0.0,0.002,0.0,0.101,0.0,-0.23625,0.10394999999999999,2.54205,-0.06421548,0.22906716000000002,0.00191688
1779584988118590593,A_+,0.03468636012530624,0.0,-0.039426987802551904,-1.999519004254784,0.0,-0.010943214410004447,0.0,0.0,0.0,0.002,0.0,0.101,0.0,-0.23625,0.10394999999999999,2.54205,-0.06421548,0.22906716000000002,0.00191688
1779584988147141218,A_+,0.036022707625306793,0.0,-0.039426987802551904,-1.999519004254784,0.0,-0.010943214410004447,0.0,0.0,0.0,0.008,0.0,0.0,0.0,-0.335475,0.108675,2.8916999999999997,-0.05463108,0.5415186000000001,0.0095844
1779584988147141218,A_+,0.03749354237515945,0.0,-0.039426987802551904,-1.999519004254784,0.0,-0.010943214410004447,0.0,0.0,0.0,0.008,0.0,0.0,0.0,-0.335475,0.108675,2.8916999999999997,-0.05463108,0.5415186000000001,0.0095844
1779584988147141218,A_+,0.038874625624885084,0.0,-0.039426987802551904,-1.999519004254784,0.0,-0.010943214410004447,0.0,0.0,0.0,0.008,0.0,0.0,0.0,-0.335475,0.108675,2.8916999999999997,-0.05463108,0.5415186000000001,0.0095844
1779584988162167310,A_+,0.04023813699996026,0.0,-0.039426987802551904,-1.999519004254784,0.0,-0.010943214410004447,0.0,0.0,0.0,-0.001,0.0,-0.04,0.0,-0.1701,0.05669999999999999,3.3878249999999994,-0.05463108,0.73033128,0.00575064
1779584988162167310,A_+,0.04168369175022235,0.0,-0.039426987802551904,-1.999519004254784,0.0,-0.010943214410004447,0.0,0.0,0.0,-0.001,0.0,-0.04,0.0,-0.1701,0.05669999999999999,3.3878249999999994,-0.05463108,0.73033128,0.00575064
1779584988162167310,A_+,0.04303552725014015,0.0,-0.039426987802551904,-1.999519004254784,0.0,-0.010943214410004447,0.0,0.0,0.0,-0.001,0.0,-0.04,0.0,-0.1701,0.05669999999999999,3.3878249999999994,-0.05463108,0.73033128,0.00575064
1779584988177134037,A_+,0.0443664787499074,0.0,-0.039426987802551904,-1.999519004254784,0.0,-0.010943214410004447,0.0,0.0,0.0,-0.002,0.0,-0.113,0.0,-0.2835,0.04725,3.61935,-0.05846484,0.72074688,0.00287532
1779584988177134037,A_+,0.045813481624918495,0.0,-0.039426987802551904,-1.999519004254784,0.0,-0.010943214410004447,0.0,0.0,0.0,-0.002,0.0,-0.113,0.0,-0.2835,0.04725,3.61935,-0.05846484,0.72074688,0.00287532
1779584988177134037,A_+,0.0471554571249726,0.0,-0.039426987802551904,-1.999519004254784,0.0,-0.010943214410004447,0.0,0.0,0.0,-0.002,0.0,-0.113,0.0,-0.2835,0.04725,3.61935,-0.05846484,0.72074688,0.00287532
1779584988202138185,A_+,0.04849082462487786,0.0,-0.039426987802551904,-1.999519004254784,0.0,-0.012932889757277981,0.0,0.0,0.0,-0.013000000000000001,0.0,-0.015,0.0,-0.3213,0.0189,3.9595499999999997,-0.06613236,0.78975456,0.00766752
1779584988202138185,A_+,0.04993203550020553,0.0,-0.039426987802551904,-1.999519004254784,0.0,-0.012932889757277981,0.0,0.0,0.0,-0.013000000000000001,0.0,-0.015,0.0,-0.3213,0.0189,3.9595499999999997,-0.06613236,0.78975456,0.00766752
1779584988202138185,A_+,0.051317506749910535,0.0,-0.039426987802551904,-1.999519004254784,0.0,-0.012932889757277981,0.0,0.0,0.0,-0.013000000000000001,0.0,-0.015,0.0,-0.3213,0.0189,3.9595499999999997,-0.06613236,0.78975456,0.00766752
1779584988227430343,A_+,0.05265400625012262,0.0,-0.039426987802551904,-1.999519004254784,0.0,-0.012932889757277981,0.0,0.0,0.0,0.0,0.0,0.0,0.0,-0.31185,0.118125,3.5106749999999995,-0.06517392,0.67474176,0.0095844
1779584988227430343,A_+,0.05409390112527035,0.0,-0.039426987802551904,-1.999519004254784,0.0,-0.012932889757277981,0.0,0.0,0.0,0.0,0.0,0.0,0.0,-0.31185,0.118125,3.5106749999999995,-0.06517392,0.67474176,0.0095844
1779584988227430343,A_+,0.05543836062497576,0.0,-0.039426987802551904,-1.999519004254784,0.0,-0.012932889757277981,0.0,0.0,0.0,0.0,0.0,0.0,0.0,-0.31185,0.118125,3.5106749999999995,-0.06517392,0.67474176,0.0095844
1779584988262196540,A_+,0.05675754825006152,0.0,-0.039426987802551904,-1.999519004254784,0.0,-0.012932889757277981,0.0,-0.025,0.0,0.031,0.0,0.124,0.0,-0.29295,0.0756,3.085425,-0.059423279999999995,0.45142524,0.00575064
1779584988262196540,A_+,0.05817147937523259,0.0,-0.039426987802551904,-1.999519004254784,0.0,-0.012932889757277981,0.0,-0.025,0.0,0.031,0.0,0.124,0.0,-0.29295,0.0756,3.085425,-0.059423279999999995,0.45142524,0.00575064
1779584988262196540,A_+,0.05951443074991403,0.0,-0.039426987802551904,-1.999519004254784,0.0,-0.012932889757277981,0.0,-0.025,0.0,0.031,0.0,0.124,0.0,-0.29295,0.0756,3.085425,-0.059423279999999995,0.45142524,0.00575064
1779584988277160406,A_+,0.06084475837496939,0.0,-0.039426987802551904,-1.999519004254784,0.0,-0.012932889757277981,0.0,0.0,0.0,0.017,0.0,0.011,0.0,-0.5103,0.10394999999999999,2.877525,-0.06517392,0.5319342,0.00383376
1779584988277160406,A_+,0.06227353337499153,0.0,-0.039426987802551904,-1.999519004254784,0.0,-0.012932889757277981,0.0,0.0,0.0,0.017,0.0,0.011,0.0,-0.5103,0.10394999999999999,2.877525,-0.06517392,0.5319342,0.00383376
1779584988277160406,A_+,0.06361490087510902,0.0,-0.039426987802551904,-1.999519004254784,0.0,-0.012932889757277981,0.0,0.0,0.0,0.017,0.0,0.011,0.0,-0.5103,0.10394999999999999,2.877525,-0.06517392,0.5319342,0.00383376
1779584988307286024,A_+,0.06495538837498316,0.0,-0.039426987802551904,-1.999519004254784,0.0,-0.011030480872604163,0.0,0.0,0.0,0.002,0.0,0.009000000000000001,0.0,-0.38744999999999996,0.12285,2.9294999999999995,-0.0622986,0.46292651999999995,0.0047922
1779584988307286024,A_+,0.06641053512521466,0.0,-0.039426987802551904,-1.999519004254784,0.0,-0.011030480872604163,0.0,0.0,0.0,0.002,0.0,0.009000000000000001,0.0,-0.38744999999999996,0.12285,2.9294999999999995,-0.0622986,0.46292651999999995,0.0047922
1779584988307286024,A_+,0.0677957383750254,0.0,-0.039426987802551904,-1.999519004254784,0.0,-0.011030480872604163,0.0,0.0,0.0,0.002,0.0,0.009000000000000001,0.0,-0.38744999999999996,0.12285,2.9294999999999995,-0.0622986,0.46292651999999995,0.0047922
1779584988327425479,A_+,0.06912690987519454,0.0,-0.039426987802551904,-1.999519004254784,0.0,-0.011030480872604163,0.0,0.0,0.0,0.0,0.0,-0.015,0.0,-0.37327499999999997,0.137025,3.293325,-0.05558952,0.66515736,0.0095844
1779584988327425479,A_+,0.070541272875289,0.0,-0.039426987802551904,-1.999519004254784,0.0,-0.011030480872604163,0.0,0.0,0.0,0.0,0.0,-0.015,0.0,-0.37327499999999997,0.137025,3.293325,-0.05558952,0.66515736,0.0095844
1779584988327425479,A_+,0.07187393650019658,0.0,-0.039426987802551904,-1.999519004254784,0.0,-0.011030480872604163,0.0,0.0,0.0,0.0,0.0,-0.015,0.0,-0.37327499999999997,0.137025,3.293325,-0.05558952,0.66515736,0.0095844
1779584988352422475,A_+,0.0732026880000376,0.0,-0.039426987802551904,-1.999519004254784,0.0,-0.011030480872604163,0.0,0.0,0.0,-0.027,0.0,0.0,0.0,-0.36855,0.06615,3.869775,-0.0670908,0.59614968,0.00383376
1779584988352422475,A_+,0.07466053487496538,0.0,-0.039426987802551904,-1.999519004254784,0.0,-0.011030480872604163,0.0,0.0,0.0,-0.027,0.0,0.0,0.0,-0.36855,0.06615,3.869775,-0.0670908,0.59614968,0.00383376
1779584988352422475,A_+,0.07602290612521756,0.0,-0.039426987802551904,-1.999519004254784,0.0,-0.011030480872604163,0.0,0.0,0.0,-0.027,0.0,0.0,0.0,-0.36855,0.06615,3.869775,-0.0670908,0.59614968,0.00383376
1779584988382185459,A_+,0.07736072975012576,0.0,-0.039426987802551904,-1.999519004254784,0.0,-0.013002702927357754,0.0,0.0,0.0,-0.001,0.0,-0.11800000000000001,0.0,-0.3449249999999999,0.070875,3.7611,-0.07379988,0.8405518799999999,0.00766752
1779584988382185459,A_+,0.07882537237492215,0.0,-0.039426987802551904,-1.999519004254784,0.0,-0.013002702927357754,0.0,0.0,0.0,-0.001,0.0,-0.11800000000000001,0.0,-0.3449249999999999,0.070875,3.7611,-0.07379988,0.8405518799999999,0.00766752
1779584988382185459,A_+,0.08018192387498857,0.0,-0.039426987802551904,-1.999519004254784,0.0,-0.013002702927357754,0.0,0.0,0.0,-0.001,0.0,-0.11800000000000001,0.0,-0.3449249999999999,0.070875,3.7611,-0.07379988,0.8405518799999999,0.00766752
1779584988392176628,A_+,0.08151543137500994,0.0,-0.039426987802551904,-1.999519004254784,0.0,-0.013002702927357754,0.0,0.0,0.0,0.0,0.0,-0.001,0.0,-0.3591,0.070875,3.5721,-0.052714199999999996,0.6757002,0.00287532
1779584988392176628,A_+,0.08294358237526467,0.0,-0.039426987802551904,-1.999519004254784,0.0,-0.013002702927357754,0.0,0.0,0.0,0.0,0.0,-0.001,0.0,-0.3591,0.070875,3.5721,-0.052714199999999996,0.6757002,0.00287532
1779584988392176628,A_+,0.08429503775005287,0.0,-0.039426987802551904,-1.999519004254784,0.0,-0.013002702927357754,0.0,0.0,0.0,0.0,0.0,-0.001,0.0,-0.3591,0.070875,3.5721,-0.052714199999999996,0.6757002,0.00287532
1779584988432243585,A_+,0.08562830124992615,0.0,-0.039426987802551904,-1.999519004254784,0.0,-0.013002702927357754,0.0,0.0,0.0,0.0,0.0,0.088,0.0,-0.36855,0.089775,3.5532,-0.07092456,0.46771872,0.0047922
1779584988432243585,A_+,0.08725029100014581,0.0,-0.039426987802551904,-1.999519004254784,0.0,-0.013002702927357754,0.0,0.0,0.0,0.0,0.0,0.088,0.0,-0.36855,0.089775,3.5532,-0.07092456,0.46771872,0.0047922
1779584988432243585,A_+,0.08862311437496828,0.0,-0.039426987802551904,-1.999519004254784,0.0,-0.013002702927357754,0.0,0.0,0.0,0.0,0.0,0.088,0.0,-0.36855,0.089775,3.5532,-0.07092456,0.46771872,0.0047922
1779584988448628425,A_+,0.08996453787494829,0.0,-0.039426987802551904,-1.999519004254784,0.0,-0.013002702927357754,0.0,0.0,0.0,0.035,0.0,0.0,0.0,-0.35437499999999994,0.0756,3.142125,-0.06613236,0.62011068,0.01054284
1779584988448628425,A_+,0.09150614000009227,0.0,-0.039426987802551904,-1.999519004254784,0.0,-0.013002702927357754,0.0,0.0,0.0,0.035,0.0,0.0,0.0,-0.35437499999999994,0.0756,3.142125,-0.06613236,0.62011068,0.01054284
1779584988448628425,A_+,0.09288730725029382,0.0,-0.039426987802551904,-1.999519004254784,0.0,-0.013002702927357754,0.0,0.0,0.0,0.035,0.0,0.0,0.0,-0.35437499999999994,0.0756,3.142125,-0.06613236,0.62011068,0.01054284
1779584988482990264,A_+,0.09429813037513668,0.0,-0.039426987802551904,-1.999519004254784,0.0,-0.013002702927357754,0.0,0.0,0.0,0.0,0.0,0.017,0.0,-0.3591,0.127575,3.4019999999999997,-0.059423279999999995,0.5319342,0.00766752
1779584988482990264,A_+,0.09589240025024992,0.0,-0.039426987802551904,-1.999519004254784,0.0,-0.013002702927357754,0.0,0.0,0.0,0.0,0.0,0.017,0.0,-0.3591,0.127575,3.4019999999999997,-0.059423279999999995,0.5319342,0.00766752
1779584988482990264,A_+,0.0972459556251124,0.0,-0.039426987802551904,-1.999519004254784,0.0,-0.013002702927357754,0.0,0.0,0.0,0.0,0.0,0.017,0.0,-0.3591,0.127575,3.4019999999999997,-0.059423279999999995,0.5319342,0.00766752
1779584988497205972,A_+,0.09860251112513652,0.0,-0.039426987802551904,-1.999519004254784,0.0,-0.013002702927357754,0.0,0.0,0.0,0.0,0.0,0.0,0.0,-0.36382499999999995,0.1701,3.4161749999999995,-0.06134016,0.58273152,0.01533504
1779584988497205972,A_+,0.10032148012487596,0.0,-0.039426987802551904,-1.999519004254784,0.0,-0.013002702927357754,0.0,0.0,0.0,0.0,0.0,0.0,0.0,-0.36382499999999995,0.1701,3.4161749999999995,-0.06134016,0.58273152,0.01533504
1779584988497205972,A_+,0.1017072033750992,0.0,-0.039426987802551904,-1.999519004254784,0.0,-0.013002702927357754,0.0,0.0,0.0,0.0,0.0,0.0,0.0,-0.36382499999999995,0.1701,3.4161749999999995,-0.06134016,0.58273152,0.01533504
1779584988537710666,A_+,0.10308250675007002,0.0,-0.039426987802551904,-1.999519004254784,0.0,-0.013002702927357754,0.0,0.0,0.0,0.0,0.0,-0.001,0.0,-0.382725,0.10394999999999999,3.4397999999999995,-0.06325704,0.61244316,0.01054284
1779584988537710666,A_+,0.10466083262508619,0.0,-0.039426987802551904,-1.999519004254784,0.0,-0.013002702927357754,0.0,0.0,0.0,0.0,0.0,-0.001,0.0,-0.382725,0.10394999999999999,3.4397999999999995,-0.06325704,0.61244316,0.01054284
1779584988537710666,A_+,0.10608311962505468,0.0,-0.039426987802551904,-1.999519004254784,0.0,-0.013002702927357754,0.0,0.0,0.0,0.0,0.0,-0.001,0.0,-0.382725,0.10394999999999999,3.4397999999999995,-0.06325704,0.61244316,0.01054284
1779584988607205390,A_+,0.10743935512527969,0.0,-0.039426987802551904,-1.999519004254784,0.0,-0.013002702927357754,0.0,0.0,0.0,0.0,0.0,0.0,0.0,-0.36855,0.080325,3.5106749999999995,-0.0622986,0.62106912,0.00670908
1779584988607205390,A_+,0.10895997350007747,0.0,-0.039426987802551904,-1.999519004254784,0.0,-0.013002702927357754,0.0,0.0,0.0,0.0,0.0,0.0,0.0,-0.36855,0.080325,3.5106749999999995,-0.0622986,0.62106912,0.00670908
1779584988607205390,A_+,0.11035537262523576,0.0,-0.039426987802551904,-1.999519004254784,0.0,-0.013002702927357754,0.0,0.0,0.0,0.0,0.0,0.0,0.0,-0.36855,0.080325,3.5106749999999995,-0.0622986,0.62106912,0.00670908
1779584988702220439,A_+,0.11170394400005534,0.0,-0.039426987802551904,-1.999519004254784,0.0,-0.013002702927357754,0.0,0.0,0.0,0.0,0.0,0.0,0.0,-0.3591,0.0945,3.4776,-0.059423279999999995,0.58273152,0.00575064
1779584988702220439,A_+,0.1131806267499087,0.0,-0.039426987802551904,-1.999519004254784,0.0,-0.013002702927357754,0.0,0.0,0.0,0.0,0.0,0.0,0.0,-0.3591,0.0945,3.4776,-0.059423279999999995,0.58273152,0.00575064
1779584988702220439,A_+,0.11452900612493977,0.0,-0.039426987802551904,-1.999519004254784,0.0,-0.013002702927357754,0.0,0.0,0.0,0.0,0.0,0.0,0.0,-0.3591,0.0945,3.4776,-0.059423279999999995,0.58273152,0.00575064
1779584988733598232,A_+,0.11586397362498246,0.0,-0.039426987802551904,-1.999519004254784,0.0,-0.013002702927357754,0.0,0.0,0.0,0.0,0.0,0.0,0.0,-0.37327499999999997,0.10394999999999999,3.4728749999999997,-0.059423279999999995,0.61723536,0.00862596
1779584988733598232,A_+,0.11730718450007771,0.0,-0.039426987802551904,-1.999519004254784,0.0,-0.013002702927357754,0.0,0.0,0.0,0.0,0.0,0.0,0.0,-0.37327499999999997,0.10394999999999999,3.4728749999999997,-0.059423279999999995,0.61723536,0.00862596
1779584988733598232,A_+,0.11862818412510023,0.0,-0.039426987802551904,-1.999519004254784,0.0,-0.013002702927357754,0.0,0.0,0.0,0.0,0.0,0.0,0.0,-0.37327499999999997,0.10394999999999999,3.4728749999999997,-0.059423279999999995,0.61723536,0.00862596
1779584988792293787,A_+,0.11994704774997444,0.0,-0.039426987802551904,-1.999519004254784,0.0,-0.013002702927357754,0.0,0.0,0.0,0.0,0.0,0.0,0.0,-0.3591,0.08505,3.50595,-0.06421548,0.61052628,0.01341816
1779584988792293787,A_+,0.12137001475002762,0.0,-0.039426987802551904,-1.999519004254784,0.0,-0.013002702927357754,0.0,0.0,0.0,0.0,0.0,0.0,0.0,-0.3591,0.08505,3.50595,-0.06421548,0.61052628,0.01341816
1779584988792293787,A_+,0.1226965143750931,0.0,-0.039426987802551904,-1.999519004254784,0.0,-0.013002702927357754,0.0,0.0,0.0,0.0,0.0,0.0,0.0,-0.3591,0.08505,3.50595,-0.06421548,0.61052628,0.01341816
1779584988872259616,A_+,0.12404097387525326,0.0,-0.039426987802551904,-1.999519004254784,0.0,-0.013002702927357754,0.0,0.0,0.0,0.0,0.0,0.0,0.0,-0.36382499999999995,0.08505,3.529575,-0.06517392,0.6028587599999999,0.00862596
1779584988872259616,A_+,0.1254325049999352,0.0,-0.039426987802551904,-1.999519004254784,0.0,-0.013002702927357754,0.0,0.0,0.0,0.0,0.0,0.0,0.0,-0.36382499999999995,0.08505,3.529575,-0.06517392,0.6028587599999999,0.00862596
1779584988872259616,A_+,0.12675446862522222,0.0,-0.039426987802551904,-1.999519004254784,0.0,-0.013002702927357754,0.0,0.0,0.0,0.0,0.0,0.0,0.0,-0.36382499999999995,0.08505,3.529575,-0.06517392,0.6028587599999999,0.00862596
1779584988902256965,A_+,0.1280609923751399,0.0,-0.039426987802551904,-1.999519004254784,0.0,-0.013002702927357754,0.0,0.0,0.0,0.0,0.0,0.0,0.0,-0.3591,0.0945,3.5342999999999996,-0.059423279999999995,0.6019003199999999,0.01533504
1779584988902256965,A_+,0.12943523962485415,0.0,-0.039426987802551904,-1.999519004254784,0.0,-0.013002702927357754,0.0,0.0,0.0,0.0,0.0,0.0,0.0,-0.3591,0.0945,3.5342999999999996,-0.059423279999999995,0.6019003199999999,0.01533504
1779584988902256965,A_+,0.13076417125012085,0.0,-0.039426987802551904,-1.999519004254784,0.0,-0.013002702927357754,0.0,0.0,0.0,0.0,0.0,0.0,0.0,-0.3591,0.0945,3.5342999999999996,-0.059423279999999995,0.6019003199999999,0.01533504
1779584988927250862,A_+,0.13208169087511124,0.0,-0.039426987802551904,-1.999519004254784,0.0,-0.013002702927357754,0.0,0.0,0.0,0.0,0.0,0.0,0.0,-0.38744999999999996,0.35437499999999994,3.482325,-0.0622986,0.63065352,0.00191688
1779584988927250862,A_+,0.1335714014999212,0.0,-0.039426987802551904,-1.999519004254784,0.0,-0.013002702927357754,0.0,0.0,0.0,0.0,0.0,0.0,0.0,-0.38744999999999996,0.35437499999999994,3.482325,-0.0622986,0.63065352,0.00191688
1779584988927250862,A_+,0.13488880112527113,0.0,-0.039426987802551904,-1.999519004254784,0.0,-0.013002702927357754,0.0,0.0,0.0,0.0,0.0,0.0,0.0,-0.38744999999999996,0.35437499999999994,3.482325,-0.0622986,0.63065352,0.00191688
1779584988963707923,A_+,0.1362029167498804,0.0,-0.039426987802551904,-1.999519004254784,0.0,-0.013002702927357754,0.0,0.0,0.0,0.0,0.0,0.0,0.0,-0.36855,0.3213,3.5342999999999996,-0.05846484,0.6181938,0.01245972
1779584988963707923,A_+,0.13757897212508396,0.0,-0.039426987802551904,-1.999519004254784,0.0,-0.013002702927357754,0.0,0.0,0.0,0.0,0.0,0.0,0.0,-0.36855,0.3213,3.5342999999999996,-0.05846484,0.6181938,0.01245972
1779584988963707923,A_+,0.13890251562497724,0.0,-0.039426987802551904,-1.999519004254784,0.0,-0.013002702927357754,0.0,0.0,0.0,0.0,0.0,0.0,0.0,-0.36855,0.3213,3.5342999999999996,-0.05846484,0.6181938,0.01245972
1779584988992270946,A_+,0.1402122673748636,0.0,-0.039426987802551904,-1.999519004254784,0.0,-0.013002702927357754,0.0,0.0,0.0,0.0,0.0,0.007,0.0,-0.37327499999999997,0.3449249999999999,3.529575,-0.0622986,0.5223498,0.00191688
1779584988992270946,A_+,0.1415899386252022,0.0,-0.039426987802551904,-1.999519004254784,0.0,-0.013002702927357754,0.0,0.0,0.0,0.0,0.0,0.007,0.0,-0.37327499999999997,0.3449249999999999,3.529575,-0.0622986,0.5223498,0.00191688
1779584988992270946,A_+,0.14292109825009902,0.0,-0.039426987802551904,-1.999519004254784,0.0,-0.013002702927357754,0.0,0.0,0.0,0.0,0.0,0.007,0.0,-0.37327499999999997,0.3449249999999999,3.529575,-0.0622986,0.5223498,0.00191688
1779584989032281637,A_+,0.1442269258750457,0.0,-0.039426987802551904,-1.999519004254784,0.0,-0.013002702927357754,0.0,0.0,0.0,0.0,0.0,0.0,0.0,-0.382725,0.3402,3.5342999999999996,-0.06517392,0.59519124,0.00191688
1779584989032281637,A_+,0.1455829973751861,0.0,-0.039426987802551904,-1.999519004254784,0.0,-0.013002702927357754,0.0,0.0,0.0,0.0,0.0,0.0,0.0,-0.382725,0.3402,3.5342999999999996,-0.06517392,0.59519124,0.00191688
1779584989032281637,A_+,0.146892685000239,0.0,-0.039426987802551904,-1.999519004254784,0.0,-0.013002702927357754,0.0,0.0,0.0,0.0,0.0,0.0,0.0,-0.382725,0.3402,3.5342999999999996,-0.06517392,0.59519124,0.00191688
1779584989057279586,A_+,0.1482011247499031,0.0,-0.039426987802551904,-1.999519004254784,0.0,-0.013002702927357754,0.0,0.0,0.0,0.0,0.0,0.0,0.0,-0.37327499999999997,0.335475,3.5390249999999996,-0.06325704,0.5999834399999999,0.01341816
1779584989057279586,A_+,0.14957184000013513,0.0,-0.039426987802551904,-1.999519004254784,0.0,-0.013002702927357754,0.0,0.0,0.0,0.0,0.0,0.0,0.0,-0.37327499999999997,0.335475,3.5390249999999996,-0.06325704,0.5999834399999999,0.01341816
1779584989057279586,A_+,0.1508989236249363,0.0,-0.039426987802551904,-1.999519004254784,0.0,-0.013002702927357754,0.0,0.0,0.0,0.0,0.0,0.0,0.0,-0.37327499999999997,0.335475,3.5390249999999996,-0.06325704,0.5999834399999999,0.01341816
1779584989093014001,A_+,0.1522099032499682,0.0,-0.039426987802551904,-1.999519004254784,0.0,-0.013002702927357754,0.0,0.0,0.0,0.0,0.0,0.0,0.0,-0.36855,0.382725,3.5532,-0.0622986,0.60573408,0.00383376
1779584989093014001,A_+,0.15358151062491743,0.0,-0.039426987802551904,-1.999519004254784,0.0,-0.013002702927357754,0.0,0.0,0.0,0.0,0.0,0.0,0.0,-0.36855,0.382725,3.5532,-0.0622986,0.60573408,0.00383376
1779584989093014001,A_+,0.1549000222498762,0.0,-0.039426987802551904,-1.999519004254784,0.0,-0.013002702927357754,0.0,0.0,0.0,0.0,0.0,0.0,0.0,-0.36855,0.382725,3.5532,-0.0622986,0.60573408,0.00383376
1779584989117280960,A_+,0.156207269999868,0.0,-0.039426987802551904,-1.999519004254784,0.0,-0.013002702927357754,0.0,0.0,0.0,0.0,0.0,0.0,0.0,-0.37327499999999997,0.3449249999999999,3.5153999999999996,-0.06325704,0.5999834399999999,0.01150128
1779584989117280960,A_+,0.15757638525019502,0.0,-0.039426987802551904,-1.999519004254784,0.0,-0.013002702927357754,0.0,0.0,0.0,0.0,0.0,0.0,0.0,-0.37327499999999997,0.3449249999999999,3.5153999999999996,-0.06325704,0.5999834399999999,0.01150128
1779584989117280960,A_+,0.1588973488751435,0.0,-0.039426987802551904,-1.999519004254784,0.0,-0.013002702927357754,0.0,0.0,0.0,0.0,0.0,0.0,0.0,-0.37327499999999997,0.3449249999999999,3.5153999999999996,-0.06325704,0.5999834399999999,0.01150128
1779584989152299165,A_+,0.16021240462487185,0.0,-0.039426987802551904,-1.999519004254784,0.0,-0.013002702927357754,0.0,0.0,0.0,0.0,0.0,0.0,0.0,-0.35437499999999994,0.3591,3.4681499999999996,-0.06038172,0.60477564,0.00383376
1779584989152299165,A_+,0.1615831758749664,0.0,-0.039426987802551904,-1.999519004254784,0.0,-0.013002702927357754,0.0,0.0,0.0,0.0,0.0,0.0,0.0,-0.35437499999999994,0.3591,3.4681499999999996,-0.06038172,0.60477564,0.00383376
1779584989152299165,A_+,0.16290375549988312,0.0,-0.039426987802551904,-1.999519004254784,0.0,-0.013002702927357754,0.0,0.0,0.0,0.0,0.0,0.0,0.0,-0.35437499999999994,0.3591,3.4681499999999996,-0.06038172,0.60477564,0.00383376
1779584989172298431,A_+,0.16421071925014985,0.0,-0.039426987802551904,-1.999519004254784,0.0,-0.013002702927357754,0.0,0.0,0.0,0.0,0.0,0.053,0.0,-0.36855,0.37327499999999997,3.5579249999999996,-0.06325704,0.61915224,0.00575064
1779584989172298431,A_+,0.16558477050011788,0.0,-0.039426987802551904,-1.999519004254784,0.0,-0.013002702927357754,0.0,0.0,0.0,0.0,0.0,0.053,0.0,-0.36855,0.37327499999999997,3.5579249999999996,-0.06325704,0.61915224,0.00575064
1779584989172298431,A_+,0.1669060301251193,0.0,-0.039426987802551904,-1.999519004254784,0.0,-0.013002702927357754,0.0,0.0,0.0,0.0,0.0,0.053,0.0,-0.36855,0.37327499999999997,3.5579249999999996,-0.06325704,0.61915224,0.00575064
1779584989182351589,A_+,0.16822383775024718,0.0,-0.039426987802551904,-1.999519004254784,0.0,-0.013002702927357754,0.0,0.0,0.0,0.0,0.0,-0.003,0.0,-0.37327499999999997,0.35437499999999994,3.4870499999999995,-0.06517392,0.61148472,-0.00095844
1779584989182351589,A_+,0.1695989089998875,0.0,-0.039426987802551904,-1.999519004254784,0.0,-0.013002702927357754,0.0,0.0,0.0,0.0,0.0,-0.003,0.0,-0.37327499999999997,0.35437499999999994,3.4870499999999995,-0.06517392,0.61148472,-0.00095844
1779584989182351589,A_+,0.17091618875019776,0.0,-0.039426987802551904,-1.999519004254784,0.0,-0.013002702927357754,0.0,0.0,0.0,0.0,0.0,-0.003,0.0,-0.37327499999999997,0.35437499999999994,3.4870499999999995,-0.06517392,0.61148472,-0.00095844
1779584989207298040,A_+,0.1722248043752188,0.0,-0.039426987802551904,-1.999519004254784,0.0,-0.013002702927357754,0.0,0.0,0.0,0.0,0.0,0.0,0.0,-0.37327499999999997,0.326025,3.4870499999999995,-0.06421548,0.59710812,0.00383376
1779584989207298040,A_+,0.17359562374986126,0.0,-0.039426987802551904,-1.999519004254784,0.0,-0.013002702927357754,0.0,0.0,0.0,0.0,0.0,0.0,0.0,-0.37327499999999997,0.326025,3.4870499999999995,-0.06421548,0.59710812,0.00383376
1779584989207298040,A_+,0.17492053937485252,0.0,-0.039426987802551904,-1.999519004254784,0.0,-0.013002702927357754,0.0,0.0,0.0,0.0,0.0,0.0,0.0,-0.37327499999999997,0.326025,3.4870499999999995,-0.06421548,0.59710812,0.00383376
1779584989227324485,A_+,0.17623183100022288,0.0,-0.039426987802551904,-1.999519004254784,0.0,-0.013002702927357754,0.0,0.0,0.0,0.0,0.0,0.0,0.0,-0.36855,0.3449249999999999,3.529575,-0.06421548,0.61052628,0.00287532
1779584989227324485,A_+,0.1776085982501172,0.0,-0.039426987802551904,-1.999519004254784,0.0,-0.013002702927357754,0.0,0.0,0.0,0.0,0.0,0.0,0.0,-0.36855,0.3449249999999999,3.529575,-0.06421548,0.61052628,0.00287532
1779584989227324485,A_+,0.17894532575019184,0.0,-0.039426987802551904,-1.999519004254784,0.0,-0.013002702927357754,0.0,0.0,0.0,0.0,0.0,0.0,0.0,-0.36855,0.3449249999999999,3.529575,-0.06421548,0.61052628,0.00287532
1779584989282457590,A_+,0.18025157350029986,0.0,-0.039426987802551904,-1.999519004254784,0.0,-0.013002702927357754,0.0,0.0,0.0,0.0,0.0,0.0,0.0,-0.37327499999999997,0.33075,3.5626499999999997,-0.06134016,0.59519124,0.0
1779584989282457590,A_+,0.18162402074995043,0.0,-0.039426987802551904,-1.999519004254784,0.0,-0.013002702927357754,0.0,0.0,0.0,0.0,0.0,0.0,0.0,-0.37327499999999997,0.33075,3.5626499999999997,-0.06134016,0.59519124,0.0
1779584989282457590,A_+,0.1829470803750155,0.0,-0.039426987802551904,-1.999519004254784,0.0,-0.013002702927357754,0.0,0.0,0.0,0.0,0.0,0.0,0.0,-0.37327499999999997,0.33075,3.5626499999999997,-0.06134016,0.59519124,0.0
1779584989312321424,A_+,0.18425330412492258,0.0,-0.039426987802551904,-1.999519004254784,0.0,-0.013002702927357754,0.0,0.0,0.0,0.0,0.0,0.0,0.0,-0.36855,0.36382499999999995,3.501225,-0.06613236,0.60477564,0.00191688
1779584989312321424,A_+,0.18562533149997762,0.0,-0.039426987802551904,-1.999519004254784,0.0,-0.013002702927357754,0.0,0.0,0.0,0.0,0.0,0.0,0.0,-0.36855,0.36382499999999995,3.501225,-0.06613236,0.60477564,0.00191688
1779584989312321424,A_+,0.18695183499994528,0.0,-0.039426987802551904,-1.999519004254784,0.0,-0.013002702927357754,0.0,0.0,0.0,0.0,0.0,0.0,0.0,-0.36855,0.36382499999999995,3.501225,-0.06613236,0.60477564,0.00191688
1779584989352328777,A_+,0.18826185475018065,0.0,-0.039426987802551904,-1.999519004254784,0.0,-0.013002702927357754,0.0,0.0,0.0,0.0,0.0,0.0,0.0,-0.38744999999999996,0.35437499999999994,3.4964999999999997,-0.06325704,0.60477564,0.01245972
1779584989352328777,A_+,0.18963431800011676,0.0,-0.039426987802551904,-1.999519004254784,0.0,-0.013002702927357754,0.0,0.0,0.0,0.0,0.0,0.0,0.0,-0.38744999999999996,0.35437499999999994,3.4964999999999997,-0.06325704,0.60477564,0.01245972
1779584989352328777,A_+,0.19096187762488626,0.0,-0.039426987802551904,-1.999519004254784,0.0,-0.013002702927357754,0.0,0.0,0.0,0.0,0.0,0.0,0.0,-0.38744999999999996,0.35437499999999994,3.4964999999999997,-0.06325704,0.60477564,0.01245972
1779584989392716646,A_+,0.1922650253750362,0.0,-0.039426987802551904,-1.999519004254784,0.0,-0.013002702927357754,0.0,0.0,0.0,0.0,0.0,0.0,0.0,-0.3591,0.35437499999999994,3.5532,-0.06900768,0.60765096,0.0
1779584989392716646,A_+,0.19363408062508825,0.0,-0.039426987802551904,-1.999519004254784,0.0,-0.013002702927357754,0.0,0.0,0.0,0.0,0.0,0.0,0.0,-0.3591,0.35437499999999994,3.5532,-0.06900768,0.60765096,0.0
1779584989392716646,A_+,0.19496321225005886,0.0,-0.039426987802551904,-1.999519004254784,0.0,-0.013002702927357754,0.0,0.0,0.0,0.0,0.0,0.0,0.0,-0.3591,0.35437499999999994,3.5532,-0.06900768,0.60765096,0.0
1779584989422529220,A_+,0.1962738038751013,0.0,-0.039426987802551904,-1.999519004254784,0.0,-0.013002702927357754,0.0,0.0,0.0,0.0,0.0,0.0,0.0,-0.36855,0.3402,3.5342999999999996,-0.0670908,0.60765096,0.00287532
1779584989422529220,A_+,0.19765607912495398,0.0,-0.039426987802551904,-1.999519004254784,0.0,-0.013002702927357754,0.0,0.0,0.0,0.0,0.0,0.0,0.0,-0.36855,0.3402,3.5342999999999996,-0.0670908,0.60765096,0.00287532
1779584989422529220,A_+,0.19899585062512415,0.0,-0.039426987802551904,-1.999519004254784,0.0,-0.013002702927357754,0.0,0.0,0.0,0.0,0.0,0.0,0.0,-0.36855,0.3402,3.5342999999999996,-0.0670908,0.60765096,0.00287532
1779584989462347030,A_+,0.20030711037497895,0.0,-0.039426987802551904,-1.999519004254784,0.0,-0.013002702927357754,0.0,0.0,0.0,0.0,0.0,0.0,0.0,-0.36855,0.3402,3.5342999999999996,-0.06134016,0.60669252,-0.00095844
1779584989462347030,A_+,0.20168255362523269,0.0,-0.039426987802551904,-1.999519004254784,0.0,-0.013002702927357754,0.0,0.0,0.0,0.0,0.0,0.0,0.0,-0.36855,0.3402,3.5342999999999996,-0.06134016,0.60669252,-0.00095844
1779584989462347030,A_+,0.20300236525008586,0.0,-0.039426987802551904,-1.999519004254784,0.0,-0.013002702927357754,0.0,0.0,0.0,0.0,0.0,0.0,0.0,-0.36855,0.3402,3.5342999999999996,-0.06134016,0.60669252,-0.00095844
1779584989498453378,A_+,0.20431982487525602,0.0,-0.039426987802551904,-1.999519004254784,0.0,-0.013002702927357754,0.0,0.0,0.0,0.0,0.0,0.0,0.0,-0.3591,0.335475,3.5153999999999996,-0.059423279999999995,0.60573408,0.01054284
1779584989498453378,A_+,0.205688828250004,0.0,-0.039426987802551904,-1.999519004254784,0.0,-0.013002702927357754,0.0,0.0,0.0,0.0,0.0,0.0,0.0,-0.3591,0.335475,3.5153999999999996,-0.059423279999999995,0.60573408,0.01054284
1779584989498453378,A_+,0.207010891875143,0.0,-0.039426987802551904,-1.999519004254784,0.0,-0.013002702927357754,0.0,0.0,0.0,0.0,0.0,0.0,0.0,-0.3591,0.335475,3.5153999999999996,-0.059423279999999995,0.60573408,0.01054284
1779584989537361860,A_+,0.2083194874999208,0.0,-0.039426987802551904,-1.999519004254784,0.0,-0.013002702927357754,0.0,0.0,0.0,0.0,0.0,0.0,0.0,-0.35437499999999994,0.3402,3.501225,-0.06134016,0.5990249999999999,0.0095844
1779584989537361860,A_+,0.20971648275008192,0.0,-0.039426987802551904,-1.999519004254784,0.0,-0.013002702927357754,0.0,0.0,0.0,0.0,0.0,0.0,0.0,-0.35437499999999994,0.3402,3.501225,-0.06134016,0.5990249999999999,0.0095844
1779584989537361860,A_+,0.21104481825022958,0.0,-0.039426987802551904,-1.999519004254784,0.0,-0.013002702927357754,0.0,0.0,0.0,0.0,0.0,0.0,0.0,-0.35437499999999994,0.3402,3.501225,-0.06134016,0.5990249999999999,0.0095844
1779584989563732862,A_+,0.21235175800029538,0.0,-0.039426987802551904,-1.999519004254784,0.0,-0.013002702927357754,0.0,0.0,0.0,0.0,0.0,0.0,0.0,-0.3591,0.33075,3.482325,-0.06613236,0.5999834399999999,0.0047922
1779584989563732862,A_+,0.21372473325027386,0.0,-0.039426987802551904,-1.999519004254784,0.0,-0.013002702927357754,0.0,0.0,0.0,0.0,0.0,0.0,0.0,-0.3591,0.33075,3.482325,-0.06613236,0.5999834399999999,0.0047922
1779584989563732862,A_+,0.21504367687521153,0.0,-0.039426987802551904,-1.999519004254784,0.0,-0.013002702927357754,0.0,0.0,0.0,0.0,0.0,0.0,0.0,-0.3591,0.33075,3.482325,-0.06613236,0.5999834399999999,0.0047922
1779584989587367057,A_+,0.2163502126250023,0.0,-0.039426987802551904,-1.999519004254784,0.0,-0.013002702927357754,0.0,0.0,0.0,0.0,0.0,0.0,0.0,-0.37327499999999997,0.36855,3.4492499999999997,-0.06421548,0.60765096,0.00766752
1779584989587367057,A_+,0.21772611987489654,0.0,-0.039426987802551904,-1.999519004254784,0.0,-0.013002702927357754,0.0,0.0,0.0,0.0,0.0,0.0,0.0,-0.37327499999999997,0.36855,3.4492499999999997,-0.06421548,0.60765096,0.00766752
1779584989587367057,A_+,0.21904515550022552,0.0,-0.039426987802551904,-1.999519004254784,0.0,-0.013002702927357754,0.0,0.0,0.0,0.0,0.0,0.0,0.0,-0.37327499999999997,0.36855,3.4492499999999997,-0.06421548,0.60765096,0.00766752
1779584989607734918,A_+,0.22035659125003804,0.0,-0.039426987802551904,-1.999519004254784,0.0,-0.013002702927357754,0.0,0.0,0.0,0.0,0.0,0.0,0.0,-0.36855,0.316575,3.4964999999999997,-0.06613236,0.6038171999999999,0.00191688
1779584989607734918,A_+,0.22176729025022723,0.0,-0.039426987802551904,-1.999519004254784,0.0,-0.013002702927357754,0.0,0.0,0.0,0.0,0.0,0.0,0.0,-0.36855,0.316575,3.4964999999999997,-0.06613236,0.6038171999999999,0.00191688
1779584989607734918,A_+,0.22309690587508157,0.0,-0.039426987802551904,-1.999519004254784,0.0,-0.013002702927357754,0.0,0.0,0.0,0.0,0.0,0.0,0.0,-0.36855,0.316575,3.4964999999999997,-0.06613236,0.6038171999999999,0.00191688
1779584989627617120,A_+,0.22440411362504165,0.0,-0.039426987802551904,-1.999519004254784,0.0,-0.013002702927357754,0.0,0.0,0.0,0.0,0.0,0.0,0.0,-0.378,0.37327499999999997,3.5153999999999996,-0.0622986,0.60669252,0.00095844
1779584989627617120,A_+,0.22578541275015596,0.0,-0.039426987802551904,-1.999519004254784,0.0,-0.013002702927357754,0.0,0.0,0.0,0.0,0.0,0.0,0.0,-0.378,0.37327499999999997,3.5153999999999996,-0.0622986,0.60669252,0.00095844
1779584989627617120,A_+,0.22711770037494716,0.0,-0.039426987802551904,-1.999519004254784,0.0,-0.013002702927357754,0.0,0.0,0.0,0.0,0.0,0.0,0.0,-0.378,0.37327499999999997,3.5153999999999996,-0.0622986,0.60669252,0.00095844
1779584989647373914,A_+,0.22842576012499194,0.0,-0.039426987802551904,-1.999519004254784,0.0,-0.013002702927357754,0.0,0.0,0.0,0.0,0.0,0.0,0.0,-0.3591,0.33075,3.482325,-0.06900768,0.6028587599999999,0.0047922
1779584989647373914,A_+,0.2298176632502873,0.0,-0.039426987802551904,-1.999519004254784,0.0,-0.013002702927357754,0.0,0.0,0.0,0.0,0.0,0.0,0.0,-0.3591,0.33075,3.482325,-0.06900768,0.6028587599999999,0.0047922
1779584989647373914,A_+,0.23114343487486622,0.0,-0.039426987802551904,-1.999519004254784,0.0,-0.013002702927357754,0.0,0.0,0.0,0.0,0.0,0.0,0.0,-0.3591,0.33075,3.482325,-0.06900768,0.6028587599999999,0.0047922
1779584989682378768,A_+,0.23249227824999252,0.0,-0.039426987802551904,-1.999519004254784,0.0,-0.013002702927357754,0.0,0.0,0.0,0.0,0.0,0.0,0.0,-0.378,0.36382499999999995,3.5153999999999996,-0.06421548,0.60573408,0.00383376
1779584989682378768,A_+,0.23393930512520456,0.0,-0.039426987802551904,-1.999519004254784,0.0,-0.013002702927357754,0.0,0.0,0.0,0.0,0.0,0.0,0.0,-0.378,0.36382499999999995,3.5153999999999996,-0.06421548,0.60573408,0.00383376
1779584989682378768,A_+,0.23529518850000386,0.0,-0.039426987802551904,-1.999519004254784,0.0,-0.013002702927357754,0.0,0.0,0.0,0.0,0.0,0.0,0.0,-0.378,0.36382499999999995,3.5153999999999996,-0.06421548,0.60573408,0.00383376
1779584989742427587,A_+,0.23664529200004836,0.0,-0.039426987802551904,-1.999519004254784,0.0,-0.013002702927357754,0.0,0.0,0.0,0.0,0.0,0.0,0.0,-0.35437499999999994,0.3449249999999999,3.50595,-0.05463108,0.60477564,0.0047922
1779584989742427587,A_+,0.23809884675029025,0.0,-0.039426987802551904,-1.999519004254784,0.0,-0.013002702927357754,0.0,0.0,0.0,0.0,0.0,0.0,0.0,-0.35437499999999994,0.3449249999999999,3.50595,-0.05463108,0.60477564,0.0047922
1779584989742427587,A_+,0.2394577741251851,0.0,-0.039426987802551904,-1.999519004254784,0.0,-0.013002702927357754,0.0,0.0,0.0,0.0,0.0,0.0,0.0,-0.35437499999999994,0.3449249999999999,3.50595,-0.05463108,0.60477564,0.0047922
1779584989777395248,A_+,0.24078787374992316,0.0,-0.039426987802551904,-1.999519004254784,0.0,-0.013002702927357754,0.0,0.0,0.0,0.0,0.0,0.0,0.0,-0.37327499999999997,0.38744999999999996,3.529575,-0.0622986,0.60573408,0.0
1779584989777395248,A_+,0.2422466524999436,0.0,-0.039426987802551904,-1.999519004254784,0.0,-0.013002702927357754,0.0,0.0,0.0,0.0,0.0,0.0,0.0,-0.37327499999999997,0.38744999999999996,3.529575,-0.0622986,0.60573408,0.0
1779584989777395248,A_+,0.24359988387504927,0.0,-0.039426987802551904,-1.999519004254784,0.0,-0.013002702927357754,0.0,0.0,0.0,0.0,0.0,0.0,0.0,-0.37327499999999997,0.38744999999999996,3.529575,-0.0622986,0.60573408,0.0
1779584989827399253,A_+,0.2449439953752517,0.0,-0.039426987802551904,-1.999519004254784,0.0,-0.013002702927357754,0.0,0.0,0.0,0.0,0.0,0.0,0.0,-0.36382499999999995,0.3213,3.482325,-0.06421548,0.59614968,0.01341816
1779584989827399253,A_+,0.24644652174993098,0.0,-0.039426987802551904,-1.999519004254784,0.0,-0.013002702927357754,0.0,0.0,0.0,0.0,0.0,0.0,0.0,-0.36382499999999995,0.3213,3.482325,-0.06421548,0.59614968,0.01341816
1779584989827399253,A_+,0.24779417324998576,0.0,-0.039426987802551904,-1.999519004254784,0.0,-0.013002702927357754,0.0,0.0,0.0,0.0,0.0,0.0,0.0,-0.36382499999999995,0.3213,3.482325,-0.06421548,0.59614968,0.01341816
1779584989852400541,A_+,0.24914315275009358,0.0,-0.039426987802551904,-1.999519004254784,0.0,-0.013002702927357754,0.0,0.0,0.0,0.0,0.0,0.0,0.0,-0.38744999999999996,0.3402,3.52485,-0.05654796,0.6019003199999999,0.00383376
1779584989852400541,A_+,0.25062871125010133,0.0,-0.039426987802551904,-1.999519004254784,0.0,-0.013002702927357754,0.0,0.0,0.0,0.0,0.0,0.0,0.0,-0.38744999999999996,0.3402,3.52485,-0.05654796,0.6019003199999999,0.00383376
1779584989852400541,A_+,0.2520932620000167,0.0,-0.039426987802551904,-1.999519004254784,0.0,-0.013002702927357754,0.0,0.0,0.0,0.0,0.0,0.0,0.0,-0.38744999999999996,0.3402,3.52485,-0.05654796,0.6019003199999999,0.00383376
1779584989877452373,A_+,0.25342652549989,0.0,-0.039426987802551904,-1.999519004254784,0.0,-0.013002702927357754,0.0,0.0,0.0,0.0,0.0,0.0,0.0,-0.36382499999999995,0.33075,3.4964999999999997,-0.05846484,0.6028587599999999,0.0047922
1779584989877452373,A_+,0.2548525245001656,0.0,-0.039426987802551904,-1.999519004254784,0.0,-0.013002702927357754,0.0,0.0,0.0,0.0,0.0,0.0,0.0,-0.36382499999999995,0.33075,3.4964999999999997,-0.05846484,0.6028587599999999,0.0047922
1779584989877452373,A_+,0.25618086012491403,0.0,-0.039426987802551904,-1.999519004254784,0.0,-0.013002702927357754,0.0,0.0,0.0,0.0,0.0,0.0,0.0,-0.36382499999999995,0.33075,3.4964999999999997,-0.05846484,0.6028587599999999,0.0047922
1779584989892709255,A_+,0.2575003517499681,0.0,-0.039426987802551904,-1.999519004254784,0.0,-0.013002702927357754,0.0,0.0,0.0,0.0,0.0,0.0,0.0,-0.3591,0.3213,3.5201249999999997,-0.06134016,0.6019003199999999,-0.00191688
1779584989892709255,A_+,0.25894915849994504,0.0,-0.039426987802551904,-1.999519004254784,0.0,-0.013002702927357754,0.0,0.0,0.0,0.0,0.0,0.0,0.0,-0.3591,0.3213,3.5201249999999997,-0.06134016,0.6019003199999999,-0.00191688
1779584989892709255,A_+,0.2603059058751569,0.0,-0.039426987802551904,-1.999519004254784,0.0,-0.013002702927357754,0.0,0.0,0.0,0.0,0.0,0.0,0.0,-0.3591,0.3213,3.5201249999999997,-0.06134016,0.6019003199999999,-0.00191688
1779584989922466278,A_+,0.26163309350022246,0.0,-0.039426987802551904,-1.999519004254784,0.0,-0.013002702927357754,0.0,0.0,0.0,0.0,0.0,0.0,0.0,-0.37327499999999997,0.34964999999999996,3.5106749999999995,-0.05846484,0.60573408,0.01533504
1779584989922466278,A_+,0.2630655964999278,0.0,-0.039426987802551904,-1.999519004254784,0.0,-0.013002702927357754,0.0,0.0,0.0,0.0,0.0,0.0,0.0,-0.37327499999999997,0.34964999999999996,3.5106749999999995,-0.05846484,0.60573408,0.01533504
1779584989922466278,A_+,0.26439756399986436,0.0,-0.039426987802551904,-1.999519004254784,0.0,-0.013002702927357754,0.0,0.0,0.0,0.0,0.0,0.0,0.0,-0.37327499999999997,0.34964999999999996,3.5106749999999995,-0.05846484,0.60573408,0.01533504
1779584989982421875,A_+,0.2657228316252258,0.0,-0.039426987802551904,-1.999519004254784,0.0,-0.013002702927357754,0.0,0.0,0.0,0.0,0.0,0.0,0.0,-0.36855,0.34964999999999996,3.5153999999999996,-0.06325704,0.6019003199999999,0.00383376
1779584989982421875,A_+,0.2671607225001935,0.0,-0.039426987802551904,-1.999519004254784,0.0,-0.013002702927357754,0.0,0.0,0.0,0.0,0.0,0.0,0.0,-0.36855,0.34964999999999996,3.5153999999999996,-0.06325704,0.6019003199999999,0.00383376
1779584989982421875,A_+,0.268512713875225,0.0,-0.039426987802551904,-1.999519004254784,0.0,-0.013002702927357754,0.0,0.0,0.0,0.0,0.0,0.0,0.0,-0.36855,0.34964999999999996,3.5153999999999996,-0.06325704,0.6019003199999999,0.00383376
1779584990032638311,A_+,0.2698420814999736,0.0,-0.039426987802551904,-1.999519004254784,0.0,-0.013002702927357754,0.0,0.0,0.0,0.0,0.0,0.0,0.0,-0.378,0.35437499999999994,3.482325,-0.06900768,0.60765096,0.0047922
1779584990032638311,A_+,0.2712648403748972,0.0,-0.039426987802551904,-1.999519004254784,0.0,-0.013002702927357754,0.0,0.0,0.0,0.0,0.0,0.0,0.0,-0.378,0.35437499999999994,3.482325,-0.06900768,0.60765096,0.0047922
1779584990032638311,A_+,0.27260791987509947,0.0,-0.039426987802551904,-1.999519004254784,0.0,-0.013002702927357754,0.0,0.0,0.0,0.0,0.0,0.0,0.0,-0.378,0.35437499999999994,3.482325,-0.06900768,0.60765096,0.0047922
1779584990067438840,A_+,0.27393283950004843,0.0,-0.039426987802551904,-1.999519004254784,0.0,-0.013002702927357754,0.0,0.0,0.0,0.0,0.0,0.0,0.0,-0.36382499999999995,0.335475,3.5626499999999997,-0.0622986,0.6028587599999999,0.00670908
1779584990067438840,A_+,0.2753632305002611,0.0,-0.039426987802551904,-1.999519004254784,0.0,-0.013002702927357754,0.0,0.0,0.0,0.0,0.0,0.0,0.0,-0.36382499999999995,0.335475,3.5626499999999997,-0.0622986,0.6028587599999999,0.00670908
1779584990067438840,A_+,0.2767201058750288,0.0,-0.039426987802551904,-1.999519004254784,0.0,-0.013002702927357754,0.0,0.0,0.0,0.0,0.0,0.0,0.0,-0.36382499999999995,0.335475,3.5626499999999997,-0.0622986,0.6028587599999999,0.00670908
1779584990098478078,A_+,0.2780551413752619,0.0,-0.039426987802551904,-1.999519004254784,0.0,-0.013002702927357754,0.0,0.0,0.0,0.0,0.0,0.0,0.0,-0.378,0.3402,3.501225,-0.06900768,0.60477564,0.0
1779584990098478078,A_+,0.2794832042500275,0.0,-0.039426987802551904,-1.999519004254784,0.0,-0.013002702927357754,0.0,0.0,0.0,0.0,0.0,0.0,0.0,-0.378,0.3402,3.501225,-0.06900768,0.60477564,0.0
1779584990098478078,A_+,0.2808157838749139,0.0,-0.039426987802551904,-1.999519004254784,0.0,-0.013002702927357754,0.0,0.0,0.0,0.0,0.0,0.0,0.0,-0.378,0.3402,3.501225,-0.06900768,0.60477564,0.0
1779584990132742881,A_+,0.28213751149996824,0.0,-0.039426987802551904,-1.999519004254784,0.0,-0.013002702927357754,0.0,0.0,0.0,0.0,0.0,0.0,0.0,-0.37327499999999997,0.34964999999999996,3.50595,-0.05846484,0.6028587599999999,0.0047922
1779584990132742881,A_+,0.2835524305000945,0.0,-0.039426987802551904,-1.999519004254784,0.0,-0.013002702927357754,0.0,0.0,0.0,0.0,0.0,0.0,0.0,-0.37327499999999997,0.34964999999999996,3.50595,-0.05846484,0.6028587599999999,0.0047922
1779584990132742881,A_+,0.284892850000233,0.0,-0.039426987802551904,-1.999519004254784,0.0,-0.013002702927357754,0.0,0.0,0.0,0.0,0.0,0.0,0.0,-0.37327499999999997,0.34964999999999996,3.50595,-0.05846484,0.6028587599999999,0.0047922
1779584990163610696,A_+,0.2862180896249811,0.0,-0.039426987802551904,-1.999519004254784,0.0,-0.013002702927357754,0.0,0.0,0.0,0.0,0.0,0.0,0.0,-0.37327499999999997,0.3402,3.5390249999999996,-0.06900768,0.60477564,0.00670908
1779584990163610696,A_+,0.28764067649990466,0.0,-0.039426987802551904,-1.999519004254784,0.0,-0.013002702927357754,0.0,0.0,0.0,0.0,0.0,0.0,0.0,-0.37327499999999997,0.3402,3.5390249999999996,-0.06900768,0.60477564,0.00670908
1779584990163610696,A_+,0.28898805600010746,0.0,-0.039426987802551904,-1.999519004254784,0.0,-0.013002702927357754,0.0,0.0,0.0,0.0,0.0,0.0,0.0,-0.37327499999999997,0.3402,3.5390249999999996,-0.06900768,0.60477564,0.00670908
1779584990197627305,A_+,0.290318271624983,0.0,-0.039426987802551904,-1.999519004254784,0.0,-0.013002702927357754,0.0,0.0,0.0,0.0,0.0,0.0,0.0,-0.35437499999999994,0.378,3.548475,-0.06517392,0.6028587599999999,0.0047922
1779584990197627305,A_+,0.29176162237490644,0.0,-0.039426987802551904,-1.999519004254784,0.0,-0.013002702927357754,0.0,0.0,0.0,0.0,0.0,0.0,0.0,-0.35437499999999994,0.378,3.548475,-0.06517392,0.6028587599999999,0.0047922
1779584990197627305,A_+,0.2931049298749713,0.0,-0.039426987802551904,-1.999519004254784,0.0,-0.013002702927357754,0.0,0.0,0.0,0.0,0.0,0.0,0.0,-0.35437499999999994,0.378,3.548475,-0.06517392,0.6028587599999999,0.0047922
1779584990227586746,A_+,0.29443326550017446,0.0,-0.039426987802551904,-1.999519004254784,0.0,-0.013002702927357754,0.0,0.0,0.0,0.0,0.0,0.0,0.0,-0.36855,0.36382499999999995,3.5106749999999995,-0.06517392,0.60765096,0.00670908
1779584990227586746,A_+,0.29586013637526776,0.0,-0.039426987802551904,-1.999519004254784,0.0,-0.013002702927357754,0.0,0.0,0.0,0.0,0.0,0.0,0.0,-0.36855,0.36382499999999995,3.5106749999999995,-0.06517392,0.60765096,0.00670908
1779584990227586746,A_+,0.2972002038750361,0.0,-0.039426987802551904,-1.999519004254784,0.0,-0.013002702927357754,0.0,0.0,0.0,0.0,0.0,0.0,0.0,-0.36855,0.36382499999999995,3.5106749999999995,-0.06517392,0.60765096,0.00670908
1779584990267467737,A_+,0.2985486073748689,0.0,-0.039426987802551904,-1.999519004254784,0.0,-0.013002702927357754,0.0,0.0,0.0,0.0,0.0,0.0,0.0,-0.378,0.382725,3.5153999999999996,-0.07284144,0.60669252,0.0047922
1779584990267467737,A_+,0.2999843302500267,0.0,-0.039426987802551904,-1.999519004254784,0.0,-0.013002702927357754,0.0,0.0,0.0,0.0,0.0,0.0,0.0,-0.378,0.382725,3.5153999999999996,-0.07284144,0.60669252,0.0047922
1779584990267467737,A_+,0.30135097762513396,0.0,-0.039426987802551904,-1.999519004254784,0.0,-0.013002702927357754,0.0,0.0,0.0,0.0,0.0,0.0,0.0,-0.378,0.382725,3.5153999999999996,-0.07284144,0.60669252,0.0047922
1779584990292465925,A_+,0.3028331882501334,0.0,-0.039426987802551904,-1.999519004254784,0.0,-0.013002702927357754,0.0,0.0,0.0,0.0,0.0,0.0,0.0,-0.37327499999999997,0.33075,3.52485,-0.05846484,0.5990249999999999,0.0047922
1779584990292465925,A_+,0.3042870710000898,0.0,-0.039426987802551904,-1.999519004254784,0.0,-0.013002702927357754,0.0,0.0,0.0,0.0,0.0,0.0,0.0,-0.37327499999999997,0.33075,3.52485,-0.05846484,0.5990249999999999,0.0047922
1779584990292465925,A_+,0.30562958249993244,0.0,-0.039426987802551904,-1.999519004254784,0.0,-0.013002702927357754,0.0,0.0,0.0,0.0,0.0,0.0,0.0,-0.37327499999999997,0.33075,3.52485,-0.05846484,0.5990249999999999,0.0047922
1779584990327675580,A_+,0.30696455399993283,0.0,-0.039426987802551904,-1.999519004254784,0.0,-0.013002702927357754,0.0,0.0,0.0,0.0,0.0,0.0,0.0,-0.36382499999999995,0.34964999999999996,3.5201249999999997,-0.05654796,0.60477564,0.00287532
1779584990327675580,A_+,0.3084182647498892,0.0,-0.039426987802551904,-1.999519004254784,0.0,-0.013002702927357754,0.0,0.0,0.0,0.0,0.0,0.0,0.0,-0.36382499999999995,0.34964999999999996,3.5201249999999997,-0.05654796,0.60477564,0.00287532
1779584990327675580,A_+,0.309780956124996,0.0,-0.039426987802551904,-1.999519004254784,0.0,-0.013002702927357754,0.0,0.0,0.0,0.0,0.0,0.0,0.0,-0.36382499999999995,0.34964999999999996,3.5201249999999997,-0.05654796,0.60477564,0.00287532
1779584990363707065,A_+,0.31111712762503885,0.0,-0.039426987802551904,-1.999519004254784,0.0,-0.013002702927357754,0.0,0.0,0.0,0.0,0.0,0.0,0.0,-0.36855,0.335475,3.5390249999999996,-0.06804924000000001,0.60573408,0.0047922
1779584990363707065,A_+,0.3125744143749216,0.0,-0.039426987802551904,-1.999519004254784,0.0,-0.013002702927357754,0.0,0.0,0.0,0.0,0.0,0.0,0.0,-0.36855,0.335475,3.5390249999999996,-0.06804924000000001,0.60573408,0.0047922
1779584990363707065,A_+,0.3139201698750185,0.0,-0.039426987802551904,-1.999519004254784,0.0,-0.013002702927357754,0.0,0.0,0.0,0.0,0.0,0.0,0.0,-0.36855,0.335475,3.5390249999999996,-0.06804924000000001,0.60573408,0.0047922
1779584990398337602,A_+,0.3152500773749125,0.0,-0.039426987802551904,-1.999519004254784,0.0,-0.013002702927357754,0.0,0.0,0.0,0.0,0.0,0.0,0.0,-0.37327499999999997,0.33075,3.5390249999999996,-0.06038172,0.6009418799999999,0.00862596
1779584990398337602,A_+,0.3166611725000621,0.0,-0.039426987802551904,-1.999519004254784,0.0,-0.013002702927357754,0.0,0.0,0.0,0.0,0.0,0.0,0.0,-0.37327499999999997,0.33075,3.5390249999999996,-0.06038172,0.6009418799999999,0.00862596
1779584990398337602,A_+,0.31800492399997893,0.0,-0.039426987802551904,-1.999519004254784,0.0,-0.013002702927357754,0.0,0.0,0.0,0.0,0.0,0.0,0.0,-0.37327499999999997,0.33075,3.5390249999999996,-0.06038172,0.6009418799999999,0.00862596
1779584990417614459,A_+,0.31933039149998876,0.0,-0.039426987802551904,-1.999519004254784,0.0,-0.013002702927357754,0.0,0.0,0.0,0.0,0.0,0.0,0.0,-0.3591,0.3449249999999999,3.4964999999999997,-0.05175576,0.6019003199999999,0.0095844
1779584990417614459,A_+,0.3207419466252759,0.0,-0.039426987802551904,-1.999519004254784,0.0,-0.013002702927357754,0.0,0.0,0.0,0.0,0.0,0.0,0.0,-0.3591,0.3449249999999999,3.4964999999999997,-0.05175576,0.6019003199999999,0.0095844
1779584990417614459,A_+,0.3220735861250432,0.0,-0.039426987802551904,-1.999519004254784,0.0,-0.013002702927357754,0.0,0.0,0.0,0.0,0.0,0.0,0.0,-0.3591,0.3449249999999999,3.4964999999999997,-0.05175576,0.6019003199999999,0.0095844
1779584990427487134,A_+,0.32339475375010807,0.0,-0.039426987802551904,-1.999519004254784,0.0,-0.013002702927357754,0.0,0.0,0.0,0.0,0.0,0.0,0.0,-0.378,0.34964999999999996,3.5342999999999996,-0.0622986,0.6019003199999999,0.0
1779584990427487134,A_+,0.32482681662486357,0.0,-0.039426987802551904,-1.999519004254784,0.0,-0.013002702927357754,0.0,0.0,0.0,0.0,0.0,0.0,0.0,-0.378,0.34964999999999996,3.5342999999999996,-0.0622986,0.6019003199999999,0.0
1779584990427487134,A_+,0.32618244012519426,0.0,-0.039426987802551904,-1.999519004254784,0.0,-0.013002702927357754,0.0,0.0,0.0,0.0,0.0,0.0,0.0,-0.378,0.34964999999999996,3.5342999999999996,-0.0622986,0.6019003199999999,0.0
1779584990447498321,A_+,0.3275292074999925,0.0,-0.039426987802551904,-1.999519004254784,0.0,-0.013002702927357754,0.0,0.0,0.0,0.0,0.0,0.0,0.0,-0.378,0.326025,3.4870499999999995,-0.0622986,0.60669252,0.00766752
1779584990447498321,A_+,0.3290089901252031,0.0,-0.039426987802551904,-1.999519004254784,0.0,-0.013002702927357754,0.0,0.0,0.0,0.0,0.0,0.0,0.0,-0.378,0.326025,3.4870499999999995,-0.0622986,0.60669252,0.00766752
1779584990447498321,A_+,0.3303549376250885,0.0,-0.039426987802551904,-1.999519004254784,0.0,-0.013002702927357754,0.0,0.0,0.0,0.0,0.0,0.0,0.0,-0.378,0.326025,3.4870499999999995,-0.0622986,0.60669252,0.00766752
1779584990482501506,A_+,0.33169397712526916,0.0,-0.039426987802551904,-1.999519004254784,0.0,-0.013002702927357754,0.0,0.0,0.0,0.0,0.0,0.0,0.0,-0.34964999999999996,0.335475,3.5153999999999996,-0.06613236,0.60477564,0.00383376
1779584990482501506,A_+,0.3331131001250469,0.0,-0.039426987802551904,-1.999519004254784,0.0,-0.013002702927357754,0.0,0.0,0.0,0.0,0.0,0.0,0.0,-0.34964999999999996,0.335475,3.5153999999999996,-0.06613236,0.60477564,0.00383376
1779584990482501506,A_+,0.33447146349999457,0.0,-0.039426987802551904,-1.999519004254784,0.0,-0.013002702927357754,0.0,0.0,0.0,0.0,0.0,0.0,0.0,-0.34964999999999996,0.335475,3.5153999999999996,-0.06613236,0.60477564,0.00383376
1779584990522516250,A_+,0.3358009991252402,0.0,-0.039426987802551904,-1.999519004254784,0.0,-0.013002702927357754,0.0,0.0,0.0,0.0,0.0,0.0,0.0,-0.36855,0.307125,3.4870499999999995,-0.06804924000000001,0.60573408,0.00191688
1779584990522516250,A_+,0.3372397779999119,0.0,-0.039426987802551904,-1.999519004254784,0.0,-0.013002702927357754,0.0,0.0,0.0,0.0,0.0,0.0,0.0,-0.36855,0.307125,3.4870499999999995,-0.06804924000000001,0.60573408,0.00191688
1779584990522516250,A_+,0.338573693500166,0.0,-0.039426987802551904,-1.999519004254784,0.0,-0.013002702927357754,0.0,0.0,0.0,0.0,0.0,0.0,0.0,-0.36855,0.307125,3.4870499999999995,-0.06804924000000001,0.60573408,0.00191688
1779584990597522020,A_+,0.3398929811251037,0.0,-0.039426987802551904,-1.999519004254784,0.0,-0.013002702927357754,0.0,0.0,0.0,0.0,0.0,0.0,0.0,-0.37327499999999997,0.3969,3.5390249999999996,-0.05367264,0.60573408,0.02204412
1779584990597522020,A_+,0.34133076800026174,0.0,-0.039426987802551904,-1.999519004254784,0.0,-0.013002702927357754,0.0,0.0,0.0,0.0,0.0,0.0,0.0,-0.37327499999999997,0.3969,3.5390249999999996,-0.05367264,0.60573408,0.02204412
1779584990597522020,A_+,0.3426857633749023,0.0,-0.039426987802551904,-1.999519004254784,0.0,-0.013002702927357754,0.0,0.0,0.0,0.0,0.0,0.0,0.0,-0.37327499999999997,0.3969,3.5390249999999996,-0.05367264,0.60573408,0.02204412
1779584990628109693,A_+,0.34401559900015855,0.0,-0.039426987802551904,-1.999519004254784,0.0,-0.013002702927357754,0.0,0.0,0.0,0.0,0.0,0.0,0.0,-0.36855,0.36855,3.453975,-0.06038172,0.60477564,0.00670908
1779584990628109693,A_+,0.34544677387521006,0.0,-0.039426987802551904,-1.999519004254784,0.0,-0.013002702927357754,0.0,0.0,0.0,0.0,0.0,0.0,0.0,-0.36855,0.36855,3.453975,-0.06038172,0.60477564,0.00670908
1779584990628109693,A_+,0.3467855373751263,0.0,-0.039426987802551904,-1.999519004254784,0.0,-0.013002702927357754,0.0,0.0,0.0,0.0,0.0,0.0,0.0,-0.36855,0.36855,3.453975,-0.06038172,0.60477564,0.00670908
1779584990658748388,A_+,0.34813586887503334,0.0,-0.039426987802551904,-1.999519004254784,0.0,-0.013002702927357754,0.0,0.0,0.0,0.0,0.0,0.0,0.0,-0.36855,0.36382499999999995,3.482325,-0.06325704,0.6038171999999999,0.01054284
1779584990658748388,A_+,0.34956857975021194,0.0,-0.039426987802551904,-1.999519004254784,0.0,-0.013002702927357754,0.0,0.0,0.0,0.0,0.0,0.0,0.0,-0.36855,0.36382499999999995,3.482325,-0.06325704,0.6038171999999999,0.01054284
1779584990658748388,A_+,0.3509238151250429,0.0,-0.039426987802551904,-1.999519004254784,0.0,-0.013002702927357754,0.0,0.0,0.0,0.0,0.0,0.0,0.0,-0.36855,0.36382499999999995,3.482325,-0.06325704,0.6038171999999999,0.01054284
1779584990693238258,A_+,0.3522553347502253,0.0,-0.039426987802551904,-1.999519004254784,0.0,-0.013002702927357754,0.0,0.0,0.0,0.0,0.0,0.0,0.0,-0.37327499999999997,0.29295,3.5106749999999995,-0.05079731999999999,0.60765096,0.00575064
1779584990693238258,A_+,0.35369406962490757,0.0,-0.039426987802551904,-1.999519004254784,0.0,-0.013002702927357754,0.0,0.0,0.0,0.0,0.0,0.0,0.0,-0.37327499999999997,0.29295,3.5106749999999995,-0.05079731999999999,0.60765096,0.00575064
1779584990693238258,A_+,0.35503438512523644,0.0,-0.039426987802551904,-1.999519004254784,0.0,-0.013002702927357754,0.0,0.0,0.0,0.0,0.0,0.0,0.0,-0.37327499999999997,0.29295,3.5106749999999995,-0.05079731999999999,0.60765096,0.00575064
1779584990722638368,A_+,0.3563816005002991,0.0,-0.039426987802551904,-1.999519004254784,0.0,-0.013002702927357754,0.0,0.0,0.0,0.0,0.0,0.0,0.0,-0.36382499999999995,0.33075,3.4964999999999997,-0.0622986,0.5999834399999999,0.0
1779584990722638368,A_+,0.35781486737505475,0.0,-0.039426987802551904,-1.999519004254784,0.0,-0.013002702927357754,0.0,0.0,0.0,0.0,0.0,0.0,0.0,-0.36382499999999995,0.33075,3.4964999999999997,-0.0622986,0.5999834399999999,0.0
1779584990722638368,A_+,0.35917468275010833,0.0,-0.039426987802551904,-1.999519004254784,0.0,-0.013002702927357754,0.0,0.0,0.0,0.0,0.0,0.0,0.0,-0.36382499999999995,0.33075,3.4964999999999997,-0.0622986,0.5999834399999999,0.0
1779584990752525091,A_+,0.3605004743749305,0.0,-0.039426987802551904,-1.999519004254784,0.0,-0.013002702927357754,0.0,0.0,0.0,0.0,0.0,0.0,0.0,-0.36855,0.3024,3.5201249999999997,-0.06325704,0.60477564,0.00670908
1779584990752525091,A_+,0.3619180013752157,0.0,-0.039426987802551904,-1.999519004254784,0.0,-0.013002702927357754,0.0,0.0,0.0,0.0,0.0,0.0,0.0,-0.36855,0.3024,3.5201249999999997,-0.06325704,0.60477564,0.00670908
1779584990752525091,A_+,0.3632458530000804,0.0,-0.039426987802551904,-1.999519004254784,0.0,-0.013002702927357754,0.0,0.0,0.0,0.0,0.0,0.0,0.0,-0.36855,0.3024,3.5201249999999997,-0.06325704,0.60477564,0.00670908
1779584990787547588,A_+,0.3645618286250283,0.0,-0.039426987802551904,-1.999519004254784,0.0,-0.013002702927357754,0.0,0.0,0.0,0.0,0.0,0.0,0.0,-0.36855,0.37327499999999997,3.5106749999999995,-0.059423279999999995,0.60573408,0.00191688
1779584990787547588,A_+,0.36600183949985876,0.0,-0.039426987802551904,-1.999519004254784,0.0,-0.013002702927357754,0.0,0.0,0.0,0.0,0.0,0.0,0.0,-0.36855,0.37327499999999997,3.5106749999999995,-0.059423279999999995,0.60573408,0.00191688
1779584990787547588,A_+,0.3673611828749017,0.0,-0.039426987802551904,-1.999519004254784,0.0,-0.013002702927357754,0.0,0.0,0.0,0.0,0.0,0.0,0.0,-0.36855,0.37327499999999997,3.5106749999999995,-0.059423279999999995,0.60573408,0.00191688
1779584990813146829,A_+,0.36869017449998864,0.0,-0.039426987802551904,-1.999519004254784,0.0,-0.013002702927357754,0.0,0.0,0.0,0.0,0.0,0.0,0.0,-0.37327499999999997,0.34964999999999996,3.5201249999999997,-0.06325704,0.6019003199999999,0.00191688
1779584990813146829,A_+,0.37013332925016584,0.0,-0.039426987802551904,-1.999519004254784,0.0,-0.013002702927357754,0.0,0.0,0.0,0.0,0.0,0.0,0.0,-0.37327499999999997,0.34964999999999996,3.5201249999999997,-0.06325704,0.6019003199999999,0.00191688
1779584990813146829,A_+,0.37150315662529465,0.0,-0.039426987802551904,-1.999519004254784,0.0,-0.013002702927357754,0.0,0.0,0.0,0.0,0.0,0.0,0.0,-0.37327499999999997,0.34964999999999996,3.5201249999999997,-0.06325704,0.6019003199999999,0.00191688
1779584990842551946,A_+,0.3728624159998617,0.0,-0.039426987802551904,-1.999519004254784,0.0,-0.013002702927357754,0.0,0.0,0.0,0.0,0.0,0.0,0.0,-0.38744999999999996,0.34964999999999996,3.529575,-0.06325704,0.60477564,0.00383376
1779584990842551946,A_+,0.37429575487522015,0.0,-0.039426987802551904,-1.999519004254784,0.0,-0.013002702927357754,0.0,0.0,0.0,0.0,0.0,0.0,0.0,-0.38744999999999996,0.34964999999999996,3.529575,-0.06325704,0.60477564,0.00383376
1779584990842551946,A_+,0.37565718625000954,0.0,-0.039426987802551904,-1.999519004254784,0.0,-0.013002702927357754,0.0,0.0,0.0,0.0,0.0,0.0,0.0,-0.38744999999999996,0.34964999999999996,3.529575,-0.06325704,0.60477564,0.00383376
1779584990858933925,A_+,0.3770002417500109,0.0,-0.039426987802551904,-1.999519004254784,0.0,-0.013002702927357754,0.0,0.0,0.0,0.0,0.0,0.0,0.0,-0.36382499999999995,0.36855,3.4776,-0.0622986,0.6028587599999999,0.00095844
1779584990858933925,A_+,0.37842206074992646,0.0,-0.039426987802551904,-1.999519004254784,0.0,-0.013002702927357754,0.0,0.0,0.0,0.0,0.0,0.0,0.0,-0.36382499999999995,0.36855,3.4776,-0.0622986,0.6028587599999999,0.00095844
1779584990858933925,A_+,0.3797856321252766,0.0,-0.039426987802551904,-1.999519004254784,0.0,-0.013002702927357754,0.0,0.0,0.0,0.0,0.0,0.0,0.0,-0.36382499999999995,0.36855,3.4776,-0.0622986,0.6028587599999999,0.00095844
1779584990902940273,A_+,0.38111699962519197,0.0,-0.039426987802551904,-1.999519004254784,0.0,-0.013002702927357754,0.0,0.0,0.0,0.0,0.0,0.0,0.0,-0.34964999999999996,0.3402,3.529575,-0.06804924000000001,0.6038171999999999,0.01245972
1779584990902940273,A_+,0.3825577144998533,0.0,-0.039426987802551904,-1.999519004254784,0.0,-0.013002702927357754,0.0,0.0,0.0,0.0,0.0,0.0,0.0,-0.34964999999999996,0.3402,3.529575,-0.06804924000000001,0.6038171999999999,0.01245972
1779584990902940273,A_+,0.3839150738749595,0.0,-0.039426987802551904,-1.999519004254784,0.0,-0.013002702927357754,0.0,0.0,0.0,0.0,0.0,0.0,0.0,-0.34964999999999996,0.3402,3.529575,-0.06804924000000001,0.6038171999999999,0.01245972
1779584990942591428,A_+,0.3852482013749068,0.0,-0.039426987802551904,-1.999519004254784,0.0,-0.013002702927357754,0.0,0.0,0.0,0.0,0.0,0.0,0.0,-0.36382499999999995,0.61425,3.4964999999999997,-0.059423279999999995,0.60573408,0.00191688
1779584990942591428,A_+,0.3866999122501511,0.0,-0.039426987802551904,-1.999519004254784,0.0,-0.013002702927357754,0.0,0.0,0.0,0.0,0.0,0.0,0.0,-0.36382499999999995,0.61425,3.4964999999999997,-0.059423279999999995,0.60573408,0.00191688
1779584990942591428,A_+,0.38805653962526776,0.0,-0.039426987802551904,-1.999519004254784,0.0,-0.013002702927357754,0.0,0.0,0.0,0.0,0.0,0.0,0.0,-0.36382499999999995,0.61425,3.4964999999999997,-0.059423279999999995,0.60573408,0.00191688
1779584990968403339,A_+,0.38937952325022707,0.0,-0.039426987802551904,-1.999519004254784,0.0,-0.013002702927357754,0.0,0.0,0.017,0.0,0.0,0.0,0.0,-0.382725,0.5717249999999999,3.4917749999999996,-0.0622986,0.6038171999999999,0.00287532
1779584990968403339,A_+,0.39082616599989706,0.0,-0.039426987802551904,-1.999519004254784,0.0,-0.013002702927357754,0.0,0.0,0.017,0.0,0.0,0.0,0.0,-0.382725,0.5717249999999999,3.4917749999999996,-0.0622986,0.6038171999999999,0.00287532
1779584990968403339,A_+,0.3921782695001639,0.0,-0.039426987802551904,-1.999519004254784,0.0,-0.013002702927357754,0.0,0.0,0.017,0.0,0.0,0.0,0.0,-0.382725,0.5717249999999999,3.4917749999999996,-0.0622986,0.6038171999999999,0.00287532
1779584990987576961,A_+,0.39351412899986826,0.0,-0.039426987802551904,-1.999519004254784,0.0,-0.013002702927357754,0.0,0.0,0.0,0.0,0.0,0.0,0.0,-0.3591,0.5953499999999999,3.5437499999999997,-0.05846484,0.60669252,0.00766752
1779584990987576961,A_+,0.39496909575018435,0.0,-0.039426987802551904,-1.999519004254784,0.0,-0.013002702927357754,0.0,0.0,0.0,0.0,0.0,0.0,0.0,-0.3591,0.5953499999999999,3.5437499999999997,-0.05846484,0.60669252,0.00766752
1779584990987576961,A_+,0.39632780312513205,0.0,-0.039426987802551904,-1.999519004254784,0.0,-0.013002702927357754,0.0,0.0,0.0,0.0,0.0,0.0,0.0,-0.3591,0.5953499999999999,3.5437499999999997,-0.05846484,0.60669252,0.00766752
1779584991042984962,A_+,0.39765681462495195,0.0,-0.039426987802551904,-1.999519004254784,0.0,-0.013002702927357754,0.0,0.0,0.0,0.0,0.0,0.0,0.0,-0.36855,0.590625,3.5201249999999997,-0.06325704,0.60477564,0.00383376
1779584991042984962,A_+,0.39910466950004775,0.0,-0.039426987802551904,-1.999519004254784,0.0,-0.013002702927357754,0.0,0.0,0.0,0.0,0.0,0.0,0.0,-0.36855,0.590625,3.5201249999999997,-0.06325704,0.60477564,0.00383376
1779584991042984962,A_+,0.40047165287523967,0.0,-0.039426987802551904,-1.999519004254784,0.0,-0.013002702927357754,0.0,0.0,0.0,0.0,0.0,0.0,0.0,-0.36855,0.590625,3.5201249999999997,-0.06325704,0.60477564,0.00383376
1779584991068016767,A_+,0.4018046523751764,0.0,-0.039426987802551904,-1.999519004254784,0.0,-0.013002702927357754,0.0,0.0,0.0,0.0,0.0,0.0,0.0,-0.3591,0.581175,3.5437499999999997,-0.05558952,0.60956784,0.00575064
1779584991068016767,A_+,0.4032580431248789,0.0,-0.039426987802551904,-1.999519004254784,0.0,-0.013002702927357754,0.0,0.0,0.0,0.0,0.0,0.0,0.0,-0.3591,0.581175,3.5437499999999997,-0.05558952,0.60956784,0.00575064
1779584991068016767,A_+,0.4046061306248703,0.0,-0.039426987802551904,-1.999519004254784,0.0,-0.013002702927357754,0.0,0.0,0.0,0.0,0.0,0.0,0.0,-0.3591,0.581175,3.5437499999999997,-0.05558952,0.60956784,0.00575064
1779584991117597103,A_+,0.4059840058748705,0.0,-0.039426987802551904,-1.999519004254784,0.0,-0.013002702927357754,0.0,0.0,0.0,0.0,0.0,0.0,0.0,-0.36855,0.533925,3.52485,-0.06613236,0.6028587599999999,0.01054284
1779584991117597103,A_+,0.40743277262527045,0.0,-0.039426987802551904,-1.999519004254784,0.0,-0.013002702927357754,0.0,0.0,0.0,0.0,0.0,0.0,0.0,-0.36855,0.533925,3.52485,-0.06613236,0.6028587599999999,0.01054284
1779584991117597103,A_+,0.4088486276250478,0.0,-0.039426987802551904,-1.999519004254784,0.0,-0.013002702927357754,0.0,0.0,0.0,0.0,0.0,0.0,0.0,-0.36855,0.533925,3.52485,-0.06613236,0.6028587599999999,0.01054284
1779584991147601366,A_+,0.41018390725002973,0.0,-0.039426987802551904,-1.999519004254784,0.0,-0.013002702927357754,0.0,0.0,0.0,0.0,0.0,0.0,0.0,-0.378,0.6189749999999999,3.5201249999999997,-0.059423279999999995,0.5990249999999999,-0.00095844
1779584991147601366,A_+,0.41162679800027036,0.0,-0.039426987802551904,-1.999519004254784,0.0,-0.013002702927357754,0.0,0.0,0.0,0.0,0.0,0.0,0.0,-0.378,0.6189749999999999,3.5201249999999997,-0.059423279999999995,0.5990249999999999,-0.00095844
1779584991147601366,A_+,0.41297594150000805,0.0,-0.039426987802551904,-1.999519004254784,0.0,-0.013002702927357754,0.0,0.0,0.0,0.0,0.0,0.0,0.0,-0.378,0.6189749999999999,3.5201249999999997,-0.059423279999999995,0.5990249999999999,-0.00095844
1779584991182607889,A_+,0.4143093930001669,0.0,-0.039426987802551904,-1.999519004254784,0.0,-0.013002702927357754,0.0,0.0,0.0,0.0,0.0,0.0,0.0,-0.35437499999999994,0.5859,3.5201249999999997,-0.06996611999999999,0.60477564,0.01245972
1779584991182607889,A_+,0.41574369587488036,0.0,-0.039426987802551904,-1.999519004254784,0.0,-0.013002702927357754,0.0,0.0,0.0,0.0,0.0,0.0,0.0,-0.35437499999999994,0.5859,3.5201249999999997,-0.06996611999999999,0.60477564,0.01245972
1779584991182607889,A_+,0.4170907313750831,0.0,-0.039426987802551904,-1.999519004254784,0.0,-0.013002702927357754,0.0,0.0,0.0,0.0,0.0,0.0,0.0,-0.35437499999999994,0.5859,3.5201249999999997,-0.06996611999999999,0.60477564,0.01245972
1779584991217666149,A_+,0.4184239188753054,0.0,-0.039426987802551904,-1.999519004254784,0.0,-0.013002702927357754,0.0,0.0,0.0,0.0,0.0,0.0,0.0,-0.36382499999999995,0.6000749999999999,3.501225,-0.0622986,0.60477564,0.00766752
1779584991217666149,A_+,0.4198627297500934,0.0,-0.039426987802551904,-1.999519004254784,0.0,-0.013002702927357754,0.0,0.0,0.0,0.0,0.0,0.0,0.0,-0.36382499999999995,0.6000749999999999,3.501225,-0.0622986,0.60477564,0.00766752
1779584991217666149,A_+,0.4212108292499579,0.0,-0.039426987802551904,-1.999519004254784,0.0,-0.013002702927357754,0.0,0.0,0.0,0.0,0.0,0.0,0.0,-0.36382499999999995,0.6000749999999999,3.501225,-0.0622986,0.60477564,0.00766752
1779584991237600088,A_+,0.42255415274985353,0.0,-0.039426987802551904,-1.999519004254784,0.0,-0.013002702927357754,0.0,0.0,0.0,0.0,0.0,0.0,0.0,-0.37327499999999997,0.647325,3.5201249999999997,-0.06038172,0.59806656,0.00191688
1779584991237600088,A_+,0.4240222473749782,0.0,-0.039426987802551904,-1.999519004254784,0.0,-0.013002702927357754,0.0,0.0,0.0,0.0,0.0,0.0,0.0,-0.37327499999999997,0.647325,3.5201249999999997,-0.06038172,0.59806656,0.00191688
1779584991237600088,A_+,0.4253714027499882,0.0,-0.039426987802551904,-1.999519004254784,0.0,-0.013002702927357754,0.0,0.0,0.0,0.0,0.0,0.0,0.0,-0.37327499999999997,0.647325,3.5201249999999997,-0.06038172,0.59806656,0.00191688
1779584991272627592,A_+,0.4267224142499799,0.0,-0.039426987802551904,-1.999519004254784,0.0,-0.013002702927357754,0.0,0.0,0.0,0.0,0.0,0.0,0.0,-0.35437499999999994,0.5953499999999999,3.5342999999999996,-0.05750639999999999,0.60669252,0.00383376
1779584991272627592,A_+,0.42814518124987444,0.0,-0.039426987802551904,-1.999519004254784,0.0,-0.013002702927357754,0.0,0.0,0.0,0.0,0.0,0.0,0.0,-0.35437499999999994,0.5953499999999999,3.5342999999999996,-0.05750639999999999,0.60669252,0.00383376
1779584991272627592,A_+,0.4295029126251393,0.0,-0.039426987802551904,-1.999519004254784,0.0,-0.013002702927357754,0.0,0.0,0.0,0.0,0.0,0.0,0.0,-0.35437499999999994,0.5953499999999999,3.5342999999999996,-0.05750639999999999,0.60669252,0.00383376
1779584991323351383,A_+,0.43082726025022566,0.0,-0.039426987802551904,-1.999519004254784,0.0,-0.013002702927357754,0.0,0.0,0.0,0.0,0.0,0.0,0.0,-0.378,0.6000749999999999,3.4728749999999997,-0.05750639999999999,0.59710812,0.01245972
1779584991323351383,A_+,0.43227344300021286,0.0,-0.039426987802551904,-1.999519004254784,0.0,-0.013002702927357754,0.0,0.0,0.0,0.0,0.0,0.0,0.0,-0.378,0.6000749999999999,3.4728749999999997,-0.05750639999999999,0.59710812,0.01245972
1779584991323351383,A_+,0.43362198249997164,0.0,-0.039426987802551904,-1.999519004254784,0.0,-0.013002702927357754,0.0,0.0,0.0,0.0,0.0,0.0,0.0,-0.378,0.6000749999999999,3.4728749999999997,-0.05750639999999999,0.59710812,0.01245972
1779584991343864440,A_+,0.43497450587528874,0.0,-0.039426987802551904,-1.999519004254784,0.0,-0.013002702927357754,0.0,0.0,0.0,0.0,0.0,0.0,0.0,-0.37327499999999997,0.609525,3.501225,-0.06421548,0.60477564,0.00575064
1779584991343864440,A_+,0.43642488462501206,0.0,-0.039426987802551904,-1.999519004254784,0.0,-0.013002702927357754,0.0,0.0,0.0,0.0,0.0,0.0,0.0,-0.37327499999999997,0.609525,3.501225,-0.06421548,0.60477564,0.00575064
1779584991343864440,A_+,0.4377601962501103,0.0,-0.039426987802551904,-1.999519004254784,0.0,-0.013002702927357754,0.0,0.0,0.0,0.0,0.0,0.0,0.0,-0.37327499999999997,0.609525,3.501225,-0.06421548,0.60477564,0.00575064
1779584991377936601,A_+,0.4390796238749317,0.0,-0.039426987802551904,-1.999519004254784,0.0,-0.013002702927357754,0.0,0.0,0.0,0.0,0.0,0.0,0.0,-0.37327499999999997,0.609525,3.50595,-0.06517392,0.60669252,0.00575064
1779584991377936601,A_+,0.44050269075023607,0.0,-0.039426987802551904,-1.999519004254784,0.0,-0.013002702927357754,0.0,0.0,0.0,0.0,0.0,0.0,0.0,-0.37327499999999997,0.609525,3.50595,-0.06517392,0.60669252,0.00575064
1779584991377936601,A_+,0.44185195425006896,0.0,-0.039426987802551904,-1.999519004254784,0.0,-0.013002702927357754,0.0,0.0,0.0,0.0,0.0,0.0,0.0,-0.37327499999999997,0.609525,3.50595,-0.06517392,0.60669252,0.00575064
1779584991412643671,A_+,0.4432092696251857,0.0,-0.039426987802551904,-1.999519004254784,0.0,-0.013002702927357754,0.0,0.0,0.0,0.0,0.0,0.0,0.0,-0.34964999999999996,0.6662250000000001,3.5201249999999997,-0.06421548,0.6038171999999999,0.01629348
1779584991412643671,A_+,0.4446532805000061,0.0,-0.039426987802551904,-1.999519004254784,0.0,-0.013002702927357754,0.0,0.0,0.0,0.0,0.0,0.0,0.0,-0.34964999999999996,0.6662250000000001,3.5201249999999997,-0.06421548,0.6038171999999999,0.01629348
1779584991412643671,A_+,0.4460284877500271,0.0,-0.039426987802551904,-1.999519004254784,0.0,-0.013002702927357754,0.0,0.0,0.0,0.0,0.0,0.0,0.0,-0.34964999999999996,0.6662250000000001,3.5201249999999997,-0.06421548,0.6038171999999999,0.01629348
1779584991447646379,A_+,0.4473615672500273,0.0,-0.039426987802551904,-1.999519004254784,0.0,-0.013002702927357754,0.0,0.0,0.0,0.0,0.0,0.0,0.0,-0.36382499999999995,0.6426,3.5201249999999997,-0.05750639999999999,0.61052628,0.00095844
1779584991447646379,A_+,0.4488177100001849,0.0,-0.039426987802551904,-1.999519004254784,0.0,-0.013002702927357754,0.0,0.0,0.0,0.0,0.0,0.0,0.0,-0.36382499999999995,0.6426,3.5201249999999997,-0.05750639999999999,0.61052628,0.00095844
1779584991447646379,A_+,0.45014736962502866,0.0,-0.039426987802551904,-1.999519004254784,0.0,-0.013002702927357754,0.0,0.0,0.0,0.0,0.0,0.0,0.0,-0.36382499999999995,0.6426,3.5201249999999997,-0.05750639999999999,0.61052628,0.00095844
1779584991477640390,A_+,0.4514684052501252,0.0,-0.039426987802551904,-1.999519004254784,0.0,-0.013002702927357754,0.0,0.0,0.0,0.0,0.0,0.0,0.0,-0.36382499999999995,0.6426,3.5153999999999996,-0.06517392,0.6019003199999999,0.0
1779584991477640390,A_+,0.4528731362502185,0.0,-0.039426987802551904,-1.999519004254784,0.0,-0.013002702927357754,0.0,0.0,0.0,0.0,0.0,0.0,0.0,-0.36382499999999995,0.6426,3.5153999999999996,-0.06517392,0.6019003199999999,0.0
1779584991477640390,A_+,0.45420117187495634,0.0,-0.039426987802551904,-1.999519004254784,0.0,-0.013002702927357754,0.0,0.0,0.0,0.0,0.0,0.0,0.0,-0.36382499999999995,0.6426,3.5153999999999996,-0.06517392,0.6019003199999999,0.0
1779584991508610010,A_+,0.45552341150005304,0.0,-0.039426987802551904,-1.999519004254784,0.0,-0.013002702927357754,0.0,0.0,0.0,0.0,0.0,0.0,0.0,-0.36382499999999995,0.5859,3.5153999999999996,-0.052714199999999996,0.6086094,0.00287532
1779584991508610010,A_+,0.4569443105001483,0.0,-0.039426987802551904,-1.999519004254784,0.0,-0.013002702927357754,0.0,0.0,0.0,0.0,0.0,0.0,0.0,-0.36382499999999995,0.5859,3.5153999999999996,-0.052714199999999996,0.6086094,0.00287532
1779584991508610010,A_+,0.45828428999993776,0.0,-0.039426987802551904,-1.999519004254784,0.0,-0.013002702927357754,0.0,0.0,0.0,0.0,0.0,0.0,0.0,-0.36382499999999995,0.5859,3.5153999999999996,-0.052714199999999996,0.6086094,0.00287532
1779584991528264760,A_+,0.45960939750011676,0.0,-0.039426987802551904,-1.999519004254784,0.0,-0.013002702927357754,0.0,0.0,0.0,0.0,0.0,0.0,0.0,-0.36855,0.567,3.5153999999999996,-0.06421548,0.60765096,0.0
1779584991528264760,A_+,0.46102939650018016,0.0,-0.039426987802551904,-1.999519004254784,0.0,-0.013002702927357754,0.0,0.0,0.0,0.0,0.0,0.0,0.0,-0.36855,0.567,3.5153999999999996,-0.06421548,0.60765096,0.0
1779584991528264760,A_+,0.4623663000002125,0.0,-0.039426987802551904,-1.999519004254784,0.0,-0.013002702927357754,0.0,0.0,0.0,0.0,0.0,0.0,0.0,-0.36855,0.567,3.5153999999999996,-0.06421548,0.60765096,0.0
1779584991547731637,A_+,0.46368651162492824,0.0,-0.039426987802551904,-1.999519004254784,0.0,-0.013002702927357754,0.0,0.0,0.0,0.0,0.0,0.0,0.0,-0.3591,0.562275,3.501225,-0.06613236,0.60477564,0.00670908
1779584991547731637,A_+,0.4651128786249501,0.0,-0.039426987802551904,-1.999519004254784,0.0,-0.013002702927357754,0.0,0.0,0.0,0.0,0.0,0.0,0.0,-0.3591,0.562275,3.501225,-0.06613236,0.60477564,0.00670908
1779584991547731637,A_+,0.4664595141252903,0.0,-0.039426987802551904,-1.999519004254784,0.0,-0.013002702927357754,0.0,0.0,0.0,0.0,0.0,0.0,0.0,-0.3591,0.562275,3.501225,-0.06613236,0.60477564,0.00670908
1779584991557664394,A_+,0.46780376149990843,0.0,-0.039426987802551904,-1.999519004254784,0.0,-0.013002702927357754,0.0,0.0,0.0,0.0,0.0,0.0,0.0,-0.37327499999999997,0.6000749999999999,3.501225,-0.06804924000000001,0.60573408,0.00670908
1779584991557664394,A_+,0.46927023624994035,0.0,-0.039426987802551904,-1.999519004254784,0.0,-0.013002702927357754,0.0,0.0,0.0,0.0,0.0,0.0,0.0,-0.37327499999999997,0.6000749999999999,3.501225,-0.06804924000000001,0.60573408,0.00670908
1779584991557664394,A_+,0.47061430775011104,0.0,-0.039426987802551904,-1.999519004254784,0.0,-0.013002702927357754,0.0,0.0,0.0,0.0,0.0,0.0,0.0,-0.37327499999999997,0.6000749999999999,3.501225,-0.06804924000000001,0.60573408,0.00670908
1779584991638759613,A_+,0.47195330325030227,0.0,-0.039426987802551904,-1.999519004254784,0.0,-0.013002702927357754,0.0,0.0,0.0,0.0,0.0,0.0,0.0,-0.36382499999999995,0.590625,3.5106749999999995,-0.06038172,0.60573408,0.00766752
1779584991638759613,A_+,0.47342022987504606,0.0,-0.039426987802551904,-1.999519004254784,0.0,-0.013002702927357754,0.0,0.0,0.0,0.0,0.0,0.0,0.0,-0.36382499999999995,0.590625,3.5106749999999995,-0.06038172,0.60573408,0.00766752
1779584991638759613,A_+,0.4747725852498661,0.0,-0.039426987802551904,-1.999519004254784,0.0,-0.013002702927357754,0.0,0.0,0.0,0.0,0.0,0.0,0.0,-0.36382499999999995,0.590625,3.5106749999999995,-0.06038172,0.60573408,0.00766752
1779584991687673568,A_+,0.47611262074997285,0.0,-0.039426987802551904,-1.999519004254784,0.0,-0.013002702927357754,0.0,0.0,0.0,0.0,0.0,0.0,0.0,-0.36382499999999995,0.609525,3.5201249999999997,-0.05846484,0.6038171999999999,0.00095844
1779584991687673568,A_+,0.4775739794999936,0.0,-0.039426987802551904,-1.999519004254784,0.0,-0.013002702927357754,0.0,0.0,0.0,0.0,0.0,0.0,0.0,-0.36382499999999995,0.609525,3.5201249999999997,-0.05846484,0.6038171999999999,0.00095844
1779584991687673568,A_+,0.47892375099991114,0.0,-0.039426987802551904,-1.999519004254784,0.0,-0.013002702927357754,0.0,0.0,0.0,0.0,0.0,0.0,0.0,-0.36382499999999995,0.609525,3.5201249999999997,-0.05846484,0.6038171999999999,0.00095844
1779584991722689628,A_+,0.48025329849997433,0.0,-0.039426987802551904,-1.999519004254784,0.0,-0.013002702927357754,0.0,0.0,0.0,0.0,0.0,0.0,0.0,-0.378,0.567,3.5626499999999997,-0.06325704,0.6028587599999999,0.00383376
1779584991722689628,A_+,0.4816996693753026,0.0,-0.039426987802551904,-1.999519004254784,0.0,-0.013002702927357754,0.0,0.0,0.0,0.0,0.0,0.0,0.0,-0.378,0.567,3.5626499999999997,-0.06325704,0.6028587599999999,0.00383376
1779584991722689628,A_+,0.4830512407502283,0.0,-0.039426987802551904,-1.999519004254784,0.0,-0.013002702927357754,0.0,0.0,0.0,0.0,0.0,0.0,0.0,-0.378,0.567,3.5626499999999997,-0.06325704,0.6028587599999999,0.00383376
1779584991749114513,A_+,0.48440258024993454,0.0,-0.039426987802551904,-1.999519004254784,0.0,-0.013002702927357754,0.0,0.0,0.0,0.0,0.0,0.0,0.0,-0.378,0.581175,3.5390249999999996,-0.06613236,0.60669252,-0.00095844
1779584991749114513,A_+,0.4858588229999441,0.0,-0.039426987802551904,-1.999519004254784,0.0,-0.013002702927357754,0.0,0.0,0.0,0.0,0.0,0.0,0.0,-0.378,0.581175,3.5390249999999996,-0.06613236,0.60669252,-0.00095844
1779584991749114513,A_+,0.48720259837500635,0.0,-0.039426987802551904,-1.999519004254784,0.0,-0.013002702927357754,0.0,0.0,0.0,0.0,0.0,0.0,0.0,-0.378,0.581175,3.5390249999999996,-0.06613236,0.60669252,-0.00095844
1779584991782685279,A_+,0.48852915399993435,0.0,-0.039426987802551904,-1.999519004254784,0.0,-0.013002702927357754,0.0,0.0,0.0,0.0,0.0,0.0,0.0,-0.3449249999999999,0.581175,3.5201249999999997,-0.06134016,0.60477564,0.0095844
1779584991782685279,A_+,0.4899856567499228,0.0,-0.039426987802551904,-1.999519004254784,0.0,-0.013002702927357754,0.0,0.0,0.0,0.0,0.0,0.0,0.0,-0.3449249999999999,0.581175,3.5201249999999997,-0.06134016,0.60477564,0.0095844
1779584991782685279,A_+,0.49135513212513615,0.0,-0.039426987802551904,-1.999519004254784,0.0,-0.013002702927357754,0.0,0.0,0.0,0.0,0.0,0.0,0.0,-0.3449249999999999,0.581175,3.5201249999999997,-0.06134016,0.60477564,0.0095844
1779584991812772750,A_+,0.4929049542502071,0.0,-0.039426987802551904,-1.999519004254784,0.0,-0.013002702927357754,0.0,0.0,0.0,0.0,0.0,0.0,0.0,-0.378,0.590625,3.50595,-0.0670908,0.60669252,0.00575064
1779584991812772750,A_+,0.4943145572501635,0.0,-0.039426987802551904,-1.999519004254784,0.0,-0.013002702927357754,0.0,0.0,0.0,0.0,0.0,0.0,0.0,-0.378,0.590625,3.50595,-0.0670908,0.60669252,0.00575064
1779584991812772750,A_+,0.49566401275023964,0.0,-0.039426987802551904,-1.999519004254784,0.0,-0.013002702927357754,0.0,0.0,0.0,0.0,0.0,0.0,0.0,-0.378,0.590625,3.50595,-0.0670908,0.60669252,0.00575064
1779584991847836494,A_+,0.4969877643752625,0.0,-0.039426987802551904,-1.999519004254784,0.0,-0.013002702927357754,0.0,0.0,0.0,0.0,0.0,0.0,0.0,-0.35437499999999994,0.61425,3.5342999999999996,-0.06900768,0.60573408,0.014376599999999998
1779584991847836494,A_+,0.49841633125015505,0.0,-0.039426987802551904,-1.999519004254784,0.0,-0.013002702927357754,0.0,0.0,0.0,0.0,0.0,0.0,0.0,-0.35437499999999994,0.61425,3.5342999999999996,-0.06900768,0.60573408,0.014376599999999998
1779584991847836494,A_+,0.49976474674986093,0.0,-0.039426987802551904,-1.999519004254784,0.0,-0.013002702927357754,0.0,0.0,0.0,0.0,0.0,0.0,0.0,-0.35437499999999994,0.61425,3.5342999999999996,-0.06900768,0.60573408,0.014376599999999998
1779584991887715816,A_+,0.5010882622500503,0.0,-0.039426987802551904,-1.999519004254784,0.0,-0.013002702927357754,0.0,0.0,0.0,0.0,0.0,0.0,0.0,-0.36855,0.6048,3.4964999999999997,-0.05750639999999999,0.5990249999999999,0.0191688
1779584991887715816,A_+,0.5025264211249123,0.0,-0.039426987802551904,-1.999519004254784,0.0,-0.013002702927357754,0.0,0.0,0.0,0.0,0.0,0.0,0.0,-0.36855,0.6048,3.4964999999999997,-0.05750639999999999,0.5990249999999999,0.0191688
1779584991887715816,A_+,0.5038582647503063,0.0,-0.039426987802551904,-1.999519004254784,0.0,-0.013002702927357754,0.0,0.0,0.0,0.0,0.0,0.0,0.0,-0.36855,0.6048,3.4964999999999997,-0.05750639999999999,0.5990249999999999,0.0191688
1779584991912710666,A_+,0.505172152375053,0.0,-0.039426987802551904,-1.999519004254784,0.0,-0.013002702927357754,0.0,0.0,0.0,0.0,0.0,0.0,0.0,-0.36382499999999995,0.6000749999999999,3.4870499999999995,-0.0766752,0.60477564,0.00575064
1779584991912710666,A_+,0.5065808995000225,0.0,-0.039426987802551904,-1.999519004254784,0.0,-0.013002702927357754,0.0,0.0,0.0,0.0,0.0,0.0,0.0,-0.36382499999999995,0.6000749999999999,3.4870499999999995,-0.0766752,0.60477564,0.00575064
1779584991912710666,A_+,0.5079128709999168,0.0,-0.039426987802551904,-1.999519004254784,0.0,-0.013002702927357754,0.0,0.0,0.0,0.0,0.0,0.0,0.0,-0.36382499999999995,0.6000749999999999,3.4870499999999995,-0.0766752,0.60477564,0.00575064
1779584991949101209,A_+,0.5092327626252882,0.0,-0.039426987802551904,-1.999519004254784,0.0,-0.013002702927357754,0.0,0.0,0.0,0.0,0.0,0.0,0.0,-0.35437499999999994,0.6048,3.5201249999999997,-0.05654796,0.60765096,0.01054284
1779584991949101209,A_+,0.5106328937499711,0.0,-0.039426987802551904,-1.999519004254784,0.0,-0.013002702927357754,0.0,0.0,0.0,0.0,0.0,0.0,0.0,-0.35437499999999994,0.6048,3.5201249999999997,-0.05654796,0.60765096,0.01054284
1779584991949101209,A_+,0.5119845731251189,0.0,-0.039426987802551904,-1.999519004254784,0.0,-0.013002702927357754,0.0,0.0,0.0,0.0,0.0,0.0,0.0,-0.35437499999999994,0.6048,3.5201249999999997,-0.05654796,0.60765096,0.01054284
1779584991972717285,A_+,0.513313340750301,0.0,-0.039426987802551904,-1.999519004254784,0.0,-0.013002702927357754,0.0,0.0,0.0,0.0,0.0,0.0,0.0,-0.3591,0.6000749999999999,3.5437499999999997,-0.06038172,0.60765096,0.00766752
1779584991972717285,A_+,0.514772115499909,0.0,-0.039426987802551904,-1.999519004254784,0.0,-0.013002702927357754,0.0,0.0,0.0,0.0,0.0,0.0,0.0,-0.3591,0.6000749999999999,3.5437499999999997,-0.06038172,0.60765096,0.00766752
1779584991972717285,A_+,0.5161234588749721,0.0,-0.039426987802551904,-1.999519004254784,0.0,-0.013002702927357754,0.0,0.0,0.0,0.0,0.0,0.0,0.0,-0.3591,0.6000749999999999,3.5437499999999997,-0.06038172,0.60765096,0.00766752
1779584992003881692,A_+,0.5174634743752904,0.0,-0.039426987802551904,-1.999519004254784,0.0,-0.013002702927357754,0.0,0.0,0.0,0.0,0.0,0.0,0.0,-0.36382499999999995,0.581175,3.4917749999999996,-0.05654796,0.60573408,0.00862596
1779584992003881692,A_+,0.5188849693749944,0.0,-0.039426987802551904,-1.999519004254784,0.0,-0.013002702927357754,0.0,0.0,0.0,0.0,0.0,0.0,0.0,-0.36382499999999995,0.581175,3.4917749999999996,-0.05654796,0.60573408,0.00862596
1779584992003881692,A_+,0.5203268202499203,0.0,-0.039426987802551904,-1.999519004254784,0.0,-0.013002702927357754,0.0,0.0,0.0,0.0,0.0,0.0,0.0,-0.36382499999999995,0.581175,3.4917749999999996,-0.05654796,0.60573408,0.00862596
1779584992032744884,A_+,0.521674107625131,0.0,-0.039426987802551904,-1.999519004254784,0.0,-0.013002702927357754,0.0,0.0,0.0,0.0,0.0,0.0,0.0,-0.36855,0.567,3.4870499999999995,-0.06517392,0.60669252,0.0047922
1779584992032744884,A_+,0.5230764227499094,0.0,-0.039426987802551904,-1.999519004254784,0.0,-0.013002702927357754,0.0,0.0,0.0,0.0,0.0,0.0,0.0,-0.36855,0.567,3.4870499999999995,-0.06517392,0.60669252,0.0047922
1779584992032744884,A_+,0.5244158862501536,0.0,-0.039426987802551904,-1.999519004254784,0.0,-0.013002702927357754,0.0,0.0,0.0,0.0,0.0,0.0,0.0,-0.36855,0.567,3.4870499999999995,-0.06517392,0.60669252,0.0047922
1779584992077736854,A_+,0.5257374458751656,0.0,-0.039426987802551904,-1.999519004254784,0.0,-0.013002702927357754,0.0,0.0,0.0,0.0,0.0,0.0,0.0,-0.36382499999999995,0.6000749999999999,3.4776,-0.05750639999999999,0.60573408,0.00191688
1779584992077736854,A_+,0.5271659007498783,0.0,-0.039426987802551904,-1.999519004254784,0.0,-0.013002702927357754,0.0,0.0,0.0,0.0,0.0,0.0,0.0,-0.36382499999999995,0.6000749999999999,3.4776,-0.05750639999999999,0.60573408,0.00191688
1779584992077736854,A_+,0.5285110122499646,0.0,-0.039426987802551904,-1.999519004254784,0.0,-0.013002702927357754,0.0,0.0,0.0,0.0,0.0,0.0,0.0,-0.36382499999999995,0.6000749999999999,3.4776,-0.05750639999999999,0.60573408,0.00191688
1779584992117751121,A_+,0.5298239198750707,0.0,-0.039426987802551904,-1.999519004254784,0.0,-0.013002702927357754,0.0,0.0,0.0,0.0,0.0,0.0,0.0,-0.36382499999999995,0.6189749999999999,3.482325,-0.06996611999999999,0.60477564,-0.00095844
1779584992117751121,A_+,0.5312298670000928,0.0,-0.039426987802551904,-1.999519004254784,0.0,-0.013002702927357754,0.0,0.0,0.0,0.0,0.0,0.0,0.0,-0.36382499999999995,0.6189749999999999,3.482325,-0.06996611999999999,0.60477564,-0.00095844
1779584992117751121,A_+,0.5325706144999458,0.0,-0.039426987802551904,-1.999519004254784,0.0,-0.013002702927357754,0.0,0.0,0.0,0.0,0.0,0.0,0.0,-0.36382499999999995,0.6189749999999999,3.482325,-0.06996611999999999,0.60477564,-0.00095844
1779584992147995471,A_+,0.5338938701252118,0.0,-0.039426987802551904,-1.999519004254784,0.0,-0.013002702927357754,0.0,0.0,0.0,0.0,0.0,0.0,0.0,-0.36855,0.590625,3.4870499999999995,-0.06325704,0.60477564,0.00383376
1779584992147995471,A_+,0.53530871712519,0.0,-0.039426987802551904,-1.999519004254784,0.0,-0.013002702927357754,0.0,0.0,0.0,0.0,0.0,0.0,0.0,-0.36855,0.590625,3.4870499999999995,-0.06325704,0.60477564,0.00383376
1779584992147995471,A_+,0.5366296367501491,0.0,-0.039426987802551904,-1.999519004254784,0.0,-0.013002702927357754,0.0,0.0,0.0,0.0,0.0,0.0,0.0,-0.36855,0.590625,3.4870499999999995,-0.06325704,0.60477564,0.00383376
1779584992178736448,A_+,0.5379514123751505,0.0,-0.039426987802551904,-1.999519004254784,0.0,-0.013002702927357754,0.0,0.0,0.0,0.0,0.0,0.0,0.0,-0.36855,0.6237,3.501225,-0.05846484,0.60669252,0.00766752
1779584992178736448,A_+,0.5393721512500633,0.0,-0.039426987802551904,-1.999519004254784,0.0,-0.013002702927357754,0.0,0.0,0.0,0.0,0.0,0.0,0.0,-0.36855,0.6237,3.501225,-0.05846484,0.60669252,0.00766752
1779584992178736448,A_+,0.5407150467499378,0.0,-0.039426987802551904,-1.999519004254784,0.0,-0.013002702927357754,0.0,0.0,0.0,0.0,0.0,0.0,0.0,-0.36855,0.6237,3.501225,-0.05846484,0.60669252,0.00766752
1779584992197755336,A_+,0.5420471823749722,0.0,-0.039426987802551904,-1.999519004254784,0.0,-0.013002702927357754,0.0,0.0,0.0,0.0,0.0,0.0,0.0,-0.378,0.5953499999999999,3.5153999999999996,-0.0622986,0.5999834399999999,-0.00287532
1779584992197755336,A_+,0.5434744892500021,0.0,-0.039426987802551904,-1.999519004254784,0.0,-0.013002702927357754,0.0,0.0,0.0,0.0,0.0,0.0,0.0,-0.378,0.5953499999999999,3.5153999999999996,-0.0622986,0.5999834399999999,-0.00287532
1779584992197755336,A_+,0.5448702843750652,0.0,-0.039426987802551904,-1.999519004254784,0.0,-0.013002702927357754,0.0,0.0,0.0,0.0,0.0,0.0,0.0,-0.378,0.5953499999999999,3.5153999999999996,-0.0622986,0.5999834399999999,-0.00287532
1779584992207757472,A_+,0.5461955480000142,0.0,-0.039426987802551904,-1.999519004254784,0.0,-0.013002702927357754,0.0,0.0,0.0,0.0,0.0,0.0,0.0,-0.37327499999999997,0.567,3.5153999999999996,-0.05846484,0.6019003199999999,0.0095844
1779584992207757472,A_+,0.5476488427502773,0.0,-0.039426987802551904,-1.999519004254784,0.0,-0.013002702927357754,0.0,0.0,0.0,0.0,0.0,0.0,0.0,-0.37327499999999997,0.567,3.5153999999999996,-0.05846484,0.6019003199999999,0.0095844
1779584992207757472,A_+,0.5490027301252667,0.0,-0.039426987802551904,-1.999519004254784,0.0,-0.013002702927357754,0.0,0.0,0.0,0.0,0.0,0.0,0.0,-0.37327499999999997,0.567,3.5153999999999996,-0.05846484,0.6019003199999999,0.0095844
1779584992248424768,A_+,0.5503329137500259,0.0,-0.039426987802551904,-1.999519004254784,0.0,-0.013002702927357754,0.0,0.0,0.0,0.0,0.0,0.0,0.0,-0.37327499999999997,0.6000749999999999,3.50595,-0.05654796,0.6038171999999999,0.00575064
1779584992248424768,A_+,0.5517471807502261,0.0,-0.039426987802551904,-1.999519004254784,0.0,-0.013002702927357754,0.0,0.0,0.0,0.0,0.0,0.0,0.0,-0.37327499999999997,0.6000749999999999,3.50595,-0.05654796,0.6038171999999999,0.00575064
1779584992248424768,A_+,0.5530988481250461,0.0,-0.039426987802551904,-1.999519004254784,0.0,-0.013002702927357754,0.0,0.0,0.0,0.0,0.0,0.0,0.0,-0.37327499999999997,0.6000749999999999,3.50595,-0.05654796,0.6038171999999999,0.00575064
1779584992277774810,A_+,0.5544182077501318,0.0,-0.039426987802551904,-1.999519004254784,0.0,-0.013002702927357754,0.0,0.0,0.0,0.0,0.0,0.0,0.0,-0.38744999999999996,0.562275,3.5342999999999996,-0.059423279999999995,0.60573408,0.0
1779584992277774810,A_+,0.5558569226250256,0.0,-0.039426987802551904,-1.999519004254784,0.0,-0.013002702927357754,0.0,0.0,0.0,0.0,0.0,0.0,0.0,-0.38744999999999996,0.562275,3.5342999999999996,-0.059423279999999995,0.60573408,0.0
1779584992277774810,A_+,0.5572131620001528,0.0,-0.039426987802551904,-1.999519004254784,0.0,-0.013002702927357754,0.0,0.0,0.0,0.0,0.0,0.0,0.0,-0.38744999999999996,0.562275,3.5342999999999996,-0.059423279999999995,0.60573408,0.0
1779584992323059320,A_+,0.5585530375001326,0.0,-0.039426987802551904,-1.999519004254784,0.0,-0.013002702927357754,0.0,0.0,0.0,0.0,0.0,0.0,0.0,-0.36382499999999995,0.590625,3.482325,-0.0622986,0.59806656,0.00287532
1779584992323059320,A_+,0.5600603120001324,0.0,-0.039426987802551904,-1.999519004254784,0.0,-0.013002702927357754,0.0,0.0,0.0,0.0,0.0,0.0,0.0,-0.36382499999999995,0.590625,3.482325,-0.0622986,0.59806656,0.00287532
1779584992323059320,A_+,0.5614153833748787,0.0,-0.039426987802551904,-1.999519004254784,0.0,-0.013002702927357754,0.0,0.0,0.0,0.0,0.0,0.0,0.0,-0.36382499999999995,0.590625,3.482325,-0.0622986,0.59806656,0.00287532
1779584992379210233,A_+,0.5627484028750587,0.0,-0.039426987802551904,-1.999519004254784,0.0,-0.013002702927357754,0.0,0.0,0.0,0.0,0.0,0.0,0.0,-0.35437499999999994,0.552825,3.5437499999999997,-0.06613236,0.60669252,0.01629348
1779584992379210233,A_+,0.564205669625153,0.0,-0.039426987802551904,-1.999519004254784,0.0,-0.013002702927357754,0.0,0.0,0.0,0.0,0.0,0.0,0.0,-0.35437499999999994,0.552825,3.5437499999999997,-0.06613236,0.60669252,0.01629348
1779584992379210233,A_+,0.5655599970000367,0.0,-0.039426987802551904,-1.999519004254784,0.0,-0.013002702927357754,0.0,0.0,0.0,0.0,0.0,0.0,0.0,-0.35437499999999994,0.552825,3.5437499999999997,-0.06613236,0.60669252,0.01629348
1779584992402783870,A_+,0.5668981885000903,0.0,-0.039426987802551904,-1.999519004254784,0.0,-0.013002702927357754,0.0,0.0,0.0,0.0,0.0,0.0,0.0,-0.36382499999999995,0.609525,3.5153999999999996,-0.06325704,0.6028587599999999,0.01245972
1779584992402783870,A_+,0.5683660552499532,0.0,-0.039426987802551904,-1.999519004254784,0.0,-0.013002702927357754,0.0,0.0,0.0,0.0,0.0,0.0,0.0,-0.36382499999999995,0.609525,3.5153999999999996,-0.06325704,0.6028587599999999,0.01245972
1779584992402783870,A_+,0.5697314865001317,0.0,-0.039426987802551904,-1.999519004254784,0.0,-0.013002702927357754,0.0,0.0,0.0,0.0,0.0,0.0,0.0,-0.36382499999999995,0.609525,3.5153999999999996,-0.06325704,0.6028587599999999,0.01245972
1779584992413822889,A_+,0.5710641781251979,0.0,-0.039426987802551904,-1.999519004254784,0.0,-0.013002702927357754,0.0,0.0,0.0,0.0,0.0,0.0,0.0,-0.382725,0.567,3.4964999999999997,-0.06421548,0.6028587599999999,0.00383376
1779584992413822889,A_+,0.5725199408752815,0.0,-0.039426987802551904,-1.999519004254784,0.0,-0.013002702927357754,0.0,0.0,0.0,0.0,0.0,0.0,0.0,-0.382725,0.567,3.4964999999999997,-0.06421548,0.6028587599999999,0.00383376
1779584992413822889,A_+,0.5738719562500592,0.0,-0.039426987802551904,-1.999519004254784,0.0,-0.013002702927357754,0.0,0.0,0.0,0.0,0.0,0.0,0.0,-0.382725,0.567,3.4964999999999997,-0.06421548,0.6028587599999999,0.00383376
1779584992422806262,A_+,0.5752060277500277,0.0,-0.039426987802551904,-1.999519004254784,0.0,-0.013002702927357754,0.0,0.0,0.0,0.0,0.0,0.0,0.0,-0.36855,0.590625,3.4964999999999997,-0.06325704,0.6028587599999999,0.01245972
1779584992422806262,A_+,0.5766293107499223,0.0,-0.039426987802551904,-1.999519004254784,0.0,-0.013002702927357754,0.0,0.0,0.0,0.0,0.0,0.0,0.0,-0.36855,0.590625,3.4964999999999997,-0.06325704,0.6028587599999999,0.01245972
1779584992422806262,A_+,0.5779993099999956,0.0,-0.039426987802551904,-1.999519004254784,0.0,-0.013002702927357754,0.0,0.0,0.0,0.0,0.0,0.0,0.0,-0.36855,0.590625,3.4964999999999997,-0.06325704,0.6028587599999999,0.01245972
1779584992437855482,A_+,0.5793308856250405,0.0,-0.039426987802551904,-1.999519004254784,0.0,-0.013002702927357754,0.0,0.0,0.0,0.0,0.0,0.0,0.0,-0.36382499999999995,0.6189749999999999,3.4870499999999995,-0.0670908,0.5990249999999999,0.0047922
1779584992437855482,A_+,0.580782772375187,0.0,-0.039426987802551904,-1.999519004254784,0.0,-0.013002702927357754,0.0,0.0,0.0,0.0,0.0,0.0,0.0,-0.36382499999999995,0.6189749999999999,3.4870499999999995,-0.0670908,0.5990249999999999,0.0047922
1779584992437855482,A_+,0.5821377597499122,0.0,-0.039426987802551904,-1.999519004254784,0.0,-0.013002702927357754,0.0,0.0,0.0,0.0,0.0,0.0,0.0,-0.36382499999999995,0.6189749999999999,3.4870499999999995,-0.0670908,0.5990249999999999,0.0047922
1779584992472815752,A_+,0.5834746432501561,0.0,-0.039426987802551904,-1.999519004254784,0.0,-0.013002702927357754,0.0,0.0,0.0,0.0,0.0,0.0,0.0,-0.36382499999999995,0.6000749999999999,3.4870499999999995,-0.06421548,0.60573408,0.0047922
1779584992472815752,A_+,0.5849325459998909,0.0,-0.039426987802551904,-1.999519004254784,0.0,-0.013002702927357754,0.0,0.0,0.0,0.0,0.0,0.0,0.0,-0.36382499999999995,0.6000749999999999,3.4870499999999995,-0.06421548,0.60573408,0.0047922
1779584992472815752,A_+,0.5862846175000413,0.0,-0.039426987802551904,-1.999519004254784,0.0,-0.013002702927357754,0.0,0.0,0.0,0.0,0.0,0.0,0.0,-0.36382499999999995,0.6000749999999999,3.4870499999999995,-0.06421548,0.60573408,0.0047922
1779584992482803106,A_+,0.5876254810000319,0.0,-0.039426987802551904,-1.999519004254784,0.0,-0.013002702927357754,0.0,0.0,0.0,0.0,0.0,0.0,0.0,-0.38744999999999996,0.6048,3.5201249999999997,-0.06804924000000001,0.60573408,0.00766752
1779584992482803106,A_+,0.5890869596250923,0.0,-0.039426987802551904,-1.999519004254784,0.0,-0.013002702927357754,0.0,0.0,0.0,0.0,0.0,0.0,0.0,-0.38744999999999996,0.6048,3.5201249999999997,-0.06804924000000001,0.60573408,0.00766752
1779584992482803106,A_+,0.5904528670002946,0.0,-0.039426987802551904,-1.999519004254784,0.0,-0.013002702927357754,0.0,0.0,0.0,0.0,0.0,0.0,0.0,-0.38744999999999996,0.6048,3.5201249999999997,-0.06804924000000001,0.60573408,0.00766752
1779584992513640880,A_+,0.5917899025002953,0.0,-0.039426987802551904,-1.999519004254784,0.0,-0.013002702927357754,0.0,0.0,0.0,0.0,0.0,0.0,0.0,-0.36855,0.6000749999999999,3.5342999999999996,-0.06038172,0.6009418799999999,-0.00191688
1779584992513640880,A_+,0.5932568612502109,0.0,-0.039426987802551904,-1.999519004254784,0.0,-0.013002702927357754,0.0,0.0,0.0,0.0,0.0,0.0,0.0,-0.36855,0.6000749999999999,3.5342999999999996,-0.06038172,0.6009418799999999,-0.00191688
1779584992513640880,A_+,0.5946298564999779,0.0,-0.039426987802551904,-1.999519004254784,0.0,-0.013002702927357754,0.0,0.0,0.0,0.0,0.0,0.0,0.0,-0.36855,0.6000749999999999,3.5342999999999996,-0.06038172,0.6009418799999999,-0.00191688
1779584992522802591,A_+,0.5959640040000522,0.0,-0.039426987802551904,-1.999519004254784,0.0,-0.013002702927357754,0.0,0.0,0.0,0.0,0.0,0.0,0.0,-0.36855,0.5717249999999999,3.4870499999999995,-0.06325704,0.60477564,0.00191688
1779584992522802591,A_+,0.5974176387499028,0.0,-0.039426987802551904,-1.999519004254784,0.0,-0.013002702927357754,0.0,0.0,0.0,0.0,0.0,0.0,0.0,-0.36855,0.5717249999999999,3.4870499999999995,-0.06325704,0.60477564,0.00191688
1779584992522802591,A_+,0.598773766125305,0.0,-0.039426987802551904,-1.999519004254784,0.0,-0.013002702927357754,0.0,0.0,0.0,0.0,0.0,0.0,0.0,-0.36855,0.5717249999999999,3.4870499999999995,-0.06325704,0.60477564,0.00191688
1779584992543320417,A_+,0.6001131736252319,0.0,-0.039426987802551904,-1.999519004254784,0.0,-0.013002702927357754,0.0,0.0,0.0,0.0,0.0,0.0,0.0,-0.36382499999999995,0.5859,3.5106749999999995,-0.06038172,0.5999834399999999,0.00383376
1779584992543320417,A_+,0.6015310246252739,0.0,-0.039426987802551904,-1.999519004254784,0.0,-0.013002702927357754,0.0,0.0,0.0,0.0,0.0,0.0,0.0,-0.36382499999999995,0.5859,3.5106749999999995,-0.06038172,0.5999834399999999,0.00383376
1779584992543320417,A_+,0.6028757281251274,0.0,-0.039426987802551904,-1.999519004254784,0.0,-0.013002702927357754,0.0,0.0,0.0,0.0,0.0,0.0,0.0,-0.36382499999999995,0.5859,3.5106749999999995,-0.06038172,0.5999834399999999,0.00383376
1779584992622819423,A_+,0.6042261275001692,0.0,-0.039426987802551904,-1.999519004254784,0.0,-0.013002702927357754,0.0,0.0,0.0,0.0,0.0,0.0,0.0,-0.37327499999999997,0.5717249999999999,3.4917749999999996,-0.059423279999999995,0.60477564,0.01341816
1779584992622819423,A_+,0.6056578305001494,0.0,-0.039426987802551904,-1.999519004254784,0.0,-0.013002702927357754,0.0,0.0,0.0,0.0,0.0,0.0,0.0,-0.37327499999999997,0.5717249999999999,3.4917749999999996,-0.059423279999999995,0.60477564,0.01341816
1779584992622819423,A_+,0.6070357577500545,0.0,-0.039426987802551904,-1.999519004254784,0.0,-0.013002702927357754,0.0,0.0,0.0,0.0,0.0,0.0,0.0,-0.37327499999999997,0.5717249999999999,3.4917749999999996,-0.059423279999999995,0.60477564,0.01341816
1779584992707911014,A_+,0.6083939851250761,0.0,-0.039426987802551904,-1.999519004254784,0.0,-0.013002702927357754,0.0,0.0,0.0,0.0,0.0,0.0,0.0,-0.36382499999999995,0.590625,3.52485,-0.059423279999999995,0.6019003199999999,0.0
1779584992707911014,A_+,0.6098636157498731,0.0,-0.039426987802551904,-1.999519004254784,0.0,-0.013002702927357754,0.0,0.0,0.0,0.0,0.0,0.0,0.0,-0.36382499999999995,0.590625,3.52485,-0.059423279999999995,0.6019003199999999,0.0
1779584992707911014,A_+,0.6112116792501183,0.0,-0.039426987802551904,-1.999519004254784,0.0,-0.013002702927357754,0.0,0.0,0.0,0.0,0.0,0.0,0.0,-0.36382499999999995,0.590625,3.52485,-0.059423279999999995,0.6019003199999999,0.0
