deepaktalwardt/rage-cage-arm-hackstorm/ros2/ws/sysid/runs/sysid_20260524_020548/raw/joint4_phaseA_pos.csv
t_ns,phase,tau_cmd,q1,q2,q3,q4,q5,q6,qd1,qd2,qd3,qd4,qd5,qd6,tau1,tau2,tau3,tau4,tau5,tau6
1779588355568482398,A_+,3.399986781005282e-08,2.3911010752322315,2.4825388747442143,-0.8254709230232381,0.0,-0.011222467090323538,0.0,-0.046,0.0,0.0,0.0,0.0,0.0,0.25042499999999995,-7.630875,-0.7323749999999999,-0.07763364,-0.02300256,0.00287532
1779588358998241901,A_+,0.0006668454375358124,2.3911010752322315,2.4825388747442143,-0.8254709230232381,0.0,-0.011222467090323538,0.0,0.0,0.0,0.0,0.0,0.0,0.0,0.0,-7.706474999999999,-0.7371,-0.07092456,-0.02204412,0.00287532
1779588358998241901,A_+,0.0013866116873941792,2.3911010752322315,2.4825388747442143,-0.8254709230232381,0.0,-0.011222467090323538,0.0,0.0,0.0,0.0,0.0,0.0,0.0,0.0,-7.706474999999999,-0.7371,-0.07092456,-0.02204412,0.00287532
1779588358998241901,A_+,0.0020626726250156935,2.3911010752322315,2.4825388747442143,-0.8254709230232381,0.0,-0.011222467090323538,0.0,0.0,0.0,0.0,0.0,0.0,0.0,0.0,-7.706474999999999,-0.7371,-0.07092456,-0.02204412,0.00287532
1779588359023271322,A_+,0.0027286281874694396,2.3911010752322315,2.4825388747442143,-0.8254709230232381,0.0,-0.011222467090323538,0.0,0.0,0.0,0.0,0.0,0.0,0.0,0.023625,-7.7159249999999995,-0.7276499999999999,-0.0910518,-0.02300256,0.00287532
1779588359023271322,A_+,0.003459177749846276,2.3911010752322315,2.4825388747442143,-0.8254709230232381,0.0,-0.011222467090323538,0.0,0.0,0.0,0.0,0.0,0.0,0.0,0.023625,-7.7159249999999995,-0.7276499999999999,-0.0910518,-0.02300256,0.00287532
1779588359023271322,A_+,0.004136082624881965,2.3911010752322315,2.4825388747442143,-0.8254709230232381,0.0,-0.011222467090323538,0.0,0.0,0.0,0.0,0.0,0.0,0.0,0.023625,-7.7159249999999995,-0.7276499999999999,-0.0910518,-0.02300256,0.00287532
1779588359043247699,A_+,0.004805260000011913,2.3911010752322315,2.4825388747442143,-0.8254709230232381,0.0,-0.011222467090323538,0.0,0.0,0.0,0.0,0.0,0.0,0.0,0.004725,-7.70175,-0.7182,-0.095844,-0.02779476,0.02108568
1779588359043247699,A_+,0.005541073250014961,2.3911010752322315,2.4825388747442143,-0.8254709230232381,0.0,-0.011222467090323538,0.0,0.0,0.0,0.0,0.0,0.0,0.0,0.004725,-7.70175,-0.7182,-0.095844,-0.02779476,0.02108568
1779588359043247699,A_+,0.006224273749921849,2.3911010752322315,2.4825388747442143,-0.8254709230232381,0.0,-0.011222467090323538,0.0,0.0,0.0,0.0,0.0,0.0,0.0,0.004725,-7.70175,-0.7182,-0.095844,-0.02779476,0.02108568
1779588359098226070,A_+,0.006893907062476501,2.3911010752322315,2.4825388747442143,-0.8254709230232381,0.0,-0.011222467090323538,0.0,0.0,0.0,0.0,0.0,0.0,0.0,0.070875,-7.659224999999999,-0.7276499999999999,-0.09680244,-0.02300256,-0.00191688
1779588359098226070,A_+,0.007613463312509339,2.3911010752322315,2.4825388747442143,-0.8254709230232381,0.0,-0.011222467090323538,0.0,0.0,0.0,0.0,0.0,0.0,0.0,0.070875,-7.659224999999999,-0.7276499999999999,-0.09680244,-0.02300256,-0.00191688
1779588359098226070,A_+,0.008287470374853001,2.3911010752322315,2.4825388747442143,-0.8254709230232381,0.0,-0.011222467090323538,0.0,0.0,0.0,0.0,0.0,0.0,0.0,0.070875,-7.659224999999999,-0.7276499999999999,-0.09680244,-0.02300256,-0.00191688
1779588359128243684,A_+,0.008947978250034794,2.3911010752322315,2.4825388747442143,-0.8254709230232381,0.0,-0.011222467090323538,0.0,0.0,0.0,0.0,0.0,0.0,0.0,0.033075,-7.697024999999999,-0.7182,-0.09296868,-0.02491944,0.01629348
1779588359128243684,A_+,0.009665716625022469,2.3911010752322315,2.4825388747442143,-0.8254709230232381,0.0,-0.011222467090323538,0.0,0.0,0.0,0.0,0.0,0.0,0.0,0.033075,-7.697024999999999,-0.7182,-0.09296868,-0.02491944,0.01629348
1779588359128243684,A_+,0.010343137437530459,2.3911010752322315,2.4825388747442143,-0.8254709230232381,0.0,-0.011222467090323538,0.0,0.0,0.0,0.0,0.0,0.0,0.0,0.033075,-7.697024999999999,-0.7182,-0.09296868,-0.02491944,0.01629348
1779588359158220529,A_+,0.0110125488124595,2.3911010752322315,2.4825388747442143,-0.8254709230232381,0.0,-0.011222467090323538,0.0,0.0,0.0,0.0,0.0,0.0,0.0,-0.042525,-7.697024999999999,-0.8410499999999999,-0.09488556,-0.02012724,0.00191688
1779588359158220529,A_+,0.0117453962500349,2.3911010752322315,2.4825388747442143,-0.8254709230232381,0.0,-0.011222467090323538,0.0,0.0,0.0,0.0,0.0,0.0,0.0,-0.042525,-7.697024999999999,-0.8410499999999999,-0.09488556,-0.02012724,0.00191688
1779588359158220529,A_+,0.01242606687492298,2.3911010752322315,2.4825388747442143,-0.8254709230232381,0.0,-0.011222467090323538,0.0,0.0,0.0,0.0,0.0,0.0,0.0,-0.042525,-7.697024999999999,-0.8410499999999999,-0.09488556,-0.02012724,0.00191688
1779588359194591760,A_+,0.013087808687487268,2.3911010752322315,2.4825388747442143,-0.8254709230232381,0.0,-0.011222467090323538,0.0,0.0,0.0,0.0,0.0,0.0,0.0,0.023625,-7.66395,-0.7276499999999999,-0.09201024,-0.02491944,0.00575064
1779588359194591760,A_+,0.013873932937485733,2.3911010752322315,2.4825388747442143,-0.8254709230232381,0.0,-0.011222467090323538,0.0,0.0,0.0,0.0,0.0,0.0,0.0,0.023625,-7.66395,-0.7276499999999999,-0.09201024,-0.02491944,0.00575064
1779588359194591760,A_+,0.014556557437344964,2.3911010752322315,2.4825388747442143,-0.8254709230232381,0.0,-0.011222467090323538,0.0,0.0,0.0,0.0,0.0,0.0,0.0,0.023625,-7.66395,-0.7276499999999999,-0.09201024,-0.02491944,0.00575064
1779588359228415727,A_+,0.015220713062490177,2.3911010752322315,2.4825388747442143,-0.8254709230232381,0.0,-0.011222467090323538,0.0,0.0,0.0,0.0,0.0,0.0,0.0,0.00945,-7.7301,-0.7371,-0.08913491999999999,-0.02587788,0.00383376
1779588359228415727,A_+,0.015945215062401985,2.3911010752322315,2.4825388747442143,-0.8254709230232381,0.0,-0.011222467090323538,0.0,0.0,0.0,0.0,0.0,0.0,0.0,0.00945,-7.7301,-0.7371,-0.08913491999999999,-0.02587788,0.00383376
1779588359228415727,A_+,0.01661874812498354,2.3911010752322315,2.4825388747442143,-0.8254709230232381,0.0,-0.011222467090323538,0.0,0.0,0.0,0.0,0.0,0.0,0.0,0.00945,-7.7301,-0.7371,-0.08913491999999999,-0.02587788,0.00383376
1779588359263236045,A_+,0.017283969687468925,2.3911010752322315,2.4825388747442143,-0.8254709230232381,0.0,-0.011222467090323538,0.0,0.0,0.0,0.0,0.0,0.0,0.0,0.004725,-7.6923,-0.76545,-0.10734528,-0.029711639999999997,-0.01533504
1779588359263236045,A_+,0.01799504849986988,2.3911010752322315,2.4825388747442143,-0.8254709230232381,0.0,-0.011222467090323538,0.0,0.0,0.0,0.0,0.0,0.0,0.0,0.004725,-7.6923,-0.76545,-0.10734528,-0.029711639999999997,-0.01533504
1779588359263236045,A_+,0.01866286793733707,2.3911010752322315,2.4825388747442143,-0.8254709230232381,0.0,-0.011222467090323538,0.0,0.0,0.0,0.0,0.0,0.0,0.0,0.004725,-7.6923,-0.76545,-0.10734528,-0.029711639999999997,-0.01533504
1779588359294427156,A_+,0.019330001375010397,2.3911010752322315,2.4825388747442143,-0.8254709230232381,0.0,-0.011222467090323538,0.0,0.0,0.0,0.0,0.0,0.0,0.0,0.0189,-7.744274999999999,-0.7323749999999999,-0.09296868,-0.01725192,0.00575064
1779588359294427156,A_+,0.02002544112497162,2.3911010752322315,2.4825388747442143,-0.8254709230232381,0.0,-0.011222467090323538,0.0,0.0,0.0,0.0,0.0,0.0,0.0,0.0189,-7.744274999999999,-0.7323749999999999,-0.09296868,-0.01725192,0.00575064
1779588359294427156,A_+,0.020683071124949493,2.3911010752322315,2.4825388747442143,-0.8254709230232381,0.0,-0.011222467090323538,0.0,0.0,0.0,0.0,0.0,0.0,0.0,0.0189,-7.744274999999999,-0.7323749999999999,-0.09296868,-0.01725192,0.00575064
1779588359328214883,A_+,0.02133867531233591,2.3911010752322315,2.4825388747442143,-0.8254709230232381,0.0,-0.011222467090323538,0.0,0.0,0.0,0.0,0.0,0.0,0.0,0.042525,-7.6923,-0.82215,-0.09296868,-0.02300256,0.0
1779588359328214883,A_+,0.02204317249993437,2.3911010752322315,2.4825388747442143,-0.8254709230232381,0.0,-0.011222467090323538,0.0,0.0,0.0,0.0,0.0,0.0,0.0,0.042525,-7.6923,-0.82215,-0.09296868,-0.02300256,0.0
1779588359328214883,A_+,0.02270890406248327,2.3911010752322315,2.4825388747442143,-0.8254709230232381,0.0,-0.011222467090323538,0.0,0.0,0.0,0.0,0.0,0.0,0.0,0.042525,-7.6923,-0.82215,-0.09296868,-0.02300256,0.0
1779588359358786106,A_+,0.023375561562488656,2.3911010752322315,2.4825388747442143,-0.8254709230232381,0.0,-0.011222467090323538,0.0,0.0,0.0,0.0,0.0,0.0,0.0,0.0,-7.697024999999999,-0.7465499999999999,-0.09392712,-0.02491944,0.00191688
1779588359358786106,A_+,0.024092797937555588,2.3911010752322315,2.4825388747442143,-0.8254709230232381,0.0,-0.011222467090323538,0.0,0.0,0.0,0.0,0.0,0.0,0.0,0.0,-7.697024999999999,-0.7465499999999999,-0.09392712,-0.02491944,0.00191688
1779588359358786106,A_+,0.02477710037487668,2.3911010752322315,2.4825388747442143,-0.8254709230232381,0.0,-0.011222467090323538,0.0,0.0,0.0,0.0,0.0,0.0,0.0,0.0,-7.697024999999999,-0.7465499999999999,-0.09392712,-0.02491944,0.00191688
1779588359393217086,A_+,0.025436544312469778,2.3911010752322315,2.4825388747442143,-0.8254709230232381,0.0,-0.011222467090323538,0.0,0.0,0.0,0.0,0.0,0.0,0.0,-0.004725,-7.7112,-0.741825,-0.09392712,-0.02491944,0.01725192
1779588359393217086,A_+,0.02614298537491777,2.3911010752322315,2.4825388747442143,-0.8254709230232381,0.0,-0.011222467090323538,0.0,0.0,0.0,0.0,0.0,0.0,0.0,-0.004725,-7.7112,-0.741825,-0.09392712,-0.02491944,0.01725192
1779588359393217086,A_+,0.026823654000054376,2.3911010752322315,2.4825388747442143,-0.8254709230232381,0.0,-0.011222467090323538,0.0,0.0,0.0,0.0,0.0,0.0,0.0,-0.004725,-7.7112,-0.741825,-0.09392712,-0.02491944,0.01725192
1779588359428225040,A_+,0.027489771562386522,2.3911010752322315,2.4825388747442143,-0.8254709230232381,0.0,-0.011222467090323538,0.0,0.0,0.0,0.0,0.0,0.0,0.0,0.0,-7.744274999999999,-0.7229249999999999,-0.09488556,-0.02108568,0.0095844
1779588359428225040,A_+,0.028220349124921995,2.3911010752322315,2.4825388747442143,-0.8254709230232381,0.0,-0.011222467090323538,0.0,0.0,0.0,0.0,0.0,0.0,0.0,0.0,-7.744274999999999,-0.7229249999999999,-0.09488556,-0.02108568,0.0095844
1779588359428225040,A_+,0.028893254249851452,2.3911010752322315,2.4825388747442143,-0.8254709230232381,0.0,-0.011222467090323538,0.0,0.0,0.0,0.0,0.0,0.0,0.0,0.0,-7.744274999999999,-0.7229249999999999,-0.09488556,-0.02108568,0.0095844
1779588359458213806,A_+,0.029556137999861676,2.3911010752322315,2.4825388747442143,-0.8254709230232381,0.0,-0.011222467090323538,0.0,0.0,0.0,0.0,0.0,0.0,0.0,0.028349999999999997,-7.678125,-0.7182,-0.09488556,-0.02012724,0.00766752
1779588359458213806,A_+,0.030293593187479928,2.3911010752322315,2.4825388747442143,-0.8254709230232381,0.0,-0.011222467090323538,0.0,0.0,0.0,0.0,0.0,0.0,0.0,0.028349999999999997,-7.678125,-0.7182,-0.09488556,-0.02012724,0.00766752
1779588359458213806,A_+,0.030976373687508385,2.3911010752322315,2.4825388747442143,-0.8254709230232381,0.0,-0.011222467090323538,0.0,0.0,0.0,0.0,0.0,0.0,0.0,0.028349999999999997,-7.678125,-0.7182,-0.09488556,-0.02012724,0.00766752
1779588359493211507,A_+,0.03164235718736563,2.3911010752322315,2.4825388747442143,-0.8254709230232381,0.0,-0.011222467090323538,0.0,0.0,0.0,0.0,0.0,0.0,0.0,0.00945,-7.7679,-0.7182,-0.095844,-0.02300256,0.00766752
1779588359493211507,A_+,0.03237396474992238,2.3911010752322315,2.4825388747442143,-0.8254709230232381,0.0,-0.011222467090323538,0.0,0.0,0.0,0.0,0.0,0.0,0.0,0.00945,-7.7679,-0.7182,-0.095844,-0.02300256,0.00766752
1779588359493211507,A_+,0.033048965749912895,2.3911010752322315,2.4825388747442143,-0.8254709230232381,0.0,-0.011222467090323538,0.0,0.0,0.0,0.0,0.0,0.0,0.0,0.00945,-7.7679,-0.7182,-0.095844,-0.02300256,0.00766752
1779588359524221658,A_+,0.03371739912495286,2.3911010752322315,2.4825388747442143,-0.8254709230232381,0.0,-0.011222467090323538,0.0,0.0,0.0,0.0,0.0,0.0,0.0,0.033075,-7.734825,-0.7182,-0.09967776,-0.02491944,0.00383376
1779588359524221658,A_+,0.0344751250624995,2.3911010752322315,2.4825388747442143,-0.8254709230232381,0.0,-0.011222467090323538,0.0,0.0,0.0,0.0,0.0,0.0,0.0,0.033075,-7.734825,-0.7182,-0.09967776,-0.02491944,0.00383376
1779588359524221658,A_+,0.035154007812479904,2.3911010752322315,2.4825388747442143,-0.8254709230232381,0.0,-0.011222467090323538,0.0,0.0,0.0,0.0,0.0,0.0,0.0,0.033075,-7.734825,-0.7182,-0.09967776,-0.02491944,0.00383376
1779588359558206081,A_+,0.03582399512492884,2.3911010752322315,2.4825388747442143,-0.8254709230232381,0.0,-0.011222467090323538,0.0,0.0,0.0,0.0,0.0,0.0,0.0,0.023625,-7.70175,-0.6992999999999999,-0.09009336,-0.03067008,0.00287532
1779588359558206081,A_+,0.03655372474986507,2.3911010752322315,2.4825388747442143,-0.8254709230232381,0.0,-0.011222467090323538,0.0,0.0,0.0,0.0,0.0,0.0,0.0,0.023625,-7.70175,-0.6992999999999999,-0.09009336,-0.03067008,0.00287532
1779588359558206081,A_+,0.03722449399992911,2.3911010752322315,2.4825388747442143,-0.8254709230232381,0.0,-0.011222467090323538,0.0,0.0,0.0,0.0,0.0,0.0,0.0,0.023625,-7.70175,-0.6992999999999999,-0.09009336,-0.03067008,0.00287532
1779588359593201160,A_+,0.037884243937469364,2.3911010752322315,2.4825388747442143,-0.8254709230232381,0.0,-0.011222467090323538,0.0,0.0,0.0,0.0,0.0,0.0,0.0,-0.004725,-7.68285,-0.7182,-0.09967776,-0.02108568,0.00862596
1779588359593201160,A_+,0.038586743249879873,2.3911010752322315,2.4825388747442143,-0.8254709230232381,0.0,-0.011222467090323538,0.0,0.0,0.0,0.0,0.0,0.0,0.0,-0.004725,-7.68285,-0.7182,-0.09967776,-0.02108568,0.00862596
1779588359593201160,A_+,0.03926611993733786,2.3911010752322315,2.4825388747442143,-0.8254709230232381,0.0,-0.011222467090323538,0.0,0.0,0.0,0.0,0.0,0.0,0.0,-0.004725,-7.68285,-0.7182,-0.09967776,-0.02108568,0.00862596
1779588359623752593,A_+,0.039926967812334624,2.3911010752322315,2.4825388747442143,-0.8254709230232381,0.0,-0.011222467090323538,0.0,0.0,0.0,0.0,0.0,0.0,0.0,0.033075,-7.73955,-0.7182,-0.1006362,-0.02300256,0.0
1779588359623752593,A_+,0.04063823056253568,2.3911010752322315,2.4825388747442143,-0.8254709230232381,0.0,-0.011222467090323538,0.0,0.0,0.0,0.0,0.0,0.0,0.0,0.033075,-7.73955,-0.7182,-0.1006362,-0.02300256,0.0
1779588359623752593,A_+,0.0413136914999086,2.3911010752322315,2.4825388747442143,-0.8254709230232381,0.0,-0.011222467090323538,0.0,0.0,0.0,0.0,0.0,0.0,0.0,0.033075,-7.73955,-0.7182,-0.1006362,-0.02300256,0.0
1779588359658200025,A_+,0.04198963043745607,2.3911010752322315,2.4825388747442143,-0.8254709230232381,0.0,-0.011222467090323538,0.0,0.0,0.0,0.0,0.0,0.0,0.0,-0.00945,-7.678125,-0.7229249999999999,-0.10926216,-0.02300256,0.00191688
1779588359658200025,A_+,0.04276182549983787,2.3911010752322315,2.4825388747442143,-0.8254709230232381,0.0,-0.011222467090323538,0.0,0.0,0.0,0.0,0.0,0.0,0.0,-0.00945,-7.678125,-0.7229249999999999,-0.10926216,-0.02300256,0.00191688
1779588359658200025,A_+,0.04344625393741808,2.3911010752322315,2.4825388747442143,-0.8254709230232381,0.0,-0.011222467090323538,0.0,0.0,0.0,0.0,0.0,0.0,0.0,-0.00945,-7.678125,-0.7229249999999999,-0.10926216,-0.02300256,0.00191688
1779588359693196058,A_+,0.044141673687363436,2.3911010752322315,2.4825388747442143,-0.8254709230232381,0.0,-0.011222467090323538,0.0,0.0,0.0,0.0,0.0,0.0,0.0,0.028349999999999997,-7.697024999999999,-0.756,0.01629348,-0.02683632,0.00095844
1779588359693196058,A_+,0.044871579312484755,2.3911010752322315,2.4825388747442143,-0.8254709230232381,0.0,-0.011222467090323538,0.0,0.0,0.0,0.0,0.0,0.0,0.0,0.028349999999999997,-7.697024999999999,-0.756,0.01629348,-0.02683632,0.00095844
1779588359693196058,A_+,0.04554667431239068,2.3911010752322315,2.4825388747442143,-0.8254709230232381,0.0,-0.011222467090323538,0.0,0.0,0.0,0.0,0.0,0.0,0.0,0.028349999999999997,-7.697024999999999,-0.756,0.01629348,-0.02683632,0.00095844
1779588359724087715,A_+,0.046206808187434945,2.3911010752322315,2.4825388747442143,-0.8254709230232381,0.0,-0.011222467090323538,0.0,0.0,0.0,0.0,0.0,0.0,0.0,0.0189,-7.725375,-0.7465499999999999,0.02587788,-0.02204412,0.00766752
1779588359724087715,A_+,0.04692359262503487,2.3911010752322315,2.4825388747442143,-0.8254709230232381,0.0,-0.011222467090323538,0.0,0.0,0.0,0.0,0.0,0.0,0.0,0.0189,-7.725375,-0.7465499999999999,0.02587788,-0.02204412,0.00766752
1779588359724087715,A_+,0.047595297812449644,2.3911010752322315,2.4825388747442143,-0.8254709230232381,0.0,-0.011222467090323538,0.0,0.0,0.0,0.0,0.0,0.0,0.0,0.0189,-7.725375,-0.7465499999999999,0.02587788,-0.02204412,0.00766752
1779588359758299827,A_+,0.04825725362502453,2.3911010752322315,2.4825388747442143,-0.8254709230232381,0.0,-0.011222467090323538,0.0,0.0,0.0,0.0,0.0,0.0,0.0,0.004725,-7.6545,-0.7465499999999999,0.03258696,-0.02779476,0.00575064
1779588359758299827,A_+,0.048976387874972716,2.3911010752322315,2.4825388747442143,-0.8254709230232381,0.0,-0.011222467090323538,0.0,0.0,0.0,0.0,0.0,0.0,0.0,0.004725,-7.6545,-0.7465499999999999,0.03258696,-0.02779476,0.00575064
1779588359758299827,A_+,0.049658546437512996,2.3911010752322315,2.4825388747442143,-0.8254709230232381,0.0,-0.011222467090323538,0.0,0.0,0.0,0.0,0.0,0.0,0.0,0.004725,-7.6545,-0.7465499999999999,0.03258696,-0.02779476,0.00575064
1779588359793183565,A_+,0.05032937368741841,2.3911010752322315,2.4825388747442143,-0.8254709230232381,0.0,-0.011222467090323538,0.0,0.0,0.0,0.0,0.0,0.0,0.0,0.004725,-7.706474999999999,-0.7229249999999999,0.029711639999999997,-0.02204412,0.0
1779588359793183565,A_+,0.051049021937387806,2.3911010752322315,2.4825388747442143,-0.8254709230232381,0.0,-0.011222467090323538,0.0,0.0,0.0,0.0,0.0,0.0,0.0,0.004725,-7.706474999999999,-0.7229249999999999,0.029711639999999997,-0.02204412,0.0
1779588359793183565,A_+,0.05171973918754702,2.3911010752322315,2.4825388747442143,-0.8254709230232381,0.0,-0.011222467090323538,0.0,0.0,0.0,0.0,0.0,0.0,0.0,0.004725,-7.706474999999999,-0.7229249999999999,0.029711639999999997,-0.02204412,0.0
1779588359823182344,A_+,0.052379877062548985,2.3911010752322315,2.4825388747442143,-0.8254709230232381,0.0,-0.011222467090323538,0.0,0.0,0.0,0.0,0.0,0.0,0.0,0.05197499999999999,-7.697024999999999,-0.7182,0.03067008,-0.02491944,0.01245972
1779588359823182344,A_+,0.05309743549992163,2.3911010752322315,2.4825388747442143,-0.8254709230232381,0.0,-0.011222467090323538,0.0,0.0,0.0,0.0,0.0,0.0,0.0,0.05197499999999999,-7.697024999999999,-0.7182,0.03067008,-0.02491944,0.01245972
1779588359823182344,A_+,0.053771188562450334,2.3911010752322315,2.4825388747442143,-0.8254709230232381,0.0,-0.011222467090323538,0.0,0.0,0.0,0.0,0.0,0.0,0.0,0.05197499999999999,-7.697024999999999,-0.7182,0.03067008,-0.02491944,0.01245972
1779588359858179807,A_+,0.05442910656233835,2.3911010752322315,2.4825388747442143,-0.8254709230232381,0.0,-0.011222467090323538,0.0,0.0,0.0,0.0,0.0,0.0,0.0,0.033075,-7.6923,-0.741825,0.03737916,-0.02491944,0.01341816
1779588359858179807,A_+,0.05513948137490843,2.3911010752322315,2.4825388747442143,-0.8254709230232381,0.0,-0.011222467090323538,0.0,0.0,0.0,0.0,0.0,0.0,0.0,0.033075,-7.6923,-0.741825,0.03737916,-0.02491944,0.01341816
1779588359858179807,A_+,0.05581488437496773,2.3911010752322315,2.4825388747442143,-0.8254709230232381,0.0,-0.011222467090323538,0.0,0.0,0.0,0.0,0.0,0.0,0.0,0.033075,-7.6923,-0.741825,0.03737916,-0.02491944,0.01341816
1779588359888482332,A_+,0.05647744606244487,2.3911010752322315,2.4825388747442143,-0.8254709230232381,0.0,-0.011222467090323538,0.0,0.0,0.0,0.0,0.0,0.0,0.0,-0.00945,-7.697024999999999,-0.713475,0.02779476,-0.02491944,0.0095844
1779588359888482332,A_+,0.057192974624967974,2.3911010752322315,2.4825388747442143,-0.8254709230232381,0.0,-0.011222467090323538,0.0,0.0,0.0,0.0,0.0,0.0,0.0,-0.00945,-7.697024999999999,-0.713475,0.02779476,-0.02491944,0.0095844
1779588359888482332,A_+,0.05786523374990793,2.3911010752322315,2.4825388747442143,-0.8254709230232381,0.0,-0.011222467090323538,0.0,0.0,0.0,0.0,0.0,0.0,0.0,-0.00945,-7.697024999999999,-0.713475,0.02779476,-0.02491944,0.0095844
1779588359923240900,A_+,0.05853020537483644,2.3911010752322315,2.4825388747442143,-0.8254709230232381,0.0,-0.011222467090323538,0.0,0.0,0.0,0.0,0.0,0.0,0.0,0.0,-7.6923,-0.756,0.03258696,-0.02300256,0.0047922
1779588359923240900,A_+,0.059240950187358976,2.3911010752322315,2.4825388747442143,-0.8254709230232381,0.0,-0.011222467090323538,0.0,0.0,0.0,0.0,0.0,0.0,0.0,0.0,-7.6923,-0.756,0.03258696,-0.02300256,0.0047922
1779588359923240900,A_+,0.05990626974994484,2.3911010752322315,2.4825388747442143,-0.8254709230232381,0.0,-0.011222467090323538,0.0,0.0,0.0,0.0,0.0,0.0,0.0,0.0,-7.6923,-0.756,0.03258696,-0.02300256,0.0047922
1779588359954189777,A_+,0.0605637258124716,2.3911010752322315,2.4825388747442143,-0.8254709230232381,0.0,-0.011222467090323538,0.0,0.0,0.0,0.0,0.0,0.0,0.0,0.004725,-7.68285,-0.741825,0.028753199999999996,-0.023961,0.00287532
1779588359954189777,A_+,0.061257869625023886,2.3911010752322315,2.4825388747442143,-0.8254709230232381,0.0,-0.011222467090323538,0.0,0.0,0.0,0.0,0.0,0.0,0.0,0.004725,-7.68285,-0.741825,0.028753199999999996,-0.023961,0.00287532
1779588359954189777,A_+,0.06192273718738761,2.3911010752322315,2.4825388747442143,-0.8254709230232381,0.0,-0.011222467090323538,0.0,0.0,0.0,0.0,0.0,0.0,0.0,0.004725,-7.68285,-0.741825,0.028753199999999996,-0.023961,0.00287532
1779588359988179922,A_+,0.06258098518742372,2.3911010752322315,2.4825388747442143,-0.8254709230232381,0.0,-0.011222467090323538,0.0,0.0,0.0,0.0,0.0,0.0,0.0,-0.014174999999999998,-7.649774999999999,-0.7040249999999999,0.02683632,-0.023961,-0.00095844
1779588359988179922,A_+,0.06329369587501787,2.3911010752322315,2.4825388747442143,-0.8254709230232381,0.0,-0.011222467090323538,0.0,0.0,0.0,0.0,0.0,0.0,0.0,-0.014174999999999998,-7.649774999999999,-0.7040249999999999,0.02683632,-0.023961,-0.00095844
1779588359988179922,A_+,0.06396116137489116,2.3911010752322315,2.4825388747442143,-0.8254709230232381,0.0,-0.011222467090323538,0.0,0.0,0.0,0.0,0.0,0.0,0.0,-0.014174999999999998,-7.649774999999999,-0.7040249999999999,0.02683632,-0.023961,-0.00095844
1779588360018881320,A_+,0.0646218412498456,2.3911010752322315,2.4825388747442143,-0.8254709230232381,0.0,-0.011222467090323538,0.0,0.0,0.0,0.0,0.0,0.0,0.0,0.004725,-7.6923,-0.7323749999999999,0.02683632,-0.02683632,-0.00383376
1779588360018881320,A_+,0.06532423056250991,2.3911010752322315,2.4825388747442143,-0.8254709230232381,0.0,-0.011222467090323538,0.0,0.0,0.0,0.0,0.0,0.0,0.0,0.004725,-7.6923,-0.7323749999999999,0.02683632,-0.02683632,-0.00383376
1779588360018881320,A_+,0.06598981618753896,2.3911010752322315,2.4825388747442143,-0.8254709230232381,0.0,-0.011222467090323538,0.0,0.0,0.0,0.0,0.0,0.0,0.0,0.004725,-7.6923,-0.7323749999999999,0.02683632,-0.02683632,-0.00383376
1779588360053167343,A_+,0.06665767962499558,2.3911010752322315,2.4825388747442143,-0.8254709230232381,0.0,-0.011222467090323538,0.0,0.0,0.0,0.0,0.0,0.0,0.0,0.014174999999999998,-7.66395,-0.76545,0.02491944,-0.02108568,0.01725192
1779588360053167343,A_+,0.06738328156234275,2.3911010752322315,2.4825388747442143,-0.8254709230232381,0.0,-0.011222467090323538,0.0,0.0,0.0,0.0,0.0,0.0,0.0,0.014174999999999998,-7.66395,-0.76545,0.02491944,-0.02108568,0.01725192
1779588360053167343,A_+,0.06806332425003347,2.3911010752322315,2.4825388747442143,-0.8254709230232381,0.0,-0.011222467090323538,0.0,0.0,0.0,0.0,0.0,0.0,0.0,0.014174999999999998,-7.66395,-0.76545,0.02491944,-0.02108568,0.01725192
1779588360084466695,A_+,0.06873336156240839,2.3911010752322315,2.4825388747442143,-0.8254709230232381,0.0,-0.011222467090323538,0.0,0.0,0.0,0.0,0.0,0.0,0.0,0.033075,-7.697024999999999,-0.7512749999999999,0.023961,-0.02779476,0.01150128
1779588360084466695,A_+,0.06943701687487192,2.3911010752322315,2.4825388747442143,-0.8254709230232381,0.0,-0.011222467090323538,0.0,0.0,0.0,0.0,0.0,0.0,0.0,0.033075,-7.697024999999999,-0.7512749999999999,0.023961,-0.02779476,0.01150128
1779588360084466695,A_+,0.07010232443735731,2.3911010752322315,2.4825388747442143,-0.8254709230232381,0.0,-0.011222467090323538,0.0,0.0,0.0,0.0,0.0,0.0,0.0,0.033075,-7.697024999999999,-0.7512749999999999,0.023961,-0.02779476,0.01150128
1779588360118161678,A_+,0.07075874056249631,2.3911010752322315,2.4825388747442143,-0.8254709230232381,0.0,-0.011222467090323538,0.0,0.0,0.0,0.0,0.0,0.0,0.0,0.00945,-7.659224999999999,-0.7276499999999999,0.03450384,-0.02012724,-0.00670908
1779588360118161678,A_+,0.07146279981247972,2.3911010752322315,2.4825388747442143,-0.8254709230232381,0.0,-0.011222467090323538,0.0,0.0,0.0,0.0,0.0,0.0,0.0,0.00945,-7.659224999999999,-0.7276499999999999,0.03450384,-0.02012724,-0.00670908
1779588360118161678,A_+,0.07212681349983541,2.3911010752322315,2.4825388747442143,-0.8254709230232381,0.0,-0.011222467090323538,0.0,0.0,0.0,0.0,0.0,0.0,0.0,0.00945,-7.659224999999999,-0.7276499999999999,0.03450384,-0.02012724,-0.00670908
1779588360149584054,A_+,0.07278622343733332,2.3911010752322315,2.4825388747442143,-0.8254709230232381,0.0,-0.011222467090323538,0.0,0.0,0.0,0.0,0.0,0.0,0.0,0.023625,-7.7159249999999995,-0.741825,0.02204412,-0.01533504,0.0095844
1779588360149584054,A_+,0.07349630437488486,2.3911010752322315,2.4825388747442143,-0.8254709230232381,0.0,-0.011222467090323538,0.0,0.0,0.0,0.0,0.0,0.0,0.0,0.023625,-7.7159249999999995,-0.741825,0.02204412,-0.01533504,0.0095844
1779588360149584054,A_+,0.07416460374997769,2.3911010752322315,2.4825388747442143,-0.8254709230232381,0.0,-0.011222467090323538,0.0,0.0,0.0,0.0,0.0,0.0,0.0,0.023625,-7.7159249999999995,-0.741825,0.02204412,-0.01533504,0.0095844
1779588360183476209,A_+,0.07483391712503362,2.3911010752322315,2.4825388747442143,-0.8254709230232381,0.0,-0.011222467090323538,0.0,0.0,0.0,0.0,0.0,0.0,0.0,0.004725,-7.706474999999999,-0.7465499999999999,0.02491944,-0.02587788,0.00383376
1779588360183476209,A_+,0.07556935843740575,2.3911010752322315,2.4825388747442143,-0.8254709230232381,0.0,-0.011222467090323538,0.0,0.0,0.0,0.0,0.0,0.0,0.0,0.004725,-7.706474999999999,-0.7465499999999999,0.02491944,-0.02587788,0.00383376
1779588360183476209,A_+,0.07624539943753916,2.3911010752322315,2.4825388747442143,-0.8254709230232381,0.0,-0.011222467090323538,0.0,0.0,0.0,0.0,0.0,0.0,0.0,0.004725,-7.706474999999999,-0.7465499999999999,0.02491944,-0.02587788,0.00383376
1779588360213159799,A_+,0.07691463075002503,2.3911010752322315,2.4825388747442143,-0.8254709230232381,0.0,-0.011222467090323538,0.0,0.0,0.0,0.0,0.0,0.0,0.0,0.061425,-7.64505,-0.7323749999999999,0.02204412,-0.023961,0.014376599999999998
1779588360213159799,A_+,0.07765715168739007,2.3911010752322315,2.4825388747442143,-0.8254709230232381,0.0,-0.011222467090323538,0.0,0.0,0.0,0.0,0.0,0.0,0.0,0.061425,-7.64505,-0.7323749999999999,0.02204412,-0.023961,0.014376599999999998
1779588360213159799,A_+,0.07833577049996165,2.3911010752322315,2.4825388747442143,-0.8254709230232381,0.0,-0.011222467090323538,0.0,0.0,0.0,0.0,0.0,0.0,0.0,0.061425,-7.64505,-0.7323749999999999,0.02204412,-0.023961,0.014376599999999998
1779588360249349355,A_+,0.0790025159999459,2.3911010752322315,2.4825388747442143,-0.8254709230232381,0.0,-0.011222467090323538,0.0,0.0,0.0,0.0,0.0,0.0,0.0,0.023625,-7.77735,-0.7276499999999999,0.028753199999999996,-0.0191688,-0.00287532
1779588360249349355,A_+,0.07973736537496734,2.3911010752322315,2.4825388747442143,-0.8254709230232381,0.0,-0.011222467090323538,0.0,0.0,0.0,0.0,0.0,0.0,0.0,0.023625,-7.77735,-0.7276499999999999,0.028753199999999996,-0.0191688,-0.00287532
1779588360249349355,A_+,0.08041425424994486,2.3911010752322315,2.4825388747442143,-0.8254709230232381,0.0,-0.011222467090323538,0.0,0.0,0.0,0.0,0.0,0.0,0.0,0.023625,-7.77735,-0.7276499999999999,0.028753199999999996,-0.0191688,-0.00287532
1779588360268157005,A_+,0.08108258968741211,2.3911010752322315,2.4825388747442143,-0.8254709230232381,0.0,-0.011222467090323538,0.0,0.0,0.0,0.0,0.0,0.0,0.0,0.0,-7.687575,-0.7276499999999999,0.02300256,-0.02300256,-0.00191688
1779588360268157005,A_+,0.08182381468736821,2.3911010752322315,2.4825388747442143,-0.8254709230232381,0.0,-0.011222467090323538,0.0,0.0,0.0,0.0,0.0,0.0,0.0,0.0,-7.687575,-0.7276499999999999,0.02300256,-0.02300256,-0.00191688
1779588360268157005,A_+,0.08249139212489354,2.3911010752322315,2.4825388747442143,-0.8254709230232381,0.0,-0.011222467090323538,0.0,0.0,0.0,0.0,0.0,0.0,0.0,0.0,-7.687575,-0.7276499999999999,0.02300256,-0.02300256,-0.00191688
1779588360308161020,A_+,0.08315725568741072,2.3911010752322315,2.4825388747442143,-0.8254709230232381,0.0,-0.011222467090323538,0.0,0.0,0.0,0.0,0.0,0.0,0.0,0.061425,-7.706474999999999,-0.7182,0.04025448,-0.02779476,0.0047922
1779588360308161020,A_+,0.08386707656245562,2.3911010752322315,2.4825388747442143,-0.8254709230232381,0.0,-0.011222467090323538,0.0,0.0,0.0,0.0,0.0,0.0,0.0,0.061425,-7.706474999999999,-0.7182,0.04025448,-0.02779476,0.0047922
1779588360308161020,A_+,0.08454600337495322,2.3911010752322315,2.4825388747442143,-0.8254709230232381,0.0,-0.011222467090323538,0.0,0.0,0.0,0.0,0.0,0.0,0.0,0.061425,-7.706474999999999,-0.7182,0.04025448,-0.02779476,0.0047922
1779588360328348875,A_+,0.08520865512491582,2.3911010752322315,2.4825388747442143,-0.8254709230232381,0.0,-0.011222467090323538,0.0,0.0,0.0,0.0,0.0,0.0,0.0,0.028349999999999997,-7.66395,-0.7465499999999999,0.02683632,-0.02779476,0.01341816
1779588360328348875,A_+,0.08592376168735427,2.3911010752322315,2.4825388747442143,-0.8254709230232381,0.0,-0.011222467090323538,0.0,0.0,0.0,0.0,0.0,0.0,0.0,0.028349999999999997,-7.66395,-0.7465499999999999,0.02683632,-0.02779476,0.01341816
1779588360328348875,A_+,0.08660110856249048,2.3911010752322315,2.4825388747442143,-0.8254709230232381,0.0,-0.011222467090323538,0.0,0.0,0.0,0.0,0.0,0.0,0.0,0.028349999999999997,-7.66395,-0.7465499999999999,0.02683632,-0.02779476,0.01341816
1779588360368166923,A_+,0.08726715612488078,2.3911010752322315,2.4825388747442143,-0.8254709230232381,0.0,-0.011222467090323538,0.0,0.0,0.0,0.0,0.0,0.0,0.0,0.028349999999999997,-7.697024999999999,-0.741825,0.028753199999999996,-0.02300256,0.00575064
1779588360368166923,A_+,0.08798934025003291,2.3911010752322315,2.4825388747442143,-0.8254709230232381,0.0,-0.011222467090323538,0.0,0.0,0.0,0.0,0.0,0.0,0.0,0.028349999999999997,-7.697024999999999,-0.741825,0.028753199999999996,-0.02300256,0.00575064
1779588360368166923,A_+,0.08866082350004945,2.3911010752322315,2.4825388747442143,-0.8254709230232381,0.0,-0.011222467090323538,0.0,0.0,0.0,0.0,0.0,0.0,0.0,0.028349999999999997,-7.697024999999999,-0.741825,0.028753199999999996,-0.02300256,0.00575064
1779588360413155794,A_+,0.08932647106234981,2.3911010752322315,2.4825388747442143,-0.8254709230232381,0.0,-0.011222467090323538,0.0,0.0,0.0,0.0,0.0,0.0,0.0,0.0,-7.678125,-0.760725,0.02204412,-0.02300256,0.0047922
1779588360413155794,A_+,0.09005335093752365,2.3911010752322315,2.4825388747442143,-0.8254709230232381,0.0,-0.011222467090323538,0.0,0.0,0.0,0.0,0.0,0.0,0.0,0.0,-7.678125,-0.760725,0.02204412,-0.02300256,0.0047922
1779588360413155794,A_+,0.09073084181250124,2.3911010752322315,2.4825388747442143,-0.8254709230232381,0.0,-0.011222467090323538,0.0,0.0,0.0,0.0,0.0,0.0,0.0,0.0,-7.678125,-0.760725,0.02204412,-0.02300256,0.0047922
1779588360449352502,A_+,0.09139715931246428,2.3911010752322315,2.4825388747442143,-0.8254709230232381,0.0,-0.011222467090323538,0.0,0.0,0.0,0.0,0.0,0.0,0.0,0.04725,-7.68285,-0.713475,0.028753199999999996,-0.02491944,0.01054284
1779588360449352502,A_+,0.0921175695623333,2.3911010752322315,2.4825388747442143,-0.8254709230232381,0.0,-0.011222467090323538,0.0,0.0,0.0,0.0,0.0,0.0,0.0,0.04725,-7.68285,-0.713475,0.028753199999999996,-0.02491944,0.01054284
1779588360449352502,A_+,0.0927963303749948,2.3911010752322315,2.4825388747442143,-0.8254709230232381,0.0,-0.011222467090323538,0.0,0.0,0.0,0.0,0.0,0.0,0.0,0.04725,-7.68285,-0.713475,0.028753199999999996,-0.02491944,0.01054284
1779588360478150367,A_+,0.0934623139373798,2.3911010752322315,2.4825388747442143,-0.8254709230232381,0.0,-0.011222467090323538,0.0,0.0,0.0,0.0,0.0,0.0,0.0,0.05197499999999999,-7.7112,-0.7323749999999999,0.0335454,-0.02300256,-0.00095844
1779588360478150367,A_+,0.09418174624988751,2.3911010752322315,2.4825388747442143,-0.8254709230232381,0.0,-0.011222467090323538,0.0,0.0,0.0,0.0,0.0,0.0,0.0,0.05197499999999999,-7.7112,-0.7323749999999999,0.0335454,-0.02300256,-0.00095844
1779588360478150367,A_+,0.09485880312490735,2.3911010752322315,2.4825388747442143,-0.8254709230232381,0.0,-0.011222467090323538,0.0,0.0,0.0,0.0,0.0,0.0,0.0,0.05197499999999999,-7.7112,-0.7323749999999999,0.0335454,-0.02300256,-0.00095844
1779588360513876438,A_+,0.09552299074994153,2.3911010752322315,2.4825388747442143,-0.8254709230232381,0.0,-0.011222467090323538,0.0,0.0,0.0,0.0,0.0,0.0,0.0,-0.028349999999999997,-7.6923,-0.7276499999999999,0.029711639999999997,-0.02300256,0.00383376
1779588360513876438,A_+,0.0962521144999755,2.3911010752322315,2.4825388747442143,-0.8254709230232381,0.0,-0.011222467090323538,0.0,0.0,0.0,0.0,0.0,0.0,0.0,-0.028349999999999997,-7.6923,-0.7276499999999999,0.029711639999999997,-0.02300256,0.00383376
1779588360513876438,A_+,0.09694452843746149,2.3911010752322315,2.4825388747442143,-0.8254709230232381,0.0,-0.011222467090323538,0.0,0.0,0.0,0.0,0.0,0.0,0.0,-0.028349999999999997,-7.6923,-0.7276499999999999,0.029711639999999997,-0.02300256,0.00383376
1779588360549183607,A_+,0.09763025281245064,2.3911010752322315,2.4825388747442143,-0.8254709230232381,0.0,-0.011222467090323538,0.0,0.0,0.0,0.0,0.0,0.0,0.0,0.00945,-7.744274999999999,-0.7323749999999999,0.03162852,-0.02587788,0.00383376
1779588360549183607,A_+,0.09837879937504113,2.3911010752322315,2.4825388747442143,-0.8254709230232381,0.0,-0.011222467090323538,0.0,0.0,0.0,0.0,0.0,0.0,0.0,0.00945,-7.744274999999999,-0.7323749999999999,0.03162852,-0.02587788,0.00383376
1779588360549183607,A_+,0.09908896825004376,2.3911010752322315,2.4825388747442143,-0.8254709230232381,0.0,-0.011222467090323538,0.0,0.0,0.0,0.0,0.0,0.0,0.0,0.00945,-7.744274999999999,-0.7323749999999999,0.03162852,-0.02587788,0.00383376
1779588360573493242,A_+,0.0997598955000285,2.3911010752322315,2.4825388747442143,-0.8254709230232381,0.0,-0.011222467090323538,0.0,0.0,0.0,0.0,0.0,0.0,0.0,0.0,-7.6923,-0.7276499999999999,0.029711639999999997,-0.02491944,0.0095844
1779588360573493242,A_+,0.10048188562495852,2.3911010752322315,2.4825388747442143,-0.8254709230232381,0.0,-0.011222467090323538,0.0,0.0,0.0,0.0,0.0,0.0,0.0,0.0,-7.6923,-0.7276499999999999,0.029711639999999997,-0.02491944,0.0095844
1779588360573493242,A_+,0.1011435514999448,2.3911010752322315,2.4825388747442143,-0.8254709230232381,0.0,-0.011222467090323538,0.0,0.0,0.0,0.0,0.0,0.0,0.0,0.0,-7.6923,-0.7276499999999999,0.029711639999999997,-0.02491944,0.0095844
1779588360618134498,A_+,0.1018002536250151,2.3911010752322315,2.4825388747442143,-0.8254709230232381,0.0,-0.011222467090323538,0.0,0.0,0.0,0.0,0.0,0.0,0.0,0.023625,-7.66395,-0.760725,0.02683632,-0.02491944,-0.00095844
1779588360618134498,A_+,0.10249562737499218,2.3911010752322315,2.4825388747442143,-0.8254709230232381,0.0,-0.011222467090323538,0.0,0.0,0.0,0.0,0.0,0.0,0.0,0.023625,-7.66395,-0.760725,0.02683632,-0.02491944,-0.00095844
1779588360618134498,A_+,0.10316576068748873,2.3911010752322315,2.4825388747442143,-0.8254709230232381,0.0,-0.011222467090323538,0.0,0.0,0.0,0.0,0.0,0.0,0.0,0.023625,-7.66395,-0.760725,0.02683632,-0.02491944,-0.00095844
1779588360643133640,A_+,0.10382139687499148,2.3911010752322315,2.4825388747442143,-0.8254709230232381,0.0,-0.011222467090323538,0.0,0.0,0.0,0.0,0.0,0.0,0.0,0.028349999999999997,-7.6545,-0.7229249999999999,0.03067008,-0.02108568,0.00862596
1779588360643133640,A_+,0.10451764456252022,2.3911010752322315,2.4825388747442143,-0.8254709230232381,0.0,-0.011222467090323538,0.0,0.0,0.0,0.0,0.0,0.0,0.0,0.028349999999999997,-7.6545,-0.7229249999999999,0.03067008,-0.02108568,0.00862596
1779588360643133640,A_+,0.10518302018749637,2.3911010752322315,2.4825388747442143,-0.8254709230232381,0.0,-0.011222467090323538,0.0,0.0,0.0,0.0,0.0,0.0,0.0,0.028349999999999997,-7.6545,-0.7229249999999999,0.03067008,-0.02108568,0.00862596
1779588360673133850,A_+,0.105844407999939,2.3911010752322315,2.4825388747442143,-0.8254709230232381,0.0,-0.011222467090323538,0.0,0.0,0.0,0.0,0.0,0.0,0.0,0.04725,-7.7159249999999995,-0.7371,0.03067008,-0.02491944,0.00670908
1779588360673133850,A_+,0.10657096787485898,2.3911010752322315,2.4825388747442143,-0.8254709230232381,0.0,-0.011222467090323538,0.0,0.0,0.0,0.0,0.0,0.0,0.0,0.04725,-7.7159249999999995,-0.7371,0.03067008,-0.02491944,0.00670908
1779588360673133850,A_+,0.1072486267498789,2.3911010752322315,2.4825388747442143,-0.8254709230232381,0.0,-0.011222467090323538,0.0,0.0,0.0,0.0,0.0,0.0,0.0,0.04725,-7.7159249999999995,-0.7371,0.03067008,-0.02491944,0.00670908
1779588360698135614,A_+,0.10791382637489733,2.3911010752322315,2.4825388747442143,-0.8254709230232381,0.0,-0.011222467090323538,0.0,0.0,0.0,0.0,0.097,0.0,0.0,0.028349999999999997,-7.649774999999999,-0.741825,0.07955052,-0.02683632,-0.00095844
1779588360698135614,A_+,0.10863701043740548,2.3911010752322315,2.4825388747442143,-0.8254709230232381,0.0,-0.011222467090323538,0.0,0.0,0.0,0.0,0.097,0.0,0.0,0.028349999999999997,-7.649774999999999,-0.741825,0.07955052,-0.02683632,-0.00095844
1779588360698135614,A_+,0.1093207429373706,2.3911010752322315,2.4825388747442143,-0.8254709230232381,0.0,-0.011222467090323538,0.0,0.0,0.0,0.0,0.097,0.0,0.0,0.028349999999999997,-7.649774999999999,-0.741825,0.07955052,-0.02683632,-0.00095844
