deepaktalwardt/rage-cage-arm-hackstorm/ros2/ws/sysid/runs/sysid_20260524_020548/raw/joint5_phaseA_pos.csv
t_ns,phase,tau_cmd,q1,q2,q3,q4,q5,q6,qd1,qd2,qd3,qd4,qd5,qd6,tau1,tau2,tau3,tau4,tau5,tau6
1779588377632033824,A_+,6.200002644618507e-08,2.3884830813542397,2.4814916771930178,-0.8266228403295544,0.0,-0.011274826967883369,0.0,-0.853,0.0,0.0,0.0,0.0,0.0,11.136825,-7.687575,-0.25515,0.11501279999999998,-0.02587788,-0.0047922
1779588377632033824,A_+,0.0006897046873746149,2.3884830813542397,2.4814916771930178,-0.8266228403295544,0.0,-0.011274826967883369,0.0,-0.853,0.0,0.0,0.0,0.0,0.0,11.136825,-7.687575,-0.25515,0.11501279999999998,-0.02587788,-0.0047922
1779588381041841745,A_+,0.0013609224999981961,2.3901585974361543,2.4814916771930178,-0.8266228403295544,0.0,-0.011274826967883369,0.0,-0.391,0.0,0.0,0.0,0.0,0.0,0.9213749999999999,-7.678125,-0.269325,0.0622986,-0.01821036,0.0095844
1779588381041841745,A_+,0.0020928046874360007,2.3901585974361543,2.4814916771930178,-0.8266228403295544,0.0,-0.011274826967883369,0.0,-0.391,0.0,0.0,0.0,0.0,0.0,0.9213749999999999,-7.678125,-0.269325,0.0622986,-0.01821036,0.0095844
1779588381041841745,A_+,0.0027714080624718918,2.3901585974361543,2.4814916771930178,-0.8266228403295544,0.0,-0.011274826967883369,0.0,-0.391,0.0,0.0,0.0,0.0,0.0,0.9213749999999999,-7.678125,-0.269325,0.0622986,-0.01821036,0.0095844
1779588381061802864,A_+,0.00344136993749089,2.3879769358711616,2.4814916771930178,-0.8266228403295544,0.0,-0.011274826967883369,0.0,-0.853,0.0,0.0,0.0,0.0,0.0,11.717999999999998,-7.611974999999999,-0.23625,0.059423279999999995,-0.01821036,0.01054284
1779588381061802864,A_+,0.004180279687489019,2.3879769358711616,2.4814916771930178,-0.8266228403295544,0.0,-0.011274826967883369,0.0,-0.853,0.0,0.0,0.0,0.0,0.0,11.717999999999998,-7.611974999999999,-0.23625,0.059423279999999995,-0.01821036,0.01054284
1779588381061802864,A_+,0.004861426874867902,2.3879769358711616,2.4814916771930178,-0.8266228403295544,0.0,-0.011274826967883369,0.0,-0.853,0.0,0.0,0.0,0.0,0.0,11.717999999999998,-7.611974999999999,-0.23625,0.059423279999999995,-0.01821036,0.01054284
1779588381081794500,A_+,0.005520277437426557,2.387889669408562,2.4814916771930178,-0.8266228403295544,0.0,-0.011274826967883369,0.0,-0.28600000000000003,0.0,0.0,0.0,0.0,0.0,9.40275,-7.6356,-0.22679999999999997,0.04983888,-0.02779476,0.0095844
1779588381081794500,A_+,0.0062502736875558185,2.387889669408562,2.4814916771930178,-0.8266228403295544,0.0,-0.011274826967883369,0.0,-0.28600000000000003,0.0,0.0,0.0,0.0,0.0,9.40275,-7.6356,-0.22679999999999997,0.04983888,-0.02779476,0.0095844
1779588381081794500,A_+,0.0069303450000006706,2.387889669408562,2.4814916771930178,-0.8266228403295544,0.0,-0.011274826967883369,0.0,-0.28600000000000003,0.0,0.0,0.0,0.0,0.0,9.40275,-7.6356,-0.22679999999999997,0.04983888,-0.02779476,0.0095844
1779588381111806869,A_+,0.0076010448124179675,2.387505696973123,2.4814916771930178,-0.8266228403295544,0.0,-0.011274826967883369,0.0,0.629,0.0,0.0,0.0,0.0,0.0,-4.3942499999999995,-7.6923,-0.23152499999999998,0.06421548,-0.028753199999999996,0.00766752
1779588381111806869,A_+,0.008342540437524804,2.387505696973123,2.4814916771930178,-0.8266228403295544,0.0,-0.011274826967883369,0.0,0.629,0.0,0.0,0.0,0.0,0.0,-4.3942499999999995,-7.6923,-0.23152499999999998,0.06421548,-0.028753199999999996,0.00766752
1779588381111806869,A_+,0.009020039812412506,2.387505696973123,2.4814916771930178,-0.8266228403295544,0.0,-0.011274826967883369,0.0,0.629,0.0,0.0,0.0,0.0,0.0,-4.3942499999999995,-7.6923,-0.23152499999999998,0.06421548,-0.028753199999999996,0.00766752
1779588381121807098,A_+,0.009688867812428725,2.389949157925915,2.4814916771930178,-0.8266228403295544,0.0,-0.011274826967883369,0.0,-0.439,0.0,0.0,0.0,0.0,0.0,1.535625,-7.6356,-0.19372499999999998,0.06038172,-0.0335454,0.00670908
1779588381121807098,A_+,0.01042658762503379,2.389949157925915,2.4814916771930178,-0.8266228403295544,0.0,-0.011274826967883369,0.0,-0.439,0.0,0.0,0.0,0.0,0.0,1.535625,-7.6356,-0.19372499999999998,0.06038172,-0.0335454,0.00670908
1779588381121807098,A_+,0.011106546874998457,2.389949157925915,2.4814916771930178,-0.8266228403295544,0.0,-0.011274826967883369,0.0,-0.439,0.0,0.0,0.0,0.0,0.0,1.535625,-7.6356,-0.19372499999999998,0.06038172,-0.0335454,0.00670908
1779588381151797294,A_+,0.011776978750049238,2.3911534351097914,2.4814916771930178,-0.8266228403295544,0.0,-0.011274826967883369,0.0,0.854,0.0,0.0,0.0,0.0,0.0,-10.13985,-7.640325,-0.2457,0.05846484,-0.03546228,0.00383376
1779588381151797294,A_+,0.012509570874954079,2.3911534351097914,2.4814916771930178,-0.8266228403295544,0.0,-0.011274826967883369,0.0,0.854,0.0,0.0,0.0,0.0,0.0,-10.13985,-7.640325,-0.2457,0.05846484,-0.03546228,0.00383376
1779588381151797294,A_+,0.013175323000041317,2.3911534351097914,2.4814916771930178,-0.8266228403295544,0.0,-0.011274826967883369,0.0,0.854,0.0,0.0,0.0,0.0,0.0,-10.13985,-7.640325,-0.2457,0.05846484,-0.03546228,0.00383376
1779588381177520275,A_+,0.013849016625044897,2.391799206933029,2.4814916771930178,-0.8266228403295544,0.0,-0.011274826967883369,0.0,0.51,0.0,0.0,0.0,0.0,0.0,-10.91475,-7.68285,-0.23152499999999998,0.0622986,-0.02779476,-0.00095844
1779588381177520275,A_+,0.01457507318741591,2.391799206933029,2.4814916771930178,-0.8266228403295544,0.0,-0.011274826967883369,0.0,0.51,0.0,0.0,0.0,0.0,0.0,-10.91475,-7.68285,-0.23152499999999998,0.0622986,-0.02779476,-0.00095844
1779588381177520275,A_+,0.015257592312536872,2.391799206933029,2.4814916771930178,-0.8266228403295544,0.0,-0.011274826967883369,0.0,0.51,0.0,0.0,0.0,0.0,0.0,-10.91475,-7.68285,-0.23152499999999998,0.0622986,-0.02779476,-0.00095844
1779588381216785430,A_+,0.015926254249961858,2.3879769358711616,2.4814916771930178,-0.8266228403295544,0.0,-0.011274826967883369,0.0,-0.843,0.0,0.0,0.0,0.0,0.0,11.755799999999999,-7.725375,-0.22679999999999997,0.05750639999999999,-0.0383376,0.0
1779588381216785430,A_+,0.01666313612486192,2.3879769358711616,2.4814916771930178,-0.8266228403295544,0.0,-0.011274826967883369,0.0,-0.843,0.0,0.0,0.0,0.0,0.0,11.755799999999999,-7.725375,-0.22679999999999997,0.05750639999999999,-0.0383376,0.0
1779588381216785430,A_+,0.017350448937349938,2.3879769358711616,2.4814916771930178,-0.8266228403295544,0.0,-0.011274826967883369,0.0,-0.843,0.0,0.0,0.0,0.0,0.0,11.755799999999999,-7.725375,-0.22679999999999997,0.05750639999999999,-0.0383376,0.0
1779588381271790027,A_+,0.018018726937498286,2.3901935040211946,2.4814916771930178,-0.8266228403295544,0.0,-0.011274826967883369,0.0,-0.377,0.0,0.0,0.0,0.0,0.0,0.6662250000000001,-7.6686749999999995,-0.21262499999999998,0.06038172,-0.023961,0.00383376
1779588381271790027,A_+,0.01875100506254057,2.3901935040211946,2.4814916771930178,-0.8266228403295544,0.0,-0.011274826967883369,0.0,-0.377,0.0,0.0,0.0,0.0,0.0,0.6662250000000001,-7.6686749999999995,-0.21262499999999998,0.06038172,-0.023961,0.00383376
1779588381271790027,A_+,0.019429264437349048,2.3901935040211946,2.4814916771930178,-0.8266228403295544,0.0,-0.011274826967883369,0.0,-0.377,0.0,0.0,0.0,0.0,0.0,0.6662250000000001,-7.6686749999999995,-0.21262499999999998,0.06038172,-0.023961,0.00383376
1779588381326779365,A_+,0.020101016250009707,2.3919039266881486,2.4814916771930178,-0.8266228403295544,0.0,-0.011274826967883369,0.0,0.5710000000000001,0.0,0.0,0.0,0.0,0.0,-11.358899999999998,-7.583625,-0.23625,0.05654796,-0.02779476,0.01629348
1779588381326779365,A_+,0.02084251581254648,2.3919039266881486,2.4814916771930178,-0.8266228403295544,0.0,-0.011274826967883369,0.0,0.5710000000000001,0.0,0.0,0.0,0.0,0.0,-11.358899999999998,-7.583625,-0.23625,0.05654796,-0.02779476,0.01629348
1779588381326779365,A_+,0.021567392437418675,2.3919039266881486,2.4814916771930178,-0.8266228403295544,0.0,-0.011274826967883369,0.0,0.5710000000000001,0.0,0.0,0.0,0.0,0.0,-11.358899999999998,-7.583625,-0.23625,0.05654796,-0.02779476,0.01629348
1779588381346834182,A_+,0.022226088937486566,2.3903854902389137,2.4814916771930178,-0.8266228403295544,0.0,-0.011274826967883369,0.0,-0.32,0.0,0.0,0.0,0.0,0.0,-0.2646,-7.6734,-0.23625,0.06038172,-0.03162852,0.01629348
1779588381346834182,A_+,0.02294326799983537,2.3903854902389137,2.4814916771930178,-0.8266228403295544,0.0,-0.011274826967883369,0.0,-0.32,0.0,0.0,0.0,0.0,0.0,-0.2646,-7.6734,-0.23625,0.06038172,-0.03162852,0.01629348
1779588381346834182,A_+,0.023627607062508105,2.3903854902389137,2.4814916771930178,-0.8266228403295544,0.0,-0.011274826967883369,0.0,-0.32,0.0,0.0,0.0,0.0,0.0,-0.2646,-7.6734,-0.23625,0.06038172,-0.03162852,0.01629348
1779588381381784439,A_+,0.024294559062354892,2.3909090890145124,2.4814916771930178,-0.8266228403295544,0.0,-0.011274826967883369,0.0,0.792,0.0,0.0,0.0,0.0,0.0,-8.30655,-7.564724999999999,-0.222075,0.06613236,-0.03067008,0.00383376
1779588381381784439,A_+,0.025019979624858024,2.3909090890145124,2.4814916771930178,-0.8266228403295544,0.0,-0.011274826967883369,0.0,0.792,0.0,0.0,0.0,0.0,0.0,-8.30655,-7.564724999999999,-0.222075,0.06613236,-0.03067008,0.00383376
1779588381381784439,A_+,0.025697659062416278,2.3909090890145124,2.4814916771930178,-0.8266228403295544,0.0,-0.011274826967883369,0.0,0.792,0.0,0.0,0.0,0.0,0.0,-8.30655,-7.564724999999999,-0.222075,0.06613236,-0.03067008,0.00383376
1779588381396781921,A_+,0.026365447062516978,2.3878722161160417,2.4814916771930178,-0.8266228403295544,0.0,-0.011274826967883369,0.0,-0.425,0.0,0.0,0.0,0.0,0.0,10.74465,-7.611974999999999,-0.20789999999999997,0.06421548,-0.03258696,-0.0047922
1779588381396781921,A_+,0.027112216374916898,2.3878722161160417,2.4814916771930178,-0.8266228403295544,0.0,-0.011274826967883369,0.0,-0.425,0.0,0.0,0.0,0.0,0.0,10.74465,-7.611974999999999,-0.20789999999999997,0.06421548,-0.03258696,-0.0047922
1779588381396781921,A_+,0.027798865249906157,2.3878722161160417,2.4814916771930178,-0.8266228403295544,0.0,-0.011274826967883369,0.0,-0.425,0.0,0.0,0.0,0.0,0.0,10.74465,-7.611974999999999,-0.20789999999999997,0.06421548,-0.03258696,-0.0047922
1779588381426782608,A_+,0.028476816625016,2.3905251165790737,2.4814916771930178,-0.8266228403295544,0.0,-0.011274826967883369,0.0,-0.266,0.0,0.0,0.0,0.0,0.0,-1.0016999999999998,-7.7159249999999995,-0.23625,0.043129799999999996,-0.029711639999999997,0.00287532
1779588381426782608,A_+,0.029286862124990876,2.3905251165790737,2.4814916771930178,-0.8266228403295544,0.0,-0.011274826967883369,0.0,-0.266,0.0,0.0,0.0,0.0,0.0,-1.0016999999999998,-7.7159249999999995,-0.23625,0.043129799999999996,-0.029711639999999997,0.00287532
1779588381426782608,A_+,0.029964151562353436,2.3905251165790737,2.4814916771930178,-0.8266228403295544,0.0,-0.011274826967883369,0.0,-0.266,0.0,0.0,0.0,0.0,0.0,-1.0016999999999998,-7.7159249999999995,-0.23625,0.043129799999999996,-0.029711639999999997,0.00287532
1779588381447525739,A_+,0.030639233124929888,2.3885354412318,2.4814916771930178,-0.8266228403295544,0.0,-0.011274826967883369,0.0,-0.838,0.0,0.0,0.0,0.0,0.0,10.93365,-7.75845,-0.25987499999999997,0.05846484,-0.03162852,0.01150128
1779588381447525739,A_+,0.03140556125003968,2.3885354412318,2.4814916771930178,-0.8266228403295544,0.0,-0.011274826967883369,0.0,-0.838,0.0,0.0,0.0,0.0,0.0,10.93365,-7.75845,-0.25987499999999997,0.05846484,-0.03162852,0.01150128
1779588381447525739,A_+,0.03208645643735508,2.3885354412318,2.4814916771930178,-0.8266228403295544,0.0,-0.011274826967883369,0.0,-0.838,0.0,0.0,0.0,0.0,0.0,10.93365,-7.75845,-0.25987499999999997,0.05846484,-0.03162852,0.01150128
1779588381466900110,A_+,0.032759796124992135,2.3877849496534425,2.4814916771930178,-0.8266228403295544,0.0,-0.011274826967883369,0.0,-0.317,0.0,0.0,0.0,0.0,0.0,9.639,-7.60725,-0.29295,0.05846484,-0.03450384,0.00670908
1779588381466900110,A_+,0.03359463412493824,2.3877849496534425,2.4814916771930178,-0.8266228403295544,0.0,-0.011274826967883369,0.0,-0.317,0.0,0.0,0.0,0.0,0.0,9.639,-7.60725,-0.29295,0.05846484,-0.03450384,0.00670908
1779588381466900110,A_+,0.034276919312560494,2.3877849496534425,2.4814916771930178,-0.8266228403295544,0.0,-0.011274826967883369,0.0,-0.317,0.0,0.0,0.0,0.0,0.0,9.639,-7.60725,-0.29295,0.05846484,-0.03450384,0.00670908
1779588381486765861,A_+,0.03494565124992732,2.3902807704837943,2.4814916771930178,-0.8266228403295544,0.0,-0.011274826967883369,0.0,0.747,0.0,0.0,0.0,0.0,0.0,-6.657525,-7.593075,-0.14175,0.059423279999999995,-0.03737916,-0.00287532
1779588381486765861,A_+,0.03572014287487946,2.3902807704837943,2.4814916771930178,-0.8266228403295544,0.0,-0.011274826967883369,0.0,0.747,0.0,0.0,0.0,0.0,0.0,-6.657525,-7.593075,-0.14175,0.059423279999999995,-0.03737916,-0.00287532
1779588381486765861,A_+,0.03639438649997828,2.3902807704837943,2.4814916771930178,-0.8266228403295544,0.0,-0.011274826967883369,0.0,0.747,0.0,0.0,0.0,0.0,0.0,-6.657525,-7.593075,-0.14175,0.059423279999999995,-0.03737916,-0.00287532
1779588381501769542,A_+,0.03706868606241187,2.388151468796361,2.4814916771930178,-0.8266228403295544,0.0,-0.011274826967883369,0.0,-0.776,0.0,0.0,0.0,0.0,0.0,8.552249999999999,-7.77735,-0.25042499999999995,0.05750639999999999,-0.02779476,0.01150128
1779588381501769542,A_+,0.037801324187512364,2.388151468796361,2.4814916771930178,-0.8266228403295544,0.0,-0.011274826967883369,0.0,-0.776,0.0,0.0,0.0,0.0,0.0,8.552249999999999,-7.77735,-0.25042499999999995,0.05750639999999999,-0.02779476,0.01150128
1779588381501769542,A_+,0.03847758568736026,2.388151468796361,2.4814916771930178,-0.8266228403295544,0.0,-0.011274826967883369,0.0,-0.776,0.0,0.0,0.0,0.0,0.0,8.552249999999999,-7.77735,-0.25042499999999995,0.05750639999999999,-0.02779476,0.01150128
1779588381672897338,A_+,0.03914323387493823,2.3889368669597584,2.4814916771930178,-0.8266228403295544,0.0,-0.011274826967883369,0.0,-0.768,0.0,0.01,0.0,0.0,0.0,12.374775,-7.772625,-0.44887499999999997,0.06900768,-0.02779476,0.00862596
1779588381672897338,A_+,0.039879837750049774,2.3889368669597584,2.4814916771930178,-0.8266228403295544,0.0,-0.011274826967883369,0.0,-0.768,0.0,0.01,0.0,0.0,0.0,12.374775,-7.772625,-0.44887499999999997,0.06900768,-0.02779476,0.00862596
1779588381672897338,A_+,0.04055965499992453,2.3889368669597584,2.4814916771930178,-0.8266228403295544,0.0,-0.011274826967883369,0.0,-0.768,0.0,0.01,0.0,0.0,0.0,12.374775,-7.772625,-0.44887499999999997,0.06900768,-0.02779476,0.00862596
1779588381701848506,A_+,0.04123472062497058,2.3876627766058025,2.4814916771930178,-0.8266228403295544,0.0,-0.011274826967883369,0.0,-0.332,0.0,-0.065,0.001,0.0,0.0,0.326025,-7.7112,0.240975,0.01341816,-0.02300256,0.00575064
1779588381701848506,A_+,0.041951457687446236,2.3876627766058025,2.4814916771930178,-0.8266228403295544,0.0,-0.011274826967883369,0.0,-0.332,0.0,-0.065,0.001,0.0,0.0,0.326025,-7.7112,0.240975,0.01341816,-0.02300256,0.00575064
1779588381701848506,A_+,0.042638106562435496,2.3876627766058025,2.4814916771930178,-0.8266228403295544,0.0,-0.011274826967883369,0.0,-0.332,0.0,-0.065,0.001,0.0,0.0,0.326025,-7.7112,0.240975,0.01341816,-0.02300256,0.00575064
1779588381716763019,A_+,0.04331663393736562,2.387802402945962,2.4814916771930178,-0.8266228403295544,0.0,-0.011274826967883369,0.0,0.242,0.0,0.069,0.009000000000000001,0.0,0.0,2.37195,-7.583625,-0.42524999999999996,0.0191688,-0.03546228,-0.00575064
1779588381716763019,A_+,0.04405482568745356,2.387802402945962,2.4814916771930178,-0.8266228403295544,0.0,-0.011274826967883369,0.0,0.242,0.0,0.069,0.009000000000000001,0.0,0.0,2.37195,-7.583625,-0.42524999999999996,0.0191688,-0.03546228,-0.00575064
1779588381716763019,A_+,0.04476887293753862,2.387802402945962,2.4814916771930178,-0.8266228403295544,0.0,-0.011274826967883369,0.0,0.242,0.0,0.069,0.009000000000000001,0.0,0.0,2.37195,-7.583625,-0.42524999999999996,0.0191688,-0.03546228,-0.00575064
1779588381741766929,A_+,0.04544290456237832,2.3873835239254837,2.4814916771930178,-0.8266228403295544,0.0,-0.011274826967883369,0.0,-0.026000000000000002,0.0,-0.005,0.0,0.0,0.0,6.279525,-7.64505,-0.127575,0.04600512,-0.04025448,0.0191688
1779588381741766929,A_+,0.04617096499987383,2.3873835239254837,2.4814916771930178,-0.8266228403295544,0.0,-0.011274826967883369,0.0,-0.026000000000000002,0.0,-0.005,0.0,0.0,0.0,6.279525,-7.64505,-0.127575,0.04600512,-0.04025448,0.0191688
1779588381741766929,A_+,0.04685359412496837,2.3873835239254837,2.4814916771930178,-0.8266228403295544,0.0,-0.011274826967883369,0.0,-0.026000000000000002,0.0,-0.005,0.0,0.0,0.0,6.279525,-7.64505,-0.127575,0.04600512,-0.04025448,0.0191688
1779588381756761789,A_+,0.04753321137491184,2.3904378501164736,2.4814916771930178,-0.8266228403295544,0.0,-0.011274826967883369,0.0,0.162,0.0,0.002,0.0,0.0,0.0,-7.101675,-7.593075,-0.2457,0.048880440000000004,-0.03546228,0.00575064
1779588381756761789,A_+,0.04826145181255015,2.3904378501164736,2.4814916771930178,-0.8266228403295544,0.0,-0.011274826967883369,0.0,0.162,0.0,0.002,0.0,0.0,0.0,-7.101675,-7.593075,-0.2457,0.048880440000000004,-0.03546228,0.00575064
1779588381756761789,A_+,0.048942547000024206,2.3904378501164736,2.4814916771930178,-0.8266228403295544,0.0,-0.011274826967883369,0.0,0.162,0.0,0.002,0.0,0.0,0.0,-7.101675,-7.593075,-0.2457,0.048880440000000004,-0.03546228,0.00575064
1779588381776751756,A_+,0.04961793256234159,2.3872089910002843,2.4814916771930178,-0.8266228403295544,0.0,-0.011274826967883369,0.0,-0.343,0.0,0.003,0.0,0.0,0.0,9.908325,-7.70175,-0.3024,0.04600512,-0.02204412,0.0
1779588381776751756,A_+,0.05035285056237626,2.3872089910002843,2.4814916771930178,-0.8266228403295544,0.0,-0.011274826967883369,0.0,-0.343,0.0,0.003,0.0,0.0,0.0,9.908325,-7.70175,-0.3024,0.04600512,-0.02204412,0.0
1779588381776751756,A_+,0.05103030800000852,2.3872089910002843,2.4814916771930178,-0.8266228403295544,0.0,-0.011274826967883369,0.0,-0.343,0.0,0.003,0.0,0.0,0.0,9.908325,-7.70175,-0.3024,0.04600512,-0.02204412,0.0
1779588381791750669,A_+,0.051696568062425285,2.390612383041673,2.4814916771930178,-0.8266228403295544,0.0,-0.011274826967883369,0.0,0.68,0.0,0.045,0.0,0.0,0.0,-5.2164,-7.611974999999999,-0.6426,0.05654796,-0.03067008,-0.00670908
1779588381791750669,A_+,0.05241324912503842,2.390612383041673,2.4814916771930178,-0.8266228403295544,0.0,-0.011274826967883369,0.0,0.68,0.0,0.045,0.0,0.0,0.0,-5.2164,-7.611974999999999,-0.6426,0.05654796,-0.03067008,-0.00670908
1779588381791750669,A_+,0.05309723818754719,2.390612383041673,2.4814916771930178,-0.8266228403295544,0.0,-0.011274826967883369,0.0,0.68,0.0,0.045,0.0,0.0,0.0,-5.2164,-7.611974999999999,-0.6426,0.05654796,-0.03067008,-0.00670908
1779588381811744451,A_+,0.053763476312497005,2.3912930614499506,2.4814916771930178,-0.8266228403295544,0.0,-0.011274826967883369,0.0,-0.543,0.0,-0.031,0.0,0.0,0.0,3.3075,-7.583625,-0.35437499999999994,0.03929604,-0.03067008,0.00766752
1779588381811744451,A_+,0.05450835368742446,2.3912930614499506,2.4814916771930178,-0.8266228403295544,0.0,-0.011274826967883369,0.0,-0.543,0.0,-0.031,0.0,0.0,0.0,3.3075,-7.583625,-0.35437499999999994,0.03929604,-0.03067008,0.00766752
1779588381811744451,A_+,0.05518312724984753,2.3912930614499506,2.4814916771930178,-0.8266228403295544,0.0,-0.011274826967883369,0.0,-0.543,0.0,-0.031,0.0,0.0,0.0,3.3075,-7.583625,-0.35437499999999994,0.03929604,-0.03067008,0.00766752
1779588381831748723,A_+,0.055854243062412934,2.3883085484290407,2.4814916771930178,-0.8266228403295544,0.0,-0.011274826967883369,0.0,-0.20700000000000002,0.0,0.048,0.0,0.0,0.0,-1.8143999999999998,-7.649774999999999,-0.31185,0.03642072,-0.0335454,0.00383376
1779588381831748723,A_+,0.05658431137499065,2.3883085484290407,2.4814916771930178,-0.8266228403295544,0.0,-0.011274826967883369,0.0,-0.20700000000000002,0.0,0.048,0.0,0.0,0.0,-1.8143999999999998,-7.649774999999999,-0.31185,0.03642072,-0.0335454,0.00383376
1779588381831748723,A_+,0.057262184750015876,2.3883085484290407,2.4814916771930178,-0.8266228403295544,0.0,-0.011274826967883369,0.0,-0.20700000000000002,0.0,0.048,0.0,0.0,0.0,-1.8143999999999998,-7.649774999999999,-0.31185,0.03642072,-0.0335454,0.00383376
1779588381851750135,A_+,0.05796373675002542,2.387750043068402,2.4814916771930178,-0.8266228403295544,0.0,-0.011274826967883369,0.0,-0.859,0.0,0.035,0.0,0.0,0.0,11.23605,-7.64505,-0.65205,0.04408824,-0.03450384,0.0
1779588381851750135,A_+,0.05871759162505441,2.387750043068402,2.4814916771930178,-0.8266228403295544,0.0,-0.011274826967883369,0.0,-0.859,0.0,0.035,0.0,0.0,0.0,11.23605,-7.64505,-0.65205,0.04408824,-0.03450384,0.0
1779588381851750135,A_+,0.05940933018746364,2.387750043068402,2.4814916771930178,-0.8266228403295544,0.0,-0.011274826967883369,0.0,-0.859,0.0,0.035,0.0,0.0,0.0,11.23605,-7.64505,-0.65205,0.04408824,-0.03450384,0.0
1779588381876739263,A_+,0.06007055862505695,2.3877674963609223,2.4814916771930178,-0.8266228403295544,0.0,-0.011274826967883369,0.0,-0.28500000000000003,0.0,-0.045,0.0,0.0,0.0,8.693999999999999,-7.659224999999999,0.222075,0.05175576,-0.03067008,0.0
1779588381876739263,A_+,0.060781510062497546,2.3877674963609223,2.4814916771930178,-0.8266228403295544,0.0,-0.011274826967883369,0.0,-0.28500000000000003,0.0,-0.045,0.0,0.0,0.0,8.693999999999999,-7.659224999999999,0.222075,0.05175576,-0.03067008,0.0
1779588381876739263,A_+,0.06144591031238633,2.3877674963609223,2.4814916771930178,-0.8266228403295544,0.0,-0.011274826967883369,0.0,-0.28500000000000003,0.0,-0.045,0.0,0.0,0.0,8.693999999999999,-7.659224999999999,0.222075,0.05175576,-0.03067008,0.0
1779588381906742811,A_+,0.06211288237500412,2.3924100721712276,2.4814916771930178,-0.8266228403295544,0.0,-0.011274826967883369,0.0,-0.7020000000000001,0.0,0.013000000000000001,0.0,0.0,0.0,5.844825,-7.753724999999999,-0.477225,0.05750639999999999,-0.02587788,0.0095844
1779588381906742811,A_+,0.06281735418747303,2.3924100721712276,2.4814916771930178,-0.8266228403295544,0.0,-0.011274826967883369,0.0,-0.7020000000000001,0.0,0.013000000000000001,0.0,0.0,0.0,5.844825,-7.753724999999999,-0.477225,0.05750639999999999,-0.02587788,0.0095844
1779588381906742811,A_+,0.06348323037491355,2.3924100721712276,2.4814916771930178,-0.8266228403295544,0.0,-0.011274826967883369,0.0,-0.7020000000000001,0.0,0.013000000000000001,0.0,0.0,0.0,5.844825,-7.753724999999999,-0.477225,0.05750639999999999,-0.02587788,0.0095844
1779588381981744766,A_+,0.06414449681255974,2.392741684729106,2.4814916771930178,-0.8266228403295544,0.0,-0.011274826967883369,0.0,0.835,0.0,-0.034,0.0,0.0,0.0,-9.615375,-7.56,-0.19845,0.04217136,-0.03642072,0.00287532
1779588381981744766,A_+,0.06484799668737651,2.392741684729106,2.4814916771930178,-0.8266228403295544,0.0,-0.011274826967883369,0.0,0.835,0.0,-0.034,0.0,0.0,0.0,-9.615375,-7.56,-0.19845,0.04217136,-0.03642072,0.00287532
1779588381981744766,A_+,0.06552672406246529,2.392741684729106,2.4814916771930178,-0.8266228403295544,0.0,-0.011274826967883369,0.0,0.835,0.0,-0.034,0.0,0.0,0.0,-9.615375,-7.56,-0.19845,0.04217136,-0.03642072,0.00287532
1779588382061726570,A_+,0.0661928681874997,2.3929860308243853,2.4814916771930178,-0.8266228403295544,0.0,-0.011274826967883369,0.0,0.78,0.0,0.002,0.0,0.0,0.0,-8.391599999999999,-7.489125,-0.21262499999999998,0.03546228,0.02587788,-0.00095844
1779588382061726570,A_+,0.06692949012494864,2.3929860308243853,2.4814916771930178,-0.8266228403295544,0.0,-0.011274826967883369,0.0,0.78,0.0,0.002,0.0,0.0,0.0,-8.391599999999999,-7.489125,-0.21262499999999998,0.03546228,0.02587788,-0.00095844
1779588382061726570,A_+,0.06760754356241705,2.3929860308243853,2.4814916771930178,-0.8266228403295544,0.0,-0.011274826967883369,0.0,0.78,0.0,0.002,0.0,0.0,0.0,-8.391599999999999,-7.489125,-0.21262499999999998,0.03546228,0.02587788,-0.00095844
1779588382076724529,A_+,0.06827626349991078,2.3903331303613538,2.4814916771930178,-0.8266228403295544,0.0,-0.011274826967883369,0.0,-0.758,0.0,0.009000000000000001,0.0,0.0,0.0,6.58665,-7.640325,-0.37327499999999997,0.07284144,0.029711639999999997,0.0047922
1779588382076724529,A_+,0.06900962562485802,2.3903331303613538,2.4814916771930178,-0.8266228403295544,0.0,-0.011274826967883369,0.0,-0.758,0.0,0.009000000000000001,0.0,0.0,0.0,6.58665,-7.640325,-0.37327499999999997,0.07284144,0.029711639999999997,0.0047922
1779588382076724529,A_+,0.06968779106250622,2.3903331303613538,2.4814916771930178,-0.8266228403295544,0.0,-0.011274826967883369,0.0,-0.758,0.0,0.009000000000000001,0.0,0.0,0.0,6.58665,-7.640325,-0.37327499999999997,0.07284144,0.029711639999999997,0.0047922
1779588382092422723,A_+,0.07035879687487068,2.393684162525183,2.4814916771930178,-0.8266228403295544,0.0,-0.011274826967883369,0.0,0.395,0.0,-0.003,0.0,0.0,0.0,-10.428074999999998,-7.47495,-0.0945,0.03642072,0.023961,0.00287532
1779588382092422723,A_+,0.07110216037494865,2.393684162525183,2.4814916771930178,-0.8266228403295544,0.0,-0.011274826967883369,0.0,0.395,0.0,-0.003,0.0,0.0,0.0,-10.428074999999998,-7.47495,-0.0945,0.03642072,0.023961,0.00287532
1779588382092422723,A_+,0.0717784439375464,2.393684162525183,2.4814916771930178,-0.8266228403295544,0.0,-0.011274826967883369,0.0,0.395,0.0,-0.003,0.0,0.0,0.0,-10.428074999999998,-7.47495,-0.0945,0.03642072,0.023961,0.00287532
1779588382111740589,A_+,0.07244369212503443,2.394033228375582,2.4814916771930178,-0.8266228403295544,0.0,-0.011274826967883369,0.0,0.455,0.0,0.016,0.0,0.0,0.0,-10.91475,-7.640325,-0.2835,0.04025448,0.02300256,0.00287532
1779588382111740589,A_+,0.0731633509999483,2.394033228375582,2.4814916771930178,-0.8266228403295544,0.0,-0.011274826967883369,0.0,0.455,0.0,0.016,0.0,0.0,0.0,-10.91475,-7.640325,-0.2835,0.04025448,0.02300256,0.00287532
1779588382111740589,A_+,0.07384004056234517,2.394033228375582,2.4814916771930178,-0.8266228403295544,0.0,-0.011274826967883369,0.0,0.455,0.0,0.016,0.0,0.0,0.0,-10.91475,-7.640325,-0.2835,0.04025448,0.02300256,0.00287532
1779588382141722202,A_+,0.0745115543124939,2.394050681668102,2.4814916771930178,-0.8266228403295544,0.0,-0.011274826967883369,0.0,0.535,0.0,0.0,0.0,0.0,0.0,-11.51955,-7.47495,-0.20789999999999997,0.048880440000000004,0.02300256,0.014376599999999998
1779588382141722202,A_+,0.07523565099995722,2.394050681668102,2.4814916771930178,-0.8266228403295544,0.0,-0.011274826967883369,0.0,0.535,0.0,0.0,0.0,0.0,0.0,-11.51955,-7.47495,-0.20789999999999997,0.048880440000000004,0.02300256,0.014376599999999998
1779588382141722202,A_+,0.07590975868743044,2.394050681668102,2.4814916771930178,-0.8266228403295544,0.0,-0.011274826967883369,0.0,0.535,0.0,0.0,0.0,0.0,0.0,-11.51955,-7.47495,-0.20789999999999997,0.048880440000000004,0.02300256,0.014376599999999998
1779588382162380218,A_+,0.07657849062502464,2.39164212730035,2.4814916771930178,-0.8266228403295544,0.0,-0.011274826967883369,0.0,-0.621,0.0,0.0,0.0,0.0,0.0,3.77055,-7.659224999999999,-0.25042499999999995,0.06517392,0.03546228,-0.00670908
1779588382162380218,A_+,0.07731221475000893,2.39164212730035,2.4814916771930178,-0.8266228403295544,0.0,-0.011274826967883369,0.0,-0.621,0.0,0.0,0.0,0.0,0.0,3.77055,-7.659224999999999,-0.25042499999999995,0.06517392,0.03546228,-0.00670908
1779588382162380218,A_+,0.07799010418739272,2.39164212730035,2.4814916771930178,-0.8266228403295544,0.0,-0.011274826967883369,0.0,-0.621,0.0,0.0,0.0,0.0,0.0,3.77055,-7.659224999999999,-0.25042499999999995,0.06517392,0.03546228,-0.00670908
1779588382182033538,A_+,0.07866145999992114,2.3897222651231558,2.4814916771930178,-0.8266228403295544,0.0,-0.011274826967883369,0.0,-0.6910000000000001,0.0,-0.006,0.0,0.0,0.0,11.075399999999998,-7.6545,-0.1323,0.04025448,0.0335454,-0.00191688
1779588382182033538,A_+,0.07939593199989758,2.3897222651231558,2.4814916771930178,-0.8266228403295544,0.0,-0.011274826967883369,0.0,-0.6910000000000001,0.0,-0.006,0.0,0.0,0.0,11.075399999999998,-7.6545,-0.1323,0.04025448,0.0335454,-0.00191688
1779588382182033538,A_+,0.08007476137504455,2.3897222651231558,2.4814916771930178,-0.8266228403295544,0.0,-0.011274826967883369,0.0,-0.6910000000000001,0.0,-0.006,0.0,0.0,0.0,11.075399999999998,-7.6545,-0.1323,0.04025448,0.0335454,-0.00191688
1779588382197031497,A_+,0.08074109749986746,2.394033228375582,2.4814916771930178,-0.8266228403295544,0.0,-0.011274826967883369,0.0,0.6970000000000001,0.0,-0.015,0.0,0.0,0.0,-12.299175,-7.550549999999999,-0.061425,0.04600512,0.028753199999999996,0.00766752
1779588382197031497,A_+,0.08146998587494636,2.394033228375582,2.4814916771930178,-0.8266228403295544,0.0,-0.011274826967883369,0.0,0.6970000000000001,0.0,-0.015,0.0,0.0,0.0,-12.299175,-7.550549999999999,-0.061425,0.04600512,0.028753199999999996,0.00766752
1779588382197031497,A_+,0.08214858531255231,2.394033228375582,2.4814916771930178,-0.8266228403295544,0.0,-0.011274826967883369,0.0,0.6970000000000001,0.0,-0.015,0.0,0.0,0.0,-12.299175,-7.550549999999999,-0.061425,0.04600512,0.028753199999999996,0.00766752
1779588382221734523,A_+,0.08281855118752901,2.393876148742902,2.4814916771930178,-0.8266228403295544,0.0,-0.011274826967883369,0.0,0.809,0.0,-0.02,0.0,0.0,0.0,-12.478724999999999,-7.678125,-0.2646,0.05463108,0.02491944,-0.0047922
1779588382221734523,A_+,0.08355823893748493,2.393876148742902,2.4814916771930178,-0.8266228403295544,0.0,-0.011274826967883369,0.0,0.809,0.0,-0.02,0.0,0.0,0.0,-12.478724999999999,-7.678125,-0.2646,0.05463108,0.02491944,-0.0047922
1779588382221734523,A_+,0.08423694631255785,2.393876148742902,2.4814916771930178,-0.8266228403295544,0.0,-0.011274826967883369,0.0,0.809,0.0,-0.02,0.0,0.0,0.0,-12.478724999999999,-7.678125,-0.2646,0.05463108,0.02491944,-0.0047922
1779588382241723537,A_+,0.08490657624997766,2.389739718415676,2.4814916771930178,-0.8266228403295544,0.0,-0.011274826967883369,0.0,-0.864,0.0,-0.031,0.0,0.0,0.0,11.628224999999999,-7.630875,-0.2457,0.05846484,0.03450384,0.01245972
1779588382241723537,A_+,0.08563906037488778,2.389739718415676,2.4814916771930178,-0.8266228403295544,0.0,-0.011274826967883369,0.0,-0.864,0.0,-0.031,0.0,0.0,0.0,11.628224999999999,-7.630875,-0.2457,0.05846484,0.03450384,0.01245972
1779588382241723537,A_+,0.08631579587495253,2.389739718415676,2.4814916771930178,-0.8266228403295544,0.0,-0.011274826967883369,0.0,-0.864,0.0,-0.031,0.0,0.0,0.0,11.628224999999999,-7.630875,-0.2457,0.05846484,0.03450384,0.01245972
1779588382413014173,A_+,0.08698666974987646,2.390647289626713,2.4814916771930178,-0.8266228403295544,0.0,-0.011274826967883369,0.0,0.58,0.0,-0.096,0.0,0.0,0.0,-11.434499999999998,-7.6923,0.42997499999999994,0.05654796,0.028753199999999996,0.00670908
1779588382413014173,A_+,0.08770753456246894,2.390647289626713,2.4814916771930178,-0.8266228403295544,0.0,-0.011274826967883369,0.0,0.58,0.0,-0.096,0.0,0.0,0.0,-11.434499999999998,-7.6923,0.42997499999999994,0.05654796,0.028753199999999996,0.00670908
1779588382413014173,A_+,0.08843167724990053,2.390647289626713,2.4814916771930178,-0.8266228403295544,0.0,-0.011274826967883369,0.0,0.58,0.0,-0.096,0.0,0.0,0.0,-11.434499999999998,-7.6923,0.42997499999999994,0.05654796,0.028753199999999996,0.00670908
1779588382476711273,A_+,0.0891830503123856,2.38855289452432,2.4814916771930178,-0.8266228403295544,0.0,-0.011274826967883369,0.0,-0.8320000000000001,0.0,-0.093,0.0,0.0,0.0,9.695699999999999,-7.53165,0.19845,0.05175576,0.02779476,0.00383376
1779588382476711273,A_+,0.08996526349983469,2.38855289452432,2.4814916771930178,-0.8266228403295544,0.0,-0.011274826967883369,0.0,-0.8320000000000001,0.0,-0.093,0.0,0.0,0.0,9.695699999999999,-7.53165,0.19845,0.05175576,0.02779476,0.00383376
1779588382476711273,A_+,0.09065748806256124,2.38855289452432,2.4814916771930178,-0.8266228403295544,0.0,-0.011274826967883369,0.0,-0.8320000000000001,0.0,-0.093,0.0,0.0,0.0,9.695699999999999,-7.53165,0.19845,0.05175576,0.02779476,0.00383376
1779588382511699199,A_+,0.0913282718749997,2.391851566810589,2.4814916771930178,-0.8266228403295544,0.0,-0.011274826967883369,0.0,0.618,0.0,-0.046,0.0,0.0,0.0,-11.278575,-7.678125,-0.25987499999999997,0.07763364,0.02204412,0.0047922
1779588382511699199,A_+,0.09206136600005266,2.391851566810589,2.4814916771930178,-0.8266228403295544,0.0,-0.011274826967883369,0.0,0.618,0.0,-0.046,0.0,0.0,0.0,-11.278575,-7.678125,-0.25987499999999997,0.07763364,0.02204412,0.0047922
1779588382511699199,A_+,0.09273398174991598,2.391851566810589,2.4814916771930178,-0.8266228403295544,0.0,-0.011274826967883369,0.0,0.618,0.0,-0.046,0.0,0.0,0.0,-11.278575,-7.678125,-0.25987499999999997,0.07763364,0.02204412,0.0047922
1779588382541742324,A_+,0.09340081587492932,2.3907520093818326,2.4814916771930178,-0.8266228403295544,0.0,-0.011274826967883369,0.0,0.835,0.0,0.098,0.0,0.0,0.0,-11.647124999999999,-7.5222,-1.6065,0.052714199999999996,0.03067008,-0.01245972
1779588382541742324,A_+,0.09421173131249816,2.3907520093818326,2.4814916771930178,-0.8266228403295544,0.0,-0.011274826967883369,0.0,0.835,0.0,0.098,0.0,0.0,0.0,-11.647124999999999,-7.5222,-1.6065,0.052714199999999996,0.03067008,-0.01245972
1779588382541742324,A_+,0.0949018259998411,2.3907520093818326,2.4814916771930178,-0.8266228403295544,0.0,-0.011274826967883369,0.0,0.835,0.0,0.098,0.0,0.0,0.0,-11.647124999999999,-7.5222,-1.6065,0.052714199999999996,0.03067008,-0.01245972
1779588382576766252,A_+,0.09562999043737364,2.387854762823522,2.4814916771930178,-0.8266228403295544,0.0,-0.011274826967883369,0.0,-0.388,0.0,-0.051000000000000004,0.0,0.0,0.0,10.3383,-7.6686749999999995,-0.19372499999999998,0.03450384,0.02779476,0.01150128
1779588382576766252,A_+,0.09645918681235344,2.387854762823522,2.4814916771930178,-0.8266228403295544,0.0,-0.011274826967883369,0.0,-0.388,0.0,-0.051000000000000004,0.0,0.0,0.0,10.3383,-7.6686749999999995,-0.19372499999999998,0.03450384,0.02779476,0.01150128
1779588382576766252,A_+,0.09713727624989588,2.387854762823522,2.4814916771930178,-0.8266228403295544,0.0,-0.011274826967883369,0.0,-0.388,0.0,-0.051000000000000004,0.0,0.0,0.0,10.3383,-7.6686749999999995,-0.19372499999999998,0.03450384,0.02779476,0.01150128
1779588382607029914,A_+,0.09781040593748003,2.3904553034089933,2.4814916771930178,-0.8266228403295544,0.0,-0.011274826967883369,0.0,-0.28400000000000003,0.0,0.079,0.0,0.0,0.0,-0.760725,-7.593075,-0.31185,0.04025448,0.023961,0.00766752
1779588382607029914,A_+,0.09862464925004133,2.3904553034089933,2.4814916771930178,-0.8266228403295544,0.0,-0.011274826967883369,0.0,-0.28400000000000003,0.0,0.079,0.0,0.0,0.0,-0.760725,-7.593075,-0.31185,0.04025448,0.023961,0.00766752
1779588382607029914,A_+,0.09930436256240682,2.3904553034089933,2.4814916771930178,-0.8266228403295544,0.0,-0.011274826967883369,0.0,-0.28400000000000003,0.0,0.079,0.0,0.0,0.0,-0.760725,-7.593075,-0.31185,0.04025448,0.023961,0.00766752
1779588382642023324,A_+,0.09998541981235576,2.3907869159668724,2.4814916771930178,-0.8266228403295544,0.0,-0.011274826967883369,0.0,0.762,0.0,0.044,0.0,0.0,0.0,-7.68285,-7.62615,-0.63315,0.04408824,0.02683632,0.00862596
1779588382642023324,A_+,0.10072106974985218,2.3907869159668724,2.4814916771930178,-0.8266228403295544,0.0,-0.011274826967883369,0.0,0.762,0.0,0.044,0.0,0.0,0.0,-7.68285,-7.62615,-0.63315,0.04408824,0.02683632,0.00862596
1779588382642023324,A_+,0.10139967512486692,2.3907869159668724,2.4814916771930178,-0.8266228403295544,0.0,-0.011274826967883369,0.0,0.762,0.0,0.044,0.0,0.0,0.0,-7.68285,-7.62615,-0.63315,0.04408824,0.02683632,0.00862596
1779588382681691646,A_+,0.1020658652498696,2.3889892268373183,2.4814916771930178,-0.8266228403295544,0.0,-0.011274826967883369,0.0,-0.785,0.0,0.0,0.0,0.0,0.0,12.313349999999998,-7.602524999999999,-0.25515,0.05463108,0.03162852,0.01629348
1779588382681691646,A_+,0.10284491662491746,2.3889892268373183,2.4814916771930178,-0.8266228403295544,0.0,-0.011274826967883369,0.0,-0.785,0.0,0.0,0.0,0.0,0.0,12.313349999999998,-7.602524999999999,-0.25515,0.05463108,0.03162852,0.01629348
1779588382681691646,A_+,0.10354635268754464,2.3889892268373183,2.4814916771930178,-0.8266228403295544,0.0,-0.011274826967883369,0.0,-0.785,0.0,0.0,0.0,0.0,0.0,12.313349999999998,-7.602524999999999,-0.25515,0.05463108,0.03162852,0.01629348
1779588382716688632,A_+,0.10422605799999474,2.3917293937629496,2.4814916771930178,-0.8266228403295544,0.0,-0.011274826967883369,0.0,0.34600000000000003,0.0,-0.033,0.0,0.0,0.0,-9.5634,-7.597799999999999,-0.127575,0.0383376,0.03258696,0.0047922
1779588382716688632,A_+,0.10501894856247418,2.3917293937629496,2.4814916771930178,-0.8266228403295544,0.0,-0.011274826967883369,0.0,0.34600000000000003,0.0,-0.033,0.0,0.0,0.0,-9.5634,-7.597799999999999,-0.127575,0.0383376,0.03258696,0.0047922
1779588382716688632,A_+,0.10572992599986719,2.3917293937629496,2.4814916771930178,-0.8266228403295544,0.0,-0.011274826967883369,0.0,0.34600000000000003,0.0,-0.033,0.0,0.0,0.0,-9.5634,-7.597799999999999,-0.127575,0.0383376,0.03258696,0.0047922
1779588382751688241,A_+,0.10639637812505498,2.3892161196400776,2.4814916771930178,-0.8266228403295544,0.0,-0.011274826967883369,0.0,0.28500000000000003,0.0,0.002,0.0,0.0,0.0,1.0631249999999999,-7.60725,-0.2835,0.04983888,0.03067008,-0.00383376
1779588382751688241,A_+,0.1071378157498657,2.3892161196400776,2.4814916771930178,-0.8266228403295544,0.0,-0.011274826967883369,0.0,0.28500000000000003,0.0,0.002,0.0,0.0,0.0,1.0631249999999999,-7.60725,-0.2835,0.04983888,0.03067008,-0.00383376
1779588382751688241,A_+,0.10782403668736151,2.3892161196400776,2.4814916771930178,-0.8266228403295544,0.0,-0.011274826967883369,0.0,0.28500000000000003,0.0,0.002,0.0,0.0,0.0,1.0631249999999999,-7.60725,-0.2835,0.04983888,0.03067008,-0.00383376
1779588382781702518,A_+,0.10849362856242806,2.388849600497159,2.4814916771930178,-0.8266228403295544,0.0,-0.011274826967883369,0.0,-0.781,0.0,-0.014,0.0,0.0,0.0,8.651475,-7.536375,-0.061425,0.05846484,0.03929604,-0.00095844
1779588382781702518,A_+,0.10924874737497703,2.388849600497159,2.4814916771930178,-0.8266228403295544,0.0,-0.011274826967883369,0.0,-0.781,0.0,-0.014,0.0,0.0,0.0,8.651475,-7.536375,-0.061425,0.05846484,0.03929604,-0.00095844
1779588382781702518,A_+,0.1099323784999342,2.388849600497159,2.4814916771930178,-0.8266228403295544,0.0,-0.011274826967883369,0.0,-0.781,0.0,-0.014,0.0,0.0,0.0,8.651475,-7.536375,-0.061425,0.05846484,0.03929604,-0.00095844
1779588382806693315,A_+,0.11060364231252606,2.3898967980483556,2.4814916771930178,-0.8266228403295544,0.0,-0.011274826967883369,0.0,-0.5670000000000001,0.0,0.029,0.0,0.0,0.0,11.4912,-7.545824999999999,-0.3213,0.05175576,0.03737916,0.01054284
1779588382806693315,A_+,0.11133271068752038,2.3898967980483556,2.4814916771930178,-0.8266228403295544,0.0,-0.011274826967883369,0.0,-0.5670000000000001,0.0,0.029,0.0,0.0,0.0,11.4912,-7.545824999999999,-0.3213,0.05175576,0.03737916,0.01054284
1779588382806693315,A_+,0.11206991256244692,2.3898967980483556,2.4814916771930178,-0.8266228403295544,0.0,-0.011274826967883369,0.0,-0.5670000000000001,0.0,0.029,0.0,0.0,0.0,11.4912,-7.545824999999999,-0.3213,0.05175576,0.03737916,0.01054284
1779588382838306188,A_+,0.11274794999985716,2.3896000920755167,2.4814916771930178,-0.8266228403295544,0.0,-0.011274826967883369,0.0,-0.164,0.0,0.001,0.0,0.0,0.0,-2.877525,-7.597799999999999,-0.3024,0.05750639999999999,0.03737916,0.01150128
1779588382838306188,A_+,0.11346316318736172,2.3896000920755167,2.4814916771930178,-0.8266228403295544,0.0,-0.011274826967883369,0.0,-0.164,0.0,0.001,0.0,0.0,0.0,-2.877525,-7.597799999999999,-0.3024,0.05750639999999999,0.03737916,0.01150128
1779588382838306188,A_+,0.11413562693746826,2.3896000920755167,2.4814916771930178,-0.8266228403295544,0.0,-0.011274826967883369,0.0,-0.164,0.0,0.001,0.0,0.0,0.0,-2.877525,-7.597799999999999,-0.3024,0.05750639999999999,0.03737916,0.01150128
1779588382862519025,A_+,0.11479633337489759,2.3885878011093595,2.4814916771930178,-0.8266228403295544,0.0,-0.011274826967883369,0.0,-0.8270000000000001,0.0,-0.002,0.0,0.0,0.0,9.898875,-7.678125,-0.11339999999999999,0.05175576,0.03258696,-0.00670908
1779588382862519025,A_+,0.11549416562502302,2.3885878011093595,2.4814916771930178,-0.8266228403295544,0.0,-0.011274826967883369,0.0,-0.8270000000000001,0.0,-0.002,0.0,0.0,0.0,9.898875,-7.678125,-0.11339999999999999,0.05175576,0.03258696,-0.00670908
1779588382862519025,A_+,0.11616712537488638,2.3885878011093595,2.4814916771930178,-0.8266228403295544,0.0,-0.011274826967883369,0.0,-0.8270000000000001,0.0,-0.002,0.0,0.0,0.0,9.898875,-7.678125,-0.11339999999999999,0.05175576,0.03258696,-0.00670908
1779588382916682243,A_+,0.11682342006247382,2.3911534351097914,2.4814916771930178,-0.8266228403295544,0.0,-0.011274826967883369,0.0,-0.068,0.0,0.014,0.0,0.0,0.0,-4.2903,-7.640325,-0.0378,0.052714199999999996,0.028753199999999996,0.02012724
1779588382916682243,A_+,0.11751334481255071,2.3911534351097914,2.4814916771930178,-0.8266228403295544,0.0,-0.011274826967883369,0.0,-0.068,0.0,0.014,0.0,0.0,0.0,-4.2903,-7.640325,-0.0378,0.052714199999999996,0.028753199999999996,0.02012724
1779588382916682243,A_+,0.11817330731241782,2.3911534351097914,2.4814916771930178,-0.8266228403295544,0.0,-0.011274826967883369,0.0,-0.068,0.0,0.014,0.0,0.0,0.0,-4.2903,-7.640325,-0.0378,0.052714199999999996,0.028753199999999996,0.02012724
1779588382946673154,A_+,0.11883375975003219,2.3919213799806687,2.4814916771930178,-0.8266228403295544,0.0,-0.011274826967883369,0.0,0.463,0.0,-0.033,0.0,0.0,0.0,-10.7352,-7.640325,-0.31185,0.043129799999999996,0.029711639999999997,0.00095844
1779588382946673154,A_+,0.11952687824987152,2.3919213799806687,2.4814916771930178,-0.8266228403295544,0.0,-0.011274826967883369,0.0,0.463,0.0,-0.033,0.0,0.0,0.0,-10.7352,-7.640325,-0.31185,0.043129799999999996,0.029711639999999997,0.00095844
1779588382946673154,A_+,0.12018998656253643,2.3919213799806687,2.4814916771930178,-0.8266228403295544,0.0,-0.011274826967883369,0.0,0.463,0.0,-0.033,0.0,0.0,0.0,-10.7352,-7.640325,-0.31185,0.043129799999999996,0.029711639999999997,0.00095844
1779588382981677770,A_+,0.12084595931241893,2.390560023164113,2.4814916771930178,-0.8266228403295544,0.0,-0.011274826967883369,0.0,0.137,0.0,-0.063,0.0,0.0,0.0,3.4208999999999996,-7.583625,0.127575,0.05558952,0.02587788,0.00575064
1779588382981677770,A_+,0.12153471012493355,2.390560023164113,2.4814916771930178,-0.8266228403295544,0.0,-0.011274826967883369,0.0,0.137,0.0,-0.063,0.0,0.0,0.0,3.4208999999999996,-7.583625,0.127575,0.05558952,0.02587788,0.00575064
1779588382981677770,A_+,0.1221919028123466,2.390560023164113,2.4814916771930178,-0.8266228403295544,0.0,-0.011274826967883369,0.0,0.137,0.0,-0.063,0.0,0.0,0.0,3.4208999999999996,-7.583625,0.127575,0.05558952,0.02587788,0.00575064
1779588383006677865,A_+,0.1228465396250158,2.387942029286122,2.4814916771930178,-0.8266228403295544,0.0,-0.011274826967883369,0.0,-0.383,0.0,0.037,0.0,0.0,0.0,10.34775,-7.630875,-0.567,0.047922,0.048880440000000004,0.01150128
1779588383006677865,A_+,0.1235446398750355,2.387942029286122,2.4814916771930178,-0.8266228403295544,0.0,-0.011274826967883369,0.0,-0.383,0.0,0.037,0.0,0.0,0.0,10.34775,-7.630875,-0.567,0.047922,0.048880440000000004,0.01150128
1779588383006677865,A_+,0.12421353987497241,2.387942029286122,2.4814916771930178,-0.8266228403295544,0.0,-0.011274826967883369,0.0,-0.383,0.0,0.037,0.0,0.0,0.0,10.34775,-7.630875,-0.567,0.047922,0.048880440000000004,0.01150128
1779588383041676282,A_+,0.12488032999999632,2.3905251165790737,2.4814916771930178,-0.8266228403295544,0.0,-0.011274826967883369,0.0,-0.276,0.0,0.014,0.0,0.0,0.0,-0.8315999999999999,-7.6545,-0.326025,0.05654796,0.09009336,-0.00191688
1779588383041676282,A_+,0.1256038487499609,2.3905251165790737,2.4814916771930178,-0.8266228403295544,0.0,-0.011274826967883369,0.0,-0.276,0.0,0.014,0.0,0.0,0.0,-0.8315999999999999,-7.6545,-0.326025,0.05654796,0.09009336,-0.00191688
1779588383041676282,A_+,0.12627885837491704,2.3905251165790737,2.4814916771930178,-0.8266228403295544,0.0,-0.011274826967883369,0.0,-0.276,0.0,0.014,0.0,0.0,0.0,-0.8315999999999999,-7.6545,-0.326025,0.05654796,0.09009336,-0.00191688
1779588383066675424,A_+,0.12694491449997258,2.38851798793928,2.4814916771930178,-0.8266228403295544,0.0,-0.011274826967883369,0.0,-0.835,0.0,0.0,0.0,0.0,0.0,10.89585,-7.593075,-0.240975,0.05750639999999999,0.09488556,0.00670908
1779588383066675424,A_+,0.12767529281245515,2.38851798793928,2.4814916771930178,-0.8266228403295544,0.0,-0.011274826967883369,0.0,-0.835,0.0,0.0,0.0,0.0,0.0,10.89585,-7.593075,-0.240975,0.05750639999999999,0.09488556,0.00670908
1779588383066675424,A_+,0.1283587299374176,2.38851798793928,2.4814916771930178,-0.8266228403295544,0.0,-0.011274826967883369,0.0,-0.835,0.0,0.0,0.0,0.0,0.0,10.89585,-7.593075,-0.240975,0.05750639999999999,0.09488556,0.00670908
1779588383087977170,A_+,0.12902974781241028,2.3878722161160417,2.4814916771930178,-0.8266228403295544,0.0,-0.011274826967883369,0.0,-0.397,0.0,0.0,0.0,0.0,0.0,10.456425,-7.630875,-0.22679999999999997,0.05654796,0.08913491999999999,0.00670908
1779588383087977170,A_+,0.12975566643740422,2.3878722161160417,2.4814916771930178,-0.8266228403295544,0.0,-0.011274826967883369,0.0,-0.397,0.0,0.0,0.0,0.0,0.0,10.456425,-7.630875,-0.22679999999999997,0.05654796,0.08913491999999999,0.00670908
1779588383087977170,A_+,0.13043016206233915,2.3878722161160417,2.4814916771930178,-0.8266228403295544,0.0,-0.011274826967883369,0.0,-0.397,0.0,0.0,0.0,0.0,0.0,10.456425,-7.630875,-0.22679999999999997,0.05654796,0.08913491999999999,0.00670908
1779588383106673240,A_+,0.1311013199374429,2.389931704633395,2.4814916771930178,-0.8266228403295544,0.0,-0.011274826967883369,0.0,0.5630000000000001,0.0,0.0,0.0,0.0,0.0,-3.321675,-7.60725,-0.21262499999999998,0.05558952,0.08146740000000001,0.00095844
1779588383106673240,A_+,0.13183055831245838,2.389931704633395,2.4814916771930178,-0.8266228403295544,0.0,-0.011274826967883369,0.0,0.5630000000000001,0.0,0.0,0.0,0.0,0.0,-3.321675,-7.60725,-0.21262499999999998,0.05558952,0.08146740000000001,0.00095844
1779588383106673240,A_+,0.13251111962495088,2.389931704633395,2.4814916771930178,-0.8266228403295544,0.0,-0.011274826967883369,0.0,0.5630000000000001,0.0,0.0,0.0,0.0,0.0,-3.321675,-7.60725,-0.21262499999999998,0.05558952,0.08146740000000001,0.00095844
1779588383126672267,A_+,0.1331808195625399,2.3901935040211946,2.4814916771930178,-0.8266228403295544,0.0,-0.011274826967883369,0.0,-0.377,0.0,0.0,0.0,0.0,0.0,0.656775,-7.56,-0.2646,0.043129799999999996,0.09201024,-0.00670908
1779588383126672267,A_+,0.13391495162500178,2.3901935040211946,2.4814916771930178,-0.8266228403295544,0.0,-0.011274826967883369,0.0,-0.377,0.0,0.0,0.0,0.0,0.0,0.656775,-7.56,-0.2646,0.043129799999999996,0.09201024,-0.00670908
1779588383126672267,A_+,0.13459704487490853,2.3901935040211946,2.4814916771930178,-0.8266228403295544,0.0,-0.011274826967883369,0.0,-0.377,0.0,0.0,0.0,0.0,0.0,0.656775,-7.56,-0.2646,0.043129799999999996,0.09201024,-0.00670908
1779588383141700983,A_+,0.13526250506242832,2.3912930614499506,2.4814916771930178,-0.8266228403295544,0.0,-0.011274826967883369,0.0,-0.843,0.0,0.0,0.0,0.0,0.0,11.472299999999999,-7.6545,-0.23625,0.05367264,0.09776088000000001,0.01341816
1779588383141700983,A_+,0.13598513581246152,2.3912930614499506,2.4814916771930178,-0.8266228403295544,0.0,-0.011274826967883369,0.0,-0.843,0.0,0.0,0.0,0.0,0.0,11.472299999999999,-7.6545,-0.23625,0.05367264,0.09776088000000001,0.01341816
1779588383141700983,A_+,0.13666398524992474,2.3912930614499506,2.4814916771930178,-0.8266228403295544,0.0,-0.011274826967883369,0.0,-0.843,0.0,0.0,0.0,0.0,0.0,11.472299999999999,-7.6545,-0.23625,0.05367264,0.09776088000000001,0.01341816
1779588383156672954,A_+,0.13733022337487455,2.391240701572391,2.4814916771930178,-0.8266228403295544,0.0,-0.011274826967883369,0.0,0.8210000000000001,0.0,0.0,0.0,0.0,0.0,-9.51615,-7.593075,-0.23152499999999998,0.06325704,0.0910518,0.00095844
1779588383156672954,A_+,0.13803488124995056,2.391240701572391,2.4814916771930178,-0.8266228403295544,0.0,-0.011274826967883369,0.0,0.8210000000000001,0.0,0.0,0.0,0.0,0.0,-9.51615,-7.593075,-0.23152499999999998,0.06325704,0.0910518,0.00095844
1779588383156672954,A_+,0.1387052691250119,2.391240701572391,2.4814916771930178,-0.8266228403295544,0.0,-0.011274826967883369,0.0,0.8210000000000001,0.0,0.0,0.0,0.0,0.0,-9.51615,-7.593075,-0.23152499999999998,0.06325704,0.0910518,0.00095844
1779588383187030553,A_+,0.13937044937483734,2.3878198562384823,2.4814916771930178,-0.8266228403295544,0.0,-0.011274826967883369,0.0,0.544,0.0,0.0,0.0,0.0,0.0,-3.066525,-7.640325,-0.19845,0.059423279999999995,0.09488556,0.00862596
1779588383187030553,A_+,0.14008740450003643,2.3878198562384823,2.4814916771930178,-0.8266228403295544,0.0,-0.011274826967883369,0.0,0.544,0.0,0.0,0.0,0.0,0.0,-3.066525,-7.640325,-0.19845,0.059423279999999995,0.09488556,0.00862596
1779588383187030553,A_+,0.1407611421875572,2.3878198562384823,2.4814916771930178,-0.8266228403295544,0.0,-0.011274826967883369,0.0,0.544,0.0,0.0,0.0,0.0,0.0,-3.066525,-7.640325,-0.19845,0.059423279999999995,0.09488556,0.00862596
1779588383206987857,A_+,0.14142745031244885,2.3887623340345594,2.4814916771930178,-0.8266228403295544,0.0,-0.011274826967883369,0.0,0.069,0.0,0.0,0.0,0.0,0.0,4.3233749999999995,-7.630875,-0.222075,0.048880440000000004,0.09392712,0.01150128
1779588383206987857,A_+,0.14219400649994896,2.3887623340345594,2.4814916771930178,-0.8266228403295544,0.0,-0.011274826967883369,0.0,0.069,0.0,0.0,0.0,0.0,0.0,4.3233749999999995,-7.630875,-0.222075,0.048880440000000004,0.09392712,0.01150128
1779588383206987857,A_+,0.14286661424989688,2.3887623340345594,2.4814916771930178,-0.8266228403295544,0.0,-0.011274826967883369,0.0,0.069,0.0,0.0,0.0,0.0,0.0,4.3233749999999995,-7.630875,-0.222075,0.048880440000000004,0.09392712,0.01150128
1779588383236670970,A_+,0.14352744874986456,2.3895302789054367,2.4814916771930178,-0.8266228403295544,0.0,-0.011274826967883369,0.0,-0.436,0.0,0.0,0.0,0.0,0.0,10.6407,-7.5411,-0.222075,0.04504668,0.09296868,-0.0047922
1779588383236670970,A_+,0.14424241799997617,2.3895302789054367,2.4814916771930178,-0.8266228403295544,0.0,-0.011274826967883369,0.0,-0.436,0.0,0.0,0.0,0.0,0.0,10.6407,-7.5411,-0.222075,0.04504668,0.09296868,-0.0047922
1779588383236670970,A_+,0.14491841556241525,2.3895302789054367,2.4814916771930178,-0.8266228403295544,0.0,-0.011274826967883369,0.0,-0.436,0.0,0.0,0.0,0.0,0.0,10.6407,-7.5411,-0.222075,0.04504668,0.09296868,-0.0047922
1779588383297625780,A_+,0.14557978399989224,2.3885354412318,2.4814916771930178,-0.8266228403295544,0.0,-0.011274826967883369,0.0,-0.8170000000000001,0.0,0.0,0.0,0.0,0.0,9.62955,-7.6167,-0.23625,0.05463108,0.09009336,0.01245972
1779588383297625780,A_+,0.1462838758750422,2.3885354412318,2.4814916771930178,-0.8266228403295544,0.0,-0.011274826967883369,0.0,-0.8170000000000001,0.0,0.0,0.0,0.0,0.0,9.62955,-7.6167,-0.23625,0.05463108,0.09009336,0.01245972
1779588383297625780,A_+,0.14695072599988634,2.3885354412318,2.4814916771930178,-0.8266228403295544,0.0,-0.011274826967883369,0.0,-0.8170000000000001,0.0,0.0,0.0,0.0,0.0,9.62955,-7.6167,-0.23625,0.05463108,0.09009336,0.01245972
1779588383386656284,A_+,0.1476158601874431,2.3914501410826303,2.4814916771930178,-0.8266228403295544,0.0,-0.011274826967883369,0.0,0.605,0.0,0.0,0.0,0.0,0.0,-4.2288749999999995,-7.5789,-0.20789999999999997,0.05079731999999999,0.08721804,0.00191688
1779588383386656284,A_+,0.14832564175003426,2.3914501410826303,2.4814916771930178,-0.8266228403295544,0.0,-0.011274826967883369,0.0,0.605,0.0,0.0,0.0,0.0,0.0,-4.2288749999999995,-7.5789,-0.20789999999999997,0.05079731999999999,0.08721804,0.00191688
1779588383386656284,A_+,0.14899406381255176,2.3914501410826303,2.4814916771930178,-0.8266228403295544,0.0,-0.011274826967883369,0.0,0.605,0.0,0.0,0.0,0.0,0.0,-4.2288749999999995,-7.5789,-0.20789999999999997,0.05079731999999999,0.08721804,0.00191688
1779588383407244205,A_+,0.1496538743124347,2.3905949297491533,2.4814916771930178,-0.8266228403295544,0.0,-0.011274826967883369,0.0,-0.418,0.0,0.0,0.0,0.0,0.0,1.119825,-7.6545,-0.23152499999999998,0.04696356,0.09296868,-0.00191688
1779588383407244205,A_+,0.1503677956250158,2.3905949297491533,2.4814916771930178,-0.8266228403295544,0.0,-0.011274826967883369,0.0,-0.418,0.0,0.0,0.0,0.0,0.0,1.119825,-7.6545,-0.23152499999999998,0.04696356,0.09296868,-0.00191688
1779588383407244205,A_+,0.15104279725005654,2.3905949297491533,2.4814916771930178,-0.8266228403295544,0.0,-0.011274826967883369,0.0,-0.418,0.0,0.0,0.0,0.0,0.0,1.119825,-7.6545,-0.23152499999999998,0.04696356,0.09296868,-0.00191688
1779588383421689271,A_+,0.15170623756239365,2.388168922088881,2.4814916771930178,-0.8266228403295544,0.0,-0.011274826967883369,0.0,-0.842,0.0,0.0,0.0,0.0,0.0,11.713275,-7.687575,-0.240975,0.05846484,0.095844,0.00191688
1779588383421689271,A_+,0.152421418812537,2.388168922088881,2.4814916771930178,-0.8266228403295544,0.0,-0.011274826967883369,0.0,-0.842,0.0,0.0,0.0,0.0,0.0,11.713275,-7.687575,-0.240975,0.05846484,0.095844,0.00191688
1779588383421689271,A_+,0.15309449256255903,2.388168922088881,2.4814916771930178,-0.8266228403295544,0.0,-0.011274826967883369,0.0,-0.842,0.0,0.0,0.0,0.0,0.0,11.713275,-7.687575,-0.240975,0.05846484,0.095844,0.00191688
1779588383441637992,A_+,0.15376285056254346,2.388203828673921,2.4814916771930178,-0.8266228403295544,0.0,-0.011274826967883369,0.0,-0.279,0.0,0.0,0.0,0.0,0.0,8.9964,-7.597799999999999,-0.184275,0.04983888,0.09680244,0.00383376
1779588383441637992,A_+,0.1544744579998678,2.388203828673921,2.4814916771930178,-0.8266228403295544,0.0,-0.011274826967883369,0.0,-0.279,0.0,0.0,0.0,0.0,0.0,8.9964,-7.597799999999999,-0.184275,0.04983888,0.09680244,0.00383376
1779588383441637992,A_+,0.15514059018755688,2.388203828673921,2.4814916771930178,-0.8266228403295544,0.0,-0.011274826967883369,0.0,-0.279,0.0,0.0,0.0,0.0,0.0,8.9964,-7.597799999999999,-0.184275,0.04983888,0.09680244,0.00383376
1779588383486639022,A_+,0.15579960674995164,2.3889019603747186,2.4814916771930178,-0.8266228403295544,0.0,-0.011274826967883369,0.0,0.123,0.0,0.0,0.0,0.0,0.0,3.4492499999999997,-7.597799999999999,-0.240975,0.047922,0.09296868,0.00095844
1779588383486639022,A_+,0.15649704106249374,2.3889019603747186,2.4814916771930178,-0.8266228403295544,0.0,-0.011274826967883369,0.0,0.123,0.0,0.0,0.0,0.0,0.0,3.4492499999999997,-7.597799999999999,-0.240975,0.047922,0.09296868,0.00095844
1779588383486639022,A_+,0.15716253924983903,2.3889019603747186,2.4814916771930178,-0.8266228403295544,0.0,-0.011274826967883369,0.0,0.123,0.0,0.0,0.0,0.0,0.0,3.4492499999999997,-7.597799999999999,-0.240975,0.047922,0.09296868,0.00095844
1779588383511642932,A_+,0.1578266614999393,2.3913977812050704,2.4814916771930178,-0.8266228403295544,0.0,-0.011274826967883369,0.0,0.795,0.0,0.0,0.0,0.0,0.0,-8.98695,-7.62615,-0.21262499999999998,0.04025448,0.08530115999999999,-0.00575064
1779588383511642932,A_+,0.1585362990624617,2.3913977812050704,2.4814916771930178,-0.8266228403295544,0.0,-0.011274826967883369,0.0,0.795,0.0,0.0,0.0,0.0,0.0,-8.98695,-7.62615,-0.21262499999999998,0.04025448,0.08530115999999999,-0.00575064
1779588383511642932,A_+,0.15920224725005028,2.3913977812050704,2.4814916771930178,-0.8266228403295544,0.0,-0.011274826967883369,0.0,0.795,0.0,0.0,0.0,0.0,0.0,-8.98695,-7.62615,-0.21262499999999998,0.04025448,0.08530115999999999,-0.00575064
1779588383531639814,A_+,0.15985659612488234,2.3920260997357885,2.4814916771930178,-0.8266228403295544,0.0,-0.011274826967883369,0.0,0.61,0.0,0.0,0.0,0.0,0.0,-11.666024999999998,-7.6167,-0.2457,0.05750639999999999,0.09488556,0.00095844
1779588383531639814,A_+,0.16058179075002954,2.3920260997357885,2.4814916771930178,-0.8266228403295544,0.0,-0.011274826967883369,0.0,0.61,0.0,0.0,0.0,0.0,0.0,-11.666024999999998,-7.6167,-0.2457,0.05750639999999999,0.09488556,0.00095844
1779588383531639814,A_+,0.16126086412486984,2.3920260997357885,2.4814916771930178,-0.8266228403295544,0.0,-0.011274826967883369,0.0,0.61,0.0,0.0,0.0,0.0,0.0,-11.666024999999998,-7.6167,-0.2457,0.05750639999999999,0.09488556,0.00095844
1779588383566653966,A_+,0.16193352187497112,2.3885703478168394,2.4814916771930178,-0.8266228403295544,0.0,-0.011274826967883369,0.0,-0.019,0.0,0.0,0.0,0.0,0.0,5.703075,-7.597799999999999,-0.23625,0.043129799999999996,0.095844,-0.00095844
1779588383566653966,A_+,0.1626748055623466,2.3885703478168394,2.4814916771930178,-0.8266228403295544,0.0,-0.011274826967883369,0.0,-0.019,0.0,0.0,0.0,0.0,0.0,5.703075,-7.597799999999999,-0.23625,0.043129799999999996,0.095844,-0.00095844
1779588383566653966,A_+,0.16336882406244513,2.3885703478168394,2.4814916771930178,-0.8266228403295544,0.0,-0.011274826967883369,0.0,-0.019,0.0,0.0,0.0,0.0,0.0,5.703075,-7.597799999999999,-0.23625,0.043129799999999996,0.095844,-0.00095844
1779588383586630105,A_+,0.16403884800001833,2.3914675943751504,2.4814916771930178,-0.8266228403295544,0.0,-0.011274826967883369,0.0,0.738,0.0,0.0,0.0,0.0,0.0,-7.196175,-7.649774999999999,-0.20789999999999997,0.06421548,0.09296868,0.01341816
1779588383586630105,A_+,0.164782215500054,2.3914675943751504,2.4814916771930178,-0.8266228403295544,0.0,-0.011274826967883369,0.0,0.738,0.0,0.0,0.0,0.0,0.0,-7.196175,-7.649774999999999,-0.20789999999999997,0.06421548,0.09296868,0.01341816
1779588383586630105,A_+,0.1654627708123826,2.3914675943751504,2.4814916771930178,-0.8266228403295544,0.0,-0.011274826967883369,0.0,0.738,0.0,0.0,0.0,0.0,0.0,-7.196175,-7.649774999999999,-0.20789999999999997,0.06421548,0.09296868,0.01341816
1779588383636623382,A_+,0.16613874837503317,2.3909090890145124,2.4814916771930178,-0.8266228403295544,0.0,-0.011274826967883369,0.0,-0.129,0.0,0.0,0.0,0.0,0.0,-2.9625749999999997,-7.66395,-0.21735,0.052714199999999996,0.09201024,0.00287532
1779588383636623382,A_+,0.16687640624991218,2.3909090890145124,2.4814916771930178,-0.8266228403295544,0.0,-0.011274826967883369,0.0,-0.129,0.0,0.0,0.0,0.0,0.0,-2.9625749999999997,-7.66395,-0.21735,0.052714199999999996,0.09201024,0.00287532
1779588383636623382,A_+,0.16755408375001934,2.3909090890145124,2.4814916771930178,-0.8266228403295544,0.0,-0.011274826967883369,0.0,-0.129,0.0,0.0,0.0,0.0,0.0,-2.9625749999999997,-7.66395,-0.21735,0.052714199999999996,0.09201024,0.00287532
1779588383676637887,A_+,0.1682236516874127,2.389931704633395,2.4814916771930178,-0.8266228403295544,0.0,-0.011274826967883369,0.0,-0.508,0.0,0.0,0.0,0.0,0.0,2.697975,-7.64505,-0.25042499999999995,0.06421548,0.09488556,0.00383376
1779588383676637887,A_+,0.16895638987489292,2.389931704633395,2.4814916771930178,-0.8266228403295544,0.0,-0.011274826967883369,0.0,-0.508,0.0,0.0,0.0,0.0,0.0,2.697975,-7.64505,-0.25042499999999995,0.06421548,0.09488556,0.00383376
1779588383676637887,A_+,0.1696348913123984,2.389931704633395,2.4814916771930178,-0.8266228403295544,0.0,-0.011274826967883369,0.0,-0.508,0.0,0.0,0.0,0.0,0.0,2.697975,-7.64505,-0.25042499999999995,0.06421548,0.09488556,0.00383376
1779588383701966524,A_+,0.17030400124986045,2.3889892268373183,2.4814916771930178,-0.8266228403295544,0.0,-0.011274826967883369,0.0,-0.8180000000000001,0.0,0.0,0.0,0.0,0.0,12.053475,-7.630875,-0.22679999999999997,0.04983888,0.095844,0.00766752
1779588383701966524,A_+,0.17102133237494854,2.3889892268373183,2.4814916771930178,-0.8266228403295544,0.0,-0.011274826967883369,0.0,-0.8180000000000001,0.0,0.0,0.0,0.0,0.0,12.053475,-7.630875,-0.22679999999999997,0.04983888,0.095844,0.00766752
1779588383701966524,A_+,0.17169899181249093,2.3889892268373183,2.4814916771930178,-0.8266228403295544,0.0,-0.011274826967883369,0.0,-0.8180000000000001,0.0,0.0,0.0,0.0,0.0,12.053475,-7.630875,-0.22679999999999997,0.04983888,0.095844,0.00766752
1779588383731635808,A_+,0.17236885774991606,2.391799206933029,2.4814916771930178,-0.8266228403295544,0.0,-0.011274826967883369,0.0,-0.786,0.0,0.0,0.0,0.0,0.0,8.604225,-7.72065,-0.25515,0.0383376,0.09296868,-0.01533504
1779588383731635808,A_+,0.17309480637504748,2.391799206933029,2.4814916771930178,-0.8266228403295544,0.0,-0.011274826967883369,0.0,-0.786,0.0,0.0,0.0,0.0,0.0,8.604225,-7.72065,-0.25515,0.0383376,0.09296868,-0.01533504
1779588383731635808,A_+,0.17377155587496418,2.391799206933029,2.4814916771930178,-0.8266228403295544,0.0,-0.011274826967883369,0.0,-0.786,0.0,0.0,0.0,0.0,0.0,8.604225,-7.72065,-0.25515,0.0383376,0.09296868,-0.01533504
1779588383751626253,A_+,0.17443929193746044,2.3877674963609223,2.4814916771930178,-0.8266228403295544,0.0,-0.011274826967883369,0.0,-0.609,0.0,0.0,0.0,0.0,0.0,11.958975,-7.659224999999999,-0.222075,0.07859208,0.08913491999999999,0.01341816
1779588383751626253,A_+,0.17517566787500982,2.3877674963609223,2.4814916771930178,-0.8266228403295544,0.0,-0.011274826967883369,0.0,-0.609,0.0,0.0,0.0,0.0,0.0,11.958975,-7.659224999999999,-0.222075,0.07859208,0.08913491999999999,0.01341816
1779588383751626253,A_+,0.17584933962484683,2.3877674963609223,2.4814916771930178,-0.8266228403295544,0.0,-0.011274826967883369,0.0,-0.609,0.0,0.0,0.0,0.0,0.0,11.958975,-7.659224999999999,-0.222075,0.07859208,0.08913491999999999,0.01341816
1779588383771623611,A_+,0.1765159817498443,2.389111399884958,2.4814916771930178,-0.8266228403295544,0.0,-0.011274826967883369,0.0,0.251,0.0,0.0,0.0,0.0,0.0,1.61595,-7.68285,-0.25042499999999995,0.03929604,0.08817648,0.00575064
1779588383771623611,A_+,0.17723921449987756,2.389111399884958,2.4814916771930178,-0.8266228403295544,0.0,-0.011274826967883369,0.0,0.251,0.0,0.0,0.0,0.0,0.0,1.61595,-7.68285,-0.25042499999999995,0.03929604,0.08817648,0.00575064
1779588383771623611,A_+,0.1779149460624012,2.389111399884958,2.4814916771930178,-0.8266228403295544,0.0,-0.011274826967883369,0.0,0.251,0.0,0.0,0.0,0.0,0.0,1.61595,-7.68285,-0.25042499999999995,0.03929604,0.08817648,0.00575064
1779588383796628236,A_+,0.17857706043741928,2.3881340155038413,2.4814916771930178,-0.8266228403295544,0.0,-0.011274826967883369,0.0,-0.256,0.0,0.0,0.0,0.0,0.0,8.887725,-7.53165,-0.222075,0.05654796,0.08817648,0.0047922
1779588383796628236,A_+,0.179281808312453,2.3881340155038413,2.4814916771930178,-0.8266228403295544,0.0,-0.011274826967883369,0.0,-0.256,0.0,0.0,0.0,0.0,0.0,8.887725,-7.53165,-0.222075,0.05654796,0.08817648,0.0047922
1779588383796628236,A_+,0.1799512662498728,2.3881340155038413,2.4814916771930178,-0.8266228403295544,0.0,-0.011274826967883369,0.0,-0.256,0.0,0.0,0.0,0.0,0.0,8.887725,-7.53165,-0.222075,0.05654796,0.08817648,0.0047922
1779588383821679353,A_+,0.18061858637497608,2.390106237558595,2.4814916771930178,-0.8266228403295544,0.0,-0.011274826967883369,0.0,0.589,0.0,0.0,0.0,0.0,0.0,-3.869775,-7.56,-0.23625,0.048880440000000004,0.08913491999999999,0.0047922
1779588383821679353,A_+,0.18138001881243326,2.390106237558595,2.4814916771930178,-0.8266228403295544,0.0,-0.011274826967883369,0.0,0.589,0.0,0.0,0.0,0.0,0.0,-3.869775,-7.56,-0.23625,0.048880440000000004,0.08913491999999999,0.0047922
1779588383821679353,A_+,0.18206717174984988,2.390106237558595,2.4814916771930178,-0.8266228403295544,0.0,-0.011274826967883369,0.0,0.589,0.0,0.0,0.0,0.0,0.0,-3.869775,-7.56,-0.23625,0.048880440000000004,0.08913491999999999,0.0047922
1779588383871616601,A_+,0.18273939749997226,2.387907122701082,2.4814916771930178,-0.8266228403295544,0.0,-0.011274826967883369,0.0,-0.395,0.0,0.0,0.0,0.0,0.0,10.446974999999998,-7.64505,-0.21262499999999998,0.048880440000000004,0.08913491999999999,0.00670908
1779588383871616601,A_+,0.18344830512501176,2.387907122701082,2.4814916771930178,-0.8266228403295544,0.0,-0.011274826967883369,0.0,-0.395,0.0,0.0,0.0,0.0,0.0,10.446974999999998,-7.64505,-0.21262499999999998,0.048880440000000004,0.08913491999999999,0.00670908
1779588383871616601,A_+,0.18412048493746624,2.387907122701082,2.4814916771930178,-0.8266228403295544,0.0,-0.011274826967883369,0.0,-0.395,0.0,0.0,0.0,0.0,0.0,10.446974999999998,-7.64505,-0.21262499999999998,0.048880440000000004,0.08913491999999999,0.00670908
1779588383956923246,A_+,0.18477749962494272,2.388011842456202,2.4814916771930178,-0.8266228403295544,0.0,-0.011274826967883369,0.0,-0.468,0.0,0.0,0.0,0.0,0.0,11.136825,-7.659224999999999,-0.19372499999999998,0.06996611999999999,0.09009336,-0.00095844
1779588383956923246,A_+,0.18548778718741232,2.388011842456202,2.4814916771930178,-0.8266228403295544,0.0,-0.011274826967883369,0.0,-0.468,0.0,0.0,0.0,0.0,0.0,11.136825,-7.659224999999999,-0.19372499999999998,0.06996611999999999,0.09009336,-0.00095844
1779588383956923246,A_+,0.18616164887498599,2.388011842456202,2.4814916771930178,-0.8266228403295544,0.0,-0.011274826967883369,0.0,-0.468,0.0,0.0,0.0,0.0,0.0,11.136825,-7.659224999999999,-0.19372499999999998,0.06996611999999999,0.09009336,-0.00095844
1779588384006632328,A_+,0.18682455924999886,2.3883958148916404,2.4814916771930178,-0.8266228403295544,0.0,-0.011274826967883369,0.0,-0.075,0.0,0.0,0.0,0.0,0.0,6.728399999999999,-7.56,-0.20789999999999997,0.048880440000000004,0.08817648,0.0095844
1779588384006632328,A_+,0.18752928918752332,2.3883958148916404,2.4814916771930178,-0.8266228403295544,0.0,-0.011274826967883369,0.0,-0.075,0.0,0.0,0.0,0.0,0.0,6.728399999999999,-7.56,-0.20789999999999997,0.048880440000000004,0.08817648,0.0095844
1779588384006632328,A_+,0.18819775318752363,2.3883958148916404,2.4814916771930178,-0.8266228403295544,0.0,-0.011274826967883369,0.0,-0.075,0.0,0.0,0.0,0.0,0.0,6.728399999999999,-7.56,-0.20789999999999997,0.048880440000000004,0.08817648,0.0095844
1779588384046603441,A_+,0.18886284943755527,2.3892859328101577,2.4814916771930178,-0.8266228403295544,0.0,-0.00932005820564972,0.0,0.336,0.0,0.0,0.0,0.034,0.0,0.4961249999999999,-7.630875,-0.222075,0.04600512,0.14089068,0.00766752
1779588384046603441,A_+,0.18956979918743855,2.3892859328101577,2.4814916771930178,-0.8266228403295544,0.0,-0.00932005820564972,0.0,0.336,0.0,0.0,0.0,0.034,0.0,0.4961249999999999,-7.630875,-0.222075,0.04600512,0.14089068,0.00766752
1779588384046603441,A_+,0.19023641937496905,2.3892859328101577,2.4814916771930178,-0.8266228403295544,0.0,-0.00932005820564972,0.0,0.336,0.0,0.0,0.0,0.034,0.0,0.4961249999999999,-7.630875,-0.222075,0.04600512,0.14089068,0.00766752
1779588384101608276,A_+,0.1908981798123932,2.3914675943751504,2.4814916771930178,-0.8266228403295544,0.0,0.0,0.0,-0.649,0.0,0.012,0.0,0.201,0.0,12.133799999999999,-7.62615,-0.25042499999999995,0.04217136,0.12938940000000002,0.00862596
1779588384101608276,A_+,0.19163749962490328,2.3914675943751504,2.4814916771930178,-0.8266228403295544,0.0,0.0,0.0,-0.649,0.0,0.012,0.0,0.201,0.0,12.133799999999999,-7.62615,-0.25042499999999995,0.04217136,0.12938940000000002,0.00862596
1779588384101608276,A_+,0.19230701356241298,2.3914675943751504,2.4814916771930178,-0.8266228403295544,0.0,0.0,0.0,-0.649,0.0,0.012,0.0,0.201,0.0,12.133799999999999,-7.62615,-0.25042499999999995,0.04217136,0.12938940000000002,0.00862596
