deepaktalwardt/rage-cage-arm-hackstorm/ros2/ws/sysid/runs/sysid_20260524_014820/raw/joint2_phaseA_neg.csv
t_ns,phase,tau_cmd,q1,q2,q3,q4,q5,q6,qd1,qd2,qd3,qd4,qd5,qd6,tau1,tau2,tau3,tau4,tau5,tau6
1779587314764941930,A_-,-2.160004441975616e-07,0.0,1.4750824706155277,-2.9147347574155704,-0.09239773060057982,-0.01722639971718403,0.0,0.0,0.0,0.0,0.0,0.0,0.0,-0.316575,-0.4205249999999999,0.34964999999999996,0.00575064,-0.09201024,0.01629348
1779587314764941930,A_-,-0.003016319000380463,0.0,1.4750824706155277,-2.9147347574155704,-0.09239773060057982,-0.01722639971718403,0.0,0.0,0.0,0.0,0.0,0.0,0.0,-0.316575,-0.4205249999999999,0.34964999999999996,0.00575064,-0.09201024,0.01629348
1779587314764941930,A_-,-0.005696264500329562,0.0,1.4750824706155277,-2.9147347574155704,-0.09239773060057982,-0.01722639971718403,0.0,0.0,0.0,0.0,0.0,0.0,0.0,-0.316575,-0.4205249999999999,0.34964999999999996,0.00575064,-0.09201024,0.01629348
1779587314799944162,A_-,-0.008354947000043467,0.0,1.4750824706155277,-2.9147347574155704,-0.09239773060057982,-0.01722639971718403,0.0,0.0,0.0,0.0,0.0,0.0,0.0,-0.3213,-0.378,0.3591,-0.02204412,-0.09488556,0.00670908
1779587314799944162,A_-,-0.011315371750242775,0.0,1.4750824706155277,-2.9147347574155704,-0.09239773060057982,-0.01722639971718403,0.0,0.0,0.0,0.0,0.0,0.0,0.0,-0.3213,-0.378,0.3591,-0.02204412,-0.09488556,0.00670908
1779587314799944162,A_-,-0.014160112000354275,0.0,1.4750824706155277,-2.9147347574155704,-0.09239773060057982,-0.01722639971718403,0.0,0.0,0.0,0.0,0.0,0.0,0.0,-0.3213,-0.378,0.3591,-0.02204412,-0.09488556,0.00670908
1779587314829934835,A_-,-0.01682397824970394,0.0,1.4750824706155277,-2.9147347574155704,-0.09239773060057982,-0.01722639971718403,0.0,0.0,0.0,0.0,0.0,0.0,0.0,-0.3213,-0.382725,0.36382499999999995,0.02012724,-0.09009336,0.01245972
1779587314829934835,A_-,-0.019808682250186394,0.0,1.4750824706155277,-2.9147347574155704,-0.09239773060057982,-0.01722639971718403,0.0,0.0,0.0,0.0,0.0,0.0,0.0,-0.3213,-0.382725,0.36382499999999995,0.02012724,-0.09009336,0.01245972
1779587314829934835,A_-,-0.022552457749952737,0.0,1.4750824706155277,-2.9147347574155704,-0.09239773060057982,-0.01722639971718403,0.0,0.0,0.0,0.0,0.0,0.0,0.0,-0.3213,-0.382725,0.36382499999999995,0.02012724,-0.09009336,0.01245972
1779587314860025644,A_-,-0.02540998175027198,0.0,1.4750824706155277,-2.9147347574155704,-0.09239773060057982,-0.01722639971718403,0.0,0.0,0.0,0.0,0.0,0.0,0.0,-0.326025,-0.4205249999999999,0.34964999999999996,0.02012724,-0.095844,0.00862596
1779587314860025644,A_-,-0.028392845750204287,0.0,1.4750824706155277,-2.9147347574155704,-0.09239773060057982,-0.01722639971718403,0.0,0.0,0.0,0.0,0.0,0.0,0.0,-0.326025,-0.4205249999999999,0.34964999999999996,0.02012724,-0.095844,0.00862596
1779587314860025644,A_-,-0.03108959099972708,0.0,1.4750824706155277,-2.9147347574155704,-0.09239773060057982,-0.01722639971718403,0.0,0.0,0.0,0.0,0.0,0.0,0.0,-0.326025,-0.4205249999999999,0.34964999999999996,0.02012724,-0.095844,0.00862596
1779587314879936218,A_-,-0.03386390974992537,0.0,1.4750824706155277,-2.9147347574155704,-0.09239773060057982,-0.01722639971718403,0.0,0.0,0.0,0.0,0.0,0.0,0.0,-0.31185,-0.4205249999999999,0.36855,0.01245972,-0.10159463999999999,0.014376599999999998
1779587314879936218,A_-,-0.036903923750287504,0.0,1.4750824706155277,-2.9147347574155704,-0.09239773060057982,-0.01722639971718403,0.0,0.0,0.0,0.0,0.0,0.0,0.0,-0.31185,-0.4205249999999999,0.36855,0.01245972,-0.10159463999999999,0.014376599999999998
1779587314879936218,A_-,-0.0396241722501145,0.0,1.4750824706155277,-2.9147347574155704,-0.09239773060057982,-0.01722639971718403,0.0,0.0,0.0,0.0,0.0,0.0,0.0,-0.31185,-0.4205249999999999,0.36855,0.01245972,-0.10159463999999999,0.014376599999999998
1779587314929939985,A_-,-0.04230413400000543,0.0,1.4750824706155277,-2.9147347574155704,-0.09239773060057982,-0.01722639971718403,0.0,0.0,0.0,0.0,0.0,0.0,0.0,-0.31185,-0.42524999999999996,0.378,0.00766752,-0.08338428,0.01725192
1779587314929939985,A_-,-0.04526423049992445,0.0,1.4750824706155277,-2.9147347574155704,-0.09239773060057982,-0.01722639971718403,0.0,0.0,0.0,0.0,0.0,0.0,0.0,-0.31185,-0.42524999999999996,0.378,0.00766752,-0.08338428,0.01725192
1779587314929939985,A_-,-0.04797206350031047,0.0,1.4750824706155277,-2.9147347574155704,-0.09239773060057982,-0.01722639971718403,0.0,0.0,0.0,0.0,0.0,0.0,0.0,-0.31185,-0.42524999999999996,0.378,0.00766752,-0.08338428,0.01725192
1779587314964939594,A_-,-0.05063220174997696,0.0,1.4750824706155277,-2.9147347574155704,-0.09239773060057982,-0.01722639971718403,0.0,0.0,0.0,0.0,0.0,0.0,0.0,-0.3213,-0.3969,0.3591,0.00670908,-0.09871932,0.014376599999999998
1779587314964939594,A_-,-0.05352307675002521,0.0,1.4750824706155277,-2.9147347574155704,-0.09239773060057982,-0.01722639971718403,0.0,0.0,0.0,0.0,0.0,0.0,0.0,-0.3213,-0.3969,0.3591,0.00670908,-0.09871932,0.014376599999999998
1779587314964939594,A_-,-0.056211934000202746,0.0,1.4750824706155277,-2.9147347574155704,-0.09239773060057982,-0.01722639971718403,0.0,0.0,0.0,0.0,0.0,0.0,0.0,-0.3213,-0.3969,0.3591,0.00670908,-0.09871932,0.014376599999999998
1779587314999944210,A_-,-0.05889118375034741,0.0,1.4750824706155277,-2.9147347574155704,-0.09239773060057982,-0.01722639971718403,0.0,0.0,0.0,0.0,0.0,0.0,0.0,-0.335475,-0.45359999999999995,0.378,0.00670908,-0.10351152,0.01150128
1779587314999944210,A_-,-0.06190187900028832,0.0,1.4750824706155277,-2.9147347574155704,-0.09239773060057982,-0.01722639971718403,0.0,0.0,0.0,0.0,0.0,0.0,0.0,-0.335475,-0.45359999999999995,0.378,0.00670908,-0.10351152,0.01150128
1779587314999944210,A_-,-0.06461879949983995,0.0,1.4750824706155277,-2.9147347574155704,-0.09239773060057982,-0.01722639971718403,0.0,0.0,0.0,0.0,0.0,0.0,0.0,-0.335475,-0.45359999999999995,0.378,0.00670908,-0.10351152,0.01150128
1779587315034923791,A_-,-0.06726920999972208,0.0,1.4750824706155277,-2.9147347574155704,-0.09239773060057982,-0.01722639971718403,0.0,0.0,0.0,0.0,0.0,0.0,0.0,-0.316575,-0.38744999999999996,0.382725,0.01725192,-0.09201024,0.01245972
1779587315034923791,A_-,-0.07032483975035575,0.0,1.4750824706155277,-2.9147347574155704,-0.09239773060057982,-0.01722639971718403,0.0,0.0,0.0,0.0,0.0,0.0,0.0,-0.316575,-0.38744999999999996,0.382725,0.01725192,-0.09201024,0.01245972
1779587315034923791,A_-,-0.07299689775027218,0.0,1.4750824706155277,-2.9147347574155704,-0.09239773060057982,-0.01722639971718403,0.0,0.0,0.0,0.0,0.0,0.0,0.0,-0.316575,-0.38744999999999996,0.382725,0.01725192,-0.09201024,0.01245972
1779587315069990873,A_-,-0.07565527625047253,0.0,1.4750824706155277,-2.9147347574155704,-0.09239773060057982,-0.01722639971718403,0.0,0.0,0.0,0.0,0.0,0.0,0.0,-0.29767499999999997,-0.382725,0.382725,0.01150128,-0.095844,0.014376599999999998
1779587315069990873,A_-,-0.0785486149998178,0.0,1.4750824706155277,-2.9147347574155704,-0.09239773060057982,-0.01722639971718403,0.0,0.0,0.0,0.0,0.0,0.0,0.0,-0.29767499999999997,-0.382725,0.382725,0.01150128,-0.095844,0.014376599999999998
1779587315069990873,A_-,-0.08125445600035164,0.0,1.4750824706155277,-2.9147347574155704,-0.09239773060057982,-0.01722639971718403,0.0,0.0,0.0,0.0,0.0,0.0,0.0,-0.29767499999999997,-0.382725,0.382725,0.01150128,-0.095844,0.014376599999999998
1779587315099921703,A_-,-0.08393364175026363,0.0,1.4750824706155277,-2.9147347574155704,-0.09239773060057982,-0.01722639971718403,0.0,0.0,0.0,0.0,0.0,0.0,0.0,-0.3213,-0.40635,0.378,0.0095844,-0.08721804,0.0095844
1779587315099921703,A_-,-0.08686757124996802,0.0,1.4750824706155277,-2.9147347574155704,-0.09239773060057982,-0.01722639971718403,0.0,0.0,0.0,0.0,0.0,0.0,0.0,-0.3213,-0.40635,0.378,0.0095844,-0.08721804,0.0095844
1779587315099921703,A_-,-0.0895995472501454,0.0,1.4750824706155277,-2.9147347574155704,-0.09239773060057982,-0.01722639971718403,0.0,0.0,0.0,0.0,0.0,0.0,0.0,-0.3213,-0.40635,0.378,0.0095844,-0.08721804,0.0095844
1779587315134938955,A_-,-0.09227469325014681,0.0,1.4750824706155277,-2.9147347574155704,-0.09239773060057982,-0.01722639971718403,0.0,0.0,0.0,0.0,0.0,0.0,0.0,-0.326025,-0.401625,0.36382499999999995,0.01245972,-0.08530115999999999,0.0095844
1779587315134938955,A_-,-0.0951921592504732,0.0,1.4750824706155277,-2.9147347574155704,-0.09239773060057982,-0.01722639971718403,0.0,0.0,0.0,0.0,0.0,0.0,0.0,-0.326025,-0.401625,0.36382499999999995,0.01245972,-0.08530115999999999,0.0095844
1779587315134938955,A_-,-0.09795867024968175,0.0,1.4750824706155277,-2.9147347574155704,-0.09239773060057982,-0.01722639971718403,0.0,0.0,0.0,0.0,0.0,0.0,0.0,-0.326025,-0.401625,0.36382499999999995,0.01245972,-0.08530115999999999,0.0095844
1779587315164927482,A_-,-0.10063436800010095,0.0,1.4750824706155277,-2.9147347574155704,-0.09239773060057982,-0.01722639971718403,0.0,0.0,0.0,0.0,0.0,0.0,0.0,-0.316575,-0.37327499999999997,0.3591,0.0095844,-0.09871932,0.01245972
1779587315164927482,A_-,-0.10353989049963275,0.0,1.4750824706155277,-2.9147347574155704,-0.09239773060057982,-0.01722639971718403,0.0,0.0,0.0,0.0,0.0,0.0,0.0,-0.316575,-0.37327499999999997,0.3591,0.0095844,-0.09871932,0.01245972
1779587315164927482,A_-,-0.1062413634999757,0.0,1.4750824706155277,-2.9147347574155704,-0.09239773060057982,-0.01722639971718403,0.0,0.0,0.0,0.0,0.0,0.0,0.0,-0.316575,-0.37327499999999997,0.3591,0.0095844,-0.09871932,0.01245972
1779587315199922561,A_-,-0.10890566175021377,0.0,1.4750824706155277,-2.9147347574155704,-0.09239773060057982,-0.01722639971718403,0.0,0.0,0.0,0.0,0.0,0.0,0.0,-0.326025,-0.401625,0.37327499999999997,0.0095844,-0.0910518,0.00862596
1779587315199922561,A_-,-0.11183705550047307,0.0,1.4750824706155277,-2.9147347574155704,-0.09239773060057982,-0.01722639971718403,0.0,0.0,0.0,0.0,0.0,0.0,0.0,-0.326025,-0.401625,0.37327499999999997,0.0095844,-0.0910518,0.00862596
1779587315199922561,A_-,-0.1145244087501851,0.0,1.4750824706155277,-2.9147347574155704,-0.09239773060057982,-0.01722639971718403,0.0,0.0,0.0,0.0,0.0,0.0,0.0,-0.326025,-0.401625,0.37327499999999997,0.0095844,-0.0910518,0.00862596
1779587315234931230,A_-,-0.11718297925017396,0.0,1.4750824706155277,-2.9147347574155704,-0.09239773060057982,-0.01722639971718403,0.0,0.0,0.0,0.0,0.0,0.0,0.0,-0.33075,-0.44415,0.335475,0.0095844,-0.09296868,0.01150128
1779587315234931230,A_-,-0.12006695049967675,0.0,1.4750824706155277,-2.9147347574155704,-0.09239773060057982,-0.01722639971718403,0.0,0.0,0.0,0.0,0.0,0.0,0.0,-0.33075,-0.44415,0.335475,0.0095844,-0.09296868,0.01150128
1779587315234931230,A_-,-0.12277834324959258,0.0,1.4750824706155277,-2.9147347574155704,-0.09239773060057982,-0.01722639971718403,0.0,0.0,0.0,0.0,0.0,0.0,0.0,-0.33075,-0.44415,0.335475,0.0095844,-0.09296868,0.01150128
1779587315259949207,A_-,-0.1254527049995886,0.0,1.4750824706155277,-2.9147347574155704,-0.09239773060057982,-0.01722639971718403,0.0,0.0,0.0,0.0,0.0,0.0,0.0,-0.3213,-0.3449249999999999,0.378,0.00095844,-0.095844,0.00766752
1779587315259949207,A_-,-0.128352667749823,0.0,1.4750824706155277,-2.9147347574155704,-0.09239773060057982,-0.01722639971718403,0.0,0.0,0.0,0.0,0.0,0.0,0.0,-0.3213,-0.3449249999999999,0.378,0.00095844,-0.095844,0.00766752
1779587315259949207,A_-,-0.1310749880003641,0.0,1.4750824706155277,-2.9147347574155704,-0.09239773060057982,-0.01722639971718403,0.0,0.0,0.0,0.0,0.0,0.0,0.0,-0.3213,-0.3449249999999999,0.378,0.00095844,-0.095844,0.00766752
1779587315299926280,A_-,-0.13375530975008587,0.0,1.4750824706155277,-2.9147347574155704,-0.09239773060057982,-0.01722639971718403,0.0,0.0,0.0,0.0,0.0,0.0,0.0,-0.35437499999999994,-0.42524999999999996,0.37327499999999997,0.00575064,-0.09296868,0.01341816
1779587315299926280,A_-,-0.13667303975034883,0.0,1.4750824706155277,-2.9147347574155704,-0.09239773060057982,-0.01722639971718403,0.0,0.0,0.0,0.0,0.0,0.0,0.0,-0.35437499999999994,-0.42524999999999996,0.37327499999999997,0.00575064,-0.09296868,0.01341816
1779587315299926280,A_-,-0.1394201035000151,0.0,1.4750824706155277,-2.9147347574155704,-0.09239773060057982,-0.01722639971718403,0.0,0.0,0.0,0.0,0.0,0.0,0.0,-0.35437499999999994,-0.42524999999999996,0.37327499999999997,0.00575064,-0.09296868,0.01341816
1779587315330042600,A_-,-0.14209414524975728,0.0,1.4750824706155277,-2.9147347574155704,-0.09239773060057982,-0.01722639971718403,0.0,0.0,0.0,0.0,0.0,0.0,0.0,-0.34964999999999996,-0.44415,0.3591,0.01533504,-0.09776088000000001,0.01150128
1779587315330042600,A_-,-0.1450466262504051,0.0,1.4750824706155277,-2.9147347574155704,-0.09239773060057982,-0.01722639971718403,0.0,0.0,0.0,0.0,0.0,0.0,0.0,-0.34964999999999996,-0.44415,0.3591,0.01533504,-0.09776088000000001,0.01150128
1779587315330042600,A_-,-0.14772282025023742,0.0,1.4750824706155277,-2.9147347574155704,-0.09239773060057982,-0.01722639971718403,0.0,0.0,0.0,0.0,0.0,0.0,0.0,-0.34964999999999996,-0.44415,0.3591,0.01533504,-0.09776088000000001,0.01150128
1779587315364925622,A_-,-0.15039495825021731,0.0,1.4750824706155277,-2.9147347574155704,-0.09239773060057982,-0.01722639971718403,0.0,0.0,0.0,0.0,0.0,0.0,0.0,-0.326025,-0.38744999999999996,0.3591,0.01341816,-0.09201024,0.00575064
1779587315364925622,A_-,-0.15331149625035323,0.0,1.4750824706155277,-2.9147347574155704,-0.09239773060057982,-0.01722639971718403,0.0,0.0,0.0,0.0,0.0,0.0,0.0,-0.326025,-0.38744999999999996,0.3591,0.01341816,-0.09201024,0.00575064
1779587315364925622,A_-,-0.15604892000010295,0.0,1.4750824706155277,-2.9147347574155704,-0.09239773060057982,-0.01722639971718403,0.0,0.0,0.0,0.0,0.0,0.0,0.0,-0.326025,-0.38744999999999996,0.3591,0.01341816,-0.09201024,0.00575064
1779587315390151977,A_-,-0.15872080999997706,0.0,1.4750824706155277,-2.9147347574155704,-0.09239773060057982,-0.01722639971718403,0.0,0.0,0.0,0.0,0.0,0.0,0.0,-0.335475,-0.37327499999999997,0.37327499999999997,0.01054284,-0.09967776,0.01150128
1779587315390151977,A_-,-0.16163621225041425,0.0,1.4750824706155277,-2.9147347574155704,-0.09239773060057982,-0.01722639971718403,0.0,0.0,0.0,0.0,0.0,0.0,0.0,-0.335475,-0.37327499999999997,0.37327499999999997,0.01054284,-0.09967776,0.01150128
1779587315390151977,A_-,-0.16433873324967863,0.0,1.4750824706155277,-2.9147347574155704,-0.09239773060057982,-0.01722639971718403,0.0,0.0,0.0,0.0,0.0,0.0,0.0,-0.335475,-0.37327499999999997,0.37327499999999997,0.01054284,-0.09967776,0.01150128
1779587315434923648,A_-,-0.16700159149968385,0.0,1.4750824706155277,-2.9147347574155704,-0.09239773060057982,-0.01722639971718403,0.0,0.0,0.0,0.0,0.0,0.0,0.0,-0.33075,-0.4205249999999999,0.37327499999999997,0.01245972,-0.09201024,0.0095844
1779587315434923648,A_-,-0.16993256124987965,0.0,1.4750824706155277,-2.9147347574155704,-0.09239773060057982,-0.01722639971718403,0.0,0.0,0.0,0.0,0.0,0.0,0.0,-0.33075,-0.4205249999999999,0.37327499999999997,0.01245972,-0.09201024,0.0095844
1779587315434923648,A_-,-0.1726507537496218,0.0,1.4750824706155277,-2.9147347574155704,-0.09239773060057982,-0.01722639971718403,0.0,0.0,0.0,0.0,0.0,0.0,0.0,-0.33075,-0.4205249999999999,0.37327499999999997,0.01245972,-0.09201024,0.0095844
1779587315459923505,A_-,-0.17529473250033334,0.0,1.4750824706155277,-2.9147347574155704,-0.09239773060057982,-0.01722639971718403,0.0,0.0,0.0,0.0,0.0,0.0,0.0,-0.316575,-0.42524999999999996,0.36382499999999995,0.00670908,-0.095844,0.0191688
1779587315459923505,A_-,-0.17810790600015025,0.0,1.4750824706155277,-2.9147347574155704,-0.09239773060057982,-0.01722639971718403,0.0,0.0,0.0,0.0,0.0,0.0,0.0,-0.316575,-0.42524999999999996,0.36382499999999995,0.00670908,-0.095844,0.0191688
1779587315459923505,A_-,-0.18076726849994884,0.0,1.4750824706155277,-2.9147347574155704,-0.09239773060057982,-0.01722639971718403,0.0,0.0,0.0,0.0,0.0,0.0,0.0,-0.316575,-0.42524999999999996,0.36382499999999995,0.00670908,-0.095844,0.0191688
1779587315499921083,A_-,-0.1834011355003895,0.0,1.4750824706155277,-2.9147347574155704,-0.09239773060057982,-0.01722639971718403,0.0,0.0,0.0,0.0,0.0,0.0,0.0,-0.3213,-0.42524999999999996,0.36855,0.00670908,-0.0910518,0.01150128
1779587315499921083,A_-,-0.1862325165002403,0.0,1.4750824706155277,-2.9147347574155704,-0.09239773060057982,-0.01722639971718403,0.0,0.0,0.0,0.0,0.0,0.0,0.0,-0.3213,-0.42524999999999996,0.36855,0.00670908,-0.0910518,0.01150128
1779587315499921083,A_-,-0.1889578607497242,0.0,1.4750824706155277,-2.9147347574155704,-0.09239773060057982,-0.01722639971718403,0.0,0.0,0.0,0.0,0.0,0.0,0.0,-0.3213,-0.42524999999999996,0.36855,0.00670908,-0.0910518,0.01150128
1779587315524904012,A_-,-0.19165162199988117,0.0,1.4750824706155277,-2.9147347574155704,-0.09239773060057982,-0.01722639971718403,0.0,0.0,0.0,0.0,0.0,0.0,0.0,-0.33075,-0.401625,0.36855,0.00670908,-0.09392712,0.014376599999999998
1779587315524904012,A_-,-0.1944493880000664,0.0,1.4750824706155277,-2.9147347574155704,-0.09239773060057982,-0.01722639971718403,0.0,0.0,0.0,0.0,0.0,0.0,0.0,-0.33075,-0.401625,0.36855,0.00670908,-0.09392712,0.014376599999999998
1779587315524904012,A_-,-0.19712922975031688,0.0,1.4750824706155277,-2.9147347574155704,-0.09239773060057982,-0.01722639971718403,0.0,0.0,0.0,0.0,0.0,0.0,0.0,-0.33075,-0.401625,0.36855,0.00670908,-0.09392712,0.014376599999999998
1779587315549920558,A_-,-0.1997936480001954,0.0,1.4750824706155277,-2.9147347574155704,-0.09239773060057982,-0.01722639971718403,0.0,0.0,0.0,0.0,0.0,0.0,0.0,-0.34964999999999996,-0.411075,0.36382499999999995,0.0095844,-0.09296868,0.01725192
1779587315549920558,A_-,-0.20269193849981093,0.0,1.4750824706155277,-2.9147347574155704,-0.09239773060057982,-0.01722639971718403,0.0,0.0,0.0,0.0,0.0,0.0,0.0,-0.34964999999999996,-0.411075,0.36382499999999995,0.0095844,-0.09296868,0.01725192
1779587315549920558,A_-,-0.20540316324968444,0.0,1.4750824706155277,-2.9147347574155704,-0.09239773060057982,-0.01722639971718403,0.0,0.0,0.0,0.0,0.0,0.0,0.0,-0.34964999999999996,-0.411075,0.36382499999999995,0.0095844,-0.09296868,0.01725192
1779587315564920902,A_-,-0.20807287724983325,0.0,1.4750824706155277,-2.9147347574155704,-0.09239773060057982,-0.01722639971718403,0.0,0.0,0.0,0.0,0.0,0.0,0.0,-0.34964999999999996,-0.42524999999999996,0.378,0.01245972,-0.09201024,-0.00287532
1779587315564920902,A_-,-0.21099710324961052,0.0,1.4750824706155277,-2.9147347574155704,-0.09239773060057982,-0.01722639971718403,0.0,0.0,0.0,0.0,0.0,0.0,0.0,-0.34964999999999996,-0.42524999999999996,0.378,0.01245972,-0.09201024,-0.00287532
1779587315564920902,A_-,-0.21368669675030105,0.0,1.4750824706155277,-2.9147347574155704,-0.09239773060057982,-0.01722639971718403,0.0,0.0,0.0,0.0,0.0,0.0,0.0,-0.34964999999999996,-0.42524999999999996,0.378,0.01245972,-0.09201024,-0.00287532
1779587315585456371,A_-,-0.21636007449978933,0.0,1.4750824706155277,-2.9147347574155704,-0.09239773060057982,-0.01722639971718403,0.0,0.0,0.0,0.0,0.0,0.0,0.0,-0.316575,-0.3591,0.335475,0.01054284,-0.09776088000000001,0.00862596
1779587315585456371,A_-,-0.2192741967501206,0.0,1.4750824706155277,-2.9147347574155704,-0.09239773060057982,-0.01722639971718403,0.0,0.0,0.0,0.0,0.0,0.0,0.0,-0.316575,-0.3591,0.335475,0.01054284,-0.09776088000000001,0.00862596
1779587315585456371,A_-,-0.2220171164999556,0.0,1.4750824706155277,-2.9147347574155704,-0.09239773060057982,-0.01722639971718403,0.0,0.0,0.0,0.0,0.0,0.0,0.0,-0.316575,-0.3591,0.335475,0.01054284,-0.09776088000000001,0.00862596
1779587315599910497,A_-,-0.22469695825020608,0.0,1.4750824706155277,-2.9147347574155704,-0.09239773060057982,-0.01722639971718403,0.0,0.0,0.0,0.0,0.0,0.0,0.0,-0.31185,-0.36855,0.37327499999999997,0.0095844,-0.09009336,0.00575064
1779587315599910497,A_-,-0.2275780415002373,0.0,1.4750824706155277,-2.9147347574155704,-0.09239773060057982,-0.01722639971718403,0.0,0.0,0.0,0.0,0.0,0.0,0.0,-0.31185,-0.36855,0.37327499999999997,0.0095844,-0.09009336,0.00575064
1779587315599910497,A_-,-0.23029228999985207,0.0,1.4750824706155277,-2.9147347574155704,-0.09239773060057982,-0.01722639971718403,0.0,0.0,0.0,0.0,0.0,0.0,0.0,-0.31185,-0.36855,0.37327499999999997,0.0095844,-0.09009336,0.00575064
1779587315614912033,A_-,-0.23294994050047535,0.0,1.4750824706155277,-2.9147347574155704,-0.09239773060057982,-0.01722639971718403,0.0,0.0,0.0,0.0,0.0,0.0,0.0,-0.31185,-0.401625,0.35437499999999994,0.01150128,-0.09488556,0.01245972
1779587315614912033,A_-,-0.23584323950035468,0.0,1.4750824706155277,-2.9147347574155704,-0.09239773060057982,-0.01722639971718403,0.0,0.0,0.0,0.0,0.0,0.0,0.0,-0.31185,-0.401625,0.35437499999999994,0.01150128,-0.09488556,0.01245972
1779587315614912033,A_-,-0.23861305424998136,0.0,1.4750824706155277,-2.9147347574155704,-0.09239773060057982,-0.01722639971718403,0.0,0.0,0.0,0.0,0.0,0.0,0.0,-0.31185,-0.401625,0.35437499999999994,0.01150128,-0.09488556,0.01245972
1779587315630384206,A_-,-0.24139754849966266,0.0,1.4750824706155277,-2.9147347574155704,-0.09239773060057982,-0.01722639971718403,0.0,0.0,0.0,0.0,0.0,0.0,0.0,-0.31185,-0.41579999999999995,0.3402,0.01245972,-0.10830371999999999,0.00766752
1779587315630384206,A_-,-0.24429719124964322,0.0,1.4750824706155277,-2.9147347574155704,-0.09239773060057982,-0.01722639971718403,0.0,0.0,0.0,0.0,0.0,0.0,0.0,-0.31185,-0.41579999999999995,0.3402,0.01245972,-0.10830371999999999,0.00766752
1779587315630384206,A_-,-0.24693333849972987,0.0,1.4750824706155277,-2.9147347574155704,-0.09239773060057982,-0.01722639971718403,0.0,0.0,0.0,0.0,0.0,0.0,0.0,-0.31185,-0.41579999999999995,0.3402,0.01245972,-0.10830371999999999,0.00766752
1779587315654917716,A_-,-0.24957573324991245,0.0,1.4750824706155277,-2.9147347574155704,-0.09239773060057982,-0.01722639971718403,0.0,0.0,0.0,0.0,0.0,0.0,0.0,-0.31185,-0.411075,0.35437499999999994,0.0095844,-0.08913491999999999,0.0095844
1779587315654917716,A_-,-0.2524277294996864,0.0,1.4750824706155277,-2.9147347574155704,-0.09239773060057982,-0.01722639971718403,0.0,0.0,0.0,0.0,0.0,0.0,0.0,-0.31185,-0.411075,0.35437499999999994,0.0095844,-0.08913491999999999,0.0095844
1779587315654917716,A_-,-0.2551964165004392,0.0,1.4750824706155277,-2.9147347574155704,-0.09239773060057982,-0.01722639971718403,0.0,0.0,0.0,0.0,0.0,0.0,0.0,-0.31185,-0.411075,0.35437499999999994,0.0095844,-0.08913491999999999,0.0095844
1779587315679909706,A_-,-0.2579051372504182,0.0,1.4750824706155277,-2.9147347574155704,-0.09239773060057982,-0.01722639971718403,0.0,0.0,0.0,0.0,0.0,0.0,0.0,-0.335475,-0.41579999999999995,0.34964999999999996,0.01629348,-0.09296868,0.00670908
1779587315679909706,A_-,-0.2609187682501215,0.0,1.4750824706155277,-2.9147347574155704,-0.09239773060057982,-0.01722639971718403,0.0,0.0,0.0,0.0,0.0,0.0,0.0,-0.335475,-0.41579999999999995,0.34964999999999996,0.01629348,-0.09296868,0.00670908
1779587315679909706,A_-,-0.26359853000030853,0.0,1.4750824706155277,-2.9147347574155704,-0.09239773060057982,-0.01722639971718403,0.0,0.0,0.0,0.0,0.0,0.0,0.0,-0.335475,-0.41579999999999995,0.34964999999999996,0.01629348,-0.09296868,0.00670908
1779587315705167293,A_-,-0.26630113900046126,0.0,1.4750824706155277,-2.9147347574155704,-0.09239773060057982,-0.01722639971718403,0.0,0.0,0.0,0.0,0.0,0.0,0.0,-0.326025,-0.37327499999999997,0.37327499999999997,0.00670908,-0.08913491999999999,0.01054284
1779587315705167293,A_-,-0.26932498550013406,0.0,1.4750824706155277,-2.9147347574155704,-0.09239773060057982,-0.01722639971718403,0.0,0.0,0.0,0.0,0.0,0.0,0.0,-0.326025,-0.37327499999999997,0.37327499999999997,0.00670908,-0.08913491999999999,0.01054284
1779587315705167293,A_-,-0.27208730475013,0.0,1.4750824706155277,-2.9147347574155704,-0.09239773060057982,-0.01722639971718403,0.0,0.0,0.0,0.0,0.0,0.0,0.0,-0.326025,-0.37327499999999997,0.37327499999999997,0.00670908,-0.08913491999999999,0.01054284
1779587315740331172,A_-,-0.27474645100028283,0.0,1.4750824706155277,-2.9147347574155704,-0.09239773060057982,-0.01722639971718403,0.0,0.0,0.0,0.0,0.0,0.0,0.0,-0.316575,-0.37327499999999997,0.378,0.00766752,-0.09776088000000001,0.01725192
1779587315740331172,A_-,-0.2780544725001164,0.0,1.4750824706155277,-2.9147347574155704,-0.09239773060057982,-0.01722639971718403,0.0,0.0,0.0,0.0,0.0,0.0,0.0,-0.316575,-0.37327499999999997,0.378,0.00766752,-0.09776088000000001,0.01725192
1779587315740331172,A_-,-0.2807788887503193,0.0,1.4750824706155277,-2.9147347574155704,-0.09239773060057982,-0.01722639971718403,0.0,0.0,0.0,0.0,0.0,0.0,0.0,-0.316575,-0.37327499999999997,0.378,0.00766752,-0.09776088000000001,0.01725192
1779587315769907712,A_-,-0.2834628504997454,0.0,1.4750824706155277,-2.9147347574155704,-0.09239773060057982,-0.01722639971718403,0.0,0.0,0.0,0.0,0.0,0.0,0.0,-0.33075,-0.3969,0.36855,0.00191688,-0.08721804,0.014376599999999998
1779587315769907712,A_-,-0.28654832699976396,0.0,1.4750824706155277,-2.9147347574155704,-0.09239773060057982,-0.01722639971718403,0.0,0.0,0.0,0.0,0.0,0.0,0.0,-0.33075,-0.3969,0.36855,0.00191688,-0.08721804,0.014376599999999998
1779587315769907712,A_-,-0.2892827670002589,0.0,1.4750824706155277,-2.9147347574155704,-0.09239773060057982,-0.01722639971718403,0.0,0.0,0.0,0.0,0.0,0.0,0.0,-0.33075,-0.3969,0.36855,0.00191688,-0.08721804,0.014376599999999998
1779587315805887460,A_-,-0.2919619527501709,0.0,1.4750824706155277,-2.9147347574155704,-0.09239773060057982,-0.01722639971718403,0.0,0.0,0.0,0.0,0.0,0.0,0.0,-0.3024,-0.43942499999999995,0.3591,0.01533504,-0.095844,0.01054284
1779587315805887460,A_-,-0.29519987250023405,0.0,1.4750824706155277,-2.9147347574155704,-0.09239773060057982,-0.01722639971718403,0.0,0.0,0.0,0.0,0.0,0.0,0.0,-0.3024,-0.43942499999999995,0.3591,0.01533504,-0.095844,0.01054284
1779587315805887460,A_-,-0.29801544600013585,0.0,1.4750824706155277,-2.9147347574155704,-0.09239773060057982,-0.01722639971718403,0.0,0.0,0.0,0.0,0.0,0.0,0.0,-0.3024,-0.43942499999999995,0.3591,0.01533504,-0.095844,0.01054284
1779587315824919223,A_-,-0.3006891840004755,0.0,1.4750824706155277,-2.9147347574155704,-0.09239773060057982,-0.01722639971718403,0.0,0.0,0.0,0.0,0.0,0.0,0.0,-0.3449249999999999,-0.44415,0.36382499999999995,0.00862596,-0.09392712,0.00670908
1779587315824919223,A_-,-0.3035916424996685,0.0,1.4750824706155277,-2.9147347574155704,-0.09239773060057982,-0.01722639971718403,0.0,0.0,0.0,0.0,0.0,0.0,0.0,-0.3449249999999999,-0.44415,0.36382499999999995,0.00862596,-0.09392712,0.00670908
1779587315824919223,A_-,-0.30632521850020566,0.0,1.4750824706155277,-2.9147347574155704,-0.09239773060057982,-0.01722639971718403,0.0,0.0,0.0,0.0,0.0,0.0,0.0,-0.3449249999999999,-0.44415,0.36382499999999995,0.00862596,-0.09392712,0.00670908
1779587315849897861,A_-,-0.30909842525034037,0.0,1.4750824706155277,-2.9147347574155704,-0.09239773060057982,-0.01722639971718403,0.0,0.0,0.0,0.0,0.0,0.0,0.0,-0.3213,-0.411075,0.36382499999999995,0.00575064,-0.09201024,0.0095844
1779587315849897861,A_-,-0.3121777899996232,0.0,1.4750824706155277,-2.9147347574155704,-0.09239773060057982,-0.01722639971718403,0.0,0.0,0.0,0.0,0.0,0.0,0.0,-0.3213,-0.411075,0.36382499999999995,0.00575064,-0.09201024,0.0095844
1779587315849897861,A_-,-0.3148858390004534,0.0,1.4750824706155277,-2.9147347574155704,-0.09239773060057982,-0.01722639971718403,0.0,0.0,0.0,0.0,0.0,0.0,0.0,-0.3213,-0.411075,0.36382499999999995,0.00575064,-0.09201024,0.0095844
1779587315895024538,A_-,-0.31763903825049056,0.0,1.4750824706155277,-2.9147347574155704,-0.09239773060057982,-0.01722639971718403,0.0,0.0,0.0,0.0,0.0,0.0,0.0,-0.335475,-0.401625,0.3402,0.01533504,-0.09009336,0.00766752
1779587315895024538,A_-,-0.32062899799984734,0.0,1.4750824706155277,-2.9147347574155704,-0.09239773060057982,-0.01722639971718403,0.0,0.0,0.0,0.0,0.0,0.0,0.0,-0.335475,-0.401625,0.3402,0.01533504,-0.09009336,0.00766752
1779587315895024538,A_-,-0.3233956770000077,0.0,1.4750824706155277,-2.9147347574155704,-0.09239773060057982,-0.01722639971718403,0.0,0.0,0.0,0.0,0.0,0.0,0.0,-0.335475,-0.401625,0.3402,0.01533504,-0.09009336,0.00766752
1779587315934900760,A_-,-0.3260829504997673,0.0,1.4750824706155277,-2.9147347574155704,-0.09239773060057982,-0.01722639971718403,0.0,0.0,0.0,0.0,0.0,0.0,0.0,-0.316575,-0.382725,0.36382499999999995,0.0047922,-0.09201024,0.00862596
1779587315934900760,A_-,-0.3293477734996486,0.0,1.4750824706155277,-2.9147347574155704,-0.09239773060057982,-0.01722639971718403,0.0,0.0,0.0,0.0,0.0,0.0,0.0,-0.316575,-0.382725,0.36382499999999995,0.0047922,-0.09201024,0.00862596
1779587315934900760,A_-,-0.33206126225013577,0.0,1.4750824706155277,-2.9147347574155704,-0.09239773060057982,-0.01722639971718403,0.0,0.0,0.0,0.0,0.0,0.0,0.0,-0.316575,-0.382725,0.36382499999999995,0.0047922,-0.09201024,0.00862596
1779587315969898700,A_-,-0.33474445575029677,0.0,1.4750824706155277,-2.9147347574155704,-0.09239773060057982,-0.01722639971718403,0.0,0.0,0.0,0.0,0.0,0.0,0.0,-0.33075,-0.401625,0.392175,0.00766752,-0.10159463999999999,0.01725192
1779587315969898700,A_-,-0.3377885737500037,0.0,1.4750824706155277,-2.9147347574155704,-0.09239773060057982,-0.01722639971718403,0.0,0.0,0.0,0.0,0.0,0.0,0.0,-0.33075,-0.401625,0.392175,0.00766752,-0.10159463999999999,0.01725192
1779587315969898700,A_-,-0.34050323049996223,0.0,1.4750824706155277,-2.9147347574155704,-0.09239773060057982,-0.01722639971718403,0.0,0.0,0.0,0.0,0.0,0.0,0.0,-0.33075,-0.401625,0.392175,0.00766752,-0.10159463999999999,0.01725192
1779587316010021209,A_-,-0.34317638450011145,0.0,1.4750824706155277,-2.9147347574155704,-0.09239773060057982,-0.01722639971718403,0.0,0.0,0.0,0.0,0.0,0.0,0.0,-0.307125,-0.411075,0.33075,0.0095844,-0.09967776,-0.00670908
1779587316010021209,A_-,-0.3460091492497668,0.0,1.4750824706155277,-2.9147347574155704,-0.09239773060057982,-0.01722639971718403,0.0,0.0,0.0,0.0,0.0,0.0,0.0,-0.307125,-0.411075,0.33075,0.0095844,-0.09967776,-0.00670908
1779587316010021209,A_-,-0.3486781592500847,0.0,1.4750824706155277,-2.9147347574155704,-0.09239773060057982,-0.01722639971718403,0.0,0.0,0.0,0.0,0.0,0.0,0.0,-0.307125,-0.411075,0.33075,0.0095844,-0.09967776,-0.00670908
1779587316054888248,A_-,-0.3513173782503145,0.0,1.4750824706155277,-2.9147347574155704,-0.09239773060057982,-0.01722639971718403,0.0,0.0,0.0,0.0,0.0,0.0,0.0,-0.3213,-0.382725,0.36855,0.00862596,-0.10255307999999999,0.00862596
1779587316054888248,A_-,-0.3541371834999154,0.0,1.4750824706155277,-2.9147347574155704,-0.09239773060057982,-0.01722639971718403,0.0,0.0,0.0,0.0,0.0,0.0,0.0,-0.3213,-0.382725,0.36855,0.00862596,-0.10255307999999999,0.00862596
1779587316054888248,A_-,-0.3568183212501026,0.0,1.4750824706155277,-2.9147347574155704,-0.09239773060057982,-0.01722639971718403,0.0,0.0,0.0,0.0,0.0,0.0,0.0,-0.3213,-0.382725,0.36855,0.00862596,-0.10255307999999999,0.00862596
1779587316140027046,A_-,-0.3594515884997236,0.0,1.4750824706155277,-2.9147347574155704,-0.09239773060057982,-0.01722639971718403,0.0,0.0,0.0,0.0,0.0,0.0,0.0,-0.3402,-0.4205249999999999,0.34964999999999996,0.01245972,-0.09296868,0.014376599999999998
1779587316140027046,A_-,-0.36223516300015035,0.0,1.4750824706155277,-2.9147347574155704,-0.09239773060057982,-0.01722639971718403,0.0,0.0,0.0,0.0,0.0,0.0,0.0,-0.3402,-0.4205249999999999,0.34964999999999996,0.01245972,-0.09296868,0.014376599999999998
1779587316140027046,A_-,-0.36490406099983375,0.0,1.4750824706155277,-2.9147347574155704,-0.09239773060057982,-0.01722639971718403,0.0,0.0,0.0,0.0,0.0,0.0,0.0,-0.3402,-0.4205249999999999,0.34964999999999996,0.01245972,-0.09296868,0.014376599999999998
1779587316194892644,A_-,-0.36753522449998854,0.0,1.4750824706155277,-2.9147347574155704,-0.09239773060057982,-0.01722639971718403,0.0,0.0,0.0,0.0,0.0,0.0,0.0,-0.31185,-0.401625,0.378,-0.00191688,-0.09392712,0.01054284
1779587316194892644,A_-,-0.37033294224966085,0.0,1.4750824706155277,-2.9147347574155704,-0.09239773060057982,-0.01722639971718403,0.0,0.0,0.0,0.0,0.0,0.0,0.0,-0.31185,-0.401625,0.378,-0.00191688,-0.09392712,0.01054284
1779587316194892644,A_-,-0.3729932327496499,0.0,1.4750824706155277,-2.9147347574155704,-0.09239773060057982,-0.01722639971718403,0.0,0.0,0.0,0.0,0.0,0.0,0.0,-0.31185,-0.401625,0.378,-0.00191688,-0.09392712,0.01054284
1779587316219891548,A_-,-0.37562485200032825,0.0,1.4750824706155277,-2.9147347574155704,-0.09239773060057982,-0.01722639971718403,0.0,0.0,0.0,0.0,0.0,0.0,0.0,-0.33075,-0.4205249999999999,0.37327499999999997,0.00862596,-0.0910518,0.0095844
1779587316219891548,A_-,-0.3785221027501393,0.0,1.4750824706155277,-2.9147347574155704,-0.09239773060057982,-0.01722639971718403,0.0,0.0,0.0,0.0,0.0,0.0,0.0,-0.33075,-0.4205249999999999,0.37327499999999997,0.00862596,-0.0910518,0.0095844
1779587316219891548,A_-,-0.3811918567498651,0.0,1.4750824706155277,-2.9147347574155704,-0.09239773060057982,-0.01722639971718403,0.0,0.0,0.0,0.0,0.0,0.0,0.0,-0.33075,-0.4205249999999999,0.37327499999999997,0.00862596,-0.0910518,0.0095844
1779587316259882688,A_-,-0.38387893050003186,0.0,1.4750824706155277,-2.9147347574155704,-0.09239773060057982,-0.01722639971718403,0.0,0.0,0.0,0.0,0.0,0.0,0.0,-0.3402,-0.3969,0.34964999999999996,0.00383376,-0.08530115999999999,0.01533504
1779587316259882688,A_-,-0.3867864047497278,0.0,1.4750824706155277,-2.9147347574155704,-0.09239773060057982,-0.01722639971718403,0.0,0.0,0.0,0.0,0.0,0.0,0.0,-0.3402,-0.3969,0.34964999999999996,0.00383376,-0.08530115999999999,0.01533504
1779587316259882688,A_-,-0.389486205999674,0.0,1.4750824706155277,-2.9147347574155704,-0.09239773060057982,-0.01722639971718403,0.0,0.0,0.0,0.0,0.0,0.0,0.0,-0.3402,-0.3969,0.34964999999999996,0.00383376,-0.08530115999999999,0.01533504
1779587316279884815,A_-,-0.3921436085001915,0.0,1.4750824706155277,-2.9147347574155704,-0.09239773060057982,-0.01722639971718403,0.0,0.0,0.0,0.0,0.0,0.0,0.0,-0.316575,-0.401625,0.35437499999999994,0.01725192,-0.09488556,0.00383376
1779587316279884815,A_-,-0.39514835975023743,0.0,1.4750824706155277,-2.9147347574155704,-0.09239773060057982,-0.01722639971718403,0.0,0.0,0.0,0.0,0.0,0.0,0.0,-0.316575,-0.401625,0.35437499999999994,0.01725192,-0.09488556,0.00383376
1779587316279884815,A_-,-0.3978602805000264,0.0,1.4750824706155277,-2.9147347574155704,-0.09239773060057982,-0.01722639971718403,0.0,0.0,0.0,0.0,0.0,0.0,0.0,-0.316575,-0.401625,0.35437499999999994,0.01725192,-0.09488556,0.00383376
1779587316304879665,A_-,-0.40052713850036525,0.0,1.4750824706155277,-2.9147347574155704,-0.09239773060057982,-0.01722639971718403,0.0,0.0,0.0,0.0,0.0,0.0,0.0,-0.316575,-0.42997499999999994,0.35437499999999994,0.03546228,-0.08817648,0.0095844
1779587316304879665,A_-,-0.40346068424969417,0.0,1.4750824706155277,-2.9147347574155704,-0.09239773060057982,-0.01722639971718403,0.0,0.0,0.0,0.0,0.0,0.0,0.0,-0.316575,-0.42997499999999994,0.35437499999999994,0.03546228,-0.08817648,0.0095844
1779587316304879665,A_-,-0.406182100499791,0.0,1.4750824706155277,-2.9147347574155704,-0.09239773060057982,-0.01722639971718403,0.0,0.0,0.0,0.0,0.0,0.0,0.0,-0.316575,-0.42997499999999994,0.35437499999999994,0.03546228,-0.08817648,0.0095844
1779587316329881668,A_-,-0.4088834454996686,0.0,1.4750824706155277,-2.9147347574155704,-0.09239773060057982,-0.01722639971718403,0.0,0.0,0.0,0.0,0.0,0.0,0.0,-0.31185,-0.41579999999999995,0.3969,0.01341816,-0.09967776,0.01533504
1779587316329881668,A_-,-0.4118115114997636,0.0,1.4750824706155277,-2.9147347574155704,-0.09239773060057982,-0.01722639971718403,0.0,0.0,0.0,0.0,0.0,0.0,0.0,-0.31185,-0.41579999999999995,0.3969,0.01341816,-0.09967776,0.01533504
1779587316329881668,A_-,-0.4145174722498268,0.0,1.4750824706155277,-2.9147347574155704,-0.09239773060057982,-0.01722639971718403,0.0,0.0,0.0,0.0,0.0,0.0,0.0,-0.31185,-0.41579999999999995,0.3969,0.01341816,-0.09967776,0.01533504
1779587316359884262,A_-,-0.41718513050000183,0.0,1.4750824706155277,-2.9147347574155704,-0.09239773060057982,-0.01722639971718403,0.0,0.0,0.0,0.0,0.0,0.0,0.0,-0.326025,-0.38744999999999996,0.3591,0.00862596,-0.09871932,0.0095844
1779587316359884262,A_-,-0.42010252450018015,0.0,1.4750824706155277,-2.9147347574155704,-0.09239773060057982,-0.01722639971718403,0.0,0.0,0.0,0.0,0.0,0.0,0.0,-0.326025,-0.38744999999999996,0.3591,0.00862596,-0.09871932,0.0095844
1779587316359884262,A_-,-0.42281808524967346,0.0,1.4750824706155277,-2.9147347574155704,-0.09239773060057982,-0.01722639971718403,0.0,0.0,0.0,0.0,0.0,0.0,0.0,-0.326025,-0.38744999999999996,0.3591,0.00862596,-0.09871932,0.0095844
1779587316370263099,A_-,-0.4254840952498853,0.0,1.4750824706155277,-2.9147347574155704,-0.09239773060057982,-0.01722639971718403,0.0,0.0,0.0,0.0,0.0,0.0,0.0,-0.33075,-0.44415,0.3449249999999999,0.0095844,-0.10351152,0.00862596
1779587316370263099,A_-,-0.42834895524993044,0.0,1.4750824706155277,-2.9147347574155704,-0.09239773060057982,-0.01722639971718403,0.0,0.0,0.0,0.0,0.0,0.0,0.0,-0.33075,-0.44415,0.3449249999999999,0.0095844,-0.10351152,0.00862596
1779587316370263099,A_-,-0.43107718724968436,0.0,1.4750824706155277,-2.9147347574155704,-0.09239773060057982,-0.01722639971718403,0.0,0.0,0.0,0.0,0.0,0.0,0.0,-0.33075,-0.44415,0.3449249999999999,0.0095844,-0.10351152,0.00862596
1779587316394868135,A_-,-0.43374109350043,0.0,1.4750824706155277,-2.9147347574155704,-0.09239773060057982,-0.01722639971718403,0.0,0.0,0.0,0.0,0.0,0.0,0.0,-0.3402,-0.34964999999999996,0.382725,0.01533504,-0.09201024,0.01150128
1779587316394868135,A_-,-0.43666446350016486,0.0,1.4750824706155277,-2.9147347574155704,-0.09239773060057982,-0.01722639971718403,0.0,0.0,0.0,0.0,0.0,0.0,0.0,-0.3402,-0.34964999999999996,0.382725,0.01533504,-0.09201024,0.01150128
1779587316394868135,A_-,-0.43936907250008517,0.0,1.4750824706155277,-2.9147347574155704,-0.09239773060057982,-0.01722639971718403,0.0,0.0,0.0,0.0,0.0,0.0,0.0,-0.3402,-0.34964999999999996,0.382725,0.01533504,-0.09201024,0.01150128
1779587316414891481,A_-,-0.4420411065002554,0.0,1.4750824706155277,-2.9147347574155704,-0.09239773060057982,-0.01722639971718403,0.0,0.0,0.0,0.0,0.0,0.0,0.0,-0.307125,-0.401625,0.37327499999999997,0.0095844,-0.09488556,0.0095844
1779587316414891481,A_-,-0.44498240375014575,0.0,1.4750824706155277,-2.9147347574155704,-0.09239773060057982,-0.01722639971718403,0.0,0.0,0.0,0.0,0.0,0.0,0.0,-0.307125,-0.401625,0.37327499999999997,0.0095844,-0.09488556,0.0095844
1779587316414891481,A_-,-0.44769816450025246,0.0,1.4750824706155277,-2.9147347574155704,-0.09239773060057982,-0.01722639971718403,0.0,0.0,0.0,0.0,0.0,0.0,0.0,-0.307125,-0.401625,0.37327499999999997,0.0095844,-0.09488556,0.0095844
1779587316439883947,A_-,-0.4503659025003799,0.0,1.4750824706155277,-2.9147347574155704,-0.09239773060057982,-0.01722639971718403,0.0,0.0,0.0,0.0,0.0,0.0,0.0,-0.31185,-0.35437499999999994,0.37327499999999997,0.00383376,-0.08817648,0.01341816
1779587316439883947,A_-,-0.45327082499989046,0.0,1.4750824706155277,-2.9147347574155704,-0.09239773060057982,-0.01722639971718403,0.0,0.0,0.0,0.0,0.0,0.0,0.0,-0.31185,-0.35437499999999994,0.37327499999999997,0.00383376,-0.08817648,0.01341816
1779587316439883947,A_-,-0.45597505800014915,0.0,1.4750824706155277,-2.9147347574155704,-0.09239773060057982,-0.01722639971718403,0.0,0.0,0.0,0.0,0.0,0.0,0.0,-0.31185,-0.35437499999999994,0.37327499999999997,0.00383376,-0.08817648,0.01341816
1779587316470479726,A_-,-0.4586657315003322,0.0,1.4750824706155277,-2.9147347574155704,-0.09239773060057982,-0.01722639971718403,0.0,0.0,0.0,0.0,0.0,0.0,0.0,-0.326025,-0.4205249999999999,0.3591,0.01341816,-0.095844,0.02012724
1779587316470479726,A_-,-0.4615823254998759,0.0,1.4750824706155277,-2.9147347574155704,-0.09239773060057982,-0.01722639971718403,0.0,0.0,0.0,0.0,0.0,0.0,0.0,-0.326025,-0.4205249999999999,0.3591,0.01341816,-0.095844,0.02012724
1779587316470479726,A_-,-0.4642804787499699,0.0,1.4750824706155277,-2.9147347574155704,-0.09239773060057982,-0.01722639971718403,0.0,0.0,0.0,0.0,0.0,0.0,0.0,-0.326025,-0.4205249999999999,0.3591,0.01341816,-0.095844,0.02012724
1779587316500769615,A_-,-0.46693220925044443,0.0,1.4750824706155277,-2.9147347574155704,-0.09239773060057982,-0.01722639971718403,0.0,0.0,0.0,0.0,0.0,0.0,0.0,-0.335475,-0.44415,0.36382499999999995,0.00766752,-0.0910518,0.00383376
1779587316500769615,A_-,-0.4698208522504501,0.0,1.4750824706155277,-2.9147347574155704,-0.09239773060057982,-0.01722639971718403,0.0,0.0,0.0,0.0,0.0,0.0,0.0,-0.335475,-0.44415,0.36382499999999995,0.00766752,-0.0910518,0.00383376
1779587316500769615,A_-,-0.4725028700004259,0.0,1.4750824706155277,-2.9147347574155704,-0.09239773060057982,-0.01722639971718403,0.0,0.0,0.0,0.0,0.0,0.0,0.0,-0.335475,-0.44415,0.36382499999999995,0.00766752,-0.0910518,0.00383376
1779587316544872283,A_-,-0.47516869624996616,0.0,1.4750824706155277,-2.9147347574155704,-0.09239773060057982,-0.01722639971718403,0.0,0.0,0.0,0.0,0.0,0.0,0.0,-0.3213,-0.392175,0.401625,0.01821036,-0.09680244,0.01725192
1779587316544872283,A_-,-0.47807341074985743,0.0,1.4750824706155277,-2.9147347574155704,-0.09239773060057982,-0.01722639971718403,0.0,0.0,0.0,0.0,0.0,0.0,0.0,-0.3213,-0.392175,0.401625,0.01821036,-0.09680244,0.01725192
1779587316544872283,A_-,-0.48081779449967144,0.0,1.4750824706155277,-2.9147347574155704,-0.09239773060057982,-0.01722639971718403,0.0,0.0,0.0,0.0,0.0,0.0,0.0,-0.3213,-0.392175,0.401625,0.01821036,-0.09680244,0.01725192
1779587316575105428,A_-,-0.48347984475003614,0.0,1.4750824706155277,-2.9147347574155704,-0.09239773060057982,-0.01722639971718403,0.0,0.0,0.0,0.0,0.0,0.0,0.0,-0.3213,-0.382725,0.378,0.00766752,-0.09392712,0.01725192
1779587316575105428,A_-,-0.48636774374972447,0.0,1.4750824706155277,-2.9147347574155704,-0.09239773060057982,-0.01722639971718403,0.0,0.0,0.0,0.0,0.0,0.0,0.0,-0.3213,-0.382725,0.378,0.00766752,-0.09392712,0.01725192
1779587316575105428,A_-,-0.48910427974988124,0.0,1.4750824706155277,-2.9147347574155704,-0.09239773060057982,-0.01722639971718403,0.0,0.0,0.0,0.0,0.0,0.0,0.0,-0.3213,-0.382725,0.378,0.00766752,-0.09392712,0.01725192
1779587316599878072,A_-,-0.4917557545004456,0.0,1.4750824706155277,-2.9147347574155704,-0.09239773060057982,-0.01722639971718403,0.0,0.0,0.0,0.0,0.0,0.0,0.0,-0.326025,-0.3969,0.34964999999999996,0.01150128,-0.08625959999999999,0.00862596
1779587316599878072,A_-,-0.49465004524972755,0.0,1.4750824706155277,-2.9147347574155704,-0.09239773060057982,-0.01722639971718403,0.0,0.0,0.0,0.0,0.0,0.0,0.0,-0.326025,-0.3969,0.34964999999999996,0.01150128,-0.08625959999999999,0.00862596
1779587316599878072,A_-,-0.4973716697504642,0.0,1.4750824706155277,-2.9147347574155704,-0.09239773060057982,-0.01722639971718403,0.0,0.0,0.0,0.0,0.0,0.0,0.0,-0.326025,-0.3969,0.34964999999999996,0.01150128,-0.08625959999999999,0.00862596
1779587316639883756,A_-,-0.5000454154996987,0.0,1.4750824706155277,-2.9147347574155704,-0.09239773060057982,-0.01722639971718403,0.0,0.0,0.0,0.0,0.0,0.0,0.0,-0.3449249999999999,-0.505575,0.36855,0.00766752,-0.08817648,0.00862596
1779587316639883756,A_-,-0.5029724414998782,0.0,1.4750824706155277,-2.9147347574155704,-0.09239773060057982,-0.01722639971718403,0.0,0.0,0.0,0.0,0.0,0.0,0.0,-0.3449249999999999,-0.505575,0.36855,0.00766752,-0.08817648,0.00862596
1779587316639883756,A_-,-0.5056753065000521,0.0,1.4750824706155277,-2.9147347574155704,-0.09239773060057982,-0.01722639971718403,0.0,0.0,0.0,0.0,0.0,0.0,0.0,-0.3449249999999999,-0.505575,0.36855,0.00766752,-0.08817648,0.00862596
1779587316665337085,A_-,-0.5083506922501329,0.0,1.4732324216084136,-2.9147347574155704,-0.09239773060057982,-0.01722639971718403,0.0,0.0,-0.04,0.0,0.0,0.0,0.0,-0.31185,-0.65205,0.34964999999999996,0.01245972,-0.0910518,0.01054284
1779587316665337085,A_-,-0.5112635984996814,0.0,1.4732324216084136,-2.9147347574155704,-0.09239773060057982,-0.01722639971718403,0.0,0.0,-0.04,0.0,0.0,0.0,0.0,-0.31185,-0.65205,0.34964999999999996,0.01245972,-0.0910518,0.01054284
1779587316665337085,A_-,-0.5139686555003209,0.0,1.4732324216084136,-2.9147347574155704,-0.09239773060057982,-0.01722639971718403,0.0,0.0,-0.04,0.0,0.0,0.0,0.0,-0.31185,-0.65205,0.34964999999999996,0.01245972,-0.0910518,0.01054284
1779587316694926261,A_-,-0.5166458972498731,0.0,1.4732324216084136,-2.9147347574155704,-0.09239773060057982,-0.01722639971718403,0.0,0.0,-0.004,0.0,0.0,0.0,0.0,-0.307125,-1.0253249999999998,0.34964999999999996,0.01054284,-0.09871932,0.01629348
1779587316694926261,A_-,-0.5195531957497224,0.0,1.4732324216084136,-2.9147347574155704,-0.09239773060057982,-0.01722639971718403,0.0,0.0,-0.004,0.0,0.0,0.0,0.0,-0.307125,-1.0253249999999998,0.34964999999999996,0.01054284,-0.09871932,0.01629348
1779587316694926261,A_-,-0.5222318855003323,0.0,1.4732324216084136,-2.9147347574155704,-0.09239773060057982,-0.01722639971718403,0.0,0.0,-0.004,0.0,0.0,0.0,0.0,-0.307125,-1.0253249999999998,0.34964999999999996,0.01054284,-0.09871932,0.01629348
1779587316720124006,A_-,-0.5249155352503294,0.0,1.4732324216084136,-2.9147347574155704,-0.09239773060057982,-0.01722639971718403,0.0,0.0,0.0,0.0,0.0,0.0,0.0,-0.335475,-0.8788499999999999,0.411075,0.00670908,-0.09009336,0.01533504
1779587316720124006,A_-,-0.5278482647499914,0.0,1.4732324216084136,-2.9147347574155704,-0.09239773060057982,-0.01722639971718403,0.0,0.0,0.0,0.0,0.0,0.0,0.0,-0.335475,-0.8788499999999999,0.411075,0.00670908,-0.09009336,0.01533504
1779587316720124006,A_-,-0.5305734809999194,0.0,1.4732324216084136,-2.9147347574155704,-0.09239773060057982,-0.01722639971718403,0.0,0.0,0.0,0.0,0.0,0.0,0.0,-0.335475,-0.8788499999999999,0.411075,0.00670908,-0.09009336,0.01533504
1779587316754865169,A_-,-0.5332568427502338,0.0,1.4732324216084136,-2.9147347574155704,-0.09239773060057982,-0.01722639971718403,0.0,0.0,-0.015,0.0,0.0,0.0,0.0,-0.3213,-0.893025,0.3402,0.0047922,-0.10159463999999999,0.00766752
1779587316754865169,A_-,-0.5361600532496595,0.0,1.4732324216084136,-2.9147347574155704,-0.09239773060057982,-0.01722639971718403,0.0,0.0,-0.015,0.0,0.0,0.0,0.0,-0.3213,-0.893025,0.3402,0.0047922,-0.10159463999999999,0.00766752
1779587316754865169,A_-,-0.5388842134998413,0.0,1.4732324216084136,-2.9147347574155704,-0.09239773060057982,-0.01722639971718403,0.0,0.0,-0.015,0.0,0.0,0.0,0.0,-0.3213,-0.893025,0.3402,0.0047922,-0.10159463999999999,0.00766752
1779587316775722742,A_-,-0.541572518999601,0.0,1.4732324216084136,-2.9147347574155704,-0.09239773060057982,-0.01722639971718403,0.0,0.0,0.0,0.0,0.0,0.0,0.0,-0.335475,-0.9213749999999999,0.37327499999999997,0.014376599999999998,-0.09488556,0.00191688
1779587316775722742,A_-,-0.5444788975000847,0.0,1.4732324216084136,-2.9147347574155704,-0.09239773060057982,-0.01722639971718403,0.0,0.0,0.0,0.0,0.0,0.0,0.0,-0.335475,-0.9213749999999999,0.37327499999999997,0.014376599999999998,-0.09488556,0.00191688
1779587316775722742,A_-,-0.5471873062497252,0.0,1.4732324216084136,-2.9147347574155704,-0.09239773060057982,-0.01722639971718403,0.0,0.0,0.0,0.0,0.0,0.0,0.0,-0.335475,-0.9213749999999999,0.37327499999999997,0.014376599999999998,-0.09488556,0.00191688
1779587316964993238,A_-,-0.5498748517502463,0.0,1.4732324216084136,-2.9147347574155704,-0.09239773060057982,-0.01722639971718403,0.0,0.0,0.0,0.0,0.0,0.0,0.0,-0.33075,-0.8835749999999999,0.35437499999999994,0.01821036,-0.09680244,0.00383376
1779587316964993238,A_-,-0.5527954137496636,0.0,1.4732324216084136,-2.9147347574155704,-0.09239773060057982,-0.01722639971718403,0.0,0.0,0.0,0.0,0.0,0.0,0.0,-0.33075,-0.8835749999999999,0.35437499999999994,0.01821036,-0.09680244,0.00383376
1779587316964993238,A_-,-0.5554982867497529,0.0,1.4732324216084136,-2.9147347574155704,-0.09239773060057982,-0.01722639971718403,0.0,0.0,0.0,0.0,0.0,0.0,0.0,-0.33075,-0.8835749999999999,0.35437499999999994,0.01821036,-0.09680244,0.00383376
1779587316994879484,A_-,-0.5581794005001939,0.0,1.4732324216084136,-2.9147347574155704,-0.09239773060057982,-0.01722639971718403,0.0,0.0,0.0,0.0,0.0,0.0,0.0,-0.335475,-0.91665,0.35437499999999994,0.00095844,-0.095844,0.00095844
1779587316994879484,A_-,-0.5611151860002792,0.0,1.4732324216084136,-2.9147347574155704,-0.09239773060057982,-0.01722639971718403,0.0,0.0,0.0,0.0,0.0,0.0,0.0,-0.335475,-0.91665,0.35437499999999994,0.00095844,-0.095844,0.00095844
1779587316994879484,A_-,-0.5638463142504406,0.0,1.4732324216084136,-2.9147347574155704,-0.09239773060057982,-0.01722639971718403,0.0,0.0,0.0,0.0,0.0,0.0,0.0,-0.335475,-0.91665,0.35437499999999994,0.00095844,-0.095844,0.00095844
1779587317029855251,A_-,-0.5665120925004885,0.0,1.4732324216084136,-2.9147347574155704,-0.09239773060057982,-0.01722639971718403,0.0,0.0,0.0,0.0,0.0,0.0,0.0,-0.3402,-0.945,0.37327499999999997,0.00862596,-0.09009336,0.00575064
1779587317029855251,A_-,-0.5694409902498592,0.0,1.4732324216084136,-2.9147347574155704,-0.09239773060057982,-0.01722639971718403,0.0,0.0,0.0,0.0,0.0,0.0,0.0,-0.3402,-0.945,0.37327499999999997,0.00862596,-0.09009336,0.00575064
1779587317029855251,A_-,-0.5721535109996694,0.0,1.4732324216084136,-2.9147347574155704,-0.09239773060057982,-0.01722639971718403,0.0,0.0,0.0,0.0,0.0,0.0,0.0,-0.3402,-0.945,0.37327499999999997,0.00862596,-0.09009336,0.00575064
1779587317059855461,A_-,-0.574868583499665,0.0,1.4732324216084136,-2.9147347574155704,-0.09239773060057982,-0.01722639971718403,0.0,0.0,0.0,0.0,0.0,0.0,0.0,-0.3024,-0.8883,0.392175,0.00287532,-0.0910518,0.00862596
1779587317059855461,A_-,-0.5777424429998064,0.0,1.4732324216084136,-2.9147347574155704,-0.09239773060057982,-0.01722639971718403,0.0,0.0,0.0,0.0,0.0,0.0,0.0,-0.3024,-0.8883,0.392175,0.00287532,-0.0910518,0.00862596
1779587317059855461,A_-,-0.5804163009997865,0.0,1.4732324216084136,-2.9147347574155704,-0.09239773060057982,-0.01722639971718403,0.0,0.0,0.0,0.0,0.0,0.0,0.0,-0.3024,-0.8883,0.392175,0.00287532,-0.0910518,0.00862596
1779587317094861268,A_-,-0.5830558719999317,0.0,1.4732324216084136,-2.9147347574155704,-0.09239773060057982,-0.01722639971718403,0.0,0.0,0.0,0.0,0.0,0.0,0.0,-0.3402,-0.8977499999999999,0.3449249999999999,0.01725192,-0.09009336,0.01054284
1779587317094861268,A_-,-0.5859088922497904,0.0,1.4732324216084136,-2.9147347574155704,-0.09239773060057982,-0.01722639971718403,0.0,0.0,0.0,0.0,0.0,0.0,0.0,-0.3402,-0.8977499999999999,0.3449249999999999,0.01725192,-0.09009336,0.01054284
1779587317094861268,A_-,-0.5885928220004644,0.0,1.4732324216084136,-2.9147347574155704,-0.09239773060057982,-0.01722639971718403,0.0,0.0,0.0,0.0,0.0,0.0,0.0,-0.3402,-0.8977499999999999,0.3449249999999999,0.01725192,-0.09009336,0.01054284
1779587317119861125,A_-,-0.5912416487499286,0.0,1.4732324216084136,-2.9147347574155704,-0.09239773060057982,-0.01722639971718403,0.0,0.0,0.0,0.0,0.0,0.0,0.0,-0.33075,-0.8788499999999999,0.35437499999999994,0.00862596,-0.08721804,0.01054284
1779587317119861125,A_-,-0.5942725752502156,0.0,1.4732324216084136,-2.9147347574155704,-0.09239773060057982,-0.01722639971718403,0.0,0.0,0.0,0.0,0.0,0.0,0.0,-0.33075,-0.8788499999999999,0.35437499999999994,0.00862596,-0.08721804,0.01054284
1779587317119861125,A_-,-0.5969620645000759,0.0,1.4732324216084136,-2.9147347574155704,-0.09239773060057982,-0.01722639971718403,0.0,0.0,0.0,0.0,0.0,0.0,0.0,-0.33075,-0.8788499999999999,0.35437499999999994,0.00862596,-0.08721804,0.01054284
1779587317150460004,A_-,-0.5996286347499336,0.0,1.4732324216084136,-2.9147347574155704,-0.09239773060057982,-0.01722639971718403,0.0,0.0,0.0,0.0,0.0,0.0,0.0,-0.3213,-0.8788499999999999,0.3591,0.00575064,-0.07859208,-0.00191688
1779587317150460004,A_-,-0.6024527360004868,0.0,1.4732324216084136,-2.9147347574155704,-0.09239773060057982,-0.01722639971718403,0.0,0.0,0.0,0.0,0.0,0.0,0.0,-0.3213,-0.8788499999999999,0.3591,0.00575064,-0.07859208,-0.00191688
1779587317150460004,A_-,-0.6051436412499243,0.0,1.4732324216084136,-2.9147347574155704,-0.09239773060057982,-0.01722639971718403,0.0,0.0,0.0,0.0,0.0,0.0,0.0,-0.3213,-0.8788499999999999,0.3591,0.00575064,-0.07859208,-0.00191688
1779587317169853448,A_-,-0.6078032837503997,0.0,1.4732324216084136,-2.9147347574155704,-0.09239773060057982,-0.01722639971718403,0.0,0.0,0.0,0.0,0.0,0.0,0.0,-0.326025,-0.893025,0.36382499999999995,0.02587788,-0.0910518,0.01725192
1779587317169853448,A_-,-0.6106742475003557,0.0,1.4732324216084136,-2.9147347574155704,-0.09239773060057982,-0.01722639971718403,0.0,0.0,0.0,0.0,0.0,0.0,0.0,-0.326025,-0.893025,0.36382499999999995,0.02587788,-0.0910518,0.01725192
1779587317169853448,A_-,-0.6133592570004112,0.0,1.4732324216084136,-2.9147347574155704,-0.09239773060057982,-0.01722639971718403,0.0,0.0,0.0,0.0,0.0,0.0,0.0,-0.326025,-0.893025,0.36382499999999995,0.02587788,-0.0910518,0.01725192
1779587317205583095,A_-,-0.6160256352504803,0.0,1.4732324216084136,-2.9147347574155704,-0.09239773060057982,-0.01722639971718403,0.0,0.0,0.0,0.0,0.0,0.0,0.0,-0.326025,-0.9213749999999999,0.36382499999999995,0.01341816,-0.0910518,0.01341816
1779587317205583095,A_-,-0.6189169582503382,0.0,1.4732324216084136,-2.9147347574155704,-0.09239773060057982,-0.01722639971718403,0.0,0.0,0.0,0.0,0.0,0.0,0.0,-0.326025,-0.9213749999999999,0.36382499999999995,0.01341816,-0.0910518,0.01341816
1779587317205583095,A_-,-0.6215818725004283,0.0,1.4732324216084136,-2.9147347574155704,-0.09239773060057982,-0.01722639971718403,0.0,0.0,0.0,0.0,0.0,0.0,0.0,-0.326025,-0.9213749999999999,0.36382499999999995,0.01341816,-0.0910518,0.01341816
1779587317229849576,A_-,-0.6242501705000905,0.0,1.4732324216084136,-2.9147347574155704,-0.09239773060057982,-0.01722639971718403,0.0,0.0,0.0,0.0,0.0,0.0,0.0,-0.3402,-0.9024749999999999,0.37327499999999997,0.00575064,-0.095844,0.014376599999999998
1779587317229849576,A_-,-0.6271398295002655,0.0,1.4732324216084136,-2.9147347574155704,-0.09239773060057982,-0.01722639971718403,0.0,0.0,0.0,0.0,0.0,0.0,0.0,-0.3402,-0.9024749999999999,0.37327499999999997,0.00575064,-0.095844,0.014376599999999998
1779587317229849576,A_-,-0.629846774500038,0.0,1.4732324216084136,-2.9147347574155704,-0.09239773060057982,-0.01722639971718403,0.0,0.0,0.0,0.0,0.0,0.0,0.0,-0.3402,-0.9024749999999999,0.37327499999999997,0.00575064,-0.095844,0.014376599999999998
1779587317244858741,A_-,-0.6324977052499889,0.0,1.4732324216084136,-2.9147347574155704,-0.09239773060057982,-0.01722639971718403,0.0,0.0,0.0,0.0,0.0,0.0,0.0,-0.335475,-0.911925,0.36382499999999995,0.00862596,-0.09871932,0.00670908
1779587317244858741,A_-,-0.6353574212498643,0.0,1.4732324216084136,-2.9147347574155704,-0.09239773060057982,-0.01722639971718403,0.0,0.0,0.0,0.0,0.0,0.0,0.0,-0.335475,-0.911925,0.36382499999999995,0.00862596,-0.09871932,0.00670908
1779587317244858741,A_-,-0.6380532225002753,0.0,1.4732324216084136,-2.9147347574155704,-0.09239773060057982,-0.01722639971718403,0.0,0.0,0.0,0.0,0.0,0.0,0.0,-0.335475,-0.911925,0.36382499999999995,0.00862596,-0.09871932,0.00670908
1779587317270000934,A_-,-0.6407221444997049,0.0,1.4732324216084136,-2.9147347574155704,-0.09239773060057982,-0.01722639971718403,0.0,0.0,0.0,0.0,0.0,0.0,0.0,-0.316575,-0.911925,0.326025,0.0047922,-0.09296868,0.01629348
1779587317270000934,A_-,-0.6436059637499056,0.0,1.4732324216084136,-2.9147347574155704,-0.09239773060057982,-0.01722639971718403,0.0,0.0,0.0,0.0,0.0,0.0,0.0,-0.316575,-0.911925,0.326025,0.0047922,-0.09296868,0.01629348
1779587317270000934,A_-,-0.6463092447502277,0.0,1.4732324216084136,-2.9147347574155704,-0.09239773060057982,-0.01722639971718403,0.0,0.0,0.0,0.0,0.0,0.0,0.0,-0.316575,-0.911925,0.326025,0.0047922,-0.09296868,0.01629348
1779587317294888496,A_-,-0.648966503250449,0.0,1.4732324216084136,-2.9147347574155704,-0.09239773060057982,-0.01722639971718403,0.0,0.0,0.0,0.0,0.0,0.0,0.0,-0.3213,-0.93555,0.3591,0.00862596,-0.08913491999999999,0.01245972
1779587317294888496,A_-,-0.6518497224997191,0.0,1.4732324216084136,-2.9147347574155704,-0.09239773060057982,-0.01722639971718403,0.0,0.0,0.0,0.0,0.0,0.0,0.0,-0.3213,-0.93555,0.3591,0.00862596,-0.08913491999999999,0.01245972
1779587317294888496,A_-,-0.654537860000346,0.0,1.4732324216084136,-2.9147347574155704,-0.09239773060057982,-0.01722639971718403,0.0,0.0,0.0,0.0,0.0,0.0,0.0,-0.3213,-0.93555,0.3591,0.00862596,-0.08913491999999999,0.01245972
1779587317334965705,A_-,-0.6571765110002161,0.0,1.4732324216084136,-2.9147347574155704,-0.09239773060057982,-0.01722639971718403,0.0,0.0,0.0,0.0,0.0,0.0,0.0,-0.33075,-0.930825,0.36855,0.01725192,-0.08721804,0.00862596
1779587317334965705,A_-,-0.6600751057503658,0.0,1.4732324216084136,-2.9147347574155704,-0.09239773060057982,-0.01722639971718403,0.0,0.0,0.0,0.0,0.0,0.0,0.0,-0.33075,-0.930825,0.36855,0.01725192,-0.08721804,0.00862596
1779587317334965705,A_-,-0.6627486677498382,0.0,1.4732324216084136,-2.9147347574155704,-0.09239773060057982,-0.01722639971718403,0.0,0.0,0.0,0.0,0.0,0.0,0.0,-0.33075,-0.930825,0.36855,0.01725192,-0.08721804,0.00862596
1779587317354899406,A_-,-0.6653883747503642,0.0,1.4732324216084136,-2.9147347574155704,-0.09239773060057982,-0.01722639971718403,0.0,0.0,0.0,0.0,0.0,0.0,0.0,-0.3213,-0.893025,0.34964999999999996,0.00575064,-0.095844,0.00670908
1779587317354899406,A_-,-0.6682507387504302,0.0,1.4732324216084136,-2.9147347574155704,-0.09239773060057982,-0.01722639971718403,0.0,0.0,0.0,0.0,0.0,0.0,0.0,-0.3213,-0.893025,0.34964999999999996,0.00575064,-0.095844,0.00670908
1779587317354899406,A_-,-0.6709518917496098,0.0,1.4732324216084136,-2.9147347574155704,-0.09239773060057982,-0.01722639971718403,0.0,0.0,0.0,0.0,0.0,0.0,0.0,-0.3213,-0.893025,0.34964999999999996,0.00575064,-0.095844,0.00670908
1779587317380227804,A_-,-0.6736619564999273,0.0,1.4732324216084136,-2.9147347574155704,-0.09239773060057982,-0.01722639971718403,0.0,0.0,0.0,0.0,0.0,0.0,0.0,-0.335475,-0.930825,0.34964999999999996,0.0047922,-0.09871932,0.01725192
1779587317380227804,A_-,-0.6764891855000315,0.0,1.4732324216084136,-2.9147347574155704,-0.09239773060057982,-0.01722639971718403,0.0,0.0,0.0,0.0,0.0,0.0,0.0,-0.335475,-0.930825,0.34964999999999996,0.0047922,-0.09871932,0.01725192
1779587317380227804,A_-,-0.679208970000218,0.0,1.4732324216084136,-2.9147347574155704,-0.09239773060057982,-0.01722639971718403,0.0,0.0,0.0,0.0,0.0,0.0,0.0,-0.335475,-0.930825,0.34964999999999996,0.0047922,-0.09871932,0.01725192
1779587317394857883,A_-,-0.6818841639997117,0.0,1.4732324216084136,-2.9147347574155704,-0.09239773060057982,-0.01722639971718403,0.0,0.0,0.0,0.0,0.0,0.0,0.0,-0.33075,-0.893025,0.3591,0.01245972,-0.09776088000000001,0.00095844
1779587317394857883,A_-,-0.6847158090004086,0.0,1.4732324216084136,-2.9147347574155704,-0.09239773060057982,-0.01722639971718403,0.0,0.0,0.0,0.0,0.0,0.0,0.0,-0.33075,-0.893025,0.3591,0.01245972,-0.09776088000000001,0.00095844
1779587317394857883,A_-,-0.6873876669997117,0.0,1.4732324216084136,-2.9147347574155704,-0.09239773060057982,-0.01722639971718403,0.0,0.0,0.0,0.0,0.0,0.0,0.0,-0.33075,-0.893025,0.3591,0.01245972,-0.09776088000000001,0.00095844
1779587317425470113,A_-,-0.6900463254996794,0.0,1.4732324216084136,-2.9147347574155704,-0.09239773060057982,-0.01722639971718403,0.0,0.0,0.0,0.0,0.0,0.0,0.0,-0.31185,-0.91665,0.3591,0.00575064,-0.09201024,0.0095844
1779587317425470113,A_-,-0.6929144010000527,0.0,1.4732324216084136,-2.9147347574155704,-0.09239773060057982,-0.01722639971718403,0.0,0.0,0.0,0.0,0.0,0.0,0.0,-0.31185,-0.91665,0.3591,0.00575064,-0.09201024,0.0095844
1779587317425470113,A_-,-0.6955791232503543,0.0,1.4732324216084136,-2.9147347574155704,-0.09239773060057982,-0.01722639971718403,0.0,0.0,0.0,0.0,0.0,0.0,0.0,-0.31185,-0.91665,0.3591,0.00575064,-0.09201024,0.0095844
1779587317484846830,A_-,-0.6982135184998697,0.0,1.4732324216084136,-2.9147347574155704,-0.09239773060057982,-0.01722639971718403,0.0,0.0,0.0,0.0,0.0,0.0,0.0,-0.326025,-0.91665,0.36855,0.01725192,-0.09201024,0.0095844
1779587317484846830,A_-,-0.7009961249996195,0.0,1.4732324216084136,-2.9147347574155704,-0.09239773060057982,-0.01722639971718403,0.0,0.0,0.0,0.0,0.0,0.0,0.0,-0.326025,-0.91665,0.36855,0.01725192,-0.09201024,0.0095844
1779587317484846830,A_-,-0.7036885505003738,0.0,1.4732324216084136,-2.9147347574155704,-0.09239773060057982,-0.01722639971718403,0.0,0.0,0.0,0.0,0.0,0.0,0.0,-0.326025,-0.91665,0.36855,0.01725192,-0.09201024,0.0095844
1779587317584857702,A_-,-0.7063513207504002,0.0,1.4732324216084136,-2.9147347574155704,-0.09239773060057982,-0.01722639971718403,0.0,0.0,0.0,0.0,0.0,0.0,0.0,-0.335475,-0.911925,0.34964999999999996,0.00766752,-0.09392712,0.01245972
1779587317584857702,A_-,-0.7092011249997086,0.0,1.4732324216084136,-2.9147347574155704,-0.09239773060057982,-0.01722639971718403,0.0,0.0,0.0,0.0,0.0,0.0,0.0,-0.335475,-0.911925,0.34964999999999996,0.00766752,-0.09392712,0.01245972
1779587317584857702,A_-,-0.7118650552502004,0.0,1.4732324216084136,-2.9147347574155704,-0.09239773060057982,-0.01722639971718403,0.0,0.0,0.0,0.0,0.0,0.0,0.0,-0.335475,-0.911925,0.34964999999999996,0.00766752,-0.09392712,0.01245972
1779587317620227098,A_-,-0.7144988424997791,0.0,1.4732324216084136,-2.9147347574155704,-0.09239773060057982,-0.01722639971718403,0.0,0.0,0.0,0.0,0.0,0.0,0.0,-0.326025,-0.9260999999999999,0.36855,0.01533504,-0.09488556,0.00766752
1779587317620227098,A_-,-0.717400237250331,0.0,1.4732324216084136,-2.9147347574155704,-0.09239773060057982,-0.01722639971718403,0.0,0.0,0.0,0.0,0.0,0.0,0.0,-0.326025,-0.9260999999999999,0.36855,0.01533504,-0.09488556,0.00766752
1779587317620227098,A_-,-0.7201227175000895,0.0,1.4732324216084136,-2.9147347574155704,-0.09239773060057982,-0.01722639971718403,0.0,0.0,0.0,0.0,0.0,0.0,0.0,-0.326025,-0.9260999999999999,0.36855,0.01533504,-0.09488556,0.00766752
1779587317654837131,A_-,-0.7228004634998797,0.0,1.4732324216084136,-2.9147347574155704,-0.09239773060057982,-0.01722639971718403,0.0,0.0,0.0,0.0,0.0,0.0,0.0,-0.326025,-0.91665,0.37327499999999997,0.00383376,-0.09009336,0.01341816
1779587317654837131,A_-,-0.7258110305001537,0.0,1.4732324216084136,-2.9147347574155704,-0.09239773060057982,-0.01722639971718403,0.0,0.0,0.0,0.0,0.0,0.0,0.0,-0.326025,-0.91665,0.37327499999999997,0.00383376,-0.09009336,0.01341816
1779587317654837131,A_-,-0.7285329349997482,0.0,1.4732324216084136,-2.9147347574155704,-0.09239773060057982,-0.01722639971718403,0.0,0.0,0.0,0.0,0.0,0.0,0.0,-0.326025,-0.91665,0.37327499999999997,0.00383376,-0.09009336,0.01341816
1779587317684845209,A_-,-0.7312020250001297,0.0,1.4732324216084136,-2.9147347574155704,-0.09239773060057982,-0.01722639971718403,0.0,0.0,0.0,0.0,0.0,0.0,0.0,-0.33075,-0.9071999999999999,0.3449249999999999,0.00862596,-0.09392712,0.01054284
1779587317684845209,A_-,-0.7341035077497509,0.0,1.4732324216084136,-2.9147347574155704,-0.09239773060057982,-0.01722639971718403,0.0,0.0,0.0,0.0,0.0,0.0,0.0,-0.33075,-0.9071999999999999,0.3449249999999999,0.00862596,-0.09392712,0.01054284
1779587317684845209,A_-,-0.7368251882498953,0.0,1.4732324216084136,-2.9147347574155704,-0.09239773060057982,-0.01722639971718403,0.0,0.0,0.0,0.0,0.0,0.0,0.0,-0.33075,-0.9071999999999999,0.3449249999999999,0.00862596,-0.09392712,0.01054284
1779587317719854354,A_-,-0.7394927822497266,0.0,1.4732324216084136,-2.9147347574155704,-0.09239773060057982,-0.01722639971718403,0.0,0.0,0.0,0.0,0.0,0.0,0.0,-0.335475,-0.8883,0.36855,0.00766752,-0.09009336,0.00862596
1779587317719854354,A_-,-0.7423623140002746,0.0,1.4732324216084136,-2.9147347574155704,-0.09239773060057982,-0.01722639971718403,0.0,0.0,0.0,0.0,0.0,0.0,0.0,-0.335475,-0.8883,0.36855,0.00766752,-0.09009336,0.00862596
1779587317719854354,A_-,-0.7450393317503767,0.0,1.4732324216084136,-2.9147347574155704,-0.09239773060057982,-0.01722639971718403,0.0,0.0,0.0,0.0,0.0,0.0,0.0,-0.335475,-0.8883,0.36855,0.00766752,-0.09009336,0.00862596
1779587317749841451,A_-,-0.747678206999808,0.0,1.4732324216084136,-2.9147347574155704,-0.09239773060057982,-0.01722639971718403,0.0,0.0,0.0,0.0,0.0,0.0,0.0,-0.316575,-0.8883,0.3591,0.00862596,-0.095844,0.01629348
1779587317749841451,A_-,-0.7505110757501825,0.0,1.4732324216084136,-2.9147347574155704,-0.09239773060057982,-0.01722639971718403,0.0,0.0,0.0,0.0,0.0,0.0,0.0,-0.316575,-0.8883,0.3591,0.00862596,-0.095844,0.01629348
1779587317749841451,A_-,-0.7531918615004543,0.0,1.4732324216084136,-2.9147347574155704,-0.09239773060057982,-0.01722639971718403,0.0,0.0,0.0,0.0,0.0,0.0,0.0,-0.316575,-0.8883,0.3591,0.00862596,-0.095844,0.01629348
1779587317769833564,A_-,-0.7558622315000321,0.0,1.4732324216084136,-2.9147347574155704,-0.09239773060057982,-0.01722639971718403,0.0,0.0,0.0,0.0,0.0,0.0,0.0,-0.3402,-0.9071999999999999,0.3591,0.01629348,-0.09392712,0.01245972
1779587317769833564,A_-,-0.7587105479997263,0.0,1.4732324216084136,-2.9147347574155704,-0.09239773060057982,-0.01722639971718403,0.0,0.0,0.0,0.0,0.0,0.0,0.0,-0.3402,-0.9071999999999999,0.3591,0.01629348,-0.09392712,0.01245972
1779587317769833564,A_-,-0.7613891897499343,0.0,1.4732324216084136,-2.9147347574155704,-0.09239773060057982,-0.01722639971718403,0.0,0.0,0.0,0.0,0.0,0.0,0.0,-0.3402,-0.9071999999999999,0.3591,0.01629348,-0.09392712,0.01245972
1779587317789841651,A_-,-0.7640367125004559,0.0,1.4732324216084136,-2.9147347574155704,-0.09239773060057982,-0.01722639971718403,0.0,0.0,0.0,0.0,0.0,0.0,0.0,-0.326025,-0.893025,0.33075,0.00766752,-0.09296868,0.00670908
1779587317789841651,A_-,-0.7669103079997512,0.0,1.4732324216084136,-2.9147347574155704,-0.09239773060057982,-0.01722639971718403,0.0,0.0,0.0,0.0,0.0,0.0,0.0,-0.326025,-0.893025,0.33075,0.00766752,-0.09296868,0.00670908
1779587317789841651,A_-,-0.7696164369999678,0.0,1.4732324216084136,-2.9147347574155704,-0.09239773060057982,-0.01722639971718403,0.0,0.0,0.0,0.0,0.0,0.0,0.0,-0.326025,-0.893025,0.33075,0.00766752,-0.09296868,0.00670908
1779587317810090780,A_-,-0.7723476689998279,0.0,1.4732324216084136,-2.9147347574155704,-0.09239773060057982,-0.01722639971718403,0.0,0.0,0.0,0.0,0.0,0.0,0.0,-0.31185,-0.91665,0.382725,0.0095844,-0.08913491999999999,0.01821036
1779587317810090780,A_-,-0.7752724789997956,0.0,1.4732324216084136,-2.9147347574155704,-0.09239773060057982,-0.01722639971718403,0.0,0.0,0.0,0.0,0.0,0.0,0.0,-0.31185,-0.91665,0.382725,0.0095844,-0.08913491999999999,0.01821036
1779587317810090780,A_-,-0.7780099510000582,0.0,1.4732324216084136,-2.9147347574155704,-0.09239773060057982,-0.01722639971718403,0.0,0.0,0.0,0.0,0.0,0.0,0.0,-0.31185,-0.91665,0.382725,0.0095844,-0.08913491999999999,0.01821036
1779587317839843988,A_-,-0.780689656749928,0.0,1.4732324216084136,-2.9147347574155704,-0.09239773060057982,-0.01722639971718403,0.0,0.0,0.0,0.0,0.0,0.0,0.0,-0.3449249999999999,-0.9024749999999999,0.34964999999999996,0.014376599999999998,-0.09967776,0.02204412
1779587317839843988,A_-,-0.7835960912498194,0.0,1.4732324216084136,-2.9147347574155704,-0.09239773060057982,-0.01722639971718403,0.0,0.0,0.0,0.0,0.0,0.0,0.0,-0.3449249999999999,-0.9024749999999999,0.34964999999999996,0.014376599999999998,-0.09967776,0.02204412
1779587317839843988,A_-,-0.7863134837498365,0.0,1.4732324216084136,-2.9147347574155704,-0.09239773060057982,-0.01722639971718403,0.0,0.0,0.0,0.0,0.0,0.0,0.0,-0.3449249999999999,-0.9024749999999999,0.34964999999999996,0.014376599999999998,-0.09967776,0.02204412
1779587317859846591,A_-,-0.7890809867503776,0.0,1.4732324216084136,-2.9147347574155704,-0.09239773060057982,-0.01722639971718403,0.0,0.0,0.0,0.0,0.0,0.0,0.0,-0.307125,-0.893025,0.36855,0.01341816,-0.0910518,0.00287532
1779587317859846591,A_-,-0.7919935170002645,0.0,1.4732324216084136,-2.9147347574155704,-0.09239773060057982,-0.01722639971718403,0.0,0.0,0.0,0.0,0.0,0.0,0.0,-0.307125,-0.893025,0.36855,0.01341816,-0.0910518,0.00287532
1779587317859846591,A_-,-0.7946795984998971,0.0,1.4732324216084136,-2.9147347574155704,-0.09239773060057982,-0.01722639971718403,0.0,0.0,0.0,0.0,0.0,0.0,0.0,-0.307125,-0.893025,0.36855,0.01341816,-0.0910518,0.00287532
1779587317939826965,A_-,-0.7973421927499658,0.0,1.4732324216084136,-2.9147347574155704,-0.09239773060057982,-0.01722639971718403,0.0,0.0,0.0,0.0,0.0,0.0,0.0,-0.33075,-0.93555,0.36382499999999995,0.01245972,-0.0910518,0.00191688
1779587317939826965,A_-,-0.8002310837500772,0.0,1.4732324216084136,-2.9147347574155704,-0.09239773060057982,-0.01722639971718403,0.0,0.0,0.0,0.0,0.0,0.0,0.0,-0.33075,-0.93555,0.36382499999999995,0.01245972,-0.0910518,0.00191688
1779587317939826965,A_-,-0.8029459404997397,0.0,1.4732324216084136,-2.9147347574155704,-0.09239773060057982,-0.01722639971718403,0.0,0.0,0.0,0.0,0.0,0.0,0.0,-0.33075,-0.93555,0.36382499999999995,0.01245972,-0.0910518,0.00191688
1779587317984818458,A_-,-0.8056337260004511,0.0,1.4732324216084136,-2.9147347574155704,-0.09239773060057982,-0.01722639971718403,0.0,0.0,0.0,0.0,0.0,0.0,0.0,-0.33075,-0.8788499999999999,0.36855,0.01629348,-0.09296868,0.01054284
1779587317984818458,A_-,-0.8085317927498181,0.0,1.4732324216084136,-2.9147347574155704,-0.09239773060057982,-0.01722639971718403,0.0,0.0,0.0,0.0,0.0,0.0,0.0,-0.33075,-0.8788499999999999,0.36855,0.01629348,-0.09296868,0.01054284
1779587317984818458,A_-,-0.8112407537500985,0.0,1.4732324216084136,-2.9147347574155704,-0.09239773060057982,-0.01722639971718403,0.0,0.0,0.0,0.0,0.0,0.0,0.0,-0.33075,-0.8788499999999999,0.36855,0.01629348,-0.09296868,0.01054284
1779587318021140098,A_-,-0.8139208435004548,0.0,1.4732324216084136,-2.9147347574155704,-0.09239773060057982,-0.01722639971718403,0.0,0.0,0.0,0.0,0.0,0.0,0.0,-0.335475,-0.9024749999999999,0.36855,0.00766752,-0.09392712,0.01341816
1779587318021140098,A_-,-0.8168597807498372,0.0,1.4732324216084136,-2.9147347574155704,-0.09239773060057982,-0.01722639971718403,0.0,0.0,0.0,0.0,0.0,0.0,0.0,-0.335475,-0.9024749999999999,0.36855,0.00766752,-0.09392712,0.01341816
1779587318021140098,A_-,-0.8195868852499189,0.0,1.4732324216084136,-2.9147347574155704,-0.09239773060057982,-0.01722639971718403,0.0,0.0,0.0,0.0,0.0,0.0,0.0,-0.335475,-0.9024749999999999,0.36855,0.00766752,-0.09392712,0.01341816
1779587318055313587,A_-,-0.8227531672500845,0.0,1.4732324216084136,-2.9147347574155704,-0.09239773060057982,-0.01722639971718403,0.0,0.0,0.0,0.0,0.0,0.0,0.0,-0.335475,-0.8835749999999999,0.36382499999999995,0.0095844,-0.08913491999999999,0.01533504
1779587318055313587,A_-,-0.8255006549998143,0.0,1.4732324216084136,-2.9147347574155704,-0.09239773060057982,-0.01722639971718403,0.0,0.0,0.0,0.0,0.0,0.0,0.0,-0.335475,-0.8835749999999999,0.36382499999999995,0.0095844,-0.08913491999999999,0.01533504
1779587318055313587,A_-,-0.8281463057501242,0.0,1.4732324216084136,-2.9147347574155704,-0.09239773060057982,-0.01722639971718403,0.0,0.0,0.0,0.0,0.0,0.0,0.0,-0.335475,-0.8835749999999999,0.36382499999999995,0.0095844,-0.08913491999999999,0.01533504
1779587318089831113,A_-,-0.8307666054997753,0.0,1.4732324216084136,-2.9147347574155704,-0.09239773060057982,-0.01722639971718403,0.0,0.0,0.0,0.0,0.0,0.0,0.0,-0.3213,-0.8977499999999999,0.38744999999999996,0.014376599999999998,-0.095844,0.01533504
1779587318089831113,A_-,-0.8335269247500037,0.0,1.4732324216084136,-2.9147347574155704,-0.09239773060057982,-0.01722639971718403,0.0,0.0,0.0,0.0,0.0,0.0,0.0,-0.3213,-0.8977499999999999,0.38744999999999996,0.014376599999999998,-0.095844,0.01533504
1779587318089831113,A_-,-0.836176167499616,0.0,1.4732324216084136,-2.9147347574155704,-0.09239773060057982,-0.01722639971718403,0.0,0.0,0.0,0.0,0.0,0.0,0.0,-0.3213,-0.8977499999999999,0.38744999999999996,0.014376599999999998,-0.095844,0.01533504
1779587318114845037,A_-,-0.8388826002501446,0.0,1.4732324216084136,-2.9147347574155704,-0.09239773060057982,-0.01722639971718403,0.0,0.0,0.0,0.0,0.0,0.0,0.0,-0.3213,-0.911925,0.3591,0.0095844,-0.09488556,0.0095844
1779587318114845037,A_-,-0.841651743249713,0.0,1.4732324216084136,-2.9147347574155704,-0.09239773060057982,-0.01722639971718403,0.0,0.0,0.0,0.0,0.0,0.0,0.0,-0.3213,-0.911925,0.3591,0.0095844,-0.09488556,0.0095844
1779587318114845037,A_-,-0.8443046980000872,0.0,1.4732324216084136,-2.9147347574155704,-0.09239773060057982,-0.01722639971718403,0.0,0.0,0.0,0.0,0.0,0.0,0.0,-0.3213,-0.911925,0.3591,0.0095844,-0.09488556,0.0095844
1779587318149928331,A_-,-0.8469234777503516,0.0,1.4732324216084136,-2.9147347574155704,-0.09239773060057982,-0.01722639971718403,0.0,0.0,0.0,0.0,0.0,0.0,0.0,-0.335475,-0.893025,0.3591,0.01341816,-0.09967776,0.01341816
1779587318149928331,A_-,-0.8497132680004142,0.0,1.4732324216084136,-2.9147347574155704,-0.09239773060057982,-0.01722639971718403,0.0,0.0,0.0,0.0,0.0,0.0,0.0,-0.335475,-0.893025,0.3591,0.01341816,-0.09967776,0.01341816
1779587318149928331,A_-,-0.8523751262500809,0.0,1.4732324216084136,-2.9147347574155704,-0.09239773060057982,-0.01722639971718403,0.0,0.0,0.0,0.0,0.0,0.0,0.0,-0.335475,-0.893025,0.3591,0.01341816,-0.09967776,0.01341816
1779587318184819221,A_-,-0.8550118495004426,0.0,1.4732324216084136,-2.9147347574155704,-0.09239773060057982,-0.01722639971718403,0.0,0.0,0.0,0.0,0.0,0.0,0.0,-0.3402,-0.9071999999999999,0.378,0.01725192,-0.09871932,0.01821036
1779587318184819221,A_-,-0.8577523612502773,0.0,1.4732324216084136,-2.9147347574155704,-0.09239773060057982,-0.01722639971718403,0.0,0.0,0.0,0.0,0.0,0.0,0.0,-0.3402,-0.9071999999999999,0.378,0.01725192,-0.09871932,0.01821036
1779587318184819221,A_-,-0.8604108917497797,0.0,1.4732324216084136,-2.9147347574155704,-0.09239773060057982,-0.01722639971718403,0.0,0.0,0.0,0.0,0.0,0.0,0.0,-0.3402,-0.9071999999999999,0.378,0.01725192,-0.09871932,0.01821036
1779587318209827899,A_-,-0.8630511667497558,0.0,1.4732324216084136,-2.9147347574155704,-0.09239773060057982,-0.01722639971718403,0.0,0.0,0.0,0.0,0.0,0.0,0.0,-0.335475,-0.9071999999999999,0.36855,0.01054284,-0.09488556,0.00862596
1779587318209827899,A_-,-0.865883635749924,0.0,1.4732324216084136,-2.9147347574155704,-0.09239773060057982,-0.01722639971718403,0.0,0.0,0.0,0.0,0.0,0.0,0.0,-0.335475,-0.9071999999999999,0.36855,0.01054284,-0.09488556,0.00862596
1779587318209827899,A_-,-0.8687128887504514,0.0,1.4732324216084136,-2.9147347574155704,-0.09239773060057982,-0.01722639971718403,0.0,0.0,0.0,0.0,0.0,0.0,0.0,-0.335475,-0.9071999999999999,0.36855,0.01054284,-0.09488556,0.00862596
1779587318234817981,A_-,-0.8713660272496782,0.0,1.4732324216084136,-2.9147347574155704,-0.09239773060057982,-0.01722639971718403,0.0,0.0,0.0,0.0,0.0,0.0,0.0,-0.33075,-0.893025,0.37327499999999997,-0.00095844,-0.08913491999999999,0.03546228
1779587318234817981,A_-,-0.8742266632498286,0.0,1.4732324216084136,-2.9147347574155704,-0.09239773060057982,-0.01722639971718403,0.0,0.0,0.0,0.0,0.0,0.0,0.0,-0.33075,-0.893025,0.37327499999999997,-0.00095844,-0.08913491999999999,0.03546228
1779587318234817981,A_-,-0.8769388640002944,0.0,1.4732324216084136,-2.9147347574155704,-0.09239773060057982,-0.01722639971718403,0.0,0.0,0.0,0.0,0.0,0.0,0.0,-0.33075,-0.893025,0.37327499999999997,-0.00095844,-0.08913491999999999,0.03546228
1779587318264859199,A_-,-0.8795981945004314,0.0,1.4732324216084136,-2.9147347574155704,-0.09239773060057982,-0.01722639971718403,0.0,0.0,0.0,0.0,0.0,0.0,0.0,-0.335475,-0.91665,0.36382499999999995,0.01054284,-0.095844,0.0191688
1779587318264859199,A_-,-0.8824685582503662,0.0,1.4732324216084136,-2.9147347574155704,-0.09239773060057982,-0.01722639971718403,0.0,0.0,0.0,0.0,0.0,0.0,0.0,-0.335475,-0.91665,0.36382499999999995,0.01054284,-0.095844,0.0191688
1779587318264859199,A_-,-0.8851559517497662,0.0,1.4732324216084136,-2.9147347574155704,-0.09239773060057982,-0.01722639971718403,0.0,0.0,0.0,0.0,0.0,0.0,0.0,-0.335475,-0.91665,0.36382499999999995,0.01054284,-0.095844,0.0191688
1779587318284818649,A_-,-0.8878124022503471,0.0,1.4732324216084136,-2.9147347574155704,-0.09239773060057982,-0.01722639971718403,0.0,0.0,0.0,0.0,0.0,0.0,0.0,-0.316575,-0.911925,0.3591,0.0095844,-0.09296868,0.0095844
1779587318284818649,A_-,-0.8906660385000578,0.0,1.4732324216084136,-2.9147347574155704,-0.09239773060057982,-0.01722639971718403,0.0,0.0,0.0,0.0,0.0,0.0,0.0,-0.316575,-0.911925,0.3591,0.0095844,-0.09296868,0.0095844
1779587318284818649,A_-,-0.8933745432495925,0.0,1.4732324216084136,-2.9147347574155704,-0.09239773060057982,-0.01722639971718403,0.0,0.0,0.0,0.0,0.0,0.0,0.0,-0.316575,-0.911925,0.3591,0.0095844,-0.09296868,0.0095844
1779587318319814682,A_-,-0.8960275139997975,0.0,1.4732324216084136,-2.9147347574155704,-0.09239773060057982,-0.01722639971718403,0.0,0.0,0.0,0.0,0.0,0.0,0.0,-0.316575,-0.911925,0.3591,0.01150128,-0.095844,0.01245972
1779587318319814682,A_-,-0.8989894827500393,0.0,1.4732324216084136,-2.9147347574155704,-0.09239773060057982,-0.01722639971718403,0.0,0.0,0.0,0.0,0.0,0.0,0.0,-0.316575,-0.911925,0.3591,0.01150128,-0.095844,0.01245972
1779587318319814682,A_-,-0.9016782442504336,0.0,1.4732324216084136,-2.9147347574155704,-0.09239773060057982,-0.01722639971718403,0.0,0.0,0.0,0.0,0.0,0.0,0.0,-0.316575,-0.911925,0.3591,0.01150128,-0.095844,0.01245972
1779587318344805240,A_-,-0.9043348547502319,0.0,1.4732324216084136,-2.9147347574155704,-0.09239773060057982,-0.01722639971718403,0.0,0.0,0.0,0.0,0.0,0.0,0.0,-0.3402,-0.8977499999999999,0.34964999999999996,0.0095844,-0.08530115999999999,0.01533504
1779587318344805240,A_-,-0.9071712115000992,0.0,1.4732324216084136,-2.9147347574155704,-0.09239773060057982,-0.01722639971718403,0.0,0.0,0.0,0.0,0.0,0.0,0.0,-0.3402,-0.8977499999999999,0.34964999999999996,0.0095844,-0.08530115999999999,0.01533504
1779587318344805240,A_-,-0.9098739885002942,0.0,1.4732324216084136,-2.9147347574155704,-0.09239773060057982,-0.01722639971718403,0.0,0.0,0.0,0.0,0.0,0.0,0.0,-0.3402,-0.8977499999999999,0.34964999999999996,0.0095844,-0.08530115999999999,0.01533504
1779587318394846439,A_-,-0.9125265352504357,0.0,1.4732324216084136,-2.9147347574155704,-0.09239773060057982,-0.01722639971718403,0.0,0.0,0.0,0.0,0.0,0.0,0.0,-0.3213,-0.9213749999999999,0.382725,0.01054284,-0.08817648,0.00383376
1779587318394846439,A_-,-0.9153560202503286,0.0,1.4732324216084136,-2.9147347574155704,-0.09239773060057982,-0.01722639971718403,0.0,0.0,0.0,0.0,0.0,0.0,0.0,-0.3213,-0.9213749999999999,0.382725,0.01054284,-0.08817648,0.00383376
1779587318394846439,A_-,-0.9180162624998047,0.0,1.4732324216084136,-2.9147347574155704,-0.09239773060057982,-0.01722639971718403,0.0,0.0,0.0,0.0,0.0,0.0,0.0,-0.3213,-0.9213749999999999,0.382725,0.01054284,-0.08817648,0.00383376
1779587318439861536,A_-,-0.920665737249692,0.0,1.4732324216084136,-2.9147347574155704,-0.09239773060057982,-0.01722639971718403,0.0,0.0,0.0,0.0,0.0,0.0,0.0,-0.326025,-0.9213749999999999,0.35437499999999994,0.01150128,-0.09009336,0.00670908
1779587318439861536,A_-,-0.9236675367501448,0.0,1.4732324216084136,-2.9147347574155704,-0.09239773060057982,-0.01722639971718403,0.0,0.0,0.0,0.0,0.0,0.0,0.0,-0.326025,-0.9213749999999999,0.35437499999999994,0.01150128,-0.09009336,0.00670908
1779587318439861536,A_-,-0.9263603062499897,0.0,1.4732324216084136,-2.9147347574155704,-0.09239773060057982,-0.01722639971718403,0.0,0.0,0.0,0.0,0.0,0.0,0.0,-0.326025,-0.9213749999999999,0.35437499999999994,0.01150128,-0.09009336,0.00670908
1779587318479804277,A_-,-0.9290093409999827,0.0,1.4732324216084136,-2.9147347574155704,-0.09239773060057982,-0.01722639971718403,0.0,0.0,0.0,0.0,0.0,0.0,0.0,-0.335475,-0.9213749999999999,0.37327499999999997,0.01629348,-0.09967776,0.00670908
1779587318479804277,A_-,-0.9319198632501866,0.0,1.4732324216084136,-2.9147347574155704,-0.09239773060057982,-0.01722639971718403,0.0,0.0,0.0,0.0,0.0,0.0,0.0,-0.335475,-0.9213749999999999,0.37327499999999997,0.01629348,-0.09967776,0.00670908
1779587318479804277,A_-,-0.9346091367497138,0.0,1.4732324216084136,-2.9147347574155704,-0.09239773060057982,-0.01722639971718403,0.0,0.0,0.0,0.0,0.0,0.0,0.0,-0.335475,-0.9213749999999999,0.37327499999999997,0.01629348,-0.09967776,0.00670908
1779587318514811038,A_-,-0.9372727549998672,0.0,1.4732324216084136,-2.9147347574155704,-0.09239773060057982,-0.01722639971718403,0.0,0.0,0.0,0.0,0.0,0.0,0.0,-0.3213,-0.9024749999999999,0.3402,0.0095844,-0.08530115999999999,0.01150128
1779587318514811038,A_-,-0.9401311350002288,0.0,1.4732324216084136,-2.9147347574155704,-0.09239773060057982,-0.01722639971718403,0.0,0.0,0.0,0.0,0.0,0.0,0.0,-0.3213,-0.9024749999999999,0.3402,0.0095844,-0.08530115999999999,0.01150128
1779587318514811038,A_-,-0.9428235365003275,0.0,1.4732324216084136,-2.9147347574155704,-0.09239773060057982,-0.01722639971718403,0.0,0.0,0.0,0.0,0.0,0.0,0.0,-0.3213,-0.9024749999999999,0.3402,0.0095844,-0.08530115999999999,0.01150128
1779587318544807910,A_-,-0.9454732112499187,0.0,1.4732324216084136,-2.9147347574155704,-0.09239773060057982,-0.01722639971718403,0.0,0.0,0.0,0.0,0.0,0.0,0.0,-0.3213,-0.93555,0.3591,0.00670908,-0.09680244,0.01341816
1779587318544807910,A_-,-0.9483335192498998,0.0,1.4732324216084136,-2.9147347574155704,-0.09239773060057982,-0.01722639971718403,0.0,0.0,0.0,0.0,0.0,0.0,0.0,-0.3213,-0.93555,0.3591,0.00670908,-0.09680244,0.01341816
1779587318544807910,A_-,-0.9510430880000058,0.0,1.4732324216084136,-2.9147347574155704,-0.09239773060057982,-0.01722639971718403,0.0,0.0,0.0,0.0,0.0,0.0,0.0,-0.3213,-0.93555,0.3591,0.00670908,-0.09680244,0.01341816
1779587318579805850,A_-,-0.953695466750105,0.0,1.4732324216084136,-2.9147347574155704,-0.09239773060057982,-0.01722639971718403,0.0,0.0,0.0,0.0,0.0,0.0,0.0,-0.316575,-0.9071999999999999,0.36382499999999995,0.01245972,-0.09009336,0.00862596
1779587318579805850,A_-,-0.9565988612503133,0.0,1.4732324216084136,-2.9147347574155704,-0.09239773060057982,-0.01722639971718403,0.0,0.0,0.0,0.0,0.0,0.0,0.0,-0.316575,-0.9071999999999999,0.36382499999999995,0.01245972,-0.09009336,0.00862596
1779587318579805850,A_-,-0.9592929827504122,0.0,1.4732324216084136,-2.9147347574155704,-0.09239773060057982,-0.01722639971718403,0.0,0.0,0.0,0.0,0.0,0.0,0.0,-0.316575,-0.9071999999999999,0.36382499999999995,0.01245972,-0.09009336,0.00862596
1779587318614800214,A_-,-0.9619494332500835,0.0,1.4732324216084136,-2.9147347574155704,-0.09239773060057982,-0.01722639971718403,0.0,0.0,0.0,0.0,0.0,0.0,0.0,-0.33075,-0.91665,0.378,0.0095844,-0.1102206,0.01054284
1779587318614800214,A_-,-0.9648111092501495,0.0,1.4732324216084136,-2.9147347574155704,-0.09239773060057982,-0.01722639971718403,0.0,0.0,0.0,0.0,0.0,0.0,0.0,-0.33075,-0.91665,0.378,0.0095844,-0.1102206,0.01054284
1779587318614800214,A_-,-0.9675152462496044,0.0,1.4732324216084136,-2.9147347574155704,-0.09239773060057982,-0.01722639971718403,0.0,0.0,0.0,0.0,0.0,0.0,0.0,-0.33075,-0.91665,0.378,0.0095844,-0.1102206,0.01054284
1779587318644804716,A_-,-0.970234598749812,0.0,1.4714696390638993,-2.9147347574155704,-0.09239773060057982,-0.01722639971718403,0.0,0.0,-0.026000000000000002,0.0,0.0,0.0,0.0,-0.33075,-1.2285,0.37327499999999997,0.01341816,-0.09201024,0.00766752
1779587318644804716,A_-,-0.9730466522496499,0.0,1.4714696390638993,-2.9147347574155704,-0.09239773060057982,-0.01722639971718403,0.0,0.0,-0.026000000000000002,0.0,0.0,0.0,0.0,-0.33075,-1.2285,0.37327499999999997,0.01341816,-0.09201024,0.00766752
1779587318644804716,A_-,-0.9757665567503864,0.0,1.4714696390638993,-2.9147347574155704,-0.09239773060057982,-0.01722639971718403,0.0,0.0,-0.026000000000000002,0.0,0.0,0.0,0.0,-0.33075,-1.2285,0.37327499999999997,0.01341816,-0.09201024,0.00766752
1779587318659819364,A_-,-0.9784551102502519,0.0,1.4719583312544577,-2.9147347574155704,-0.09239773060057982,-0.01722639971718403,0.0,0.0,-0.08,0.0,0.0,0.0,0.0,-0.3213,-0.978075,0.34964999999999996,0.00670908,-0.0910518,0.00383376
1779587318659819364,A_-,-0.9813716484995894,0.0,1.4719583312544577,-2.9147347574155704,-0.09239773060057982,-0.01722639971718403,0.0,0.0,-0.08,0.0,0.0,0.0,0.0,-0.3213,-0.978075,0.34964999999999996,0.00670908,-0.0910518,0.00383376
1779587318659819364,A_-,-0.9840362587501659,0.0,1.4719583312544577,-2.9147347574155704,-0.09239773060057982,-0.01722639971718403,0.0,0.0,-0.08,0.0,0.0,0.0,0.0,-0.3213,-0.978075,0.34964999999999996,0.00670908,-0.0910518,0.00383376
