deepaktalwardt/rage-cage-arm-hackstorm/ros2/ws/sysid/runs/sysid_20260524_014820/raw/joint2_phaseB.csv
t_ns,phase,tau_cmd,q1,q2,q3,q4,q5,q6,qd1,qd2,qd3,qd4,qd5,qd6,tau1,tau2,tau3,tau4,tau5,tau6
1779587321844693183,B,0.0,0.0,1.2894492513734106,-2.912448376095458,-0.09239773060057982,-0.024923301718479025,0.0,0.0,0.168,0.036000000000000004,0.0,0.0,0.0,-0.27405,-0.80325,-0.9497249999999999,0.0095844,0.14951664,0.01245972
1779587321844693183,B,0.0,0.0,1.2894492513734106,-2.912448376095458,-0.09239773060057982,-0.024923301718479025,0.0,0.0,0.168,0.036000000000000004,0.0,0.0,0.0,-0.27405,-0.80325,-0.9497249999999999,0.0095844,0.14951664,0.01245972
1779587321844693183,B,0.0,0.0,1.2894492513734106,-2.912448376095458,-0.09239773060057982,-0.024923301718479025,0.0,0.0,0.168,0.036000000000000004,0.0,0.0,0.0,-0.27405,-0.80325,-0.9497249999999999,0.0095844,0.14951664,0.01245972
1779587321859700918,B,0.0,0.0,1.293620588285677,-2.912448376095458,-0.09239773060057982,-0.024923301718479025,0.0,0.0,0.186,0.013000000000000001,0.0,0.0,0.0,-0.29295,-1.110375,-0.3402,0.00095844,0.16772700000000001,0.0095844
1779587321859700918,B,0.0,0.0,1.293620588285677,-2.912448376095458,-0.09239773060057982,-0.024923301718479025,0.0,0.0,0.186,0.013000000000000001,0.0,0.0,0.0,-0.29295,-1.110375,-0.3402,0.00095844,0.16772700000000001,0.0095844
1779587321859700918,B,0.0,0.0,1.293620588285677,-2.912448376095458,-0.09239773060057982,-0.024923301718479025,0.0,0.0,0.186,0.013000000000000001,0.0,0.0,0.0,-0.29295,-1.110375,-0.3402,0.00095844,0.16772700000000001,0.0095844
1779587321869689464,B,0.0,0.0,1.2949470385171928,-2.912448376095458,-0.09239773060057982,-0.024923301718479025,0.0,0.0,0.18,0.0,0.0,0.0,0.0,-0.29767499999999997,-0.5008499999999999,-0.19372499999999998,0.01725192,0.17635296,0.01245972
1779587321869689464,B,0.0,0.0,1.2949470385171928,-2.912448376095458,-0.09239773060057982,-0.024923301718479025,0.0,0.0,0.18,0.0,0.0,0.0,0.0,-0.29767499999999997,-0.5008499999999999,-0.19372499999999998,0.01725192,0.17635296,0.01245972
1779587321869689464,B,0.0,0.0,1.2949470385171928,-2.912448376095458,-0.09239773060057982,-0.024923301718479025,0.0,0.0,0.18,0.0,0.0,0.0,0.0,-0.29767499999999997,-0.5008499999999999,-0.19372499999999998,0.01725192,0.17635296,0.01245972
1779587321884672880,B,0.0,0.0,1.297006527034546,-2.912448376095458,-0.09239773060057982,-0.024923301718479025,0.0,0.0,0.169,0.0,0.0,0.0,0.0,-0.29767499999999997,-1.072575,-0.2835,0.00766752,0.18018672,0.00862596
1779587321884672880,B,0.11822156349357127,0.0,1.297006527034546,-2.912448376095458,-0.09239773060057982,-0.024923301718479025,0.0,0.0,0.169,0.0,0.0,0.0,0.0,-0.29767499999999997,-1.072575,-0.2835,0.00766752,0.18018672,0.00862596
1779587321884672880,B,0.2221002164705051,0.0,1.297006527034546,-2.912448376095458,-0.09239773060057982,-0.024923301718479025,0.0,0.0,0.169,0.0,0.0,0.0,0.0,-0.29767499999999997,-1.072575,-0.2835,0.00766752,0.18018672,0.00862596
1779587321900400638,B,0.3258913956180017,0.0,1.2971985132522654,-2.912448376095458,-0.09239773060057982,-0.024923301718479025,0.0,0.0,0.10200000000000001,0.0,0.0,0.0,0.0,-0.2835,-0.8504999999999999,-0.335475,0.00287532,0.19360488,0.01725192
1779587321900400638,B,0.44596392711920096,0.0,1.2971985132522654,-2.912448376095458,-0.09239773060057982,-0.024923301718479025,0.0,0.0,0.10200000000000001,0.0,0.0,0.0,0.0,-0.2835,-0.8504999999999999,-0.335475,0.00287532,0.19360488,0.01725192
1779587321900400638,B,0.5504501824136071,0.0,1.2971985132522654,-2.912448376095458,-0.09239773060057982,-0.024923301718479025,0.0,0.0,0.10200000000000001,0.0,0.0,0.0,0.0,-0.2835,-0.8504999999999999,-0.335475,0.00287532,0.19360488,0.01725192
1779587321929681777,B,0.6540805218609942,0.0,1.3038831242874038,-2.912448376095458,-0.09239773060057982,-0.024923301718479025,0.0,0.0,0.14100000000000001,0.0,0.0,0.0,0.0,-0.316575,-0.9875249999999999,-0.27405,0.01341816,0.15239196,0.00670908
1779587321929681777,B,0.7733893079462151,0.0,1.3038831242874038,-2.912448376095458,-0.09239773060057982,-0.024923301718479025,0.0,0.0,0.14100000000000001,0.0,0.0,0.0,0.0,-0.316575,-0.9875249999999999,-0.27405,0.01341816,0.15239196,0.00670908
1779587321929681777,B,0.8805930327196301,0.0,1.3038831242874038,-2.912448376095458,-0.09239773060057982,-0.024923301718479025,0.0,0.0,0.14100000000000001,0.0,0.0,0.0,0.0,-0.316575,-0.9875249999999999,-0.27405,0.01341816,0.15239196,0.00670908
1779587321974806308,B,0.984060734624713,0.0,1.309346004846146,-2.912448376095458,-0.09239773060057982,-0.024923301718479025,0.0,0.0,0.19,0.0,0.0,-0.038,0.0,-0.29295,-0.5197499999999999,-0.25515,0.01629348,0.215649,0.00862596
1779587321974806308,B,1.1025183014645181,0.0,1.309346004846146,-2.912448376095458,-0.09239773060057982,-0.024923301718479025,0.0,0.0,0.19,0.0,0.0,-0.038,0.0,-0.29295,-0.5197499999999999,-0.25515,0.01629348,0.215649,0.00862596
1779587321974806308,B,1.209727896973252,0.0,1.309346004846146,-2.912448376095458,-0.09239773060057982,-0.024923301718479025,0.0,0.0,0.19,0.0,0.0,-0.038,0.0,-0.29295,-0.5197499999999999,-0.25515,0.01629348,0.215649,0.00862596
1779587321989678859,B,1.3164525884726046,0.0,1.3122956112820165,-2.912448376095458,-0.09239773060057982,-0.024923301718479025,0.0,0.0,0.214,0.0,0.0,0.23900000000000002,0.0,-0.2835,-0.467775,-0.326025,0.01150128,0.03546228,0.00766752
1779587321989678859,B,1.4342238853018494,0.0,1.3122956112820165,-2.912448376095458,-0.09239773060057982,-0.024923301718479025,0.0,0.0,0.214,0.0,0.0,0.23900000000000002,0.0,-0.2835,-0.467775,-0.326025,0.01150128,0.03546228,0.00766752
1779587321989678859,B,1.4676826653753778,0.0,1.3122956112820165,-2.912448376095458,-0.09239773060057982,-0.024923301718479025,0.0,0.0,0.214,0.0,0.0,0.23900000000000002,0.0,-0.2835,-0.467775,-0.326025,0.01150128,0.03546228,0.00766752
1779587322025356292,B,1.4676826653753778,0.0,1.3217203892427858,-2.912448376095458,-0.09239773060057982,-0.024923301718479025,0.0,0.0,0.291,0.0,0.0,-0.038,0.0,-0.316575,0.29295,-0.1323,0.00670908,0.31436832,0.01245972
1779587322025356292,B,1.4676826653753778,0.0,1.3217203892427858,-2.912448376095458,-0.09239773060057982,-0.024923301718479025,0.0,0.0,0.291,0.0,0.0,-0.038,0.0,-0.316575,0.29295,-0.1323,0.00670908,0.31436832,0.01245972
1779587322025356292,B,1.4676826653753778,0.0,1.3217203892427858,-2.912448376095458,-0.09239773060057982,-0.024923301718479025,0.0,0.0,0.291,0.0,0.0,-0.038,0.0,-0.316575,0.29295,-0.1323,0.00670908,0.31436832,0.01245972
1779587322041101694,B,1.4676826653753778,0.0,1.325629926767253,-2.912448376095458,-0.09239773060057982,-0.024923301718479025,0.0,0.0,0.28,-0.015,0.0,0.0,0.0,-0.316575,0.467775,-0.155925,0.0095844,0.19935552,0.01245972
1779587322041101694,B,1.4676826653753778,0.0,1.325629926767253,-2.912448376095458,-0.09239773060057982,-0.024923301718479025,0.0,0.0,0.28,-0.015,0.0,0.0,0.0,-0.316575,0.467775,-0.155925,0.0095844,0.19935552,0.01245972
1779587322041101694,B,1.4676826653753778,0.0,1.325629926767253,-2.912448376095458,-0.09239773060057982,-0.024923301718479025,0.0,0.0,0.28,-0.015,0.0,0.0,0.0,-0.316575,0.467775,-0.155925,0.0095844,0.19935552,0.01245972
1779587322060052156,B,1.4676826653753778,0.0,1.3315814995165538,-2.912448376095458,-0.09239773060057982,-0.024923301718479025,0.0,0.0,0.294,0.0,0.0,-0.023,0.0,-0.29295,0.36382499999999995,-0.184275,0.0047922,0.23769311999999998,0.01150128
1779587322060052156,B,1.4676826653753778,0.0,1.3315814995165538,-2.912448376095458,-0.09239773060057982,-0.024923301718479025,0.0,0.0,0.294,0.0,0.0,-0.023,0.0,-0.29295,0.36382499999999995,-0.184275,0.0047922,0.23769311999999998,0.01150128
1779587322060052156,B,1.4676826653753778,0.0,1.3315814995165538,-2.912448376095458,-0.09239773060057982,-0.024923301718479025,0.0,0.0,0.294,0.0,0.0,-0.023,0.0,-0.29295,0.36382499999999995,-0.184275,0.0047922,0.23769311999999998,0.01150128
1779587322074679136,B,1.4676826653753778,0.0,1.3363462483744983,-2.912448376095458,-0.09239773060057982,-0.026982790235832336,0.0,0.0,0.308,0.03,0.0,-0.243,0.0,-0.307125,0.7182,-0.2457,0.00766752,0.45621744000000003,0.00766752
1779587322074679136,B,1.4676826653753778,0.0,1.3363462483744983,-2.912448376095458,-0.09239773060057982,-0.026982790235832336,0.0,0.0,0.308,0.03,0.0,-0.243,0.0,-0.307125,0.7182,-0.2457,0.00766752,0.45621744000000003,0.00766752
1779587322074679136,B,1.4676826653753778,0.0,1.3363462483744983,-2.912448376095458,-0.09239773060057982,-0.026982790235832336,0.0,0.0,0.308,0.03,0.0,-0.243,0.0,-0.307125,0.7182,-0.2457,0.00766752,0.45621744000000003,0.00766752
1779587322094684839,B,1.4676826653753778,0.0,1.3425770738041183,-2.912448376095458,-0.09239773060057982,-0.026982790235832336,0.0,0.0,0.317,-0.073,0.0,-0.097,0.0,-0.307125,0.3213,0.00945,0.01725192,0.5079732,0.00670908
1779587322094684839,B,1.4676826653753778,0.0,1.3425770738041183,-2.912448376095458,-0.09239773060057982,-0.026982790235832336,0.0,0.0,0.317,-0.073,0.0,-0.097,0.0,-0.307125,0.3213,0.00945,0.01725192,0.5079732,0.00670908
1779587322094684839,B,1.4676826653753778,0.0,1.3425770738041183,-2.912448376095458,-0.09239773060057982,-0.026982790235832336,0.0,0.0,0.317,-0.073,0.0,-0.097,0.0,-0.307125,0.3213,0.00945,0.01725192,0.5079732,0.00670908
1779587322114676952,B,1.4676826653753778,0.0,1.3486508196010585,-2.912448376095458,-0.09239773060057982,-0.026982790235832336,0.0,0.0,0.25,-0.079,0.0,0.023,0.0,-0.307125,0.552825,0.10394999999999999,0.00670908,0.00670908,0.01054284
1779587322114676952,B,1.4676826653753778,0.0,1.3486508196010585,-2.912448376095458,-0.09239773060057982,-0.026982790235832336,0.0,0.0,0.25,-0.079,0.0,0.023,0.0,-0.307125,0.552825,0.10394999999999999,0.00670908,0.00670908,0.01054284
1779587322114676952,B,1.4676826653753778,0.0,1.3486508196010585,-2.912448376095458,-0.09239773060057982,-0.026982790235832336,0.0,0.0,0.25,-0.079,0.0,0.023,0.0,-0.307125,0.552825,0.10394999999999999,0.00670908,0.00670908,0.01054284
1779587322124764680,B,1.4676826653753778,0.0,1.350588135070772,-2.912448376095458,-0.09239773060057982,-0.026982790235832336,0.0,0.0,0.28500000000000003,0.10400000000000001,0.0,-0.209,0.0,-0.31185,0.34964999999999996,-0.61425,0.01245972,0.59231592,0.01245972
1779587322124764680,B,1.4676826653753778,0.0,1.350588135070772,-2.912448376095458,-0.09239773060057982,-0.026982790235832336,0.0,0.0,0.28500000000000003,0.10400000000000001,0.0,-0.209,0.0,-0.31185,0.34964999999999996,-0.61425,0.01245972,0.59231592,0.01245972
1779587322124764680,B,1.4676826653753778,0.0,1.350588135070772,-2.912448376095458,-0.09239773060057982,-0.026982790235832336,0.0,0.0,0.28500000000000003,0.10400000000000001,0.0,-0.209,0.0,-0.31185,0.34964999999999996,-0.61425,0.01245972,0.59231592,0.01245972
1779587322140153884,B,1.4676826653753778,0.0,1.3575170922011894,-2.912448376095458,-0.09239773060057982,-0.026982790235832336,0.0,0.0,0.324,-0.106,0.0,0.592,0.0,-0.3024,0.4961249999999999,0.05669999999999999,0.0095844,-0.24056844,0.01533504
1779587322140153884,B,1.4676826653753778,0.0,1.3575170922011894,-2.912448376095458,-0.09239773060057982,-0.026982790235832336,0.0,0.0,0.324,-0.106,0.0,0.592,0.0,-0.3024,0.4961249999999999,0.05669999999999999,0.0095844,-0.24056844,0.01533504
1779587322140153884,B,1.4676826653753778,0.0,1.3575170922011894,-2.912448376095458,-0.09239773060057982,-0.026982790235832336,0.0,0.0,0.324,-0.106,0.0,0.592,0.0,-0.3024,0.4961249999999999,0.05669999999999999,0.0095844,-0.24056844,0.01533504
1779587322154676437,B,1.4676826653753778,0.0,1.3620200416713348,-2.912448376095458,-0.09239773060057982,-0.026982790235832336,0.0,0.0,0.324,-0.024,0.0,0.055,0.0,-0.3213,0.567,0.36382499999999995,0.0047922,-0.014376599999999998,0.01629348
1779587322154676437,B,1.4676826653753778,0.0,1.3620200416713348,-2.912448376095458,-0.09239773060057982,-0.026982790235832336,0.0,0.0,0.324,-0.024,0.0,0.055,0.0,-0.3213,0.567,0.36382499999999995,0.0047922,-0.014376599999999998,0.01629348
1779587322154676437,B,1.4676826653753778,0.0,1.3620200416713348,-2.912448376095458,-0.09239773060057982,-0.026982790235832336,0.0,0.0,0.324,-0.024,0.0,0.055,0.0,-0.3213,0.567,0.36382499999999995,0.0047922,-0.014376599999999998,0.01629348
1779587322170158386,B,1.4676826653753778,0.0,1.3668196971143194,-2.912448376095458,-0.09239773060057982,-0.026982790235832336,0.0,0.0,0.338,-0.044,0.0,-0.6960000000000001,0.0,-0.326025,0.34964999999999996,0.5197499999999999,0.0095844,0.49743036,0.014376599999999998
1779587322170158386,B,1.4676826653753778,0.0,1.3668196971143194,-2.912448376095458,-0.09239773060057982,-0.026982790235832336,0.0,0.0,0.338,-0.044,0.0,-0.6960000000000001,0.0,-0.326025,0.34964999999999996,0.5197499999999999,0.0095844,0.49743036,0.014376599999999998
1779587322170158386,B,1.4676826653753778,0.0,1.3668196971143194,-2.912448376095458,-0.09239773060057982,-0.026982790235832336,0.0,0.0,0.338,-0.044,0.0,-0.6960000000000001,0.0,-0.326025,0.34964999999999996,0.5197499999999999,0.0095844,0.49743036,0.014376599999999998
1779587322179695367,B,1.4676826653753778,0.0,1.3690886251419119,-2.912448376095458,-0.09239773060057982,-0.026982790235832336,0.0,0.0,0.31,-0.044,0.0,-0.276,0.0,-0.307125,0.43942499999999995,0.5197499999999999,0.0095844,0.46388495999999996,0.00862596
1779587322179695367,B,1.4537714003256503,0.0,1.3690886251419119,-2.912448376095458,-0.09239773060057982,-0.026982790235832336,0.0,0.0,0.31,-0.044,0.0,-0.276,0.0,-0.307125,0.43942499999999995,0.5197499999999999,0.0095844,0.46388495999999996,0.00862596
1779587322179695367,B,1.3479595707591876,0.0,1.3690886251419119,-2.912448376095458,-0.09239773060057982,-0.026982790235832336,0.0,0.0,0.31,-0.044,0.0,-0.276,0.0,-0.307125,0.43942499999999995,0.5197499999999999,0.0095844,0.46388495999999996,0.00862596
1779587322189689636,B,1.246073975791942,0.0,1.3738359207073365,-2.912448376095458,-0.09239773060057982,-0.026982790235832336,0.0,0.0,0.34700000000000003,-0.088,0.0,0.001,0.0,-0.307125,0.19372499999999998,1.323,0.00862596,0.08434272,0.01150128
1779587322189689636,B,1.1319007397178968,0.0,1.3738359207073365,-2.912448376095458,-0.09239773060057982,-0.026982790235832336,0.0,0.0,0.34700000000000003,-0.088,0.0,0.001,0.0,-0.307125,0.19372499999999998,1.323,0.00862596,0.08434272,0.01150128
1779587322189689636,B,1.028035589412173,0.0,1.3738359207073365,-2.912448376095458,-0.09239773060057982,-0.026982790235832336,0.0,0.0,0.34700000000000003,-0.088,0.0,0.001,0.0,-0.307125,0.19372499999999998,1.323,0.00862596,0.08434272,0.01150128
1779587322204725027,B,0.9257384562394765,0.0,1.3787402959054404,-2.912448376095458,-0.09239773060057982,-0.024696408915719763,0.0,0.0,0.354,0.037,0.0,0.17200000000000001,0.0,-0.29295,0.165375,-0.893025,0.00766752,-0.05079731999999999,0.01150128
1779587322204725027,B,0.8086105731397311,0.0,1.3787402959054404,-2.912448376095458,-0.09239773060057982,-0.024696408915719763,0.0,0.0,0.354,0.037,0.0,0.17200000000000001,0.0,-0.29295,0.165375,-0.893025,0.00766752,-0.05079731999999999,0.01150128
1779587322204725027,B,0.6907641493059836,0.0,1.3787402959054404,-2.912448376095458,-0.09239773060057982,-0.024696408915719763,0.0,0.0,0.354,0.037,0.0,0.17200000000000001,0.0,-0.29295,0.165375,-0.893025,0.00766752,-0.05079731999999999,0.01150128
1779587322234672546,B,0.5825254330710047,0.0,1.3885141397166088,-2.912448376095458,-0.09239773060057982,-0.024696408915719763,0.0,0.0,0.328,0.138,0.0,-0.31,0.0,-0.31185,0.61425,-0.6048,0.00862596,0.059423279999999995,0.01054284
1779587322234672546,B,0.4116286836824373,0.0,1.3885141397166088,-2.912448376095458,-0.09239773060057982,-0.024696408915719763,0.0,0.0,0.328,0.138,0.0,-0.31,0.0,-0.31185,0.61425,-0.6048,0.00862596,0.059423279999999995,0.01054284
1779587322234672546,B,0.30542881713923803,0.0,1.3885141397166088,-2.912448376095458,-0.09239773060057982,-0.024696408915719763,0.0,0.0,0.328,0.138,0.0,-0.31,0.0,-0.31185,0.61425,-0.6048,0.00862596,0.059423279999999995,0.01054284
1779587322284670829,B,0.20013183232560705,0.0,1.403174905433361,-2.912448376095458,-0.09239773060057982,-0.024696408915719763,0.0,0.0,0.264,-0.09,0.0,0.0,0.0,-0.3024,0.10394999999999999,1.507275,0.00766752,0.07379988,0.00191688
1779587322284670829,B,0.06355251239465079,0.0,1.403174905433361,-2.912448376095458,-0.09239773060057982,-0.024696408915719763,0.0,0.0,0.264,-0.09,0.0,0.0,0.0,-0.3024,0.10394999999999999,1.507275,0.00766752,0.07379988,0.00191688
1779587322284670829,B,0.0,0.0,1.403174905433361,-2.912448376095458,-0.09239773060057982,-0.024696408915719763,0.0,0.0,0.264,-0.09,0.0,0.0,0.0,-0.3024,0.10394999999999999,1.507275,0.00766752,0.07379988,0.00191688
1779587322304669380,B,0.0,0.0,1.4055310999235537,-2.912448376095458,-0.09239773060057982,-0.024696408915719763,0.0,0.0,0.049,-0.031,0.0,0.065,0.0,-0.3213,0.278775,-0.41579999999999995,0.00862596,0.00095844,0.01150128
1779587322304669380,B,0.0,0.0,1.4055310999235537,-2.912448376095458,-0.09239773060057982,-0.024696408915719763,0.0,0.0,0.049,-0.031,0.0,0.065,0.0,-0.3213,0.278775,-0.41579999999999995,0.00862596,0.00095844,0.01150128
1779587322304669380,B,0.0,0.0,1.4055310999235537,-2.912448376095458,-0.09239773060057982,-0.024696408915719763,0.0,0.0,0.049,-0.031,0.0,0.065,0.0,-0.3213,0.278775,-0.41579999999999995,0.00862596,0.00095844,0.01150128
1779587322319673299,B,0.0,0.0,1.4079920141688655,-2.912448376095458,-0.09239773060057982,-0.024696408915719763,0.0,0.0,0.139,-0.076,0.0,0.0,0.0,-0.3024,-0.458325,0.33075,0.01533504,0.05463108,0.0095844
1779587322319673299,B,0.0,0.0,1.4079920141688655,-2.912448376095458,-0.09239773060057982,-0.024696408915719763,0.0,0.0,0.139,-0.076,0.0,0.0,0.0,-0.3024,-0.458325,0.33075,0.01533504,0.05463108,0.0095844
1779587322319673299,B,0.0,0.0,1.4079920141688655,-2.912448376095458,-0.09239773060057982,-0.024696408915719763,0.0,0.0,0.139,-0.076,0.0,0.0,0.0,-0.3024,-0.458325,0.33075,0.01533504,0.05463108,0.0095844
1779587322339655160,B,0.0,0.0,1.410034049393699,-2.912448376095458,-0.09239773060057982,-0.02064724505109292,0.0,0.0,0.138,0.003,0.0,0.10300000000000001,0.0,-0.29767499999999997,-0.82215,-0.505575,0.0095844,-0.2012724,0.01054284
1779587322339655160,B,0.0,0.0,1.410034049393699,-2.912448376095458,-0.09239773060057982,-0.02064724505109292,0.0,0.0,0.138,0.003,0.0,0.10300000000000001,0.0,-0.29767499999999997,-0.82215,-0.505575,0.0095844,-0.2012724,0.01054284
1779587322339655160,B,0.0,0.0,1.410034049393699,-2.912448376095458,-0.09239773060057982,-0.02064724505109292,0.0,0.0,0.138,0.003,0.0,0.10300000000000001,0.0,-0.29767499999999997,-0.82215,-0.505575,0.0095844,-0.2012724,0.01054284
1779587322354669094,B,0.0,0.0,1.4131930953398086,-2.912448376095458,-0.09239773060057982,-0.020298179200694055,0.0,0.0,0.199,0.0,0.0,0.032,0.0,-0.3449249999999999,-0.6804,-0.307125,0.00575064,-0.26548788,0.00670908
1779587322354669094,B,0.0,0.0,1.4131930953398086,-2.912448376095458,-0.09239773060057982,-0.020298179200694055,0.0,0.0,0.199,0.0,0.0,0.032,0.0,-0.3449249999999999,-0.6804,-0.307125,0.00575064,-0.26548788,0.00670908
1779587322354669094,B,0.0,0.0,1.4131930953398086,-2.912448376095458,-0.09239773060057982,-0.020298179200694055,0.0,0.0,0.199,0.0,0.0,0.032,0.0,-0.3449249999999999,-0.6804,-0.307125,0.00575064,-0.26548788,0.00670908
1779587322379675626,B,0.0,0.0,1.4169630065241166,-2.912448376095458,-0.09239773060057982,-0.018291050560900576,0.0,0.0,0.125,0.0,0.0,0.001,0.0,-0.31185,-0.817425,-0.34964999999999996,0.00670908,-0.12651408,0.00575064
1779587322379675626,B,0.0,0.0,1.4169630065241166,-2.912448376095458,-0.09239773060057982,-0.018291050560900576,0.0,0.0,0.125,0.0,0.0,0.001,0.0,-0.31185,-0.817425,-0.34964999999999996,0.00670908,-0.12651408,0.00575064
1779587322379675626,B,0.0,0.0,1.4169630065241166,-2.912448376095458,-0.09239773060057982,-0.018291050560900576,0.0,0.0,0.125,0.0,0.0,0.001,0.0,-0.31185,-0.817425,-0.34964999999999996,0.00670908,-0.12651408,0.00575064
1779587322389691114,B,0.0,0.0,1.4169630065241166,-2.912448376095458,-0.09239773060057982,-0.018291050560900576,0.0,0.0,0.089,0.0,0.0,0.032,0.0,-0.29767499999999997,-0.33075,-0.29295,0.01150128,-0.21373212,0.01150128
1779587322389691114,B,0.0,0.0,1.4169630065241166,-2.912448376095458,-0.09239773060057982,-0.018291050560900576,0.0,0.0,0.089,0.0,0.0,0.032,0.0,-0.29767499999999997,-0.33075,-0.29295,0.01150128,-0.21373212,0.01150128
1779587322389691114,B,0.0,0.0,1.4169630065241166,-2.912448376095458,-0.09239773060057982,-0.018291050560900576,0.0,0.0,0.089,0.0,0.0,0.032,0.0,-0.29767499999999997,-0.33075,-0.29295,0.01150128,-0.21373212,0.01150128
1779587322405354261,B,0.0,0.0,1.4169630065241166,-2.912448376095458,-0.09239773060057982,-0.018291050560900576,0.0,0.0,0.053,0.0,0.0,0.0,0.0,-0.3024,-0.53865,-0.326025,0.01245972,-0.12268032,0.00575064
1779587322405354261,B,0.0,0.0,1.4169630065241166,-2.912448376095458,-0.09239773060057982,-0.018291050560900576,0.0,0.0,0.053,0.0,0.0,0.0,0.0,-0.3024,-0.53865,-0.326025,0.01245972,-0.12268032,0.00575064
1779587322405354261,B,0.0,0.0,1.4169630065241166,-2.912448376095458,-0.09239773060057982,-0.018291050560900576,0.0,0.0,0.053,0.0,0.0,0.0,0.0,-0.3024,-0.53865,-0.326025,0.01245972,-0.12268032,0.00575064
1779587322429665088,B,0.0,0.0,1.4187432423611506,-2.912448376095458,-0.09239773060057982,-0.018291050560900576,0.0,0.0,0.003,0.0,0.0,0.0,0.0,-0.316575,-0.23152499999999998,-0.307125,0.01341816,-0.11117904,0.01341816
1779587322429665088,B,0.0,0.0,1.4187432423611506,-2.912448376095458,-0.09239773060057982,-0.018291050560900576,0.0,0.0,0.003,0.0,0.0,0.0,0.0,-0.316575,-0.23152499999999998,-0.307125,0.01341816,-0.11117904,0.01341816
1779587322429665088,B,0.0,0.0,1.4187432423611506,-2.912448376095458,-0.09239773060057982,-0.018291050560900576,0.0,0.0,0.003,0.0,0.0,0.0,0.0,-0.316575,-0.23152499999999998,-0.307125,0.01341816,-0.11117904,0.01341816
1779587322449665784,B,0.0,0.0,1.4187432423611506,-2.912448376095458,-0.09239773060057982,-0.018291050560900576,0.0,0.0,0.0,-0.003,0.0,0.0,0.0,-0.29295,-0.382725,-0.14175,0.0,-0.10734528,0.01054284
1779587322449665784,B,0.0,0.0,1.4187432423611506,-2.912448376095458,-0.09239773060057982,-0.018291050560900576,0.0,0.0,0.0,-0.003,0.0,0.0,0.0,-0.29295,-0.382725,-0.14175,0.0,-0.10734528,0.01054284
1779587322449665784,B,0.0,0.0,1.4187432423611506,-2.912448376095458,-0.09239773060057982,-0.018291050560900576,0.0,0.0,0.0,-0.003,0.0,0.0,0.0,-0.29295,-0.382725,-0.14175,0.0,-0.10734528,0.01054284
1779587322464915752,B,0.0,0.0,1.4187432423611506,-2.912448376095458,-0.09239773060057982,-0.018291050560900576,0.0,0.0,0.0,0.0,0.0,0.0,0.0,-0.29767499999999997,-0.37327499999999997,-0.189,0.00287532,-0.11692968,0.01245972
1779587322464915752,B,0.0,0.0,1.4187432423611506,-2.912448376095458,-0.09239773060057982,-0.018291050560900576,0.0,0.0,0.0,0.0,0.0,0.0,0.0,-0.29767499999999997,-0.37327499999999997,-0.189,0.00287532,-0.11692968,0.01245972
1779587322464915752,B,0.0,0.0,1.4187432423611506,-2.912448376095458,-0.09239773060057982,-0.018291050560900576,0.0,0.0,0.0,0.0,0.0,0.0,0.0,-0.29767499999999997,-0.37327499999999997,-0.189,0.00287532,-0.11692968,0.01245972
1779587322485225677,B,0.0,0.0,1.4187432423611506,-2.912448376095458,-0.09239773060057982,-0.018291050560900576,0.0,0.0,-0.011,0.0,0.0,0.0,0.0,-0.2835,-0.3213,-0.2457,0.00766752,-0.10446996,0.00575064
1779587322485225677,B,0.0,0.0,1.4187432423611506,-2.912448376095458,-0.09239773060057982,-0.018291050560900576,0.0,0.0,-0.011,0.0,0.0,0.0,0.0,-0.2835,-0.3213,-0.2457,0.00766752,-0.10446996,0.00575064
1779587322485225677,B,0.0,0.0,1.4187432423611506,-2.912448376095458,-0.09239773060057982,-0.018291050560900576,0.0,0.0,-0.011,0.0,0.0,0.0,0.0,-0.2835,-0.3213,-0.2457,0.00766752,-0.10446996,0.00575064
1779587322506090402,B,0.0,0.0,1.4187432423611506,-2.912448376095458,-0.09239773060057982,-0.018291050560900576,0.0,0.0,0.0,0.0,0.0,-0.115,0.0,-0.3213,-0.335475,-0.155925,0.00287532,-0.02012724,0.0095844
1779587322506090402,B,0.0,0.0,1.4187432423611506,-2.912448376095458,-0.09239773060057982,-0.018291050560900576,0.0,0.0,0.0,0.0,0.0,-0.115,0.0,-0.3213,-0.335475,-0.155925,0.00287532,-0.02012724,0.0095844
1779587322506090402,B,0.0,0.0,1.4187432423611506,-2.912448376095458,-0.09239773060057982,-0.018291050560900576,0.0,0.0,0.0,0.0,0.0,-0.115,0.0,-0.3213,-0.335475,-0.155925,0.00287532,-0.02012724,0.0095844
1779587322509666204,B,0.0,0.0,1.4187432423611506,-2.912448376095458,-0.09239773060057982,-0.018291050560900576,0.0,0.0,-0.012,0.0,0.0,-0.115,0.0,-0.29295,-0.25987499999999997,-0.155925,0.01341816,-0.02012724,0.01725192
1779587322509666204,B,0.0,0.0,1.4187432423611506,-2.912448376095458,-0.09239773060057982,-0.018291050560900576,0.0,0.0,-0.012,0.0,0.0,-0.115,0.0,-0.29295,-0.25987499999999997,-0.155925,0.01341816,-0.02012724,0.01725192
1779587322509666204,B,0.0,0.0,1.4187432423611506,-2.912448376095458,-0.09239773060057982,-0.018291050560900576,0.0,0.0,-0.012,0.0,0.0,-0.115,0.0,-0.29295,-0.25987499999999997,-0.155925,0.01341816,-0.02012724,0.01725192
1779587322519664287,B,0.0,0.0,1.4187432423611506,-2.912448376095458,-0.09239773060057982,-0.018291050560900576,0.0,0.0,-0.046,0.0,0.0,0.0,0.0,-0.3213,0.0189,-0.19372499999999998,0.01054284,-0.06804924000000001,0.02012724
1779587322519664287,B,0.0,0.0,1.4187432423611506,-2.912448376095458,-0.09239773060057982,-0.018291050560900576,0.0,0.0,-0.046,0.0,0.0,0.0,0.0,-0.3213,0.0189,-0.19372499999999998,0.01054284,-0.06804924000000001,0.02012724
1779587322519664287,B,0.0,0.0,1.4187432423611506,-2.912448376095458,-0.09239773060057982,-0.018291050560900576,0.0,0.0,-0.046,0.0,0.0,0.0,0.0,-0.3213,0.0189,-0.19372499999999998,0.01054284,-0.06804924000000001,0.02012724
1779587322531081676,B,0.0,0.0,1.4165964873811976,-2.912448376095458,-0.09239773060057982,-0.018291050560900576,0.0,0.0,-0.131,0.0,0.0,0.0,0.0,-0.316575,-0.155925,-0.19372499999999998,0.00575064,-0.07763364,0.02012724
1779587322531081676,B,0.0,0.0,1.4165964873811976,-2.912448376095458,-0.09239773060057982,-0.018291050560900576,0.0,0.0,-0.131,0.0,0.0,0.0,0.0,-0.316575,-0.155925,-0.19372499999999998,0.00575064,-0.07763364,0.02012724
1779587322531081676,B,0.0,0.0,1.4165964873811976,-2.912448376095458,-0.09239773060057982,-0.018291050560900576,0.0,0.0,-0.131,0.0,0.0,0.0,0.0,-0.316575,-0.155925,-0.19372499999999998,0.00575064,-0.07763364,0.02012724
1779587322539683103,B,0.0,0.0,1.4165266742111178,-2.912448376095458,-0.09239773060057982,-0.018291050560900576,0.0,0.0,-0.164,-0.007,0.0,0.0,0.0,-0.28822499999999995,0.0945,-0.10394999999999999,0.01821036,-0.095844,0.00191688
1779587322539683103,B,0.0,0.0,1.4165266742111178,-2.912448376095458,-0.09239773060057982,-0.018291050560900576,0.0,0.0,-0.164,-0.007,0.0,0.0,0.0,-0.28822499999999995,0.0945,-0.10394999999999999,0.01821036,-0.095844,0.00191688
1779587322539683103,B,0.0,0.0,1.4165266742111178,-2.912448376095458,-0.09239773060057982,-0.018291050560900576,0.0,0.0,-0.164,-0.007,0.0,0.0,0.0,-0.28822499999999995,0.0945,-0.10394999999999999,0.01821036,-0.095844,0.00191688
1779587322549664258,B,0.0,0.0,1.4145195455713244,-2.912448376095458,-0.09239773060057982,-0.018291050560900576,0.0,0.0,-0.089,-0.007,0.0,0.0,0.0,-0.29295,-0.042525,-0.10394999999999999,0.0095844,-0.095844,0.01341816
1779587322549664258,B,0.0,0.0,1.4145195455713244,-2.912448376095458,-0.09239773060057982,-0.018291050560900576,0.0,0.0,-0.089,-0.007,0.0,0.0,0.0,-0.29295,-0.042525,-0.10394999999999999,0.0095844,-0.095844,0.01341816
1779587322549664258,B,0.0,0.0,1.4145195455713244,-2.912448376095458,-0.09239773060057982,-0.018291050560900576,0.0,0.0,-0.089,-0.007,0.0,0.0,0.0,-0.29295,-0.042525,-0.10394999999999999,0.0095844,-0.095844,0.01341816
1779587322560421943,B,0.0,0.0,1.4143101060610852,-2.912448376095458,-0.09239773060057982,-0.018291050560900576,0.0,0.0,-0.001,-0.048,0.0,0.0,0.0,-0.31185,-0.609525,0.25042499999999995,0.01150128,-0.08625959999999999,0.0191688
1779587322560421943,B,0.0,0.0,1.4143101060610852,-2.912448376095458,-0.09239773060057982,-0.018291050560900576,0.0,0.0,-0.001,-0.048,0.0,0.0,0.0,-0.31185,-0.609525,0.25042499999999995,0.01150128,-0.08625959999999999,0.0191688
1779587322560421943,B,0.0,0.0,1.4143101060610852,-2.912448376095458,-0.09239773060057982,-0.018291050560900576,0.0,0.0,-0.001,-0.048,0.0,0.0,0.0,-0.31185,-0.609525,0.25042499999999995,0.01150128,-0.08625959999999999,0.0191688
1779587322575975418,B,0.0,0.0,1.4143101060610852,-2.912448376095458,-0.09239773060057982,-0.018291050560900576,0.0,0.0,0.0,0.036000000000000004,0.0,-0.134,0.0,-0.29767499999999997,-0.411075,0.19372499999999998,0.01245972,-0.043129799999999996,-0.02587788
1779587322575975418,B,0.0,0.0,1.4143101060610852,-2.912448376095458,-0.09239773060057982,-0.018291050560900576,0.0,0.0,0.0,0.036000000000000004,0.0,-0.134,0.0,-0.29767499999999997,-0.411075,0.19372499999999998,0.01245972,-0.043129799999999996,-0.02587788
1779587322575975418,B,0.0,0.0,1.4143101060610852,-2.912448376095458,-0.09239773060057982,-0.018291050560900576,0.0,0.0,0.0,0.036000000000000004,0.0,-0.134,0.0,-0.29767499999999997,-0.411075,0.19372499999999998,0.01245972,-0.043129799999999996,-0.02587788
1779587322584652662,B,0.0,0.0,1.4143101060610852,-2.912448376095458,-0.09239773060057982,-0.018291050560900576,0.0,0.0,0.0,0.056,0.0,-0.067,0.0,-0.29767499999999997,-0.3969,-0.5481,0.01054284,0.01150128,0.02204412
1779587322584652662,B,0.0,0.0,1.4143101060610852,-2.912448376095458,-0.09239773060057982,-0.018291050560900576,0.0,0.0,0.0,0.056,0.0,-0.067,0.0,-0.29767499999999997,-0.3969,-0.5481,0.01054284,0.01150128,0.02204412
1779587322584652662,B,0.0,0.0,1.4143101060610852,-2.912448376095458,-0.09239773060057982,-0.018291050560900576,0.0,0.0,0.0,0.056,0.0,-0.067,0.0,-0.29767499999999997,-0.3969,-0.5481,0.01054284,0.01150128,0.02204412
1779587322600752115,B,0.0,0.0,1.4143101060610852,-2.912448376095458,-0.09239773060057982,-0.018291050560900576,0.0,0.0,-0.041,0.0,0.0,-0.015,0.0,-0.31185,-0.2646,0.31185,0.01341816,-0.00766752,0.014376599999999998
1779587322600752115,B,0.0,0.0,1.4143101060610852,-2.912448376095458,-0.09239773060057982,-0.018291050560900576,0.0,0.0,-0.041,0.0,0.0,-0.015,0.0,-0.31185,-0.2646,0.31185,0.01341816,-0.00766752,0.014376599999999998
1779587322600752115,B,0.0,0.0,1.4143101060610852,-2.912448376095458,-0.09239773060057982,-0.018291050560900576,0.0,0.0,-0.041,0.0,0.0,-0.015,0.0,-0.31185,-0.2646,0.31185,0.01341816,-0.00766752,0.014376599999999998
1779587322609807014,B,0.0,0.0,1.4123727905913714,-2.912448376095458,-0.09239773060057982,-0.018291050560900576,0.0,0.0,-0.112,-0.049,0.0,-0.003,0.0,-0.3024,0.118125,0.893025,0.01054284,-0.02587788,0.01054284
1779587322609807014,B,0.0,0.0,1.4123727905913714,-2.912448376095458,-0.09239773060057982,-0.018291050560900576,0.0,0.0,-0.112,-0.049,0.0,-0.003,0.0,-0.3024,0.118125,0.893025,0.01054284,-0.02587788,0.01054284
1779587322609807014,B,0.0,0.0,1.4123727905913714,-2.912448376095458,-0.09239773060057982,-0.018291050560900576,0.0,0.0,-0.112,-0.049,0.0,-0.003,0.0,-0.3024,0.118125,0.893025,0.01054284,-0.02587788,0.01054284
1779587322614664316,B,0.0,0.0,1.4125996833941308,-2.912448376095458,-0.09239773060057982,-0.018291050560900576,0.0,0.0,-0.135,-0.049,0.0,-0.003,0.0,-0.3024,-0.0378,0.893025,0.01054284,-0.02587788,0.01341816
1779587322614664316,B,0.0,0.0,1.4125996833941308,-2.912448376095458,-0.09239773060057982,-0.018291050560900576,0.0,0.0,-0.135,-0.049,0.0,-0.003,0.0,-0.3024,-0.0378,0.893025,0.01054284,-0.02587788,0.01341816
1779587322614664316,B,0.0,0.0,1.4125996833941308,-2.912448376095458,-0.09239773060057982,-0.018291050560900576,0.0,0.0,-0.135,-0.049,0.0,-0.003,0.0,-0.3024,-0.0378,0.893025,0.01054284,-0.02587788,0.01341816
1779587322630019903,B,0.0,0.0,1.409370824277941,-2.912448376095458,-0.09239773060057982,-0.018291050560900576,0.0,0.0,-0.184,0.018000000000000002,0.0,0.0,0.0,-0.3213,0.137025,0.7182,0.0095844,-0.03546228,0.01341816
1779587322630019903,B,0.0,0.0,1.409370824277941,-2.912448376095458,-0.09239773060057982,-0.018291050560900576,0.0,0.0,-0.184,0.018000000000000002,0.0,0.0,0.0,-0.3213,0.137025,0.7182,0.0095844,-0.03546228,0.01341816
1779587322630019903,B,0.0,0.0,1.409370824277941,-2.912448376095458,-0.09239773060057982,-0.018291050560900576,0.0,0.0,-0.184,0.018000000000000002,0.0,0.0,0.0,-0.3213,0.137025,0.7182,0.0095844,-0.03546228,0.01341816
1779587322640614509,B,0.0,0.0,1.4080967339239852,-2.912448376095458,-0.09239773060057982,-0.018291050560900576,0.0,0.0,-0.167,0.042,0.0,-0.007,0.0,-0.307125,0.1323,-0.20789999999999997,0.01150128,0.0047922,0.01150128
1779587322640614509,B,0.0,0.0,1.4080967339239852,-2.912448376095458,-0.09239773060057982,-0.018291050560900576,0.0,0.0,-0.167,0.042,0.0,-0.007,0.0,-0.307125,0.1323,-0.20789999999999997,0.01150128,0.0047922,0.01150128
1779587322640614509,B,0.0,0.0,1.4080967339239852,-2.912448376095458,-0.09239773060057982,-0.018291050560900576,0.0,0.0,-0.167,0.042,0.0,-0.007,0.0,-0.307125,0.1323,-0.20789999999999997,0.01150128,0.0047922,0.01150128
1779587322664665222,B,0.0,0.0,1.4031923587258812,-2.912448376095458,-0.09239773060057982,-0.018291050560900576,0.0,0.0,-0.151,0.08700000000000001,0.0,0.007,0.0,-0.307125,0.033075,-0.23625,0.01245972,-0.10255307999999999,0.0095844
1779587322664665222,B,0.0,0.0,1.4031923587258812,-2.912448376095458,-0.09239773060057982,-0.018291050560900576,0.0,0.0,-0.151,0.08700000000000001,0.0,0.007,0.0,-0.307125,0.033075,-0.23625,0.01245972,-0.10255307999999999,0.0095844
1779587322664665222,B,0.0,0.0,1.4031923587258812,-2.912448376095458,-0.09239773060057982,-0.018291050560900576,0.0,0.0,-0.151,0.08700000000000001,0.0,0.007,0.0,-0.307125,0.033075,-0.23625,0.01245972,-0.10255307999999999,0.0095844
1779587322704824686,B,0.0,0.0,1.4034716114062002,-2.912448376095458,-0.09239773060057982,-0.018291050560900576,0.0,0.0,0.0,0.0,0.0,0.0,0.0,-0.29767499999999997,-0.34964999999999996,0.38744999999999996,0.01245972,-0.07379988,0.00862596
1779587322704824686,B,0.0,0.0,1.4034716114062002,-2.912448376095458,-0.09239773060057982,-0.018291050560900576,0.0,0.0,0.0,0.0,0.0,0.0,0.0,-0.29767499999999997,-0.34964999999999996,0.38744999999999996,0.01245972,-0.07379988,0.00862596
1779587322704824686,B,0.0,0.0,1.4034716114062002,-2.912448376095458,-0.09239773060057982,-0.018291050560900576,0.0,0.0,0.0,0.0,0.0,0.0,0.0,-0.29767499999999997,-0.34964999999999996,0.38744999999999996,0.01245972,-0.07379988,0.00862596
1779587322759681463,B,0.0,0.0,1.3940642867379507,-2.9142809718100517,-0.09239773060057982,-0.018291050560900576,0.0,0.0,-0.162,0.06,0.0,0.084,0.0,-0.33075,-0.0756,0.184275,0.00383376,-0.13034784,0.01341816
1779587322759681463,B,0.0,0.0,1.3940642867379507,-2.9142809718100517,-0.09239773060057982,-0.018291050560900576,0.0,0.0,-0.162,0.06,0.0,0.084,0.0,-0.33075,-0.0756,0.184275,0.00383376,-0.13034784,0.01341816
1779587322759681463,B,0.0,0.0,1.3940642867379507,-2.9142809718100517,-0.09239773060057982,-0.018291050560900576,0.0,0.0,-0.162,0.06,0.0,0.084,0.0,-0.33075,-0.0756,0.184275,0.00383376,-0.13034784,0.01341816
