deepaktalwardt/rage-cage-arm-hackstorm/ros2/ws/sysid/runs/sysid_20260524_012654/raw/joint1_phaseA_neg.csv
t_ns,phase,tau_cmd,q1,q2,q3,q4,q5,q6,qd1,qd2,qd3,qd4,qd5,qd6,tau1,tau2,tau3,tau4,tau5,tau6
1779586032141767978,A_-,-5.600031727226451e-08,0.011990411961201045,1.4733022347784934,-2.9139144526671332,-0.08681267699419795,-0.016667894356545847,0.0,0.0,0.0,0.0,0.0,0.0,0.0,0.08505,-0.17955,0.31185,-0.09009336,-0.08913491999999999,0.00862596
1779586032141767978,A_-,-0.0013796875000480213,0.011990411961201045,1.4733022347784934,-2.9139144526671332,-0.08681267699419795,-0.016667894356545847,0.0,0.0,0.0,0.0,0.0,0.0,0.0,0.08505,-0.17955,0.31185,-0.09009336,-0.08913491999999999,0.00862596
1779586032141767978,A_-,-0.0027058710002165753,0.011990411961201045,1.4733022347784934,-2.9139144526671332,-0.08681267699419795,-0.016667894356545847,0.0,0.0,0.0,0.0,0.0,0.0,0.0,0.08505,-0.17955,0.31185,-0.09009336,-0.08913491999999999,0.00862596
1779586032172520875,A_-,-0.004012667875031184,0.011990411961201045,1.4733022347784934,-2.9139144526671332,-0.08681267699419795,-0.016667894356545847,0.0,0.0,0.0,0.0,0.0,0.0,0.0,0.0756,-0.16065,0.307125,-0.08530115999999999,-0.09392712,0.00766752
1779586032172520875,A_-,-0.005384028000207763,0.011990411961201045,1.4733022347784934,-2.9139144526671332,-0.08681267699419795,-0.016667894356545847,0.0,0.0,0.0,0.0,0.0,0.0,0.0,0.0756,-0.16065,0.307125,-0.08530115999999999,-0.09392712,0.00766752
1779586032172520875,A_-,-0.00671305525020216,0.011990411961201045,1.4733022347784934,-2.9139144526671332,-0.08681267699419795,-0.016667894356545847,0.0,0.0,0.0,0.0,0.0,0.0,0.0,0.0756,-0.16065,0.307125,-0.08530115999999999,-0.09392712,0.00766752
1779586032196778774,A_-,-0.008038686625241098,0.011990411961201045,1.4733022347784934,-2.9139144526671332,-0.08681267699419795,-0.016667894356545847,0.0,0.0,0.0,0.0,0.0,0.0,0.0,0.08505,-0.17955,0.29295,-0.08338428,-0.0910518,0.01054284
1779586032196778774,A_-,-0.009413418625172199,0.011990411961201045,1.4733022347784934,-2.9139144526671332,-0.08681267699419795,-0.016667894356545847,0.0,0.0,0.0,0.0,0.0,0.0,0.0,0.08505,-0.17955,0.29295,-0.08338428,-0.0910518,0.01054284
1779586032196778774,A_-,-0.01073980199998914,0.011990411961201045,1.4733022347784934,-2.9139144526671332,-0.08681267699419795,-0.016667894356545847,0.0,0.0,0.0,0.0,0.0,0.0,0.0,0.08505,-0.17955,0.29295,-0.08338428,-0.0910518,0.01054284
1779586032241781473,A_-,-0.01205079850024049,0.011990411961201045,1.4733022347784934,-2.9139144526671332,-0.08681267699419795,-0.016667894356545847,0.0,0.0,0.0,0.0,0.0,0.0,0.0,0.10394999999999999,-0.17482499999999998,0.3024,-0.0910518,-0.0910518,0.01054284
1779586032241781473,A_-,-0.013421566749912017,0.011990411961201045,1.4733022347784934,-2.9139144526671332,-0.08681267699419795,-0.016667894356545847,0.0,0.0,0.0,0.0,0.0,0.0,0.0,0.10394999999999999,-0.17482499999999998,0.3024,-0.0910518,-0.0910518,0.01054284
1779586032241781473,A_-,-0.01474280650018045,0.011990411961201045,1.4733022347784934,-2.9139144526671332,-0.08681267699419795,-0.016667894356545847,0.0,0.0,0.0,0.0,0.0,0.0,0.0,0.10394999999999999,-0.17482499999999998,0.3024,-0.0910518,-0.0910518,0.01054284
1779586032268193721,A_-,-0.016053947124873957,0.011990411961201045,1.4733022347784934,-2.9139144526671332,-0.08681267699419795,-0.016667894356545847,0.0,0.0,0.0,0.0,0.0,0.0,0.0,0.11339999999999999,-0.17482499999999998,0.3024,-0.0910518,-0.08530115999999999,0.0
1779586032268193721,A_-,-0.01742659112505862,0.011990411961201045,1.4733022347784934,-2.9139144526671332,-0.08681267699419795,-0.016667894356545847,0.0,0.0,0.0,0.0,0.0,0.0,0.0,0.11339999999999999,-0.17482499999999998,0.3024,-0.0910518,-0.08530115999999999,0.0
1779586032268193721,A_-,-0.018738011624918727,0.011990411961201045,1.4733022347784934,-2.9139144526671332,-0.08681267699419795,-0.016667894356545847,0.0,0.0,0.0,0.0,0.0,0.0,0.0,0.11339999999999999,-0.17482499999999998,0.3024,-0.0910518,-0.08530115999999999,0.0
1779586032296789884,A_-,-0.02004158074987572,0.011990411961201045,1.4733022347784934,-2.9139144526671332,-0.08681267699419795,-0.016667894356545847,0.0,0.0,0.0,0.0,0.0,0.0,0.0,0.099225,-0.16065,0.27405,-0.08530115999999999,-0.09009336,0.00766752
1779586032296789884,A_-,-0.02143728312512394,0.011990411961201045,1.4733022347784934,-2.9139144526671332,-0.08681267699419795,-0.016667894356545847,0.0,0.0,0.0,0.0,0.0,0.0,0.0,0.099225,-0.16065,0.27405,-0.08530115999999999,-0.09009336,0.00766752
1779586032296789884,A_-,-0.022761454625197075,0.011990411961201045,1.4733022347784934,-2.9139144526671332,-0.08681267699419795,-0.016667894356545847,0.0,0.0,0.0,0.0,0.0,0.0,0.0,0.099225,-0.16065,0.27405,-0.08530115999999999,-0.09009336,0.00766752
1779586032331769943,A_-,-0.02408875800028909,0.011990411961201045,1.4733022347784934,-2.9139144526671332,-0.08681267699419795,-0.016667894356545847,0.0,0.0,0.0,0.0,0.0,0.0,0.0,0.070875,-0.1512,0.3024,-0.08721804,-0.08721804,0.014376599999999998
1779586032331769943,A_-,-0.025464273875059007,0.011990411961201045,1.4733022347784934,-2.9139144526671332,-0.08681267699419795,-0.016667894356545847,0.0,0.0,0.0,0.0,0.0,0.0,0.0,0.070875,-0.1512,0.3024,-0.08721804,-0.08721804,0.014376599999999998
1779586032331769943,A_-,-0.02678180187513135,0.011990411961201045,1.4733022347784934,-2.9139144526671332,-0.08681267699419795,-0.016667894356545847,0.0,0.0,0.0,0.0,0.0,0.0,0.0,0.070875,-0.1512,0.3024,-0.08721804,-0.08721804,0.014376599999999998
1779586032361770629,A_-,-0.028077423625290976,0.011990411961201045,1.4733022347784934,-2.9139144526671332,-0.08681267699419795,-0.016667894356545847,0.0,0.0,0.0,0.0,0.0,0.0,0.0,0.080325,-0.1512,0.27405,-0.08625959999999999,-0.08913491999999999,0.00287532
1779586032361770629,A_-,-0.029431325000132347,0.011990411961201045,1.4733022347784934,-2.9139144526671332,-0.08681267699419795,-0.016667894356545847,0.0,0.0,0.0,0.0,0.0,0.0,0.0,0.080325,-0.1512,0.27405,-0.08625959999999999,-0.08913491999999999,0.00287532
1779586032361770629,A_-,-0.030751084875191737,0.011990411961201045,1.4733022347784934,-2.9139144526671332,-0.08681267699419795,-0.016667894356545847,0.0,0.0,0.0,0.0,0.0,0.0,0.0,0.080325,-0.1512,0.27405,-0.08625959999999999,-0.08913491999999999,0.00287532
1779586032392003297,A_-,-0.03207743237499017,0.011990411961201045,1.4733022347784934,-2.9139144526671332,-0.08681267699419795,-0.016667894356545847,0.0,0.0,0.0,0.0,0.0,0.0,0.0,0.080325,-0.1512,0.2835,-0.08913491999999999,-0.09201024,0.00862596
1779586032392003297,A_-,-0.03345286412513815,0.011990411961201045,1.4733022347784934,-2.9139144526671332,-0.08681267699419795,-0.016667894356545847,0.0,0.0,0.0,0.0,0.0,0.0,0.0,0.080325,-0.1512,0.2835,-0.08913491999999999,-0.09201024,0.00862596
1779586032392003297,A_-,-0.034780035500261874,0.011990411961201045,1.4733022347784934,-2.9139144526671332,-0.08681267699419795,-0.016667894356545847,0.0,0.0,0.0,0.0,0.0,0.0,0.0,0.080325,-0.1512,0.2835,-0.08913491999999999,-0.09201024,0.00862596
1779586032411828041,A_-,-0.03608532050020585,0.011990411961201045,1.4733022347784934,-2.9139144526671332,-0.08681267699419795,-0.016667894356545847,0.0,0.0,0.0,0.0,0.0,0.0,0.0,0.080325,-0.1323,0.278775,-0.08913491999999999,-0.09201024,0.00191688
1779586032411828041,A_-,-0.037455320750268584,0.011990411961201045,1.4733022347784934,-2.9139144526671332,-0.08681267699419795,-0.016667894356545847,0.0,0.0,0.0,0.0,0.0,0.0,0.0,0.080325,-0.1323,0.278775,-0.08913491999999999,-0.09201024,0.00191688
1779586032411828041,A_-,-0.03877597262498966,0.011990411961201045,1.4733022347784934,-2.9139144526671332,-0.08681267699419795,-0.016667894356545847,0.0,0.0,0.0,0.0,0.0,0.0,0.0,0.080325,-0.1323,0.278775,-0.08913491999999999,-0.09201024,0.00191688
1779586032451789855,A_-,-0.040083557375055534,0.011990411961201045,1.4733022347784934,-2.9139144526671332,-0.08681267699419795,-0.016667894356545847,0.0,0.0,0.0,0.0,0.0,0.0,0.0,0.0756,-0.19372499999999998,0.28822499999999995,-0.08721804,-0.09201024,0.00766752
1779586032451789855,A_-,-0.04147549200024514,0.011990411961201045,1.4733022347784934,-2.9139144526671332,-0.08681267699419795,-0.016667894356545847,0.0,0.0,0.0,0.0,0.0,0.0,0.0,0.0756,-0.19372499999999998,0.28822499999999995,-0.08721804,-0.09201024,0.00766752
1779586032451789855,A_-,-0.042804347250239516,0.011990411961201045,1.4733022347784934,-2.9139144526671332,-0.08681267699419795,-0.016667894356545847,0.0,0.0,0.0,0.0,0.0,0.0,0.0,0.0756,-0.19372499999999998,0.28822499999999995,-0.08721804,-0.09201024,0.00766752
1779586032476792097,A_-,-0.044128862874913466,0.011990411961201045,1.4733022347784934,-2.9139144526671332,-0.08681267699419795,-0.016667894356545847,0.0,0.0,0.0,0.0,0.0,0.0,0.0,0.05669999999999999,-0.165375,0.29295,-0.08721804,-0.10159463999999999,0.01821036
1779586032476792097,A_-,-0.045514769874898775,0.011990411961201045,1.4733022347784934,-2.9139144526671332,-0.08681267699419795,-0.016667894356545847,0.0,0.0,0.0,0.0,0.0,0.0,0.0,0.05669999999999999,-0.165375,0.29295,-0.08721804,-0.10159463999999999,0.01821036
1779586032476792097,A_-,-0.0468329858749712,0.011990411961201045,1.4733022347784934,-2.9139144526671332,-0.08681267699419795,-0.016667894356545847,0.0,0.0,0.0,0.0,0.0,0.0,0.0,0.05669999999999999,-0.165375,0.29295,-0.08721804,-0.10159463999999999,0.01821036
1779586032496881008,A_-,-0.04814141062524868,0.011990411961201045,1.4733022347784934,-2.9139144526671332,-0.08681267699419795,-0.016667894356545847,0.0,0.0,0.0,0.0,0.0,0.0,0.0,0.0756,-0.146475,0.29767499999999997,-0.08721804,-0.07955052,0.0095844
1779586032496881008,A_-,-0.0495253338749535,0.011990411961201045,1.4733022347784934,-2.9139144526671332,-0.08681267699419795,-0.016667894356545847,0.0,0.0,0.0,0.0,0.0,0.0,0.0,0.0756,-0.146475,0.29767499999999997,-0.08721804,-0.07955052,0.0095844
1779586032496881008,A_-,-0.05084208600010243,0.011990411961201045,1.4733022347784934,-2.9139144526671332,-0.08681267699419795,-0.016667894356545847,0.0,0.0,0.0,0.0,0.0,0.0,0.0,0.0756,-0.146475,0.29767499999999997,-0.08721804,-0.07955052,0.0095844
1779586032517335414,A_-,-0.05215067874996748,0.011990411961201045,1.4733022347784934,-2.9139144526671332,-0.08681267699419795,-0.016667894356545847,0.0,0.0,0.0,0.0,0.0,0.0,0.0,0.08505,-0.155925,0.31185,-0.08817648,-0.0910518,0.01725192
1779586032517335414,A_-,-0.05351717524990818,0.011990411961201045,1.4733022347784934,-2.9139144526671332,-0.08681267699419795,-0.016667894356545847,0.0,0.0,0.0,0.0,0.0,0.0,0.0,0.08505,-0.155925,0.31185,-0.08817648,-0.0910518,0.01725192
1779586032517335414,A_-,-0.05483578324992777,0.011990411961201045,1.4733022347784934,-2.9139144526671332,-0.08681267699419795,-0.016667894356545847,0.0,0.0,0.0,0.0,0.0,0.0,0.0,0.08505,-0.155925,0.31185,-0.08817648,-0.0910518,0.01725192
1779586032551810503,A_-,-0.05614921962524022,0.011990411961201045,1.4733022347784934,-2.9139144526671332,-0.08681267699419795,-0.016667894356545847,0.0,0.0,0.0,0.0,0.0,0.0,0.0,0.10394999999999999,-0.146475,0.307125,-0.08721804,-0.09009336,0.00862596
1779586032551810503,A_-,-0.05755170949987587,0.011990411961201045,1.4733022347784934,-2.9139144526671332,-0.08681267699419795,-0.016667894356545847,0.0,0.0,0.0,0.0,0.0,0.0,0.0,0.10394999999999999,-0.146475,0.307125,-0.08721804,-0.09009336,0.00862596
1779586032551810503,A_-,-0.05887662900022406,0.011990411961201045,1.4733022347784934,-2.9139144526671332,-0.08681267699419795,-0.016667894356545847,0.0,0.0,0.0,0.0,0.0,0.0,0.0,0.10394999999999999,-0.146475,0.307125,-0.08721804,-0.09009336,0.00862596
1779586032601805686,A_-,-0.06019504899995809,0.011990411961201045,1.4733022347784934,-2.9139144526671332,-0.08681267699419795,-0.016667894356545847,0.0,0.0,0.0,0.0,0.0,0.0,0.0,0.11339999999999999,-0.189,0.29767499999999997,-0.0910518,-0.09296868,0.00287532
1779586032601805686,A_-,-0.061569504875023995,0.011990411961201045,1.4733022347784934,-2.9139144526671332,-0.08681267699419795,-0.016667894356545847,0.0,0.0,0.0,0.0,0.0,0.0,0.0,0.11339999999999999,-0.189,0.29767499999999997,-0.0910518,-0.09296868,0.00287532
1779586032601805686,A_-,-0.06289180062503874,0.011990411961201045,1.4733022347784934,-2.9139144526671332,-0.08681267699419795,-0.016667894356545847,0.0,0.0,0.0,0.0,0.0,0.0,0.0,0.11339999999999999,-0.189,0.29767499999999997,-0.0910518,-0.09296868,0.00287532
1779586032656834840,A_-,-0.06420668887494685,0.011990411961201045,1.4733022347784934,-2.9139144526671332,-0.08681267699419795,-0.016667894356545847,0.0,0.0,0.0,0.0,0.0,0.0,0.0,0.06615,-0.14175,0.29767499999999997,-0.08817648,-0.08817648,0.00191688
1779586032656834840,A_-,-0.06557824900028209,0.011990411961201045,1.4733022347784934,-2.9139144526671332,-0.08681267699419795,-0.016667894356545847,0.0,0.0,0.0,0.0,0.0,0.0,0.0,0.06615,-0.14175,0.29767499999999997,-0.08817648,-0.08817648,0.00191688
1779586032656834840,A_-,-0.06690003275025447,0.011990411961201045,1.4733022347784934,-2.9139144526671332,-0.08681267699419795,-0.016667894356545847,0.0,0.0,0.0,0.0,0.0,0.0,0.0,0.06615,-0.14175,0.29767499999999997,-0.08817648,-0.08817648,0.00191688
1779586032681810140,A_-,-0.06821897674990396,0.011990411961201045,1.4733022347784934,-2.9139144526671332,-0.08681267699419795,-0.016667894356545847,0.0,0.0,0.0,0.0,0.0,0.0,0.0,0.08505,-0.17955,0.2835,-0.08913491999999999,-0.09392712,0.00862596
1779586032681810140,A_-,-0.06959678037492267,0.011990411961201045,1.4733022347784934,-2.9139144526671332,-0.08681267699419795,-0.016667894356545847,0.0,0.0,0.0,0.0,0.0,0.0,0.0,0.08505,-0.17955,0.2835,-0.08913491999999999,-0.09392712,0.00862596
1779586032681810140,A_-,-0.07092334775006748,0.011990411961201045,1.4733022347784934,-2.9139144526671332,-0.08681267699419795,-0.016667894356545847,0.0,0.0,0.0,0.0,0.0,0.0,0.0,0.08505,-0.17955,0.2835,-0.08913491999999999,-0.09392712,0.00862596
1779586032711810827,A_-,-0.07223474837519461,0.011990411961201045,1.4733022347784934,-2.9139144526671332,-0.08681267699419795,-0.016667894356545847,0.0,0.0,0.0,0.0,0.0,0.0,0.0,0.089775,-0.17482499999999998,0.29295,-0.08817648,-0.09680244,0.00862596
1779586032711810827,A_-,-0.07360769637489284,0.011990411961201045,1.4733022347784934,-2.9139144526671332,-0.08681267699419795,-0.016667894356545847,0.0,0.0,0.0,0.0,0.0,0.0,0.0,0.089775,-0.17482499999999998,0.29295,-0.08817648,-0.09680244,0.00862596
1779586032711810827,A_-,-0.07492608437496528,0.011990411961201045,1.4733022347784934,-2.9139144526671332,-0.08681267699419795,-0.016667894356545847,0.0,0.0,0.0,0.0,0.0,0.0,0.0,0.089775,-0.17482499999999998,0.29295,-0.08817648,-0.09680244,0.00862596
1779586032741810560,A_-,-0.07622436987503534,0.011990411961201045,1.4733022347784934,-2.9139144526671332,-0.08681267699419795,-0.016667894356545847,0.0,0.0,0.0,0.0,0.0,0.0,0.0,0.12285,-0.155925,0.28822499999999995,-0.09201024,-0.0910518,0.00670908
1779586032741810560,A_-,-0.07758249887501734,0.011990411961201045,1.4733022347784934,-2.9139144526671332,-0.08681267699419795,-0.016667894356545847,0.0,0.0,0.0,0.0,0.0,0.0,0.0,0.12285,-0.155925,0.28822499999999995,-0.09201024,-0.0910518,0.00670908
1779586032741810560,A_-,-0.07889366349991178,0.011990411961201045,1.4733022347784934,-2.9139144526671332,-0.08681267699419795,-0.016667894356545847,0.0,0.0,0.0,0.0,0.0,0.0,0.0,0.12285,-0.155925,0.28822499999999995,-0.09201024,-0.0910518,0.00670908
1779586032786962747,A_-,-0.0802088397499574,0.011990411961201045,1.4733022347784934,-2.9139144526671332,-0.08681267699419795,-0.016667894356545847,0.0,0.0,0.0,0.0,0.0,0.0,0.0,0.080325,-0.19845,0.28822499999999995,-0.08913491999999999,-0.08721804,0.00766752
1779586032786962747,A_-,-0.0815825556251184,0.011990411961201045,1.4733022347784934,-2.9139144526671332,-0.08681267699419795,-0.016667894356545847,0.0,0.0,0.0,0.0,0.0,0.0,0.0,0.080325,-0.19845,0.28822499999999995,-0.08913491999999999,-0.08721804,0.00766752
1779586032786962747,A_-,-0.0829001197503203,0.011990411961201045,1.4733022347784934,-2.9139144526671332,-0.08681267699419795,-0.016667894356545847,0.0,0.0,0.0,0.0,0.0,0.0,0.0,0.080325,-0.19845,0.28822499999999995,-0.08913491999999999,-0.08721804,0.00766752
1779586032816845417,A_-,-0.08420857650025937,0.011990411961201045,1.4733022347784934,-2.9139144526671332,-0.08681267699419795,-0.016667894356545847,0.0,0.0,0.0,0.0,0.0,0.0,0.0,0.118125,-0.1512,0.3024,-0.08913491999999999,-0.095844,0.00287532
1779586032816845417,A_-,-0.08558344837501863,0.011990411961201045,1.4733022347784934,-2.9139144526671332,-0.08681267699419795,-0.016667894356545847,0.0,0.0,0.0,0.0,0.0,0.0,0.0,0.118125,-0.1512,0.3024,-0.08913491999999999,-0.095844,0.00287532
1779586032816845417,A_-,-0.08692402675023914,0.011990411961201045,1.4733022347784934,-2.9139144526671332,-0.08681267699419795,-0.016667894356545847,0.0,0.0,0.0,0.0,0.0,0.0,0.0,0.118125,-0.1512,0.3024,-0.08913491999999999,-0.095844,0.00287532
1779586032847295522,A_-,-0.08822882775029939,0.011990411961201045,1.4733022347784934,-2.9139144526671332,-0.08681267699419795,-0.016667894356545847,0.0,0.0,0.0,0.0,0.0,0.0,0.0,0.080325,-0.17482499999999998,0.278775,-0.0910518,-0.08242584,0.00670908
1779586032847295522,A_-,-0.08959915200011892,0.011990411961201045,1.4733022347784934,-2.9139144526671332,-0.08681267699419795,-0.016667894356545847,0.0,0.0,0.0,0.0,0.0,0.0,0.0,0.080325,-0.17482499999999998,0.278775,-0.0910518,-0.08242584,0.00670908
1779586032847295522,A_-,-0.09092228362487731,0.011990411961201045,1.4733022347784934,-2.9139144526671332,-0.08681267699419795,-0.016667894356545847,0.0,0.0,0.0,0.0,0.0,0.0,0.0,0.080325,-0.17482499999999998,0.278775,-0.0910518,-0.08242584,0.00670908
1779586032881806612,A_-,-0.0922255207501621,0.011990411961201045,1.4733022347784934,-2.9139144526671332,-0.08681267699419795,-0.016667894356545847,0.0,0.0,0.0,0.0,0.0,0.0,0.0,0.11339999999999999,-0.1701,0.23152499999999998,-0.10255307999999999,-0.08625959999999999,0.00670908
1779586032881806612,A_-,-0.09359939662499528,0.011990411961201045,1.4733022347784934,-2.9139144526671332,-0.08681267699419795,-0.016667894356545847,0.0,0.0,0.0,0.0,0.0,0.0,0.0,0.11339999999999999,-0.1701,0.23152499999999998,-0.10255307999999999,-0.08625959999999999,0.00670908
1779586032881806612,A_-,-0.09491636475013365,0.011990411961201045,1.4733022347784934,-2.9139144526671332,-0.08681267699419795,-0.016667894356545847,0.0,0.0,0.0,0.0,0.0,0.0,0.0,0.11339999999999999,-0.1701,0.23152499999999998,-0.10255307999999999,-0.08625959999999999,0.00670908
1779586032906830072,A_-,-0.09622618937510197,0.011990411961201045,1.4733022347784934,-2.9139144526671332,-0.08681267699419795,-0.016667894356545847,0.0,0.0,0.0,0.0,0.0,0.0,0.0,0.0945,-0.155925,0.29295,-0.08338428,-0.09201024,0.00862596
1779586032906830072,A_-,-0.09760068137529743,0.011990411961201045,1.4733022347784934,-2.9139144526671332,-0.08681267699419795,-0.016667894356545847,0.0,0.0,0.0,0.0,0.0,0.0,0.0,0.0945,-0.155925,0.29295,-0.08338428,-0.09201024,0.00862596
1779586032906830072,A_-,-0.09892764074993465,0.011990411961201045,1.4733022347784934,-2.9139144526671332,-0.08681267699419795,-0.016667894356545847,0.0,0.0,0.0,0.0,0.0,0.0,0.0,0.0945,-0.155925,0.29295,-0.08338428,-0.09201024,0.00862596
1779586032933103799,A_-,-0.10024482874996465,0.011990411961201045,1.4733022347784934,-2.9139144526671332,-0.08681267699419795,-0.016667894356545847,0.0,0.0,0.0,0.0,0.0,0.0,0.0,0.070875,-0.146475,0.2835,-0.0910518,-0.09296868,0.01533504
1779586032933103799,A_-,-0.10162001662502007,0.011990411961201045,1.4733022347784934,-2.9139144526671332,-0.08681267699419795,-0.016667894356545847,0.0,0.0,0.0,0.0,0.0,0.0,0.0,0.070875,-0.146475,0.2835,-0.0910518,-0.09296868,0.01533504
1779586032933103799,A_-,-0.10294394025004294,0.011990411961201045,1.4733022347784934,-2.9139144526671332,-0.08681267699419795,-0.016667894356545847,0.0,0.0,0.0,0.0,0.0,0.0,0.0,0.070875,-0.146475,0.2835,-0.0910518,-0.09296868,0.01533504
1779586032951873540,A_-,-0.10425190500018289,0.011990411961201045,1.4733022347784934,-2.9139144526671332,-0.08681267699419795,-0.016667894356545847,0.0,0.0,0.0,0.0,0.0,0.0,0.0,0.05669999999999999,-0.19372499999999998,0.2835,-0.08530115999999999,-0.09392712,0.00383376
1779586032951873540,A_-,-0.10562759287495282,0.011990411961201045,1.4733022347784934,-2.9139144526671332,-0.08681267699419795,-0.016667894356545847,0.0,0.0,0.0,0.0,0.0,0.0,0.0,0.05669999999999999,-0.19372499999999998,0.2835,-0.08530115999999999,-0.09392712,0.00383376
1779586032951873540,A_-,-0.10694788475029782,0.011990411961201045,1.4733022347784934,-2.9139144526671332,-0.08681267699419795,-0.016667894356545847,0.0,0.0,0.0,0.0,0.0,0.0,0.0,0.05669999999999999,-0.19372499999999998,0.2835,-0.08530115999999999,-0.09392712,0.00383376
1779586032976827144,A_-,-0.10829783050030528,0.011990411961201045,1.4733022347784934,-2.9139144526671332,-0.08681267699419795,-0.016667894356545847,0.0,0.0,0.0,0.0,0.0,0.0,0.0,0.08505,-0.184275,0.307125,-0.08721804,-0.09488556,0.00575064
1779586032976827144,A_-,-0.10969020524998996,0.011990411961201045,1.4733022347784934,-2.9139144526671332,-0.08681267699419795,-0.016667894356545847,0.0,0.0,0.0,0.0,0.0,0.0,0.0,0.08505,-0.184275,0.307125,-0.08721804,-0.09488556,0.00575064
1779586032976827144,A_-,-0.11102370024991615,0.011990411961201045,1.4733022347784934,-2.9139144526671332,-0.08681267699419795,-0.016667894356545847,0.0,0.0,0.0,0.0,0.0,0.0,0.0,0.08505,-0.184275,0.307125,-0.08721804,-0.09488556,0.00575064
1779586033001952886,A_-,-0.11233344900028897,0.011990411961201045,1.4733022347784934,-2.9139144526671332,-0.08681267699419795,-0.016667894356545847,0.0,0.0,0.0,0.0,0.0,0.0,0.0,0.10394999999999999,-0.155925,0.31185,-0.08146740000000001,-0.08913491999999999,0.00287532
1779586033001952886,A_-,-0.11370730912494764,0.011990411961201045,1.4733022347784934,-2.9139144526671332,-0.08681267699419795,-0.016667894356545847,0.0,0.0,0.0,0.0,0.0,0.0,0.0,0.10394999999999999,-0.155925,0.31185,-0.08146740000000001,-0.08913491999999999,0.00287532
1779586033001952886,A_-,-0.11503242475009756,0.011990411961201045,1.4733022347784934,-2.9139144526671332,-0.08681267699419795,-0.016667894356545847,0.0,0.0,0.0,0.0,0.0,0.0,0.0,0.10394999999999999,-0.155925,0.31185,-0.08146740000000001,-0.08913491999999999,0.00287532
1779586033031827449,A_-,-0.11634002962500745,0.011990411961201045,1.4733022347784934,-2.9139144526671332,-0.08681267699419795,-0.016667894356545847,0.0,0.0,0.0,0.0,0.0,0.0,0.0,0.127575,-0.165375,0.2835,-0.0910518,-0.09296868,0.00766752
1779586033031827449,A_-,-0.1177203412498784,0.011990411961201045,1.4733022347784934,-2.9139144526671332,-0.08681267699419795,-0.016667894356545847,0.0,0.0,0.0,0.0,0.0,0.0,0.0,0.127575,-0.165375,0.2835,-0.0910518,-0.09296868,0.00766752
1779586033031827449,A_-,-0.11903334575026747,0.011990411961201045,1.4733022347784934,-2.9139144526671332,-0.08681267699419795,-0.016667894356545847,0.0,0.0,0.0,0.0,0.0,0.0,0.0,0.127575,-0.165375,0.2835,-0.0910518,-0.09296868,0.00766752
1779586033076833724,A_-,-0.12034280650004803,0.011990411961201045,1.4733022347784934,-2.9139144526671332,-0.08681267699419795,-0.016667894356545847,0.0,0.0,0.0,0.0,0.0,0.0,0.0,0.14175,-0.127575,0.29295,-0.08817648,-0.08817648,0.01150128
1779586033076833724,A_-,-0.12171526262500265,0.011990411961201045,1.4733022347784934,-2.9139144526671332,-0.08681267699419795,-0.016667894356545847,0.0,0.0,0.0,0.0,0.0,0.0,0.0,0.14175,-0.127575,0.29295,-0.08817648,-0.08817648,0.01150128
1779586033076833724,A_-,-0.1230256993749208,0.011990411961201045,1.4733022347784934,-2.9139144526671332,-0.08681267699419795,-0.016667894356545847,0.0,0.0,0.0,0.0,0.0,0.0,0.0,0.14175,-0.127575,0.29295,-0.08817648,-0.08817648,0.01150128
1779586033102961540,A_-,-0.12433240837526682,0.011990411961201045,1.4733022347784934,-2.9139144526671332,-0.08681267699419795,-0.016667894356545847,0.0,0.0,0.0,0.0,0.0,0.0,0.0,0.05197499999999999,-0.16065,0.307125,-0.1006362,-0.08817648,0.0095844
1779586033102961540,A_-,-0.12569323337493188,0.011990411961201045,1.4733022347784934,-2.9139144526671332,-0.08681267699419795,-0.016667894356545847,0.0,0.0,0.0,0.0,0.0,0.0,0.0,0.05197499999999999,-0.16065,0.307125,-0.1006362,-0.08817648,0.0095844
1779586033102961540,A_-,-0.1269910070000151,0.011990411961201045,1.4733022347784934,-2.9139144526671332,-0.08681267699419795,-0.016667894356545847,0.0,0.0,0.0,0.0,0.0,0.0,0.0,0.05197499999999999,-0.16065,0.307125,-0.1006362,-0.08817648,0.0095844
1779586033157801151,A_-,-0.1282891926252887,0.011990411961201045,1.4733022347784934,-2.9139144526671332,-0.08681267699419795,-0.016667894356545847,0.0,0.0,0.0,0.0,0.0,0.0,0.0,0.1512,-0.1701,0.2835,-0.08913491999999999,-0.09871932,0.0191688
1779586033157801151,A_-,-0.12974653862511332,0.011990411961201045,1.4733022347784934,-2.9139144526671332,-0.08681267699419795,-0.016667894356545847,0.0,0.0,0.0,0.0,0.0,0.0,0.0,0.1512,-0.1701,0.2835,-0.08913491999999999,-0.09871932,0.0191688
1779586033157801151,A_-,-0.13106202687504265,0.011990411961201045,1.4733022347784934,-2.9139144526671332,-0.08681267699419795,-0.016667894356545847,0.0,0.0,0.0,0.0,0.0,0.0,0.0,0.1512,-0.1701,0.2835,-0.08913491999999999,-0.09871932,0.0191688
1779586033181833267,A_-,-0.13236816387507133,0.011990411961201045,1.4733022347784934,-2.9139144526671332,-0.08681267699419795,-0.016667894356545847,0.0,-0.001,0.0,0.0,0.0,0.0,0.0,-0.34964999999999996,-0.155925,0.2835,-0.08817648,-0.09967776,0.00575064
1779586033181833267,A_-,-0.13375173524991624,0.011990411961201045,1.4733022347784934,-2.9139144526671332,-0.08681267699419795,-0.016667894356545847,0.0,-0.001,0.0,0.0,0.0,0.0,0.0,-0.34964999999999996,-0.155925,0.2835,-0.08817648,-0.09967776,0.00575064
1779586033181833267,A_-,-0.13506780762509152,0.011990411961201045,1.4733022347784934,-2.9139144526671332,-0.08681267699419795,-0.016667894356545847,0.0,-0.001,0.0,0.0,0.0,0.0,0.0,-0.34964999999999996,-0.155925,0.2835,-0.08817648,-0.09967776,0.00575064
1779586033211842536,A_-,-0.13638276400024552,0.011990411961201045,1.4733022347784934,-2.9139144526671332,-0.08681267699419795,-0.016667894356545847,0.0,0.0,0.0,-0.001,0.0,0.0,0.0,-0.41579999999999995,-0.155925,0.29295,-0.08817648,-0.10159463999999999,0.00766752
1779586033211842536,A_-,-0.13776250762521158,0.011990411961201045,1.4733022347784934,-2.9139144526671332,-0.08681267699419795,-0.016667894356545847,0.0,0.0,0.0,-0.001,0.0,0.0,0.0,-0.41579999999999995,-0.155925,0.29295,-0.08817648,-0.10159463999999999,0.00766752
1779586033211842536,A_-,-0.13909028700027193,0.011990411961201045,1.4733022347784934,-2.9139144526671332,-0.08681267699419795,-0.016667894356545847,0.0,0.0,0.0,-0.001,0.0,0.0,0.0,-0.41579999999999995,-0.155925,0.29295,-0.08817648,-0.10159463999999999,0.00766752
1779586033263226985,A_-,-0.14039672400031122,0.011990411961201045,1.4733022347784934,-2.9139144526671332,-0.08681267699419795,-0.016667894356545847,0.0,0.0,0.0,-0.034,0.0,0.0,0.0,-0.40635,-0.118125,0.29295,-0.08625959999999999,-0.09392712,0.00095844
1779586033263226985,A_-,-0.14177503575001538,0.011990411961201045,1.4733022347784934,-2.9139144526671332,-0.08681267699419795,-0.016667894356545847,0.0,0.0,0.0,-0.034,0.0,0.0,0.0,-0.40635,-0.118125,0.29295,-0.08625959999999999,-0.09392712,0.00095844
1779586033263226985,A_-,-0.14310328712508635,0.011990411961201045,1.4733022347784934,-2.9139144526671332,-0.08681267699419795,-0.016667894356545847,0.0,0.0,0.0,-0.034,0.0,0.0,0.0,-0.40635,-0.118125,0.29295,-0.08625959999999999,-0.09392712,0.00095844
1779586033296891689,A_-,-0.1444026766253046,0.011990411961201045,1.4733022347784934,-2.9139144526671332,-0.08681267699419795,-0.016667894356545847,0.0,0.0,0.0,-0.026000000000000002,0.0,0.0,0.0,-0.411075,-0.17955,0.5103,-0.08817648,-0.09009336,0.01533504
1779586033296891689,A_-,-0.1457751288749023,0.011990411961201045,1.4733022347784934,-2.9139144526671332,-0.08681267699419795,-0.016667894356545847,0.0,0.0,0.0,-0.026000000000000002,0.0,0.0,0.0,-0.411075,-0.17955,0.5103,-0.08817648,-0.09009336,0.01533504
1779586033296891689,A_-,-0.14709802062498056,0.011990411961201045,1.4733022347784934,-2.9139144526671332,-0.08681267699419795,-0.016667894356545847,0.0,0.0,0.0,-0.026000000000000002,0.0,0.0,0.0,-0.411075,-0.17955,0.5103,-0.08817648,-0.09009336,0.01533504
1779586033321856737,A_-,-0.1484052096252526,0.011990411961201045,1.4733022347784934,-2.9139144526671332,-0.08681267699419795,-0.016667894356545847,0.0,0.0,0.0,0.029,0.0,0.0,0.0,-0.392175,-0.16065,0.20789999999999997,-0.08721804,-0.08721804,0.00383376
1779586033321856737,A_-,-0.1497978482502731,0.011990411961201045,1.4733022347784934,-2.9139144526671332,-0.08681267699419795,-0.016667894356545847,0.0,0.0,0.0,0.029,0.0,0.0,0.0,-0.392175,-0.16065,0.20789999999999997,-0.08721804,-0.08721804,0.00383376
1779586033321856737,A_-,-0.15111803224999676,0.011990411961201045,1.4733022347784934,-2.9139144526671332,-0.08681267699419795,-0.016667894356545847,0.0,0.0,0.0,0.029,0.0,0.0,0.0,-0.392175,-0.16065,0.20789999999999997,-0.08721804,-0.08721804,0.00383376
1779586033346838951,A_-,-0.15254438049987584,0.011990411961201045,1.4733022347784934,-2.9139144526671332,-0.08681267699419795,-0.016667894356545847,0.0,0.0,0.0,0.0,0.0,0.0,0.0,-0.392175,-0.137025,0.278775,-0.07955052,-0.07571676,0.01821036
1779586033346838951,A_-,-0.15398139600029026,0.011990411961201045,1.4733022347784934,-2.9139144526671332,-0.08681267699419795,-0.016667894356545847,0.0,0.0,0.0,0.0,0.0,0.0,0.0,-0.392175,-0.137025,0.278775,-0.07955052,-0.07571676,0.01821036
1779586033346838951,A_-,-0.1553282941249563,0.011990411961201045,1.4733022347784934,-2.9139144526671332,-0.08681267699419795,-0.016667894356545847,0.0,0.0,0.0,0.0,0.0,0.0,0.0,-0.392175,-0.137025,0.278775,-0.07955052,-0.07571676,0.01821036
1779586033371912002,A_-,-0.15665913725024438,0.011990411961201045,1.4733022347784934,-2.9139144526671332,-0.08681267699419795,-0.016667894356545847,0.0,0.0,0.0,0.0,0.0,0.0,0.0,-0.44415,-0.189,0.2835,-0.09296868,-0.09776088000000001,0.00766752
1779586033371912002,A_-,-0.15822484337513743,0.011990411961201045,1.4733022347784934,-2.9139144526671332,-0.08681267699419795,-0.016667894356545847,0.0,0.0,0.0,0.0,0.0,0.0,0.0,-0.44415,-0.189,0.2835,-0.09296868,-0.09776088000000001,0.00766752
1779586033371912002,A_-,-0.1595466992503134,0.011990411961201045,1.4733022347784934,-2.9139144526671332,-0.08681267699419795,-0.016667894356545847,0.0,0.0,0.0,0.0,0.0,0.0,0.0,-0.44415,-0.189,0.2835,-0.09296868,-0.09776088000000001,0.00766752
1779586033401859998,A_-,-0.1608553361252234,0.011990411961201045,1.4733022347784934,-2.9139144526671332,-0.08681267699419795,-0.016667894356545847,0.0,0.0,0.0,0.0,0.0,0.0,0.0,-0.40635,-0.16065,0.2835,-0.08434272,-0.09680244,0.01150128
1779586033401859998,A_-,-0.1622312120002789,0.011990411961201045,1.4733022347784934,-2.9139144526671332,-0.08681267699419795,-0.016667894356545847,0.0,0.0,0.0,0.0,0.0,0.0,0.0,-0.40635,-0.16065,0.2835,-0.08434272,-0.09680244,0.01150128
1779586033401859998,A_-,-0.16355452787502145,0.011990411961201045,1.4733022347784934,-2.9139144526671332,-0.08681267699419795,-0.016667894356545847,0.0,0.0,0.0,0.0,0.0,0.0,0.0,-0.40635,-0.16065,0.2835,-0.08434272,-0.09680244,0.01150128
1779586033421859502,A_-,-0.16486009287518755,0.011990411961201045,1.4733022347784934,-2.9139144526671332,-0.08681267699419795,-0.016667894356545847,0.0,0.0,0.0,0.0,0.0,0.0,0.0,-0.3969,-0.1701,0.29767499999999997,-0.08913491999999999,-0.0910518,0.0095844
1779586033421859502,A_-,-0.16625522737513165,0.011990411961201045,1.4733022347784934,-2.9139144526671332,-0.08681267699419795,-0.016667894356545847,0.0,0.0,0.0,0.0,0.0,0.0,0.0,-0.3969,-0.1701,0.29767499999999997,-0.08913491999999999,-0.0910518,0.0095844
1779586033421859502,A_-,-0.16759771775014087,0.011990411961201045,1.4733022347784934,-2.9139144526671332,-0.08681267699419795,-0.016667894356545847,0.0,0.0,0.0,0.0,0.0,0.0,0.0,-0.3969,-0.1701,0.29767499999999997,-0.08913491999999999,-0.0910518,0.0095844
1779586033461910009,A_-,-0.16890800250030225,0.011990411961201045,1.4733022347784934,-2.9139144526671332,-0.08681267699419795,-0.016667894356545847,0.0,0.0,0.0,0.0,0.0,0.0,0.0,-0.42524999999999996,-0.184275,0.29767499999999997,-0.08817648,-0.08721804,0.01629348
1779586033461910009,A_-,-0.17028482637488196,0.011990411961201045,1.4733022347784934,-2.9139144526671332,-0.08681267699419795,-0.016667894356545847,0.0,0.0,0.0,0.0,0.0,0.0,0.0,-0.42524999999999996,-0.184275,0.29767499999999997,-0.08817648,-0.08721804,0.01629348
1779586033461910009,A_-,-0.1716037423752823,0.011990411961201045,1.4733022347784934,-2.9139144526671332,-0.08681267699419795,-0.016667894356545847,0.0,0.0,0.0,0.0,0.0,0.0,0.0,-0.42524999999999996,-0.184275,0.29767499999999997,-0.08817648,-0.08721804,0.01629348
1779586033486867666,A_-,-0.17292287050031518,0.011990411961201045,1.4733022347784934,-2.9139144526671332,-0.08681267699419795,-0.016667894356545847,0.0,0.0,0.0,0.0,0.0,0.0,0.0,-0.42524999999999996,-0.189,0.29767499999999997,-0.095844,-0.08242584,0.00191688
1779586033486867666,A_-,-0.17429970637522274,0.011990411961201045,1.4733022347784934,-2.9139144526671332,-0.08681267699419795,-0.016667894356545847,0.0,0.0,0.0,0.0,0.0,0.0,0.0,-0.42524999999999996,-0.189,0.29767499999999997,-0.095844,-0.08242584,0.00191688
1779586033486867666,A_-,-0.17560188762490725,0.011990411961201045,1.4733022347784934,-2.9139144526671332,-0.08681267699419795,-0.016667894356545847,0.0,0.0,0.0,0.0,0.0,0.0,0.0,-0.42524999999999996,-0.189,0.29767499999999997,-0.095844,-0.08242584,0.00191688
1779586033531894207,A_-,-0.1769035850002183,0.011990411961201045,1.4733022347784934,-2.9139144526671332,-0.08681267699419795,-0.016667894356545847,0.0,0.0,0.0,0.0,0.0,0.0,0.0,-0.4205249999999999,-0.1701,0.29295,-0.08146740000000001,-0.09201024,0.00670908
1779586033531894207,A_-,-0.1783081308749388,0.011990411961201045,1.4733022347784934,-2.9139144526671332,-0.08681267699419795,-0.016667894356545847,0.0,0.0,0.0,0.0,0.0,0.0,0.0,-0.4205249999999999,-0.1701,0.29295,-0.08146740000000001,-0.09201024,0.00670908
1779586033531894207,A_-,-0.1796231032499236,0.011990411961201045,1.4733022347784934,-2.9139144526671332,-0.08681267699419795,-0.016667894356545847,0.0,0.0,0.0,0.0,0.0,0.0,0.0,-0.4205249999999999,-0.1701,0.29295,-0.08146740000000001,-0.09201024,0.00670908
1779586033587893724,A_-,-0.1809208447502897,0.011990411961201045,1.4733022347784934,-2.9139144526671332,-0.08681267699419795,-0.016667894356545847,0.0,0.0,0.0,0.0,0.0,0.0,0.0,-0.41579999999999995,-0.155925,0.278775,-0.08913491999999999,-0.09488556,0.01533504
1779586033587893724,A_-,-0.18228567350024605,0.011990411961201045,1.4733022347784934,-2.9139144526671332,-0.08681267699419795,-0.016667894356545847,0.0,0.0,0.0,0.0,0.0,0.0,0.0,-0.41579999999999995,-0.155925,0.278775,-0.08913491999999999,-0.09488556,0.01533504
1779586033587893724,A_-,-0.18360834537497794,0.011990411961201045,1.4733022347784934,-2.9139144526671332,-0.08681267699419795,-0.016667894356545847,0.0,0.0,0.0,0.0,0.0,0.0,0.0,-0.41579999999999995,-0.155925,0.278775,-0.08913491999999999,-0.09488556,0.01533504
1779586033621917486,A_-,-0.18491966600004162,0.011990411961201045,1.4733022347784934,-2.9139144526671332,-0.08681267699419795,-0.016667894356545847,0.0,0.0,0.0,0.0,0.0,0.0,0.0,-0.3591,-0.19845,0.28822499999999995,-0.09201024,-0.0910518,0.01245972
1779586033621917486,A_-,-0.1862887463748848,0.011990411961201045,1.4733022347784934,-2.9139144526671332,-0.08681267699419795,-0.016667894356545847,0.0,0.0,0.0,0.0,0.0,0.0,0.0,-0.3591,-0.19845,0.28822499999999995,-0.09201024,-0.0910518,0.01245972
1779586033621917486,A_-,-0.18760567062508926,0.011990411961201045,1.4733022347784934,-2.9139144526671332,-0.08681267699419795,-0.016667894356545847,0.0,0.0,0.0,0.0,0.0,0.0,0.0,-0.3591,-0.19845,0.28822499999999995,-0.09201024,-0.0910518,0.01245972
1779586033656874418,A_-,-0.18891779124987806,0.011990411961201045,1.4733022347784934,-2.9139144526671332,-0.08681267699419795,-0.016667894356545847,0.0,0.0,0.0,0.0,0.0,0.0,0.0,-0.44887499999999997,-0.17482499999999998,0.29767499999999997,-0.09009336,-0.08817648,0.00575064
1779586033656874418,A_-,-0.19029567500001576,0.011990411961201045,1.4733022347784934,-2.9139144526671332,-0.08681267699419795,-0.016667894356545847,0.0,0.0,0.0,0.0,0.0,0.0,0.0,-0.44887499999999997,-0.17482499999999998,0.29767499999999997,-0.09009336,-0.08817648,0.00575064
1779586033656874418,A_-,-0.1916173588751917,0.011990411961201045,1.4733022347784934,-2.9139144526671332,-0.08681267699419795,-0.016667894356545847,0.0,0.0,0.0,0.0,0.0,0.0,0.0,-0.44887499999999997,-0.17482499999999998,0.29767499999999997,-0.09009336,-0.08817648,0.00575064
1779586033683286666,A_-,-0.1929208841252148,0.011990411961201045,1.4733022347784934,-2.9139144526671332,-0.08681267699419795,-0.016667894356545847,0.0,0.0,0.0,0.0,0.0,0.0,0.0,-0.382725,-0.19372499999999998,0.28822499999999995,-0.08721804,-0.09871932,0.01054284
1779586033683286666,A_-,-0.19429312025022227,0.011990411961201045,1.4733022347784934,-2.9139144526671332,-0.08681267699419795,-0.016667894356545847,0.0,0.0,0.0,0.0,0.0,0.0,0.0,-0.382725,-0.19372499999999998,0.28822499999999995,-0.08721804,-0.09871932,0.01054284
1779586033683286666,A_-,-0.19561554812526083,0.011990411961201045,1.4733022347784934,-2.9139144526671332,-0.08681267699419795,-0.016667894356545847,0.0,0.0,0.0,0.0,0.0,0.0,0.0,-0.382725,-0.19372499999999998,0.28822499999999995,-0.08721804,-0.09871932,0.01054284
1779586033717333793,A_-,-0.19692660074997548,0.011990411961201045,1.4733022347784934,-2.9139144526671332,-0.08681267699419795,-0.016667894356545847,0.0,0.0,0.0,0.0,0.0,0.0,0.0,-0.42524999999999996,-0.165375,0.316575,-0.09392712,-0.09009336,0.01054284
1779586033717333793,A_-,-0.19829876900030285,0.011990411961201045,1.4733022347784934,-2.9139144526671332,-0.08681267699419795,-0.016667894356545847,0.0,0.0,0.0,0.0,0.0,0.0,0.0,-0.42524999999999996,-0.165375,0.316575,-0.09392712,-0.09009336,0.01054284
1779586033717333793,A_-,-0.1996202368750346,0.011990411961201045,1.4733022347784934,-2.9139144526671332,-0.08681267699419795,-0.016667894356545847,0.0,0.0,0.0,0.0,0.0,0.0,0.0,-0.42524999999999996,-0.165375,0.316575,-0.09392712,-0.09009336,0.01054284
1779586033741868972,A_-,-0.20093657712504864,0.011990411961201045,1.4733022347784934,-2.9139144526671332,-0.08681267699419795,-0.016667894356545847,0.0,0.0,0.0,0.0,0.0,0.0,0.0,-0.392175,-0.155925,0.28822499999999995,-0.09392712,-0.08913491999999999,0.0095844
1779586033741868972,A_-,-0.20231177312507498,0.011990411961201045,1.4733022347784934,-2.9139144526671332,-0.08681267699419795,-0.016667894356545847,0.0,0.0,0.0,0.0,0.0,0.0,0.0,-0.392175,-0.155925,0.28822499999999995,-0.09392712,-0.08913491999999999,0.0095844
1779586033741868972,A_-,-0.20363396099992315,0.011990411961201045,1.4733022347784934,-2.9139144526671332,-0.08681267699419795,-0.016667894356545847,0.0,0.0,0.0,0.0,0.0,0.0,0.0,-0.392175,-0.155925,0.28822499999999995,-0.09392712,-0.08913491999999999,0.0095844
1779586033766883611,A_-,-0.20494369774996812,0.011990411961201045,1.4733022347784934,-2.9139144526671332,-0.08681267699419795,-0.016667894356545847,0.0,0.0,0.0,0.0,0.0,0.0,0.0,-0.37327499999999997,-0.17955,0.29767499999999997,-0.09009336,-0.09296868,0.00862596
1779586033766883611,A_-,-0.20632316537512452,0.011990411961201045,1.4733022347784934,-2.9139144526671332,-0.08681267699419795,-0.016667894356545847,0.0,0.0,0.0,0.0,0.0,0.0,0.0,-0.37327499999999997,-0.17955,0.29767499999999997,-0.09009336,-0.09296868,0.00862596
1779586033766883611,A_-,-0.20764876100020047,0.011990411961201045,1.4733022347784934,-2.9139144526671332,-0.08681267699419795,-0.016667894356545847,0.0,0.0,0.0,0.0,0.0,0.0,0.0,-0.37327499999999997,-0.17955,0.29767499999999997,-0.09009336,-0.09296868,0.00862596
1779586033786876201,A_-,-0.2089650012499078,0.011990411961201045,1.4733022347784934,-2.9139144526671332,-0.08681267699419795,-0.016667894356545847,0.0,0.0,0.0,0.0,0.0,0.0,0.0,-0.41579999999999995,-0.16065,0.3024,-0.08721804,-0.09488556,0.00287532
1779586033786876201,A_-,-0.21035660400002598,0.011990411961201045,1.4733022347784934,-2.9139144526671332,-0.08681267699419795,-0.016667894356545847,0.0,0.0,0.0,0.0,0.0,0.0,0.0,-0.41579999999999995,-0.16065,0.3024,-0.08721804,-0.09488556,0.00287532
1779586033786876201,A_-,-0.21167609200028892,0.011990411961201045,1.4733022347784934,-2.9139144526671332,-0.08681267699419795,-0.016667894356545847,0.0,0.0,0.0,0.0,0.0,0.0,0.0,-0.41579999999999995,-0.16065,0.3024,-0.08721804,-0.09488556,0.00287532
1779586033806985378,A_-,-0.2129923563752527,0.011990411961201045,1.4733022347784934,-2.9139144526671332,-0.08681267699419795,-0.016667894356545847,0.0,0.0,0.0,0.0,0.0,0.0,0.0,-0.40635,-0.155925,0.278775,-0.08434272,-0.08817648,0.00287532
1779586033806985378,A_-,-0.21439034262493806,0.011990411961201045,1.4733022347784934,-2.9139144526671332,-0.08681267699419795,-0.016667894356545847,0.0,0.0,0.0,0.0,0.0,0.0,0.0,-0.40635,-0.155925,0.278775,-0.08434272,-0.08817648,0.00287532
1779586033806985378,A_-,-0.21571876200005136,0.011990411961201045,1.4733022347784934,-2.9139144526671332,-0.08681267699419795,-0.016667894356545847,0.0,0.0,0.0,0.0,0.0,0.0,0.0,-0.40635,-0.155925,0.278775,-0.08434272,-0.08817648,0.00287532
1779586033826940536,A_-,-0.2170285907500329,0.011990411961201045,1.4733022347784934,-2.9139144526671332,-0.08681267699419795,-0.016667894356545847,0.0,0.0,0.0,0.0,0.0,0.0,0.0,-0.4205249999999999,-0.137025,0.2835,-0.08625959999999999,-0.09009336,0.00862596
1779586033826940536,A_-,-0.21840869437528454,0.011990411961201045,1.4733022347784934,-2.9139144526671332,-0.08681267699419795,-0.016667894356545847,0.0,0.0,0.0,0.0,0.0,0.0,0.0,-0.4205249999999999,-0.137025,0.2835,-0.08625959999999999,-0.09009336,0.00862596
1779586033826940536,A_-,-0.21972664650002116,0.011990411961201045,1.4733022347784934,-2.9139144526671332,-0.08681267699419795,-0.016667894356545847,0.0,0.0,0.0,0.0,0.0,0.0,0.0,-0.4205249999999999,-0.137025,0.2835,-0.08625959999999999,-0.09009336,0.00862596
1779586033848075866,A_-,-0.22102821187490918,0.011990411961201045,1.4733022347784934,-2.9139144526671332,-0.08681267699419795,-0.016667894356545847,0.0,0.0,0.0,0.0,0.0,0.0,0.0,-0.40635,-0.155925,0.27405,-0.08625959999999999,-0.08338428,0.00670908
1779586033848075866,A_-,-0.22239528050022273,0.011990411961201045,1.4733022347784934,-2.9139144526671332,-0.08681267699419795,-0.016667894356545847,0.0,0.0,0.0,0.0,0.0,0.0,0.0,-0.40635,-0.155925,0.27405,-0.08625959999999999,-0.08338428,0.00670908
1779586033848075866,A_-,-0.22370519725018312,0.011990411961201045,1.4733022347784934,-2.9139144526671332,-0.08681267699419795,-0.016667894356545847,0.0,0.0,0.0,0.0,0.0,0.0,0.0,-0.40635,-0.155925,0.27405,-0.08625959999999999,-0.08338428,0.00670908
1779586033867675304,A_-,-0.22501155825011665,0.011990411961201045,1.4733022347784934,-2.9139144526671332,-0.08681267699419795,-0.016667894356545847,0.0,0.0,0.0,0.0,0.0,0.0,0.0,-0.392175,-0.165375,0.269325,-0.08721804,-0.0910518,0.0095844
1779586033867675304,A_-,-0.22640062912523717,0.011990411961201045,1.4733022347784934,-2.9139144526671332,-0.08681267699419795,-0.016667894356545847,0.0,0.0,0.0,0.0,0.0,0.0,0.0,-0.392175,-0.165375,0.269325,-0.08721804,-0.0910518,0.0095844
1779586033867675304,A_-,-0.22772276100022282,0.011990411961201045,1.4733022347784934,-2.9139144526671332,-0.08681267699419795,-0.016667894356545847,0.0,0.0,0.0,0.0,0.0,0.0,0.0,-0.392175,-0.165375,0.269325,-0.08721804,-0.0910518,0.0095844
1779586033891881704,A_-,-0.22902693412515873,0.011990411961201045,1.4733022347784934,-2.9139144526671332,-0.08681267699419795,-0.016667894356545847,0.0,0.0,0.0,0.0,0.0,0.0,0.0,-0.42524999999999996,-0.155925,0.278775,-0.08530115999999999,-0.09392712,0.01054284
1779586033891881704,A_-,-0.23039732250026645,0.011990411961201045,1.4733022347784934,-2.9139144526671332,-0.08681267699419795,-0.016667894356545847,0.0,0.0,0.0,0.0,0.0,0.0,0.0,-0.42524999999999996,-0.155925,0.278775,-0.08530115999999999,-0.09392712,0.01054284
1779586033891881704,A_-,-0.23172509799996988,0.011990411961201045,1.4733022347784934,-2.9139144526671332,-0.08681267699419795,-0.016667894356545847,0.0,0.0,0.0,0.0,0.0,0.0,0.0,-0.42524999999999996,-0.155925,0.278775,-0.08530115999999999,-0.09392712,0.01054284
1779586033912594318,A_-,-0.23304419412488642,0.011990411961201045,1.4733022347784934,-2.9139144526671332,-0.08681267699419795,-0.016667894356545847,0.0,0.0,0.0,0.0,0.0,0.0,0.0,-0.4205249999999999,-0.14175,0.29295,-0.09392712,-0.09488556,0.01054284
1779586033912594318,A_-,-0.23441590237507626,0.011990411961201045,1.4733022347784934,-2.9139144526671332,-0.08681267699419795,-0.016667894356545847,0.0,0.0,0.0,0.0,0.0,0.0,0.0,-0.4205249999999999,-0.14175,0.29295,-0.09392712,-0.09488556,0.01054284
1779586033912594318,A_-,-0.23573793437526547,0.011990411961201045,1.4733022347784934,-2.9139144526671332,-0.08681267699419795,-0.016667894356545847,0.0,0.0,0.0,0.0,0.0,0.0,0.0,-0.4205249999999999,-0.14175,0.29295,-0.09392712,-0.09488556,0.01054284
1779586033932152509,A_-,-0.23705062699991686,0.011990411961201045,1.4733022347784934,-2.9139144526671332,-0.08681267699419795,-0.016667894356545847,0.0,0.0,0.0,0.0,0.0,0.0,0.0,-0.401625,-0.165375,0.29767499999999997,-0.08817648,-0.09776088000000001,0.0047922
1779586033932152509,A_-,-0.23842098749992147,0.011990411961201045,1.4733022347784934,-2.9139144526671332,-0.08681267699419795,-0.016667894356545847,0.0,0.0,0.0,0.0,0.0,0.0,0.0,-0.401625,-0.165375,0.29767499999999997,-0.08817648,-0.09776088000000001,0.0047922
1779586033932152509,A_-,-0.23974629524991542,0.011990411961201045,1.4733022347784934,-2.9139144526671332,-0.08681267699419795,-0.016667894356545847,0.0,0.0,0.0,0.0,0.0,0.0,0.0,-0.401625,-0.165375,0.29767499999999997,-0.08817648,-0.09776088000000001,0.0047922
1779586033981899738,A_-,-0.24105947587531773,0.011990411961201045,1.4733022347784934,-2.9139144526671332,-0.08681267699419795,-0.016667894356545847,0.0,0.0,0.0,0.0,0.0,0.0,0.0,-0.40635,-0.16065,0.29295,-0.08817648,-0.09776088000000001,0.01725192
1779586033981899738,A_-,-0.24243853562529694,0.011990411961201045,1.4733022347784934,-2.9139144526671332,-0.08681267699419795,-0.016667894356545847,0.0,0.0,0.0,0.0,0.0,0.0,0.0,-0.40635,-0.16065,0.29295,-0.08817648,-0.09776088000000001,0.01725192
1779586033981899738,A_-,-0.24375192425031855,0.011990411961201045,1.4733022347784934,-2.9139144526671332,-0.08681267699419795,-0.016667894356545847,0.0,0.0,0.0,0.0,0.0,0.0,0.0,-0.40635,-0.16065,0.29295,-0.08817648,-0.09776088000000001,0.01725192
1779586034046908140,A_-,-0.24506136912532384,0.011990411961201045,1.4733022347784934,-2.9139144526671332,-0.08681267699419795,-0.016667894356545847,0.0,0.0,0.0,0.0,0.0,0.0,0.0,-0.4205249999999999,-0.14175,0.29295,-0.09009336,-0.09201024,0.01150128
1779586034046908140,A_-,-0.2464359172499826,0.011990411961201045,1.4733022347784934,-2.9139144526671332,-0.08681267699419795,-0.016667894356545847,0.0,0.0,0.0,0.0,0.0,0.0,0.0,-0.4205249999999999,-0.14175,0.29295,-0.09009336,-0.09201024,0.01150128
1779586034046908140,A_-,-0.24775834925003437,0.011990411961201045,1.4733022347784934,-2.9139144526671332,-0.08681267699419795,-0.016667894356545847,0.0,0.0,0.0,0.0,0.0,0.0,0.0,-0.4205249999999999,-0.14175,0.29295,-0.09009336,-0.09201024,0.01150128
1779586034066901683,A_-,-0.2490646503752032,0.011990411961201045,1.4733022347784934,-2.9139144526671332,-0.08681267699419795,-0.016667894356545847,0.0,0.0,0.0,0.0,0.0,0.0,0.0,-0.41579999999999995,-0.14175,0.278775,-0.08625959999999999,-0.09296868,-0.0047922
1779586034066901683,A_-,-0.25043844250012626,0.011990411961201045,1.4733022347784934,-2.9139144526671332,-0.08681267699419795,-0.016667894356545847,0.0,0.0,0.0,0.0,0.0,0.0,0.0,-0.41579999999999995,-0.14175,0.278775,-0.08625959999999999,-0.09296868,-0.0047922
1779586034066901683,A_-,-0.25175471087504775,0.011990411961201045,1.4733022347784934,-2.9139144526671332,-0.08681267699419795,-0.016667894356545847,0.0,0.0,0.0,0.0,0.0,0.0,0.0,-0.41579999999999995,-0.14175,0.278775,-0.08625959999999999,-0.09296868,-0.0047922
1779586034082724571,A_-,-0.25305971212492295,0.011990411961201045,1.4733022347784934,-2.9139144526671332,-0.08681267699419795,-0.016667894356545847,0.0,0.0,0.0,0.0,0.0,0.0,0.0,-0.44887499999999997,-0.165375,0.29295,-0.08913491999999999,-0.1006362,0.01341816
1779586034082724571,A_-,-0.2544284966252235,0.011990411961201045,1.4733022347784934,-2.9139144526671332,-0.08681267699419795,-0.016667894356545847,0.0,0.0,0.0,0.0,0.0,0.0,0.0,-0.44887499999999997,-0.165375,0.29295,-0.08913491999999999,-0.1006362,0.01341816
1779586034082724571,A_-,-0.25575496437522816,0.011990411961201045,1.4733022347784934,-2.9139144526671332,-0.08681267699419795,-0.016667894356545847,0.0,0.0,0.0,0.0,0.0,0.0,0.0,-0.44887499999999997,-0.165375,0.29295,-0.08913491999999999,-0.1006362,0.01341816
1779586034102563619,A_-,-0.25708225987500555,0.011990411961201045,1.4733022347784934,-2.9139144526671332,-0.08681267699419795,-0.016667894356545847,0.0,0.0,0.0,0.0,0.0,0.0,0.0,-0.40635,-0.17955,0.3024,-0.08434272,-0.09201024,0.01629348
1779586034102563619,A_-,-0.2584659833751175,0.011990411961201045,1.4733022347784934,-2.9139144526671332,-0.08681267699419795,-0.016667894356545847,0.0,0.0,0.0,0.0,0.0,0.0,0.0,-0.40635,-0.17955,0.3024,-0.08434272,-0.09201024,0.01629348
1779586034102563619,A_-,-0.25979402287521225,0.011990411961201045,1.4733022347784934,-2.9139144526671332,-0.08681267699419795,-0.016667894356545847,0.0,0.0,0.0,0.0,0.0,0.0,0.0,-0.40635,-0.17955,0.3024,-0.08434272,-0.09201024,0.01629348
1779586034116920709,A_-,-0.2611019598753046,0.011990411961201045,1.4733022347784934,-2.9139144526671332,-0.08681267699419795,-0.016667894356545847,0.0,0.0,0.0,0.0,0.0,0.0,0.0,-0.392175,-0.1512,0.29767499999999997,-0.09296868,-0.10351152,0.00287532
1779586034116920709,A_-,-0.26248065575009605,0.011990411961201045,1.4733022347784934,-2.9139144526671332,-0.08681267699419795,-0.016667894356545847,0.0,0.0,0.0,0.0,0.0,0.0,0.0,-0.392175,-0.1512,0.29767499999999997,-0.09296868,-0.10351152,0.00287532
1779586034116920709,A_-,-0.26380169575031687,0.011990411961201045,1.4733022347784934,-2.9139144526671332,-0.08681267699419795,-0.016667894356545847,0.0,0.0,0.0,0.0,0.0,0.0,0.0,-0.392175,-0.1512,0.29767499999999997,-0.09296868,-0.10351152,0.00287532
1779586034126912355,A_-,-0.26512182387523353,0.011990411961201045,1.4733022347784934,-2.9139144526671332,-0.08681267699419795,-0.016667894356545847,0.0,0.0,0.0,0.0,0.0,0.0,0.0,-0.401625,-0.16065,0.28822499999999995,-0.09009336,-0.0910518,0.00575064
1779586034126912355,A_-,-0.26651349075018516,0.011990411961201045,1.4733022347784934,-2.9139144526671332,-0.08681267699419795,-0.016667894356545847,0.0,0.0,0.0,0.0,0.0,0.0,0.0,-0.401625,-0.16065,0.28822499999999995,-0.09009336,-0.0910518,0.00575064
1779586034126912355,A_-,-0.2678400465001687,0.011990411961201045,1.4733022347784934,-2.9139144526671332,-0.08681267699419795,-0.016667894356545847,0.0,0.0,0.0,0.0,0.0,0.0,0.0,-0.401625,-0.16065,0.28822499999999995,-0.09009336,-0.0910518,0.00575064
1779586034146897315,A_-,-0.26915929462529675,0.011990411961201045,1.4733022347784934,-2.9139144526671332,-0.08681267699419795,-0.016667894356545847,0.0,0.0,0.0,0.0,0.0,0.0,0.0,-0.411075,-0.16065,0.29767499999999997,-0.09201024,-0.09201024,0.00383376
1779586034146897315,A_-,-0.2705329268751484,0.011990411961201045,1.4733022347784934,-2.9139144526671332,-0.08681267699419795,-0.016667894356545847,0.0,0.0,0.0,0.0,0.0,0.0,0.0,-0.411075,-0.16065,0.29767499999999997,-0.09201024,-0.09201024,0.00383376
1779586034146897315,A_-,-0.2718491832501968,0.011990411961201045,1.4733022347784934,-2.9139144526671332,-0.08681267699419795,-0.016667894356545847,0.0,0.0,0.0,0.0,0.0,0.0,0.0,-0.411075,-0.16065,0.29767499999999997,-0.09201024,-0.09201024,0.00383376
1779586034166895627,A_-,-0.2731552123750589,0.011990411961201045,1.4733022347784934,-2.9139144526671332,-0.08681267699419795,-0.016667894356545847,0.0,0.0,0.0,0.0,0.0,0.0,0.0,-0.42997499999999994,-0.1512,0.3024,-0.08721804,-0.08817648,0.01629348
1779586034166895627,A_-,-0.2745368400001098,0.011990411961201045,1.4733022347784934,-2.9139144526671332,-0.08681267699419795,-0.016667894356545847,0.0,0.0,0.0,0.0,0.0,0.0,0.0,-0.42997499999999994,-0.1512,0.3024,-0.08721804,-0.08817648,0.01629348
1779586034166895627,A_-,-0.275890817625168,0.011990411961201045,1.4733022347784934,-2.9139144526671332,-0.08681267699419795,-0.016667894356545847,0.0,0.0,0.0,0.0,0.0,0.0,0.0,-0.42997499999999994,-0.1512,0.3024,-0.08721804,-0.08817648,0.01629348
1779586034181912899,A_-,-0.2772050741250496,0.011990411961201045,1.4733022347784934,-2.9139144526671332,-0.08681267699419795,-0.016667894356545847,0.0,0.0,0.0,0.0,0.0,0.0,0.0,-0.3969,-0.21735,0.2835,-0.09201024,-0.095844,0.00766752
1779586034181912899,A_-,-0.27858782974999485,0.011990411961201045,1.4733022347784934,-2.9139144526671332,-0.08681267699419795,-0.016667894356545847,0.0,0.0,0.0,0.0,0.0,0.0,0.0,-0.3969,-0.21735,0.2835,-0.09201024,-0.095844,0.00766752
1779586034181912899,A_-,-0.2799073938749643,0.011990411961201045,1.4733022347784934,-2.9139144526671332,-0.08681267699419795,-0.016667894356545847,0.0,0.0,0.0,0.0,0.0,0.0,0.0,-0.3969,-0.21735,0.2835,-0.09201024,-0.095844,0.00766752
1779586034197828769,A_-,-0.2812206065000282,0.011990411961201045,1.4733022347784934,-2.9139144526671332,-0.08681267699419795,-0.016667894356545847,0.0,0.0,0.0,0.0,0.0,0.0,0.0,-0.41579999999999995,-0.184275,0.278775,-0.08721804,-0.0910518,0.03450384
1779586034197828769,A_-,-0.2825998022499334,0.011990411961201045,1.4733022347784934,-2.9139144526671332,-0.08681267699419795,-0.016667894356545847,0.0,0.0,0.0,0.0,0.0,0.0,0.0,-0.41579999999999995,-0.184275,0.278775,-0.08721804,-0.0910518,0.03450384
1779586034197828769,A_-,-0.28392955362505745,0.011990411961201045,1.4733022347784934,-2.9139144526671332,-0.08681267699419795,-0.016667894356545847,0.0,0.0,0.0,0.0,0.0,0.0,0.0,-0.41579999999999995,-0.184275,0.278775,-0.08721804,-0.0910518,0.03450384
1779586034267612457,A_-,-0.28524768187526206,0.011990411961201045,1.4733022347784934,-2.9139144526671332,-0.08681267699419795,-0.016667894356545847,0.0,0.0,0.0,0.0,0.0,0.0,0.0,-0.38744999999999996,-0.146475,0.278775,-0.08434272,-0.09296868,0.01150128
1779586034267612457,A_-,-0.28662470587505595,0.011990411961201045,1.4733022347784934,-2.9139144526671332,-0.08681267699419795,-0.016667894356545847,0.0,0.0,0.0,0.0,0.0,0.0,0.0,-0.38744999999999996,-0.146475,0.278775,-0.08434272,-0.09296868,0.01150128
1779586034267612457,A_-,-0.2879506216249865,0.011990411961201045,1.4733022347784934,-2.9139144526671332,-0.08681267699419795,-0.016667894356545847,0.0,0.0,0.0,0.0,0.0,0.0,0.0,-0.38744999999999996,-0.146475,0.278775,-0.08434272,-0.09296868,0.01150128
1779586034371924877,A_-,-0.28926117837499987,0.011990411961201045,1.4733022347784934,-2.9139144526671332,-0.08681267699419795,-0.016667894356545847,0.0,0.0,0.0,0.0,0.0,0.0,0.0,-0.4347,-0.16065,0.27405,-0.08530115999999999,-0.09296868,0.0095844
1779586034371924877,A_-,-0.290629127000102,0.011990411961201045,1.4733022347784934,-2.9139144526671332,-0.08681267699419795,-0.016667894356545847,0.0,0.0,0.0,0.0,0.0,0.0,0.0,-0.4347,-0.16065,0.27405,-0.08530115999999999,-0.09296868,0.0095844
1779586034371924877,A_-,-0.29195787849994304,0.011990411961201045,1.4733022347784934,-2.9139144526671332,-0.08681267699419795,-0.016667894356545847,0.0,0.0,0.0,0.0,0.0,0.0,0.0,-0.4347,-0.16065,0.27405,-0.08530115999999999,-0.09296868,0.0095844
1779586034442002058,A_-,-0.29326810337488496,0.011990411961201045,1.4733022347784934,-2.9139144526671332,-0.08681267699419795,-0.016667894356545847,0.0,0.0,0.0,0.0,0.0,0.0,0.0,-0.37327499999999997,-0.14175,0.29295,-0.08338428,-0.09201024,0.00766752
1779586034442002058,A_-,-0.2946428314999139,0.011990411961201045,1.4733022347784934,-2.9139144526671332,-0.08681267699419795,-0.016667894356545847,0.0,0.0,0.0,0.0,0.0,0.0,0.0,-0.37327499999999997,-0.14175,0.29295,-0.08338428,-0.09201024,0.00766752
1779586034442002058,A_-,-0.2959543202500754,0.011990411961201045,1.4733022347784934,-2.9139144526671332,-0.08681267699419795,-0.016667894356545847,0.0,0.0,0.0,0.0,0.0,0.0,0.0,-0.37327499999999997,-0.14175,0.29295,-0.08338428,-0.09201024,0.00766752
1779586034511929035,A_-,-0.29727195250006844,0.011990411961201045,1.4733022347784934,-2.9139144526671332,-0.08681267699419795,-0.016667894356545847,0.0,0.0,0.0,0.0,0.0,0.0,0.0,-0.41579999999999995,-0.1512,0.28822499999999995,-0.08338428,-0.08434272,0.0095844
1779586034511929035,A_-,-0.2986563238750932,0.011990411961201045,1.4733022347784934,-2.9139144526671332,-0.08681267699419795,-0.016667894356545847,0.0,0.0,0.0,0.0,0.0,0.0,0.0,-0.41579999999999995,-0.1512,0.28822499999999995,-0.08338428,-0.08434272,0.0095844
1779586034511929035,A_-,-0.2999756081248961,0.011990411961201045,1.4733022347784934,-2.9139144526671332,-0.08681267699419795,-0.016667894356545847,0.0,0.0,0.0,0.0,0.0,0.0,0.0,-0.41579999999999995,-0.1512,0.28822499999999995,-0.08338428,-0.08434272,0.0095844
1779586034551961660,A_-,-0.30130203975022596,0.011990411961201045,1.4733022347784934,-2.9139144526671332,-0.08681267699419795,-0.016667894356545847,0.0,0.0,0.0,0.0,0.0,0.0,0.0,-0.4347,-0.1701,0.27405,-0.08625959999999999,-0.08721804,0.0095844
1779586034551961660,A_-,-0.30268611512519783,0.011990411961201045,1.4733022347784934,-2.9139144526671332,-0.08681267699419795,-0.016667894356545847,0.0,0.0,0.0,0.0,0.0,0.0,0.0,-0.4347,-0.1701,0.27405,-0.08625959999999999,-0.08721804,0.0095844
1779586034551961660,A_-,-0.3040133747499567,0.011990411961201045,1.4733022347784934,-2.9139144526671332,-0.08681267699419795,-0.016667894356545847,0.0,0.0,0.0,0.0,0.0,0.0,0.0,-0.4347,-0.1701,0.27405,-0.08625959999999999,-0.08721804,0.0095844
1779586034586955070,A_-,-0.30532472350023454,0.011990411961201045,1.4733022347784934,-2.9139144526671332,-0.08681267699419795,-0.016667894356545847,0.0,0.0,0.0,0.0,0.0,0.0,0.0,-0.382725,-0.1512,0.2835,-0.08913491999999999,-0.09392712,0.01821036
1779586034586955070,A_-,-0.30670008762490397,0.011990411961201045,1.4733022347784934,-2.9139144526671332,-0.08681267699419795,-0.016667894356545847,0.0,0.0,0.0,0.0,0.0,0.0,0.0,-0.382725,-0.1512,0.2835,-0.08913491999999999,-0.09392712,0.01821036
1779586034586955070,A_-,-0.30802944700008084,0.011990411961201045,1.4733022347784934,-2.9139144526671332,-0.08681267699419795,-0.016667894356545847,0.0,0.0,0.0,0.0,0.0,0.0,0.0,-0.382725,-0.1512,0.2835,-0.08913491999999999,-0.09392712,0.01821036
1779586034611932992,A_-,-0.30934068775013657,0.011990411961201045,1.4733022347784934,-2.9139144526671332,-0.08681267699419795,-0.016667894356545847,0.0,0.0,0.0,0.0,0.0,0.0,0.0,-0.40635,-0.184275,0.2835,-0.08530115999999999,-0.08913491999999999,0.01245972
1779586034611932992,A_-,-0.3107171797500996,0.011990411961201045,1.4733022347784934,-2.9139144526671332,-0.08681267699419795,-0.016667894356545847,0.0,0.0,0.0,0.0,0.0,0.0,0.0,-0.40635,-0.184275,0.2835,-0.08530115999999999,-0.08913491999999999,0.01245972
1779586034611932992,A_-,-0.31204033562517,0.011990411961201045,1.4733022347784934,-2.9139144526671332,-0.08681267699419795,-0.016667894356545847,0.0,0.0,0.0,0.0,0.0,0.0,0.0,-0.40635,-0.184275,0.2835,-0.08530115999999999,-0.08913491999999999,0.01245972
1779586034651937723,A_-,-0.3133554361252209,0.011990411961201045,1.4733022347784934,-2.9139144526671332,-0.08681267699419795,-0.016667894356545847,0.0,0.0,0.0,0.0,0.0,0.0,0.0,-0.42997499999999994,-0.17955,0.2835,-0.08434272,-0.08625959999999999,0.01054284
1779586034651937723,A_-,-0.3147352238752319,0.011990411961201045,1.4733022347784934,-2.9139144526671332,-0.08681267699419795,-0.016667894356545847,0.0,0.0,0.0,0.0,0.0,0.0,0.0,-0.42997499999999994,-0.17955,0.2835,-0.08434272,-0.08625959999999999,0.01054284
1779586034651937723,A_-,-0.3160628274999908,0.011990411961201045,1.4733022347784934,-2.9139144526671332,-0.08681267699419795,-0.016667894356545847,0.0,0.0,0.0,0.0,0.0,0.0,0.0,-0.42997499999999994,-0.17955,0.2835,-0.08434272,-0.08625959999999999,0.01054284
1779586034681926727,A_-,-0.31737260037516535,0.011990411961201045,1.4733022347784934,-2.9139144526671332,-0.08681267699419795,-0.016667894356545847,0.0,0.0,0.0,0.0,0.0,0.0,0.0,-0.36855,-0.19845,0.29767499999999997,-0.09009336,-0.09488556,0.00670908
1779586034681926727,A_-,-0.31875684775013724,0.011990411961201045,1.4733022347784934,-2.9139144526671332,-0.08681267699419795,-0.016667894356545847,0.0,0.0,0.0,0.0,0.0,0.0,0.0,-0.36855,-0.19845,0.29767499999999997,-0.09009336,-0.09488556,0.00670908
1779586034681926727,A_-,-0.32006549275001817,0.011990411961201045,1.4733022347784934,-2.9139144526671332,-0.08681267699419795,-0.016667894356545847,0.0,0.0,0.0,0.0,0.0,0.0,0.0,-0.36855,-0.19845,0.29767499999999997,-0.09009336,-0.09488556,0.00670908
1779586034706928491,A_-,-0.32135957475020405,0.011990411961201045,1.4733022347784934,-2.9139144526671332,-0.08681267699419795,-0.016667894356545847,0.0,0.0,0.0,0.0,0.0,0.0,0.0,-0.4205249999999999,-0.17482499999999998,0.278775,-0.08434272,-0.09488556,0.00575064
1779586034706928491,A_-,-0.3227395265002997,0.011990411961201045,1.4733022347784934,-2.9139144526671332,-0.08681267699419795,-0.016667894356545847,0.0,0.0,0.0,0.0,0.0,0.0,0.0,-0.4205249999999999,-0.17482499999999998,0.278775,-0.08434272,-0.09488556,0.00575064
1779586034706928491,A_-,-0.3240685218752333,0.011990411961201045,1.4733022347784934,-2.9139144526671332,-0.08681267699419795,-0.016667894356545847,0.0,0.0,0.0,0.0,0.0,0.0,0.0,-0.4205249999999999,-0.17482499999999998,0.278775,-0.08434272,-0.09488556,0.00575064
1779586034746946573,A_-,-0.32537650287531505,0.011990411961201045,1.4733022347784934,-2.9139144526671332,-0.08681267699419795,-0.016667894356545847,0.0,0.0,0.0,0.0,0.0,0.0,0.0,-0.4205249999999999,-0.17482499999999998,0.278775,-0.09201024,-0.08913491999999999,0.00766752
1779586034746946573,A_-,-0.3267616022499169,0.011990411961201045,1.4733022347784934,-2.9139144526671332,-0.08681267699419795,-0.016667894356545847,0.0,0.0,0.0,0.0,0.0,0.0,0.0,-0.4205249999999999,-0.17482499999999998,0.278775,-0.09201024,-0.08913491999999999,0.00766752
1779586034746946573,A_-,-0.32807735474989386,0.011990411961201045,1.4733022347784934,-2.9139144526671332,-0.08681267699419795,-0.016667894356545847,0.0,0.0,0.0,0.0,0.0,0.0,0.0,-0.4205249999999999,-0.17482499999999998,0.278775,-0.09201024,-0.08913491999999999,0.00766752
1779586034771959066,A_-,-0.3293884435001928,0.011990411961201045,1.4733022347784934,-2.9139144526671332,-0.08681267699419795,-0.016667894356545847,0.0,0.0,0.0,0.0,0.0,0.0,0.0,-0.401625,-0.137025,0.29767499999999997,-0.08338428,-0.0910518,0.00670908
1779586034771959066,A_-,-0.3307987450002656,0.011990411961201045,1.4733022347784934,-2.9139144526671332,-0.08681267699419795,-0.016667894356545847,0.0,0.0,0.0,0.0,0.0,0.0,0.0,-0.401625,-0.137025,0.29767499999999997,-0.08338428,-0.0910518,0.00670908
1779586034771959066,A_-,-0.33211518937514484,0.011990411961201045,1.4733022347784934,-2.9139144526671332,-0.08681267699419795,-0.016667894356545847,0.0,0.0,0.0,0.0,0.0,0.0,0.0,-0.401625,-0.137025,0.29767499999999997,-0.08338428,-0.0910518,0.00670908
1779586034811950206,A_-,-0.33342175450025024,0.011990411961201045,1.4733022347784934,-2.9139144526671332,-0.08681267699419795,-0.016667894356545847,0.0,0.0,0.0,0.0,0.0,0.0,0.0,-0.42524999999999996,-0.22679999999999997,0.2646,-0.08530115999999999,-0.09392712,0.0047922
1779586034811950206,A_-,-0.3348104896249424,0.011990411961201045,1.4733022347784934,-2.9139144526671332,-0.08681267699419795,-0.016667894356545847,0.0,0.0,0.0,0.0,0.0,0.0,0.0,-0.42524999999999996,-0.22679999999999997,0.2646,-0.08530115999999999,-0.09392712,0.0047922
1779586034811950206,A_-,-0.3361318616252902,0.011990411961201045,1.4733022347784934,-2.9139144526671332,-0.08681267699419795,-0.016667894356545847,0.0,0.0,0.0,0.0,0.0,0.0,0.0,-0.42524999999999996,-0.22679999999999997,0.2646,-0.08530115999999999,-0.09392712,0.0047922
1779586034836950778,A_-,-0.33744783000020107,0.011990411961201045,1.4733022347784934,-2.9139144526671332,-0.08681267699419795,-0.016667894356545847,0.0,0.0,0.0,0.0,0.0,0.0,0.0,-0.40635,-0.1701,0.28822499999999995,-0.08817648,-0.0910518,0.00862596
1779586034836950778,A_-,-0.3388224542500211,0.011990411961201045,1.4733022347784934,-2.9139144526671332,-0.08681267699419795,-0.016667894356545847,0.0,0.0,0.0,0.0,0.0,0.0,0.0,-0.40635,-0.1701,0.28822499999999995,-0.08817648,-0.0910518,0.00862596
1779586034836950778,A_-,-0.34014243025012547,0.011990411961201045,1.4733022347784934,-2.9139144526671332,-0.08681267699419795,-0.016667894356545847,0.0,0.0,0.0,0.0,0.0,0.0,0.0,-0.40635,-0.1701,0.28822499999999995,-0.08817648,-0.0910518,0.00862596
1779586034876946926,A_-,-0.34145231912498275,0.011990411961201045,1.4733022347784934,-2.9139144526671332,-0.08681267699419795,-0.016667894356545847,0.0,0.0,0.0,0.033,0.0,0.0,0.0,-0.392175,-0.1701,0.146475,-0.08913491999999999,-0.0910518,0.00670908
1779586034876946926,A_-,-0.34288799487512733,0.011990411961201045,1.4733022347784934,-2.9139144526671332,-0.08681267699419795,-0.016667894356545847,0.0,0.0,0.0,0.033,0.0,0.0,0.0,-0.392175,-0.1701,0.146475,-0.08913491999999999,-0.0910518,0.00670908
1779586034876946926,A_-,-0.3442284695001945,0.011990411961201045,1.4733022347784934,-2.9139144526671332,-0.08681267699419795,-0.016667894356545847,0.0,0.0,0.0,0.033,0.0,0.0,0.0,-0.392175,-0.1701,0.146475,-0.08913491999999999,-0.0910518,0.00670908
1779586034901949405,A_-,-0.3455323427501753,0.011990411961201045,1.4733022347784934,-2.9139144526671332,-0.08681267699419795,-0.016667894356545847,0.0,0.0,0.0,0.054,0.0,0.0,0.0,-0.41579999999999995,-0.33075,-0.23152499999999998,-0.08913491999999999,-0.09201024,0.00766752
1779586034901949405,A_-,-0.34690782287498223,0.011990411961201045,1.4733022347784934,-2.9139144526671332,-0.08681267699419795,-0.016667894356545847,0.0,0.0,0.0,0.054,0.0,0.0,0.0,-0.41579999999999995,-0.33075,-0.23152499999999998,-0.08913491999999999,-0.09201024,0.00766752
1779586034901949405,A_-,-0.3482300108748859,0.011990411961201045,1.4733022347784934,-2.9139144526671332,-0.08681267699419795,-0.016667894356545847,0.0,0.0,0.0,0.054,0.0,0.0,0.0,-0.41579999999999995,-0.33075,-0.23152499999999998,-0.08913491999999999,-0.09201024,0.00766752
1779586034938094854,A_-,-0.34954373537493666,0.011990411961201045,1.4733022347784934,-2.9139144526671332,-0.08681267699419795,-0.016667894356545847,0.0,0.0,0.0,0.088,0.0,0.0,0.0,-0.411075,-0.22679999999999997,-0.240975,-0.08721804,-0.07092456,0.00287532
1779586034938094854,A_-,-0.3509688878752968,0.011990411961201045,1.4733022347784934,-2.9139144526671332,-0.08681267699419795,-0.016667894356545847,0.0,0.0,0.0,0.088,0.0,0.0,0.0,-0.411075,-0.22679999999999997,-0.240975,-0.08721804,-0.07092456,0.00287532
1779586034938094854,A_-,-0.35228656412527926,0.011990411961201045,1.4733022347784934,-2.9139144526671332,-0.08681267699419795,-0.016667894356545847,0.0,0.0,0.0,0.088,0.0,0.0,0.0,-0.411075,-0.22679999999999997,-0.240975,-0.08721804,-0.07092456,0.00287532
1779586034961958646,A_-,-0.3535973288749119,0.011990411961201045,1.4733022347784934,-2.9139144526671332,-0.08681267699419795,-0.016667894356545847,0.0,0.0,0.0,-0.125,0.0,0.0,0.0,-0.411075,-0.203175,1.488375,-0.08913491999999999,-0.08530115999999999,0.01341816
1779586034961958646,A_-,-0.3549778686251557,0.011990411961201045,1.4733022347784934,-2.9139144526671332,-0.08681267699419795,-0.016667894356545847,0.0,0.0,0.0,-0.125,0.0,0.0,0.0,-0.411075,-0.203175,1.488375,-0.08913491999999999,-0.08530115999999999,0.01341816
1779586034961958646,A_-,-0.3563024123750438,0.011990411961201045,1.4733022347784934,-2.9139144526671332,-0.08681267699419795,-0.016667894356545847,0.0,0.0,0.0,-0.125,0.0,0.0,0.0,-0.411075,-0.203175,1.488375,-0.08913491999999999,-0.08530115999999999,0.01341816
1779586034986976623,A_-,-0.3576089094999588,0.011990411961201045,1.4733022347784934,-2.9139144526671332,-0.08681267699419795,-0.016667894356545847,0.0,0.0,0.0,-0.132,0.0,0.0,0.0,-0.41579999999999995,-0.118125,0.9828,-0.08817648,-0.09871932,0.0095844
1779586034986976623,A_-,-0.35898383775020193,0.011990411961201045,1.4733022347784934,-2.9139144526671332,-0.08681267699419795,-0.016667894356545847,0.0,0.0,0.0,-0.132,0.0,0.0,0.0,-0.41579999999999995,-0.118125,0.9828,-0.08817648,-0.09871932,0.0095844
1779586034986976623,A_-,-0.36031066550003743,0.011990411961201045,1.4733022347784934,-2.9139144526671332,-0.08681267699419795,-0.016667894356545847,0.0,0.0,0.0,-0.132,0.0,0.0,0.0,-0.41579999999999995,-0.118125,0.9828,-0.08817648,-0.09871932,0.0095844
1779586035006960868,A_-,-0.3616198945001088,0.011990411961201045,1.4733022347784934,-2.9139144526671332,-0.08681267699419795,-0.016667894356545847,0.0,0.0,0.0,-0.008,0.0,0.0,0.0,-0.411075,-0.165375,-0.19845,-0.08530115999999999,-0.09009336,0.00670908
1779586035006960868,A_-,-0.363027836375295,0.011990411961201045,1.4733022347784934,-2.9139144526671332,-0.08681267699419795,-0.016667894356545847,0.0,0.0,0.0,-0.008,0.0,0.0,0.0,-0.411075,-0.165375,-0.19845,-0.08530115999999999,-0.09009336,0.00670908
1779586035006960868,A_-,-0.36434722862532,0.011990411961201045,1.4733022347784934,-2.9139144526671332,-0.08681267699419795,-0.016667894356545847,0.0,0.0,0.0,-0.008,0.0,0.0,0.0,-0.411075,-0.165375,-0.19845,-0.08530115999999999,-0.09009336,0.00670908
1779586035027032375,A_-,-0.3656573216248944,0.011990411961201045,1.4733022347784934,-2.9139144526671332,-0.08681267699419795,-0.016667894356545847,0.0,0.0,0.0,0.069,0.0,0.0,0.0,-0.392175,-0.19372499999999998,-0.184275,-0.08913491999999999,-0.10159463999999999,0.01054284
1779586035027032375,A_-,-0.3670304900001611,0.011990411961201045,1.4733022347784934,-2.9139144526671332,-0.08681267699419795,-0.016667894356545847,0.0,0.0,0.0,0.069,0.0,0.0,0.0,-0.392175,-0.19372499999999998,-0.184275,-0.08913491999999999,-0.10159463999999999,0.01054284
1779586035027032375,A_-,-0.368348998249985,0.011990411961201045,1.4733022347784934,-2.9139144526671332,-0.08681267699419795,-0.016667894356545847,0.0,0.0,0.0,0.069,0.0,0.0,0.0,-0.392175,-0.19372499999999998,-0.184275,-0.08913491999999999,-0.10159463999999999,0.01054284
1779586035061958551,A_-,-0.36964996787492055,0.011990411961201045,1.4733022347784934,-2.9139144526671332,-0.08681267699419795,-0.016667894356545847,0.0,0.0,0.0,0.037,0.0,0.0,0.0,-0.382725,-0.16065,0.3402,-0.08530115999999999,-0.09296868,-0.00383376
1779586035061958551,A_-,-0.3710106611251831,0.011990411961201045,1.4733022347784934,-2.9139144526671332,-0.08681267699419795,-0.016667894356545847,0.0,0.0,0.0,0.037,0.0,0.0,0.0,-0.382725,-0.16065,0.3402,-0.08530115999999999,-0.09296868,-0.00383376
1779586035061958551,A_-,-0.37235038400012854,0.011990411961201045,1.4733022347784934,-2.9139144526671332,-0.08681267699419795,-0.016667894356545847,0.0,0.0,0.0,0.037,0.0,0.0,0.0,-0.382725,-0.16065,0.3402,-0.08530115999999999,-0.09296868,-0.00383376
1779586035087434768,A_-,-0.37366225675032183,0.011990411961201045,1.4733022347784934,-2.9139144526671332,-0.08681267699419795,-0.016667894356545847,0.0,0.0,0.0,0.0,0.0,0.0,0.0,-0.41579999999999995,-0.1701,0.1701,-0.09201024,-0.08625959999999999,0.03162852
1779586035087434768,A_-,-0.37503074550022575,0.011990411961201045,1.4733022347784934,-2.9139144526671332,-0.08681267699419795,-0.016667894356545847,0.0,0.0,0.0,0.0,0.0,0.0,0.0,-0.41579999999999995,-0.1701,0.1701,-0.09201024,-0.08625959999999999,0.03162852
1779586035087434768,A_-,-0.37636608462526056,0.011990411961201045,1.4733022347784934,-2.9139144526671332,-0.08681267699419795,-0.016667894356545847,0.0,0.0,0.0,0.0,0.0,0.0,0.0,-0.41579999999999995,-0.1701,0.1701,-0.09201024,-0.08625959999999999,0.03162852
1779586035111966371,A_-,-0.3776902605000032,0.011990411961201045,1.4733022347784934,-2.9139144526671332,-0.08681267699419795,-0.016667894356545847,0.0,0.0,0.0,0.0,0.0,0.0,0.0,-0.40635,-0.155925,0.3024,-0.09296868,-0.08530115999999999,0.014376599999999998
1779586035111966371,A_-,-0.3791084496251642,0.011990411961201045,1.4733022347784934,-2.9139144526671332,-0.08681267699419795,-0.016667894356545847,0.0,0.0,0.0,0.0,0.0,0.0,0.0,-0.40635,-0.155925,0.3024,-0.09296868,-0.08530115999999999,0.014376599999999998
1779586035111966371,A_-,-0.38046729100005905,0.011990411961201045,1.4733022347784934,-2.9139144526671332,-0.08681267699419795,-0.016667894356545847,0.0,0.0,0.0,0.0,0.0,0.0,0.0,-0.40635,-0.155925,0.3024,-0.09296868,-0.08530115999999999,0.014376599999999998
1779586035131979227,A_-,-0.3818042460002289,0.011990411961201045,1.4733022347784934,-2.9139144526671332,-0.08681267699419795,-0.016667894356545847,0.0,0.0,0.0,0.0,0.0,0.0,0.0,-0.4205249999999999,-0.19845,0.29295,-0.09009336,-0.08721804,0.00383376
1779586035131979227,A_-,-0.38327562325002873,0.011990411961201045,1.4733022347784934,-2.9139144526671332,-0.08681267699419795,-0.016667894356545847,0.0,0.0,0.0,0.0,0.0,0.0,0.0,-0.4205249999999999,-0.19845,0.29295,-0.09009336,-0.08721804,0.00383376
1779586035131979227,A_-,-0.3846644264999668,0.011990411961201045,1.4733022347784934,-2.9139144526671332,-0.08681267699419795,-0.016667894356545847,0.0,0.0,0.0,0.0,0.0,0.0,0.0,-0.4205249999999999,-0.19845,0.29295,-0.09009336,-0.08721804,0.00383376
1779586035211963653,A_-,-0.3864512808750078,0.011990411961201045,1.4733022347784934,-2.9139144526671332,-0.08681267699419795,-0.016667894356545847,0.0,0.0,0.0,0.0,0.0,0.0,0.0,-0.40635,-0.16065,0.316575,-0.09009336,-0.08913491999999999,0.00670908
1779586035211963653,A_-,-0.3879609873752088,0.011990411961201045,1.4733022347784934,-2.9139144526671332,-0.08681267699419795,-0.016667894356545847,0.0,0.0,0.0,0.0,0.0,0.0,0.0,-0.40635,-0.16065,0.316575,-0.09009336,-0.08913491999999999,0.00670908
1779586035211963653,A_-,-0.38931461712491,0.011990411961201045,1.4733022347784934,-2.9139144526671332,-0.08681267699419795,-0.016667894356545847,0.0,0.0,0.0,0.0,0.0,0.0,0.0,-0.40635,-0.16065,0.316575,-0.09009336,-0.08913491999999999,0.00670908
1779586035261964797,A_-,-0.3906454845000553,0.011990411961201045,1.4733022347784934,-2.9139144526671332,-0.08681267699419795,-0.016667894356545847,0.0,0.0,0.0,0.0,0.0,0.0,0.0,-0.411075,-0.184275,0.29295,-0.08338428,-0.09009336,0.00766752
1779586035261964797,A_-,-0.39213502849997894,0.011990411961201045,1.4733022347784934,-2.9139144526671332,-0.08681267699419795,-0.016667894356545847,0.0,0.0,0.0,0.0,0.0,0.0,0.0,-0.411075,-0.184275,0.29295,-0.08338428,-0.09009336,0.00766752
1779586035261964797,A_-,-0.3934792430000016,0.011990411961201045,1.4733022347784934,-2.9139144526671332,-0.08681267699419795,-0.016667894356545847,0.0,0.0,0.0,0.0,0.0,0.0,0.0,-0.411075,-0.184275,0.29295,-0.08338428,-0.09009336,0.00766752
1779586035287036895,A_-,-0.39480357487491347,0.011990411961201045,1.4733022347784934,-2.9139144526671332,-0.08681267699419795,-0.016667894356545847,0.0,0.0,0.0,0.0,0.0,0.0,0.0,-0.42524999999999996,-0.19372499999999998,0.31185,-0.08625959999999999,-0.09296868,0.01629348
1779586035287036895,A_-,-0.3962814516248727,0.011990411961201045,1.4733022347784934,-2.9139144526671332,-0.08681267699419795,-0.016667894356545847,0.0,0.0,0.0,0.0,0.0,0.0,0.0,-0.42524999999999996,-0.19372499999999998,0.31185,-0.08625959999999999,-0.09296868,0.01629348
1779586035287036895,A_-,-0.3976196025000718,0.011990411961201045,1.4733022347784934,-2.9139144526671332,-0.08681267699419795,-0.016667894356545847,0.0,0.0,0.0,0.0,0.0,0.0,0.0,-0.42524999999999996,-0.19372499999999998,0.31185,-0.08625959999999999,-0.09296868,0.01629348
1779586035332497596,A_-,-0.3989553976252864,0.011990411961201045,1.4733022347784934,-2.9139144526671332,-0.08681267699419795,-0.016667894356545847,0.0,0.0,0.0,0.0,0.0,0.0,0.0,-0.401625,-0.165375,0.3024,-0.08721804,-0.08146740000000001,0.00766752
1779586035332497596,A_-,-0.4003417769999942,0.011990411961201045,1.4733022347784934,-2.9139144526671332,-0.08681267699419795,-0.016667894356545847,0.0,0.0,0.0,0.0,0.0,0.0,0.0,-0.401625,-0.165375,0.3024,-0.08721804,-0.08146740000000001,0.00766752
1779586035332497596,A_-,-0.40168238375008514,0.011990411961201045,1.4733022347784934,-2.9139144526671332,-0.08681267699419795,-0.016667894356545847,0.0,0.0,0.0,0.0,0.0,0.0,0.0,-0.401625,-0.165375,0.3024,-0.08721804,-0.08146740000000001,0.00766752
1779586035366984605,A_-,-0.4030037318752875,0.011990411961201045,1.4733022347784934,-2.9139144526671332,-0.08681267699419795,-0.016667894356545847,0.0,0.0,0.0,0.0,0.0,0.0,0.0,-0.44887499999999997,-0.189,0.31185,-0.09009336,-0.10830371999999999,0.00383376
1779586035366984605,A_-,-0.4043901912500587,0.011990411961201045,1.4733022347784934,-2.9139144526671332,-0.08681267699419795,-0.016667894356545847,0.0,0.0,0.0,0.0,0.0,0.0,0.0,-0.44887499999999997,-0.189,0.31185,-0.09009336,-0.10830371999999999,0.00383376
1779586035366984605,A_-,-0.40573512975015547,0.011990411961201045,1.4733022347784934,-2.9139144526671332,-0.08681267699419795,-0.016667894356545847,0.0,0.0,0.0,0.0,0.0,0.0,0.0,-0.44887499999999997,-0.189,0.31185,-0.09009336,-0.10830371999999999,0.00383376
1779586035401979684,A_-,-0.4070699128751585,0.011990411961201045,1.4733022347784934,-2.9139144526671332,-0.08681267699419795,-0.016667894356545847,0.0,0.0,0.0,0.0,0.0,0.0,0.0,-0.41579999999999995,-0.1512,0.316575,-0.09392712,-0.08721804,0.01150128
1779586035401979684,A_-,-0.40846389575017383,0.011990411961201045,1.4733022347784934,-2.9139144526671332,-0.08681267699419795,-0.016667894356545847,0.0,0.0,0.0,0.0,0.0,0.0,0.0,-0.41579999999999995,-0.1512,0.316575,-0.09392712,-0.08721804,0.01150128
1779586035401979684,A_-,-0.40979155537525,0.011990411961201045,1.4733022347784934,-2.9139144526671332,-0.08681267699419795,-0.016667894356545847,0.0,0.0,0.0,0.0,0.0,0.0,0.0,-0.41579999999999995,-0.1512,0.316575,-0.09392712,-0.08721804,0.01150128
1779586035431998729,A_-,-0.4111045761251262,0.011990411961201045,1.4733022347784934,-2.9139144526671332,-0.08681267699419795,-0.016667894356545847,0.0,0.0,0.0,0.0,0.0,0.0,0.0,-0.40635,-0.17482499999999998,0.316575,-0.0910518,-0.08721804,0.01054284
1779586035431998729,A_-,-0.4125069383749178,0.011990411961201045,1.4733022347784934,-2.9139144526671332,-0.08681267699419795,-0.016667894356545847,0.0,0.0,0.0,0.0,0.0,0.0,0.0,-0.40635,-0.17482499999999998,0.316575,-0.0910518,-0.08721804,0.01054284
1779586035431998729,A_-,-0.4138468651249241,0.011990411961201045,1.4733022347784934,-2.9139144526671332,-0.08681267699419795,-0.016667894356545847,0.0,0.0,0.0,0.0,0.0,0.0,0.0,-0.40635,-0.17482499999999998,0.316575,-0.0910518,-0.08721804,0.01054284
1779586035462798118,A_-,-0.4151643936252185,0.011990411961201045,1.4733022347784934,-2.9139144526671332,-0.08681267699419795,-0.016667894356545847,0.0,0.0,0.0,0.0,0.0,0.0,0.0,-0.3969,-0.155925,0.3024,-0.08242584,-0.08817648,0.01054284
1779586035462798118,A_-,-0.41654857312505555,0.011990411961201045,1.4733022347784934,-2.9139144526671332,-0.08681267699419795,-0.016667894356545847,0.0,0.0,0.0,0.0,0.0,0.0,0.0,-0.3969,-0.155925,0.3024,-0.08242584,-0.08817648,0.01054284
1779586035462798118,A_-,-0.41786490562526524,0.011990411961201045,1.4733022347784934,-2.9139144526671332,-0.08681267699419795,-0.016667894356545847,0.0,0.0,0.0,0.0,0.0,0.0,0.0,-0.3969,-0.155925,0.3024,-0.08242584,-0.08817648,0.01054284
1779586035496992826,A_-,-0.41916585524995753,0.011990411961201045,1.4733022347784934,-2.9139144526671332,-0.08681267699419795,-0.016667894356545847,0.0,0.0,0.0,0.0,0.0,0.0,0.0,-0.4347,-0.184275,0.31185,-0.09296868,-0.09201024,0.01629348
1779586035496992826,A_-,-0.4205481429999054,0.011990411961201045,1.4733022347784934,-2.9139144526671332,-0.08681267699419795,-0.016667894356545847,0.0,0.0,0.0,0.0,0.0,0.0,0.0,-0.4347,-0.184275,0.31185,-0.09296868,-0.09201024,0.01629348
1779586035496992826,A_-,-0.4219648641251297,0.011990411961201045,1.4733022347784934,-2.9139144526671332,-0.08681267699419795,-0.016667894356545847,0.0,0.0,0.0,0.0,0.0,0.0,0.0,-0.4347,-0.184275,0.31185,-0.09296868,-0.09201024,0.01629348
1779586035531994342,A_-,-0.4233277292501043,0.011990411961201045,1.4733022347784934,-2.9139144526671332,-0.08681267699419795,-0.016667894356545847,0.0,0.0,0.0,0.0,0.0,0.0,0.0,-0.42524999999999996,-0.1512,0.316575,-0.08530115999999999,-0.08434272,0.01054284
1779586035531994342,A_-,-0.42477158049996433,0.011990411961201045,1.4733022347784934,-2.9139144526671332,-0.08681267699419795,-0.016667894356545847,0.0,0.0,0.0,0.0,0.0,0.0,0.0,-0.42524999999999996,-0.1512,0.316575,-0.08530115999999999,-0.08434272,0.01054284
1779586035531994342,A_-,-0.4261135031251797,0.011990411961201045,1.4733022347784934,-2.9139144526671332,-0.08681267699419795,-0.016667894356545847,0.0,0.0,0.0,0.0,0.0,0.0,0.0,-0.42524999999999996,-0.1512,0.316575,-0.08530115999999999,-0.08434272,0.01054284
1779586035561987876,A_-,-0.4274370951252422,0.011990411961201045,1.4733022347784934,-2.9139144526671332,-0.08681267699419795,-0.016667894356545847,0.0,0.0,0.0,0.0,0.0,0.0,0.0,-0.392175,-0.1701,0.326025,-0.09009336,-0.08913491999999999,0.01150128
1779586035561987876,A_-,-0.42888774587527223,0.011990411961201045,1.4733022347784934,-2.9139144526671332,-0.08681267699419795,-0.016667894356545847,0.0,0.0,0.0,0.0,0.0,0.0,0.0,-0.392175,-0.1701,0.326025,-0.09009336,-0.08913491999999999,0.01150128
1779586035561987876,A_-,-0.43029343987518587,0.011990411961201045,1.4733022347784934,-2.9139144526671332,-0.08681267699419795,-0.016667894356545847,0.0,0.0,0.0,0.0,0.0,0.0,0.0,-0.392175,-0.1701,0.326025,-0.09009336,-0.08913491999999999,0.01150128
1779586035592886686,A_-,-0.43164639375027036,0.011990411961201045,1.4733022347784934,-2.9139144526671332,-0.08681267699419795,-0.016667894356545847,0.0,0.0,0.0,0.0,0.0,0.0,0.0,-0.40635,-0.189,0.307125,-0.08338428,-0.09392712,0.00862596
1779586035592886686,A_-,-0.43311696299997493,0.011990411961201045,1.4733022347784934,-2.9139144526671332,-0.08681267699419795,-0.016667894356545847,0.0,0.0,0.0,0.0,0.0,0.0,0.0,-0.40635,-0.189,0.307125,-0.08338428,-0.09392712,0.00862596
1779586035592886686,A_-,-0.43447381662508633,0.011990411961201045,1.4733022347784934,-2.9139144526671332,-0.08681267699419795,-0.016667894356545847,0.0,0.0,0.0,0.0,0.0,0.0,0.0,-0.40635,-0.189,0.307125,-0.08338428,-0.09392712,0.00862596
1779586035628051519,A_-,-0.43580297212520236,0.011990411961201045,1.4733022347784934,-2.9139144526671332,-0.08681267699419795,-0.016667894356545847,0.0,0.0,0.0,0.0,0.0,0.0,0.0,-0.41579999999999995,-0.1512,0.29767499999999997,-0.08913491999999999,-0.09776088000000001,0.0047922
1779586035628051519,A_-,-0.43722728874990935,0.011990411961201045,1.4733022347784934,-2.9139144526671332,-0.08681267699419795,-0.016667894356545847,0.0,0.0,0.0,0.0,0.0,0.0,0.0,-0.41579999999999995,-0.1512,0.29767499999999997,-0.08913491999999999,-0.09776088000000001,0.0047922
1779586035628051519,A_-,-0.4385735671248767,0.011990411961201045,1.4733022347784934,-2.9139144526671332,-0.08681267699419795,-0.016667894356545847,0.0,0.0,0.0,0.0,0.0,0.0,0.0,-0.41579999999999995,-0.1512,0.29767499999999997,-0.08913491999999999,-0.09776088000000001,0.0047922
1779586035662012577,A_-,-0.4399245691251963,0.011990411961201045,1.4733022347784934,-2.9139144526671332,-0.08681267699419795,-0.016667894356545847,0.0,0.0,0.0,0.0,0.0,0.0,0.0,-0.4347,-0.1512,0.307125,-0.09296868,-0.09488556,0.01150128
1779586035662012577,A_-,-0.44146519337527934,0.011990411961201045,1.4733022347784934,-2.9139144526671332,-0.08681267699419795,-0.016667894356545847,0.0,0.0,0.0,0.0,0.0,0.0,0.0,-0.4347,-0.1512,0.307125,-0.09296868,-0.09488556,0.01150128
1779586035662012577,A_-,-0.4428535726251539,0.011990411961201045,1.4733022347784934,-2.9139144526671332,-0.08681267699419795,-0.016667894356545847,0.0,0.0,0.0,0.0,0.0,0.0,0.0,-0.4347,-0.1512,0.307125,-0.09296868,-0.09488556,0.01150128
1779586035696997404,A_-,-0.4441844719999608,0.011990411961201045,1.4733022347784934,-2.9139144526671332,-0.08681267699419795,-0.016667894356545847,0.0,0.0,0.0,0.031,0.0,0.0,0.0,-0.378,-0.17955,0.19372499999999998,-0.08913491999999999,-0.08625959999999999,0.01245972
1779586035696997404,A_-,-0.44574593874995116,0.011990411961201045,1.4733022347784934,-2.9139144526671332,-0.08681267699419795,-0.016667894356545847,0.0,0.0,0.0,0.031,0.0,0.0,0.0,-0.378,-0.17955,0.19372499999999998,-0.08913491999999999,-0.08625959999999999,0.01245972
1779586035696997404,A_-,-0.44710220037495674,0.011990411961201045,1.4733022347784934,-2.9139144526671332,-0.08681267699419795,-0.016667894356545847,0.0,0.0,0.0,0.031,0.0,0.0,0.0,-0.378,-0.17955,0.19372499999999998,-0.08913491999999999,-0.08625959999999999,0.01245972
1779586035732004642,A_-,-0.4484431350001614,0.011990411961201045,1.4733022347784934,-2.9139144526671332,-0.08681267699419795,-0.016667894356545847,0.0,0.0,0.0,-0.037,0.0,0.0,0.0,-0.401625,-0.17482499999999998,0.5859,-0.0910518,-0.09967776,0.00575064
1779586035732004642,A_-,-0.44994889774989133,0.011990411961201045,1.4733022347784934,-2.9139144526671332,-0.08681267699419795,-0.016667894356545847,0.0,0.0,0.0,-0.037,0.0,0.0,0.0,-0.401625,-0.17482499999999998,0.5859,-0.0910518,-0.09967776,0.00575064
1779586035732004642,A_-,-0.451310218999879,0.011990411961201045,1.4733022347784934,-2.9139144526671332,-0.08681267699419795,-0.016667894356545847,0.0,0.0,0.0,-0.037,0.0,0.0,0.0,-0.401625,-0.17482499999999998,0.5859,-0.0910518,-0.09967776,0.00575064
1779586035767011880,A_-,-0.4526398984999105,0.011990411961201045,1.4733022347784934,-2.9139144526671332,-0.08681267699419795,-0.016667894356545847,0.0,0.0,0.0,0.037,0.0,0.0,0.0,-0.4205249999999999,-0.19845,0.23625,-0.0910518,-0.09296868,0.01150128
1779586035767011880,A_-,-0.45409746475024804,0.011990411961201045,1.4733022347784934,-2.9139144526671332,-0.08681267699419795,-0.016667894356545847,0.0,0.0,0.0,0.037,0.0,0.0,0.0,-0.4205249999999999,-0.19845,0.23625,-0.0910518,-0.09296868,0.01150128
1779586035767011880,A_-,-0.4554591660003098,0.011990411961201045,1.4733022347784934,-2.9139144526671332,-0.08681267699419795,-0.016667894356545847,0.0,0.0,0.0,0.037,0.0,0.0,0.0,-0.4205249999999999,-0.19845,0.23625,-0.0910518,-0.09296868,0.01150128
1779586035787008523,A_-,-0.4567799501251102,0.011990411961201045,1.4733022347784934,-2.9139144526671332,-0.08681267699419795,-0.016667894356545847,0.0,0.0,0.0,-0.035,0.0,0.0,0.0,-0.37327499999999997,-0.155925,0.38744999999999996,-0.07955052,-0.09680244,0.0095844
1779586035787008523,A_-,-0.45840392437503397,0.011990411961201045,1.4733022347784934,-2.9139144526671332,-0.08681267699419795,-0.016667894356545847,0.0,0.0,0.0,-0.035,0.0,0.0,0.0,-0.37327499999999997,-0.155925,0.38744999999999996,-0.07955052,-0.09680244,0.0095844
1779586035787008523,A_-,-0.4597759687499092,0.011990411961201045,1.4733022347784934,-2.9139144526671332,-0.08681267699419795,-0.016667894356545847,0.0,0.0,0.0,-0.035,0.0,0.0,0.0,-0.37327499999999997,-0.155925,0.38744999999999996,-0.07955052,-0.09680244,0.0095844
1779586035832005500,A_-,-0.4611018086252443,0.011990411961201045,1.4733022347784934,-2.9139144526671332,-0.08681267699419795,-0.016667894356545847,0.0,0.0,0.0,0.0,0.0,0.0,0.0,-0.401625,-0.184275,0.29295,-0.08913491999999999,-0.1006362,0.0
1779586035832005500,A_-,-0.46269661287487907,0.011990411961201045,1.4733022347784934,-2.9139144526671332,-0.08681267699419795,-0.016667894356545847,0.0,0.0,0.0,0.0,0.0,0.0,0.0,-0.401625,-0.184275,0.29295,-0.08913491999999999,-0.1006362,0.0
1779586035832005500,A_-,-0.46406064987513673,0.011990411961201045,1.4733022347784934,-2.9139144526671332,-0.08681267699419795,-0.016667894356545847,0.0,0.0,0.0,0.0,0.0,0.0,0.0,-0.401625,-0.184275,0.29295,-0.08913491999999999,-0.1006362,0.0
1779586035867035627,A_-,-0.465408768125144,0.011990411961201045,1.4733022347784934,-2.9139144526671332,-0.08681267699419795,-0.016667894356545847,0.0,0.0,0.0,0.0,0.0,0.0,0.0,-0.4347,-0.19372499999999998,0.307125,-0.09009336,-0.09296868,0.01150128
1779586035867035627,A_-,-0.4668825091252984,0.011990411961201045,1.4733022347784934,-2.9139144526671332,-0.08681267699419795,-0.016667894356545847,0.0,0.0,0.0,0.0,0.0,0.0,0.0,-0.4347,-0.19372499999999998,0.307125,-0.09009336,-0.09296868,0.01150128
1779586035867035627,A_-,-0.46827712399999655,0.011990411961201045,1.4733022347784934,-2.9139144526671332,-0.08681267699419795,-0.016667894356545847,0.0,0.0,0.0,0.0,0.0,0.0,0.0,-0.4347,-0.19372499999999998,0.307125,-0.09009336,-0.09296868,0.01150128
1779586035902011156,A_-,-0.4696138070003144,0.011990411961201045,1.4733022347784934,-2.9139144526671332,-0.08681267699419795,-0.016667894356545847,0.0,0.0,0.0,0.0,0.0,0.0,0.0,-0.42997499999999994,-0.21735,0.307125,-0.08913491999999999,-0.09392712,0.0047922
1779586035902011156,A_-,-0.47133784587504124,0.011990411961201045,1.4733022347784934,-2.9139144526671332,-0.08681267699419795,-0.016667894356545847,0.0,0.0,0.0,0.0,0.0,0.0,0.0,-0.42997499999999994,-0.21735,0.307125,-0.08913491999999999,-0.09392712,0.0047922
1779586035902011156,A_-,-0.47270429875015907,0.011990411961201045,1.4733022347784934,-2.9139144526671332,-0.08681267699419795,-0.016667894356545847,0.0,0.0,0.0,0.0,0.0,0.0,0.0,-0.42997499999999994,-0.21735,0.307125,-0.08913491999999999,-0.09392712,0.0047922
1779586035937031507,A_-,-0.4740320023752247,0.011990411961201045,1.4733022347784934,-2.9139144526671332,-0.08681267699419795,-0.016667894356545847,0.0,0.0,0.0,0.0,0.0,0.0,0.0,-0.411075,-0.189,0.28822499999999995,-0.09009336,-0.08721804,0.03067008
1779586035937031507,A_-,-0.475517946625132,0.011990411961201045,1.4733022347784934,-2.9139144526671332,-0.08681267699419795,-0.016667894356545847,0.0,0.0,0.0,0.0,0.0,0.0,0.0,-0.411075,-0.189,0.28822499999999995,-0.09009336,-0.08721804,0.03067008
1779586035937031507,A_-,-0.4768755001250611,0.011990411961201045,1.4733022347784934,-2.9139144526671332,-0.08681267699419795,-0.016667894356545847,0.0,0.0,0.0,0.0,0.0,0.0,0.0,-0.411075,-0.189,0.28822499999999995,-0.09009336,-0.08721804,0.03067008
1779586035962029218,A_-,-0.47820716349997383,0.011990411961201045,1.4733022347784934,-2.9139144526671332,-0.08681267699419795,-0.016667894356545847,0.0,0.0,0.0,0.0,0.0,0.0,0.0,-0.401625,-0.189,0.25987499999999997,-0.09009336,-0.07284144,0.00383376
1779586035962029218,A_-,-0.47964589512503153,0.011990411961201045,1.4733022347784934,-2.9139144526671332,-0.08681267699419795,-0.016667894356545847,0.0,0.0,0.0,0.0,0.0,0.0,0.0,-0.401625,-0.189,0.25987499999999997,-0.09009336,-0.07284144,0.00383376
1779586035962029218,A_-,-0.4809871617499084,0.011990411961201045,1.4733022347784934,-2.9139144526671332,-0.08681267699419795,-0.016667894356545847,0.0,0.0,0.0,0.0,0.0,0.0,0.0,-0.401625,-0.189,0.25987499999999997,-0.09009336,-0.07284144,0.00383376
1779586036002028465,A_-,-0.4823150775000613,0.011990411961201045,1.4733022347784934,-2.9139144526671332,-0.08681267699419795,-0.016667894356545847,0.0,0.0,0.0,0.0,0.0,0.0,0.0,-0.4347,-0.184275,0.2835,-0.09201024,-0.09680244,0.00575064
1779586036002028465,A_-,-0.4837859948752339,0.011990411961201045,1.4733022347784934,-2.9139144526671332,-0.08681267699419795,-0.016667894356545847,0.0,0.0,0.0,0.0,0.0,0.0,0.0,-0.4347,-0.184275,0.2835,-0.09201024,-0.09680244,0.00575064
1779586036002028465,A_-,-0.48514106462516793,0.011990411961201045,1.4733022347784934,-2.9139144526671332,-0.08681267699419795,-0.016667894356545847,0.0,0.0,0.0,0.0,0.0,0.0,0.0,-0.4347,-0.184275,0.2835,-0.09201024,-0.09680244,0.00575064
1779586036037019968,A_-,-0.4864766398750362,0.011990411961201045,1.4733022347784934,-2.9139144526671332,-0.08681267699419795,-0.016667894356545847,0.0,0.0,0.0,0.0,0.0,0.0,0.0,-0.40635,-0.203175,0.2835,-0.08530115999999999,-0.09009336,0.00383376
1779586036037019968,A_-,-0.48794740125003955,0.011990411961201045,1.4733022347784934,-2.9139144526671332,-0.08681267699419795,-0.016667894356545847,0.0,0.0,0.0,0.0,0.0,0.0,0.0,-0.40635,-0.203175,0.2835,-0.08530115999999999,-0.09009336,0.00383376
1779586036037019968,A_-,-0.4893269452500135,0.011990411961201045,1.4733022347784934,-2.9139144526671332,-0.08681267699419795,-0.016667894356545847,0.0,0.0,0.0,0.0,0.0,0.0,0.0,-0.40635,-0.203175,0.2835,-0.08530115999999999,-0.09009336,0.00383376
1779586036068073272,A_-,-0.49073625112487207,0.011990411961201045,1.4733022347784934,-2.9139144526671332,-0.08681267699419795,-0.016667894356545847,0.0,0.0,0.0,0.0,0.0,0.0,0.0,-0.42524999999999996,-0.184275,0.3024,-0.08913491999999999,-0.09392712,0.0095844
1779586036068073272,A_-,-0.4923740164999799,0.011990411961201045,1.4733022347784934,-2.9139144526671332,-0.08681267699419795,-0.016667894356545847,0.0,0.0,0.0,0.0,0.0,0.0,0.0,-0.42524999999999996,-0.184275,0.3024,-0.08913491999999999,-0.09392712,0.0095844
1779586036068073272,A_-,-0.4938276911252615,0.011990411961201045,1.4733022347784934,-2.9139144526671332,-0.08681267699419795,-0.016667894356545847,0.0,0.0,0.0,0.0,0.0,0.0,0.0,-0.42524999999999996,-0.184275,0.3024,-0.08913491999999999,-0.09392712,0.0095844
1779586036097064971,A_-,-0.49519989162490674,0.011990411961201045,1.4733022347784934,-2.9139144526671332,-0.08681267699419795,-0.016667894356545847,0.0,0.0,0.0,0.0,0.0,0.0,0.0,-0.42524999999999996,-0.184275,0.28822499999999995,-0.09009336,-0.09392712,0.01245972
1779586036097064971,A_-,-0.4967024587499509,0.011990411961201045,1.4733022347784934,-2.9139144526671332,-0.08681267699419795,-0.016667894356545847,0.0,0.0,0.0,0.0,0.0,0.0,0.0,-0.42524999999999996,-0.184275,0.28822499999999995,-0.09009336,-0.09392712,0.01245972
1779586036097064971,A_-,-0.49809932162497716,0.011990411961201045,1.4733022347784934,-2.9139144526671332,-0.08681267699419795,-0.016667894356545847,0.0,0.0,0.0,0.0,0.0,0.0,0.0,-0.42524999999999996,-0.184275,0.28822499999999995,-0.09009336,-0.09392712,0.01245972
1779586036142027616,A_-,-0.4995058636250178,0.011990411961201045,1.4733022347784934,-2.9139144526671332,-0.08681267699419795,-0.016667894356545847,0.0,0.0,0.0,0.0,0.0,0.0,0.0,-0.37327499999999997,-0.184275,0.269325,-0.08434272,-0.08913491999999999,0.01245972
1779586036142027616,A_-,-0.5010708822501329,0.011990411961201045,1.4733022347784934,-2.9139144526671332,-0.08681267699419795,-0.016667894356545847,0.0,0.0,0.0,0.0,0.0,0.0,0.0,-0.37327499999999997,-0.184275,0.269325,-0.08434272,-0.08913491999999999,0.01245972
1779586036142027616,A_-,-0.5024399869998888,0.011990411961201045,1.4733022347784934,-2.9139144526671332,-0.08681267699419795,-0.016667894356545847,0.0,0.0,0.0,0.0,0.0,0.0,0.0,-0.37327499999999997,-0.184275,0.269325,-0.08434272,-0.08913491999999999,0.01245972
1779586036177032470,A_-,-0.5038025682501939,0.011990411961201045,1.4733022347784934,-2.9139144526671332,-0.08681267699419795,-0.016667894356545847,0.0,0.0,0.0,0.0,0.0,0.0,0.0,-0.378,-0.155925,0.28822499999999995,-0.09201024,-0.09680244,0.00287532
1779586036177032470,A_-,-0.5053079191252436,0.011990411961201045,1.4733022347784934,-2.9139144526671332,-0.08681267699419795,-0.016667894356545847,0.0,0.0,0.0,0.0,0.0,0.0,0.0,-0.378,-0.155925,0.28822499999999995,-0.09201024,-0.09680244,0.00287532
1779586036177032470,A_-,-0.5066741681253006,0.011990411961201045,1.4733022347784934,-2.9139144526671332,-0.08681267699419795,-0.016667894356545847,0.0,0.0,0.0,0.0,0.0,0.0,0.0,-0.378,-0.155925,0.28822499999999995,-0.09201024,-0.09680244,0.00287532
1779586036202056407,A_-,-0.5080208865001623,0.011990411961201045,1.4733022347784934,-2.9139144526671332,-0.08681267699419795,-0.016667894356545847,0.0,0.0,0.0,0.0,0.0,0.0,0.0,-0.42524999999999996,-0.19372499999999998,0.25042499999999995,-0.08242584,-0.08530115999999999,0.00862596
1779586036202056407,A_-,-0.5094056542502585,0.011990411961201045,1.4733022347784934,-2.9139144526671332,-0.08681267699419795,-0.016667894356545847,0.0,0.0,0.0,0.0,0.0,0.0,0.0,-0.42524999999999996,-0.19372499999999998,0.25042499999999995,-0.08242584,-0.08530115999999999,0.00862596
1779586036202056407,A_-,-0.5107483528749981,0.011990411961201045,1.4733022347784934,-2.9139144526671332,-0.08681267699419795,-0.016667894356545847,0.0,0.0,0.0,0.0,0.0,0.0,0.0,-0.42524999999999996,-0.19372499999999998,0.25042499999999995,-0.08242584,-0.08530115999999999,0.00862596
1779586036242042064,A_-,-0.5120804763751039,0.011990411961201045,1.4733022347784934,-2.9139144526671332,-0.08681267699419795,-0.016667894356545847,0.0,0.0,0.0,0.0,0.0,0.0,0.0,-0.401625,-0.189,0.2835,-0.09201024,-0.09201024,0.01054284
1779586036242042064,A_-,-0.5135489060003238,0.011990411961201045,1.4733022347784934,-2.9139144526671332,-0.08681267699419795,-0.016667894356545847,0.0,0.0,0.0,0.0,0.0,0.0,0.0,-0.401625,-0.189,0.2835,-0.09201024,-0.09201024,0.01054284
1779586036242042064,A_-,-0.5149122711250129,0.011990411961201045,1.4733022347784934,-2.9139144526671332,-0.08681267699419795,-0.016667894356545847,0.0,0.0,0.0,0.0,0.0,0.0,0.0,-0.401625,-0.189,0.2835,-0.09201024,-0.09201024,0.01054284
1779586036277053594,A_-,-0.5162798000001203,0.011990411961201045,1.4733022347784934,-2.9139144526671332,-0.08681267699419795,-0.016667894356545847,0.0,0.0,0.0,0.0,0.0,0.0,0.0,-0.43942499999999995,-0.16065,0.307125,-0.08338428,-0.10159463999999999,0.00766752
1779586036277053594,A_-,-0.5177928343750864,0.011990411961201045,1.4733022347784934,-2.9139144526671332,-0.08681267699419795,-0.016667894356545847,0.0,0.0,0.0,0.0,0.0,0.0,0.0,-0.43942499999999995,-0.16065,0.307125,-0.08338428,-0.10159463999999999,0.00766752
1779586036277053594,A_-,-0.5191371089999848,0.011990411961201045,1.4733022347784934,-2.9139144526671332,-0.08681267699419795,-0.016667894356545847,0.0,0.0,0.0,0.0,0.0,0.0,0.0,-0.43942499999999995,-0.16065,0.307125,-0.08338428,-0.10159463999999999,0.00766752
1779586036307038068,A_-,-0.5204815074998805,0.011990411961201045,1.4733022347784934,-2.9139144526671332,-0.08681267699419795,-0.016667894356545847,0.0,0.0,0.0,0.0,0.0,0.0,0.0,-0.4205249999999999,-0.19372499999999998,0.2835,-0.08913491999999999,-0.09009336,0.01245972
1779586036307038068,A_-,-0.5219045923749945,0.011990411961201045,1.4733022347784934,-2.9139144526671332,-0.08681267699419795,-0.016667894356545847,0.0,0.0,0.0,0.0,0.0,0.0,0.0,-0.4205249999999999,-0.19372499999999998,0.2835,-0.08913491999999999,-0.09009336,0.01245972
1779586036307038068,A_-,-0.5232960956250281,0.011990411961201045,1.4733022347784934,-2.9139144526671332,-0.08681267699419795,-0.016667894356545847,0.0,0.0,0.0,0.0,0.0,0.0,0.0,-0.4205249999999999,-0.19372499999999998,0.2835,-0.08913491999999999,-0.09009336,0.01245972
1779586036342081308,A_-,-0.5246391822502119,0.011990411961201045,1.4733022347784934,-2.9139144526671332,-0.08681267699419795,-0.016667894356545847,0.0,0.0,0.0,0.0,0.0,0.0,0.0,-0.382725,-0.1701,0.28822499999999995,-0.09296868,-0.09967776,0.01341816
1779586036342081308,A_-,-0.5262030088751999,0.011990411961201045,1.4733022347784934,-2.9139144526671332,-0.08681267699419795,-0.016667894356545847,0.0,0.0,0.0,0.0,0.0,0.0,0.0,-0.382725,-0.1701,0.28822499999999995,-0.09296868,-0.09967776,0.01341816
1779586036342081308,A_-,-0.5275761973753106,0.011990411961201045,1.4733022347784934,-2.9139144526671332,-0.08681267699419795,-0.016667894356545847,0.0,0.0,0.0,0.0,0.0,0.0,0.0,-0.382725,-0.1701,0.28822499999999995,-0.09296868,-0.09967776,0.01341816
1779586036377056121,A_-,-0.5289211758749843,0.011990411961201045,1.4733022347784934,-2.9139144526671332,-0.08681267699419795,-0.016667894356545847,0.0,0.0,0.0,0.0,0.0,0.0,0.0,-0.3969,-0.184275,0.29295,-0.09392712,-0.09392712,0.00670908
1779586036377056121,A_-,-0.5303529201250967,0.011990411961201045,1.4733022347784934,-2.9139144526671332,-0.08681267699419795,-0.016667894356545847,0.0,0.0,0.0,0.0,0.0,0.0,0.0,-0.3969,-0.184275,0.29295,-0.09392712,-0.09392712,0.00670908
1779586036377056121,A_-,-0.531703270250091,0.011990411961201045,1.4733022347784934,-2.9139144526671332,-0.08681267699419795,-0.016667894356545847,0.0,0.0,0.0,0.0,0.0,0.0,0.0,-0.3969,-0.184275,0.29295,-0.09392712,-0.09392712,0.00670908
1779586036402075290,A_-,-0.5330457290001505,0.011990411961201045,1.4733022347784934,-2.9139144526671332,-0.08681267699419795,-0.016667894356545847,0.0,0.0,0.0,0.0,0.0,0.0,0.0,-0.3969,-0.165375,0.2646,-0.08146740000000001,-0.09392712,0.0047922
1779586036402075290,A_-,-0.5344796571253028,0.011990411961201045,1.4733022347784934,-2.9139144526671332,-0.08681267699419795,-0.016667894356545847,0.0,0.0,0.0,0.0,0.0,0.0,0.0,-0.3969,-0.165375,0.2646,-0.08146740000000001,-0.09392712,0.0047922
1779586036402075290,A_-,-0.5358612170002743,0.011990411961201045,1.4733022347784934,-2.9139144526671332,-0.08681267699419795,-0.016667894356545847,0.0,0.0,0.0,0.0,0.0,0.0,0.0,-0.3969,-0.165375,0.2646,-0.08146740000000001,-0.09392712,0.0047922
