deepaktalwardt/rage-cage-arm-hackstorm/ros2/ws/sysid/runs/sysid_20260524_012654/raw/joint1_phaseA_pos.csv
t_ns,phase,tau_cmd,q1,q2,q3,q4,q5,q6,qd1,qd2,qd3,qd4,qd5,qd6,tau1,tau2,tau3,tau4,tau5,tau6
1779586022956262111,A_+,6.400023266905919e-08,0.0,1.4733022347784934,-2.9139144526671332,-0.08681267699419795,-0.016667894356545847,0.0,0.0,0.0,0.0,0.0,0.0,0.0,-0.19845,-0.0378,0.20789999999999997,-0.06996611999999999,-0.08050896,-0.00287532
1779586022956262111,A_+,0.001332958250259253,0.0,1.4733022347784934,-2.9139144526671332,-0.08681267699419795,-0.016667894356545847,0.0,0.0,0.0,0.0,0.0,0.0,0.0,-0.19845,-0.0378,0.20789999999999997,-0.06996611999999999,-0.08050896,-0.00287532
1779586026366471767,A_+,0.0026529453753028065,0.0,1.4733022347784934,-2.9139144526671332,-0.08681267699419795,-0.016667894356545847,0.0,0.0,0.0,0.0,0.0,0.0,0.0,-0.3591,-0.1512,0.29767499999999997,-0.0910518,-0.08913491999999999,0.02012724
1779586026366471767,A_+,0.004045595249863254,0.0,1.4733022347784934,-2.9139144526671332,-0.08681267699419795,-0.016667894356545847,0.0,0.0,0.0,0.0,0.0,0.0,0.0,-0.3591,-0.1512,0.29767499999999997,-0.0910518,-0.08913491999999999,0.02012724
1779586026366471767,A_+,0.005373897874960676,0.0,1.4733022347784934,-2.9139144526671332,-0.08681267699419795,-0.016667894356545847,0.0,0.0,0.0,0.0,0.0,0.0,0.0,-0.3591,-0.1512,0.29767499999999997,-0.0910518,-0.08913491999999999,0.02012724
1779586026386522054,A_+,0.006681094000214216,0.0,1.4733022347784934,-2.9139144526671332,-0.08681267699419795,-0.016667894356545847,0.0,0.0,0.0,0.0,0.0,0.0,0.0,-0.36382499999999995,-0.14175,0.29767499999999997,-0.0910518,-0.08146740000000001,0.0095844
1779586026386522054,A_+,0.008054837250256242,0.0,1.4733022347784934,-2.9139144526671332,-0.08681267699419795,-0.016667894356545847,0.0,0.0,0.0,0.0,0.0,0.0,0.0,-0.36382499999999995,-0.14175,0.29767499999999997,-0.0910518,-0.08146740000000001,0.0095844
1779586026386522054,A_+,0.009380200000123295,0.0,1.4733022347784934,-2.9139144526671332,-0.08681267699419795,-0.016667894356545847,0.0,0.0,0.0,0.0,0.0,0.0,0.0,-0.36382499999999995,-0.14175,0.29767499999999997,-0.0910518,-0.08146740000000001,0.0095844
1779586026441393613,A_+,0.010692175875192333,0.0,1.4733022347784934,-2.9139144526671332,-0.08681267699419795,-0.016667894356545847,0.0,0.0,0.0,0.0,0.0,0.0,0.0,0.0945,-0.165375,0.307125,-0.0910518,-0.08625959999999999,0.02204412
1779586026441393613,A_+,0.012074526499873173,0.0,1.4733022347784934,-2.9139144526671332,-0.08681267699419795,-0.016667894356545847,0.0,0.0,0.0,0.0,0.0,0.0,0.0,0.0945,-0.165375,0.307125,-0.0910518,-0.08625959999999999,0.02204412
1779586026441393613,A_+,0.013407968624960631,0.0,1.4733022347784934,-2.9139144526671332,-0.08681267699419795,-0.016667894356545847,0.0,0.0,0.0,0.0,0.0,0.0,0.0,0.0945,-0.165375,0.307125,-0.0910518,-0.08625959999999999,0.02204412
1779586026476421356,A_+,0.014712161000261403,0.0,1.4733022347784934,-2.9139144526671332,-0.08681267699419795,-0.016667894356545847,0.0,0.0,0.0,0.0,0.0,0.0,0.0,0.099225,-0.137025,0.307125,-0.08817648,-0.0910518,0.014376599999999998
1779586026476421356,A_+,0.016086348250155424,0.0,1.4733022347784934,-2.9139144526671332,-0.08681267699419795,-0.016667894356545847,0.0,0.0,0.0,0.0,0.0,0.0,0.0,0.099225,-0.137025,0.307125,-0.08817648,-0.0910518,0.014376599999999998
1779586026476421356,A_+,0.017403067624854884,0.0,1.4733022347784934,-2.9139144526671332,-0.08681267699419795,-0.016667894356545847,0.0,0.0,0.0,0.0,0.0,0.0,0.0,0.099225,-0.137025,0.307125,-0.08817648,-0.0910518,0.014376599999999998
1779586026516409397,A_+,0.018697944749874296,0.0,1.4733022347784934,-2.9139144526671332,-0.08681267699419795,-0.016667894356545847,0.0,0.0,0.0,0.0,0.0,0.0,0.0,0.08505,-0.17955,0.29767499999999997,-0.09201024,-0.10926216,0.00862596
1779586026516409397,A_+,0.020073423875146545,0.0,1.4733022347784934,-2.9139144526671332,-0.08681267699419795,-0.016667894356545847,0.0,0.0,0.0,0.0,0.0,0.0,0.0,0.08505,-0.17955,0.29767499999999997,-0.09201024,-0.10926216,0.00862596
1779586026516409397,A_+,0.021400586500021745,0.0,1.4733022347784934,-2.9139144526671332,-0.08681267699419795,-0.016667894356545847,0.0,0.0,0.0,0.0,0.0,0.0,0.0,0.08505,-0.17955,0.29767499999999997,-0.09201024,-0.10926216,0.00862596
1779586026556505203,A_+,0.02270695874994999,0.0,1.4733022347784934,-2.9139144526671332,-0.08681267699419795,-0.016667894356545847,0.0,0.0,0.0,0.0,0.0,0.0,0.0,0.099225,-0.1701,0.307125,-0.08721804,-0.08050896,0.00670908
1779586026556505203,A_+,0.024074418375221285,0.0,1.4733022347784934,-2.9139144526671332,-0.08681267699419795,-0.016667894356545847,0.0,0.0,0.0,0.0,0.0,0.0,0.0,0.099225,-0.1701,0.307125,-0.08721804,-0.08050896,0.00670908
1779586026556505203,A_+,0.02539175387528303,0.0,1.4733022347784934,-2.9139144526671332,-0.08681267699419795,-0.016667894356545847,0.0,0.0,0.0,0.0,0.0,0.0,0.0,0.099225,-0.1701,0.307125,-0.08721804,-0.08050896,0.00670908
1779586026581403017,A_+,0.026700085875290824,0.0,1.4733022347784934,-2.9139144526671332,-0.08681267699419795,-0.016667894356545847,0.0,0.0,0.0,0.0,0.0,0.0,0.0,0.0945,-0.1701,0.307125,-0.09201024,-0.10542839999999999,0.0
1779586026581403017,A_+,0.028189668625145714,0.0,1.4733022347784934,-2.9139144526671332,-0.08681267699419795,-0.016667894356545847,0.0,0.0,0.0,0.0,0.0,0.0,0.0,0.0945,-0.1701,0.307125,-0.09201024,-0.10542839999999999,0.0
1779586026581403017,A_+,0.029528158499942947,0.0,1.4733022347784934,-2.9139144526671332,-0.08681267699419795,-0.016667894356545847,0.0,0.0,0.0,0.0,0.0,0.0,0.0,0.0945,-0.1701,0.307125,-0.09201024,-0.10542839999999999,0.0
1779586026621412992,A_+,0.030833398750019114,0.0,1.4733022347784934,-2.9139144526671332,-0.08681267699419795,-0.016667894356545847,0.0,0.0,0.0,0.0,0.0,0.0,0.0,0.0756,-0.137025,0.3024,-0.0910518,-0.09009336,0.00670908
1779586026621412992,A_+,0.0322131496250222,0.0,1.4733022347784934,-2.9139144526671332,-0.08681267699419795,-0.016667894356545847,0.0,0.0,0.0,0.0,0.0,0.0,0.0,0.0756,-0.137025,0.3024,-0.0910518,-0.09009336,0.00670908
1779586026621412992,A_+,0.033529997000186995,0.0,1.4733022347784934,-2.9139144526671332,-0.08681267699419795,-0.016667894356545847,0.0,0.0,0.0,0.0,0.0,0.0,0.0,0.0756,-0.137025,0.3024,-0.0910518,-0.09009336,0.00670908
1779586026646416664,A_+,0.03483502925018911,0.0,1.4733022347784934,-2.9139144526671332,-0.08681267699419795,-0.016667894356545847,0.0,0.0,0.0,0.0,0.0,0.0,0.0,0.08505,-0.137025,0.326025,-0.08721804,-0.08913491999999999,0.00862596
1779586026646416664,A_+,0.03623247475024982,0.0,1.4733022347784934,-2.9139144526671332,-0.08681267699419795,-0.016667894356545847,0.0,0.0,0.0,0.0,0.0,0.0,0.0,0.08505,-0.137025,0.326025,-0.08721804,-0.08913491999999999,0.00862596
1779586026646416664,A_+,0.03754937024996252,0.0,1.4733022347784934,-2.9139144526671332,-0.08681267699419795,-0.016667894356545847,0.0,0.0,0.0,0.0,0.0,0.0,0.0,0.08505,-0.137025,0.326025,-0.08721804,-0.08913491999999999,0.00862596
1779586026686421155,A_+,0.038857574249959725,0.0,1.4733022347784934,-2.9139144526671332,-0.08681267699419795,-0.016667894356545847,0.0,0.0,0.0,0.0,0.0,0.0,0.0,0.08505,-0.1701,0.278775,-0.0910518,-0.09296868,0.01533504
1779586026686421155,A_+,0.0402354372499758,0.0,1.4733022347784934,-2.9139144526671332,-0.08681267699419795,-0.016667894356545847,0.0,0.0,0.0,0.0,0.0,0.0,0.0,0.08505,-0.1701,0.278775,-0.0910518,-0.09296868,0.01533504
1779586026686421155,A_+,0.041551872750005714,0.0,1.4733022347784934,-2.9139144526671332,-0.08681267699419795,-0.016667894356545847,0.0,0.0,0.0,0.0,0.0,0.0,0.0,0.08505,-0.1701,0.278775,-0.0910518,-0.09296868,0.01533504
1779586026706411123,A_+,0.042864788375027274,0.0,1.4733022347784934,-2.9139144526671332,-0.08681267699419795,-0.016667894356545847,0.0,0.0,0.0,0.0,0.0,0.0,0.0,0.089775,-0.1701,0.29295,-0.08817648,-0.08817648,0.00766752
1779586026706411123,A_+,0.04423717574991315,0.0,1.4733022347784934,-2.9139144526671332,-0.08681267699419795,-0.016667894356545847,0.0,0.0,0.0,0.0,0.0,0.0,0.0,0.089775,-0.1701,0.29295,-0.08817648,-0.08817648,0.00766752
1779586026706411123,A_+,0.04556032275013422,0.0,1.4733022347784934,-2.9139144526671332,-0.08681267699419795,-0.016667894356545847,0.0,0.0,0.0,0.0,0.0,0.0,0.0,0.089775,-0.1701,0.29295,-0.08817648,-0.08817648,0.00766752
1779586026746965169,A_+,0.04687293050028529,0.0,1.4733022347784934,-2.9139144526671332,-0.08681267699419795,-0.016667894356545847,0.0,0.0,0.0,0.0,0.0,0.0,0.0,0.10394999999999999,-0.1701,0.31185,-0.08530115999999999,-0.09009336,0.00670908
1779586026746965169,A_+,0.04827529562498967,0.0,1.4733022347784934,-2.9139144526671332,-0.08681267699419795,-0.016667894356545847,0.0,0.0,0.0,0.0,0.0,0.0,0.0,0.10394999999999999,-0.1701,0.31185,-0.08530115999999999,-0.09009336,0.00670908
1779586026746965169,A_+,0.04959787862526355,0.0,1.4733022347784934,-2.9139144526671332,-0.08681267699419795,-0.016667894356545847,0.0,0.0,0.0,0.0,0.0,0.0,0.0,0.10394999999999999,-0.1701,0.31185,-0.08530115999999999,-0.09009336,0.00670908
1779586026781426668,A_+,0.050919457750296715,0.0,1.4733022347784934,-2.9139144526671332,-0.08681267699419795,-0.016667894356545847,0.0,0.0,0.0,0.0,0.0,0.0,0.0,0.089775,-0.1701,0.31185,-0.09296868,-0.08817648,0.00862596
1779586026781426668,A_+,0.05229242499990505,0.0,1.4733022347784934,-2.9139144526671332,-0.08681267699419795,-0.016667894356545847,0.0,0.0,0.0,0.0,0.0,0.0,0.0,0.089775,-0.1701,0.31185,-0.09296868,-0.08817648,0.00862596
1779586026781426668,A_+,0.05361831975005771,0.0,1.4733022347784934,-2.9139144526671332,-0.08681267699419795,-0.016667894356545847,0.0,0.0,0.0,0.0,0.0,0.0,0.0,0.089775,-0.1701,0.31185,-0.09296868,-0.08817648,0.00862596
1779586026811420440,A_+,0.054936899125095806,0.0,1.4733022347784934,-2.9139144526671332,-0.08681267699419795,-0.016667894356545847,0.0,0.0,0.0,0.0,0.0,0.0,0.0,0.0945,-0.17482499999999998,0.31185,-0.09009336,-0.08338428,0.0047922
1779586026811420440,A_+,0.0563041988752957,0.0,1.4733022347784934,-2.9139144526671332,-0.08681267699419795,-0.016667894356545847,0.0,0.0,0.0,0.0,0.0,0.0,0.0,0.0945,-0.17482499999999998,0.31185,-0.09009336,-0.08338428,0.0047922
1779586026811420440,A_+,0.05761907837495528,0.0,1.4733022347784934,-2.9139144526671332,-0.08681267699419795,-0.016667894356545847,0.0,0.0,0.0,0.0,0.0,0.0,0.0,0.0945,-0.17482499999999998,0.31185,-0.09009336,-0.08338428,0.0047922
1779586026846429109,A_+,0.05892555862510562,0.0,1.4733022347784934,-2.9139144526671332,-0.08681267699419795,-0.016667894356545847,0.0,0.0,0.0,0.0,0.0,0.0,0.0,0.08505,-0.155925,0.31185,-0.08721804,-0.0910518,0.01245972
1779586026846429109,A_+,0.06029936187496787,0.0,1.4733022347784934,-2.9139144526671332,-0.08681267699419795,-0.016667894356545847,0.0,0.0,0.0,0.0,0.0,0.0,0.0,0.08505,-0.155925,0.31185,-0.08721804,-0.0910518,0.01245972
1779586026846429109,A_+,0.06162423675004902,0.0,1.4733022347784934,-2.9139144526671332,-0.08681267699419795,-0.016667894356545847,0.0,0.0,0.0,0.0,0.0,0.0,0.0,0.08505,-0.155925,0.31185,-0.08721804,-0.0910518,0.01245972
1779586026871468305,A_+,0.06293865625002582,0.0,1.4733022347784934,-2.9139144526671332,-0.08681267699419795,-0.016667894356545847,0.0,0.0,0.0,0.0,0.0,0.0,0.0,0.099225,-0.189,0.31185,-0.0910518,-0.11117904,0.00191688
1779586026871468305,A_+,0.06432413075026489,0.0,1.4733022347784934,-2.9139144526671332,-0.08681267699419795,-0.016667894356545847,0.0,0.0,0.0,0.0,0.0,0.0,0.0,0.099225,-0.189,0.31185,-0.0910518,-0.11117904,0.00191688
1779586026871468305,A_+,0.06564494187523451,0.0,1.4733022347784934,-2.9139144526671332,-0.08681267699419795,-0.016667894356545847,0.0,0.0,0.0,0.0,0.0,0.0,0.0,0.099225,-0.189,0.31185,-0.0910518,-0.11117904,0.00191688
1779586026911437273,A_+,0.06694659837512518,0.0,1.4733022347784934,-2.9139144526671332,-0.08681267699419795,-0.016667894356545847,0.0,0.0,0.0,0.0,0.0,0.0,0.0,0.10394999999999999,-0.1701,0.307125,-0.09009336,-0.08913491999999999,0.00766752
1779586026911437273,A_+,0.06831153024995729,0.0,1.4733022347784934,-2.9139144526671332,-0.08681267699419795,-0.016667894356545847,0.0,0.0,0.0,0.0,0.0,0.0,0.0,0.10394999999999999,-0.1701,0.307125,-0.09009336,-0.08913491999999999,0.00766752
1779586026911437273,A_+,0.06963136550029958,0.0,1.4733022347784934,-2.9139144526671332,-0.08681267699419795,-0.016667894356545847,0.0,0.0,0.0,0.0,0.0,0.0,0.0,0.10394999999999999,-0.1701,0.307125,-0.09009336,-0.08913491999999999,0.00766752
1779586026941427230,A_+,0.07093733374995281,0.0,1.4733022347784934,-2.9139144526671332,-0.08681267699419795,-0.016667894356545847,0.0,0.0,0.0,0.0,0.0,0.0,0.0,0.08505,-0.1701,0.3213,-0.09201024,-0.08913491999999999,0.00095844
1779586026941427230,A_+,0.07230521337487517,0.0,1.4733022347784934,-2.9139144526671332,-0.08681267699419795,-0.016667894356545847,0.0,0.0,0.0,0.0,0.0,0.0,0.0,0.08505,-0.1701,0.3213,-0.09201024,-0.08913491999999999,0.00095844
1779586026941427230,A_+,0.07361690925017683,0.0,1.4733022347784934,-2.9139144526671332,-0.08681267699419795,-0.016667894356545847,0.0,0.0,0.0,0.0,0.0,0.0,0.0,0.08505,-0.1701,0.3213,-0.09201024,-0.08913491999999999,0.00095844
1779586026971440315,A_+,0.07492074562514972,0.0,1.4733022347784934,-2.9139144526671332,-0.08681267699419795,-0.016667894356545847,0.0,0.0,0.0,0.0,0.0,0.0,0.0,0.10394999999999999,-0.165375,0.307125,-0.08817648,-0.09392712,0.00383376
1779586026971440315,A_+,0.07630146037490704,0.0,1.4733022347784934,-2.9139144526671332,-0.08681267699419795,-0.016667894356545847,0.0,0.0,0.0,0.0,0.0,0.0,0.0,0.10394999999999999,-0.165375,0.307125,-0.08817648,-0.09392712,0.00383376
1779586026971440315,A_+,0.07765694087493102,0.0,1.4733022347784934,-2.9139144526671332,-0.08681267699419795,-0.016667894356545847,0.0,0.0,0.0,0.0,0.0,0.0,0.0,0.10394999999999999,-0.165375,0.307125,-0.08817648,-0.09392712,0.00383376
1779586027006427049,A_+,0.0789669328751188,0.0,1.4733022347784934,-2.9139144526671332,-0.08681267699419795,-0.016667894356545847,0.0,0.0,0.0,0.0,0.0,0.0,0.0,0.0945,-0.146475,0.307125,-0.08817648,-0.09296868,0.00575064
1779586027006427049,A_+,0.08033288487513346,0.0,1.4733022347784934,-2.9139144526671332,-0.08681267699419795,-0.016667894356545847,0.0,0.0,0.0,0.0,0.0,0.0,0.0,0.0945,-0.146475,0.307125,-0.08817648,-0.09296868,0.00575064
1779586027006427049,A_+,0.08164862049989097,0.0,1.4733022347784934,-2.9139144526671332,-0.08681267699419795,-0.016667894356545847,0.0,0.0,0.0,0.0,0.0,0.0,0.0,0.0945,-0.146475,0.307125,-0.08817648,-0.09296868,0.00575064
1779586027031433820,A_+,0.08295358087525528,0.0,1.4733022347784934,-2.9139144526671332,-0.08681267699419795,-0.016667894356545847,0.0,0.0,0.0,0.0,0.0,0.0,0.0,0.089775,-0.146475,0.3402,-0.08530115999999999,-0.08530115999999999,0.00766752
1779586027031433820,A_+,0.08433623162500226,0.0,1.4733022347784934,-2.9139144526671332,-0.08681267699419795,-0.016667894356545847,0.0,0.0,0.0,0.0,0.0,0.0,0.0,0.089775,-0.146475,0.3402,-0.08530115999999999,-0.08530115999999999,0.00766752
1779586027031433820,A_+,0.08565609900006166,0.0,1.4733022347784934,-2.9139144526671332,-0.08681267699419795,-0.016667894356545847,0.0,0.0,0.0,0.0,0.0,0.0,0.0,0.089775,-0.146475,0.3402,-0.08530115999999999,-0.08530115999999999,0.00766752
1779586027061458826,A_+,0.08696925074991668,0.0,1.4733022347784934,-2.9139144526671332,-0.08681267699419795,-0.016667894356545847,0.0,0.0,0.0,0.0,0.0,0.0,0.0,0.11339999999999999,-0.155925,0.307125,-0.08817648,-0.09776088000000001,0.00862596
1779586027061458826,A_+,0.08835577724994437,0.0,1.4733022347784934,-2.9139144526671332,-0.08681267699419795,-0.016667894356545847,0.0,0.0,0.0,0.0,0.0,0.0,0.0,0.11339999999999999,-0.155925,0.307125,-0.08817648,-0.09776088000000001,0.00862596
1779586027061458826,A_+,0.08968614774994421,0.0,1.4733022347784934,-2.9139144526671332,-0.08681267699419795,-0.016667894356545847,0.0,0.0,0.0,0.0,0.0,0.0,0.0,0.11339999999999999,-0.155925,0.307125,-0.08817648,-0.09776088000000001,0.00862596
1779586027101446151,A_+,0.09099465187500755,0.0,1.4733022347784934,-2.9139144526671332,-0.08681267699419795,-0.016667894356545847,0.0,0.0,0.0,0.0,0.0,0.0,0.0,0.070875,-0.14175,0.3024,-0.08817648,-0.09201024,0.01150128
1779586027101446151,A_+,0.09237457487506617,0.0,1.4733022347784934,-2.9139144526671332,-0.08681267699419795,-0.016667894356545847,0.0,0.0,0.0,0.0,0.0,0.0,0.0,0.070875,-0.14175,0.3024,-0.08817648,-0.09201024,0.01150128
1779586027101446151,A_+,0.09369687800017346,0.0,1.4733022347784934,-2.9139144526671332,-0.08681267699419795,-0.016667894356545847,0.0,0.0,0.0,0.0,0.0,0.0,0.0,0.070875,-0.14175,0.3024,-0.08817648,-0.09201024,0.01150128
1779586027126451969,A_+,0.09502470874986102,0.0,1.4733022347784934,-2.9139144526671332,-0.08681267699419795,-0.016667894356545847,0.0,0.0,0.0,0.0,0.0,0.0,0.0,0.099225,-0.16065,0.307125,-0.09009336,-0.09967776,0.00862596
1779586027126451969,A_+,0.09639982399994551,0.0,1.4733022347784934,-2.9139144526671332,-0.08681267699419795,-0.016667894356545847,0.0,0.0,0.0,0.0,0.0,0.0,0.0,0.099225,-0.16065,0.307125,-0.09009336,-0.09967776,0.00862596
1779586027126451969,A_+,0.0977252748753017,0.0,1.4733022347784934,-2.9139144526671332,-0.08681267699419795,-0.016667894356545847,0.0,0.0,0.0,0.0,0.0,0.0,0.0,0.099225,-0.16065,0.307125,-0.09009336,-0.09967776,0.00862596
1779586027162657022,A_+,0.09903080725007385,0.0,1.4733022347784934,-2.9139144526671332,-0.08681267699419795,-0.016667894356545847,0.0,0.0,0.0,0.0,0.0,0.0,0.0,0.099225,-0.203175,0.307125,-0.09009336,-0.08913491999999999,0.00670908
1779586027162657022,A_+,0.10040430662502331,0.0,1.4733022347784934,-2.9139144526671332,-0.08681267699419795,-0.016667894356545847,0.0,0.0,0.0,0.0,0.0,0.0,0.0,0.099225,-0.203175,0.307125,-0.09009336,-0.08913491999999999,0.00670908
1779586027162657022,A_+,0.1017312694998509,0.0,1.4733022347784934,-2.9139144526671332,-0.08681267699419795,-0.016667894356545847,0.0,0.0,0.0,0.0,0.0,0.0,0.0,0.099225,-0.203175,0.307125,-0.09009336,-0.08913491999999999,0.00670908
1779586027181453704,A_+,0.1030368058750355,0.0,1.4733022347784934,-2.9139144526671332,-0.08681267699419795,-0.016667894356545847,0.0,0.0,0.0,0.0,0.0,0.0,0.0,0.0756,-0.146475,0.307125,-0.0910518,-0.09296868,0.00670908
1779586027181453704,A_+,0.10441833662525823,0.0,1.4733022347784934,-2.9139144526671332,-0.08681267699419795,-0.016667894356545847,0.0,0.0,0.0,0.0,0.0,0.0,0.0,0.0756,-0.146475,0.307125,-0.0910518,-0.09296868,0.00670908
1779586027181453704,A_+,0.10574117575015407,0.0,1.4733022347784934,-2.9139144526671332,-0.08681267699419795,-0.016667894356545847,0.0,0.0,0.0,0.0,0.0,0.0,0.0,0.0756,-0.146475,0.307125,-0.0910518,-0.09296868,0.00670908
1779586027206441164,A_+,0.10704916800023057,0.0,1.4733022347784934,-2.9139144526671332,-0.08681267699419795,-0.016667894356545847,0.0,0.0,0.0,0.0,0.0,0.0,0.0,0.11339999999999999,-0.17482499999999998,0.29767499999999997,-0.0910518,-0.08817648,0.00575064
1779586027206441164,A_+,0.10842588712512224,0.0,1.4733022347784934,-2.9139144526671332,-0.08681267699419795,-0.016667894356545847,0.0,0.0,0.0,0.0,0.0,0.0,0.0,0.11339999999999999,-0.17482499999999998,0.29767499999999997,-0.0910518,-0.08817648,0.00575064
1779586027206441164,A_+,0.1097465583752637,0.0,1.4733022347784934,-2.9139144526671332,-0.08681267699419795,-0.016667894356545847,0.0,0.0,0.0,0.0,0.0,0.0,0.0,0.11339999999999999,-0.17482499999999998,0.29767499999999997,-0.0910518,-0.08817648,0.00575064
1779586027241446971,A_+,0.11105806224986736,0.0,1.4733022347784934,-2.9139144526671332,-0.08681267699419795,-0.016667894356545847,0.0,0.0,0.0,0.0,0.0,0.0,0.0,0.089775,-0.189,0.307125,-0.08817648,-0.09201024,-0.00287532
1779586027241446971,A_+,0.11242959787523432,0.0,1.4733022347784934,-2.9139144526671332,-0.08681267699419795,-0.016667894356545847,0.0,0.0,0.0,0.0,0.0,0.0,0.0,0.089775,-0.189,0.307125,-0.08817648,-0.09201024,-0.00287532
1779586027241446971,A_+,0.11374406150025607,0.0,1.4733022347784934,-2.9139144526671332,-0.08681267699419795,-0.016667894356545847,0.0,0.0,0.0,0.0,0.0,0.0,0.0,0.089775,-0.189,0.307125,-0.08817648,-0.09201024,-0.00287532
1779586027266452550,A_+,0.11504777012487466,0.0,1.4733022347784934,-2.9139144526671332,-0.08681267699419795,-0.016667894356545847,0.0,0.0,0.0,0.0,0.0,0.0,0.0,0.080325,-0.184275,0.316575,-0.08338428,-0.08913491999999999,0.02204412
1779586027266452550,A_+,0.11640493462527957,0.0,1.4733022347784934,-2.9139144526671332,-0.08681267699419795,-0.016667894356545847,0.0,0.0,0.0,0.0,0.0,0.0,0.0,0.080325,-0.184275,0.316575,-0.08338428,-0.08913491999999999,0.02204412
1779586027266452550,A_+,0.11771366675020545,0.0,1.4733022347784934,-2.9139144526671332,-0.08681267699419795,-0.016667894356545847,0.0,0.0,0.0,0.0,0.0,0.0,0.0,0.080325,-0.184275,0.316575,-0.08338428,-0.08913491999999999,0.02204412
1779586027286454439,A_+,0.11901875125022343,0.0,1.4733022347784934,-2.9139144526671332,-0.08681267699419795,-0.016667894356545847,0.0,0.0,0.0,0.0,0.0,0.0,0.0,0.06615,-0.17955,0.31185,-0.08913491999999999,-0.14184912,0.0047922
1779586027286454439,A_+,0.12041934462513382,0.0,1.4733022347784934,-2.9139144526671332,-0.08681267699419795,-0.016667894356545847,0.0,0.0,0.0,0.0,0.0,0.0,0.0,0.06615,-0.17955,0.31185,-0.08913491999999999,-0.14184912,0.0047922
1779586027286454439,A_+,0.12173831600011908,0.0,1.4733022347784934,-2.9139144526671332,-0.08681267699419795,-0.016667894356545847,0.0,0.0,0.0,0.0,0.0,0.0,0.0,0.06615,-0.17955,0.31185,-0.08913491999999999,-0.14184912,0.0047922
1779586027306462049,A_+,0.12304526424986761,0.0,1.4733022347784934,-2.9139144526671332,-0.08681267699419795,-0.016667894356545847,0.0,0.0,0.0,0.0,0.0,0.0,0.0,0.0945,-0.137025,0.29295,-0.08817648,-0.08530115999999999,0.01245972
1779586027306462049,A_+,0.12441797175006286,0.0,1.4733022347784934,-2.9139144526671332,-0.08681267699419795,-0.016667894356545847,0.0,0.0,0.0,0.0,0.0,0.0,0.0,0.0945,-0.137025,0.29295,-0.08817648,-0.08530115999999999,0.01245972
1779586027306462049,A_+,0.12573785499989754,0.0,1.4733022347784934,-2.9139144526671332,-0.08681267699419795,-0.016667894356545847,0.0,0.0,0.0,0.0,0.0,0.0,0.0,0.0945,-0.137025,0.29295,-0.08817648,-0.08530115999999999,0.01245972
1779586027316452503,A_+,0.12705774237520018,0.0,1.4733022347784934,-2.9139144526671332,-0.08681267699419795,-0.016667894356545847,0.0,0.0,0.0,0.0,0.0,0.0,0.0,0.089775,-0.1512,0.29767499999999997,-0.08721804,-0.08146740000000001,0.01341816
1779586027316452503,A_+,0.1284365813748991,0.0,1.4733022347784934,-2.9139144526671332,-0.08681267699419795,-0.016667894356545847,0.0,0.0,0.0,0.0,0.0,0.0,0.0,0.089775,-0.1512,0.29767499999999997,-0.08721804,-0.08146740000000001,0.01341816
1779586027316452503,A_+,0.12976317612492494,0.0,1.4733022347784934,-2.9139144526671332,-0.08681267699419795,-0.016667894356545847,0.0,0.0,0.0,0.0,0.0,0.0,0.0,0.089775,-0.1512,0.29767499999999997,-0.08721804,-0.08146740000000001,0.01341816
1779586027341456413,A_+,0.13107330425009422,0.0,1.4733022347784934,-2.9139144526671332,-0.08681267699419795,-0.016667894356545847,0.0,0.0,0.0,0.0,0.0,0.0,0.0,0.06615,-0.155925,0.28822499999999995,-0.08817648,-0.09201024,-0.00862596
1779586027341456413,A_+,0.13245650687485977,0.0,1.4733022347784934,-2.9139144526671332,-0.08681267699419795,-0.016667894356545847,0.0,0.0,0.0,0.0,0.0,0.0,0.0,0.06615,-0.155925,0.28822499999999995,-0.08817648,-0.09201024,-0.00862596
1779586027341456413,A_+,0.13378686550004204,0.0,1.4733022347784934,-2.9139144526671332,-0.08681267699419795,-0.016667894356545847,0.0,0.0,0.0,0.0,0.0,0.0,0.0,0.06615,-0.155925,0.28822499999999995,-0.08817648,-0.09201024,-0.00862596
1779586027392192125,A_+,0.13509337374989627,0.0,1.4733022347784934,-2.9139144526671332,-0.08681267699419795,-0.016667894356545847,0.0,0.0,0.0,0.0,0.0,0.0,0.0,0.0756,-0.155925,0.31185,-0.07188299999999999,-0.0910518,0.00766752
1779586027392192125,A_+,0.13646879299994907,0.0,1.4733022347784934,-2.9139144526671332,-0.08681267699419795,-0.016667894356545847,0.0,0.0,0.0,0.0,0.0,0.0,0.0,0.0756,-0.155925,0.31185,-0.07188299999999999,-0.0910518,0.00766752
1779586027392192125,A_+,0.13779943950021334,0.0,1.4733022347784934,-2.9139144526671332,-0.08681267699419795,-0.016667894356545847,0.0,0.0,0.0,0.0,0.0,0.0,0.0,0.0756,-0.155925,0.31185,-0.07188299999999999,-0.0910518,0.00766752
1779586027431461572,A_+,0.13912272662491887,0.0,1.4733022347784934,-2.9139144526671332,-0.08681267699419795,-0.016667894356545847,0.0,0.0,0.0,0.0,0.0,0.0,0.0,0.31185,-0.165375,0.3024,-0.08913491999999999,-0.08434272,0.00191688
1779586027431461572,A_+,0.14050339750019702,0.0,1.4733022347784934,-2.9139144526671332,-0.08681267699419795,-0.016667894356545847,0.0,0.0,0.0,0.0,0.0,0.0,0.0,0.31185,-0.165375,0.3024,-0.08913491999999999,-0.08434272,0.00191688
1779586027431461572,A_+,0.14184659912507414,0.0,1.4733022347784934,-2.9139144526671332,-0.08681267699419795,-0.016667894356545847,0.0,0.0,0.0,0.0,0.0,0.0,0.0,0.31185,-0.165375,0.3024,-0.08913491999999999,-0.08434272,0.00191688
1779586027521466493,A_+,0.14316025487505613,0.0,1.4733022347784934,-2.9139144526671332,-0.08681267699419795,-0.016667894356545847,0.0,0.0,0.0,0.0,0.0,0.0,0.0,0.34964999999999996,-0.17955,0.307125,-0.08721804,-0.08817648,0.01725192
1779586027521466493,A_+,0.14453386225022768,0.0,1.4733022347784934,-2.9139144526671332,-0.08681267699419795,-0.016667894356545847,0.0,0.0,0.0,0.0,0.0,0.0,0.0,0.34964999999999996,-0.17955,0.307125,-0.08721804,-0.08817648,0.01725192
1779586027521466493,A_+,0.14585546950002026,0.0,1.4733022347784934,-2.9139144526671332,-0.08681267699419795,-0.016667894356545847,0.0,0.0,0.0,0.0,0.0,0.0,0.0,0.34964999999999996,-0.17955,0.307125,-0.08721804,-0.08817648,0.01725192
1779586027551463365,A_+,0.14716293362516808,0.0,1.4733022347784934,-2.9139144526671332,-0.08681267699419795,-0.016667894356545847,0.0,0.0,0.0,0.0,0.0,0.0,0.0,0.3449249999999999,-0.127575,0.2835,-0.08817648,-0.08913491999999999,0.00575064
1779586027551463365,A_+,0.14853734100006477,0.0,1.4733022347784934,-2.9139144526671332,-0.08681267699419795,-0.016667894356545847,0.0,0.0,0.0,0.0,0.0,0.0,0.0,0.3449249999999999,-0.127575,0.2835,-0.08817648,-0.08913491999999999,0.00575064
1779586027551463365,A_+,0.14985788025023794,0.0,1.4733022347784934,-2.9139144526671332,-0.08681267699419795,-0.016667894356545847,0.0,0.0,0.0,0.0,0.0,0.0,0.0,0.3449249999999999,-0.127575,0.2835,-0.08817648,-0.08913491999999999,0.00575064
1779586027576464176,A_+,0.1511674323751322,0.0,1.4733022347784934,-2.9139144526671332,-0.08681267699419795,-0.016667894356545847,0.0,0.0,0.0,0.0,0.0,0.0,0.0,0.3449249999999999,-0.146475,0.31185,-0.09009336,-0.08625959999999999,0.01341816
1779586027576464176,A_+,0.15254856725005084,0.0,1.4733022347784934,-2.9139144526671332,-0.08681267699419795,-0.016667894356545847,0.0,0.0,0.0,0.0,0.0,0.0,0.0,0.3449249999999999,-0.146475,0.31185,-0.09009336,-0.08625959999999999,0.01341816
1779586027576464176,A_+,0.15388475337522323,0.0,1.4733022347784934,-2.9139144526671332,-0.08681267699419795,-0.016667894356545847,0.0,0.0,0.0,0.0,0.0,0.0,0.0,0.3449249999999999,-0.146475,0.31185,-0.09009336,-0.08625959999999999,0.01341816
1779586027616489648,A_+,0.1551995849999912,0.0,1.4733022347784934,-2.9139144526671332,-0.08681267699419795,-0.016667894356545847,0.0,0.0,0.0,0.0,0.0,0.0,0.0,0.35437499999999994,-0.17955,0.2835,-0.08625959999999999,-0.09009336,0.00383376
1779586027616489648,A_+,0.1565730003749195,0.0,1.4733022347784934,-2.9139144526671332,-0.08681267699419795,-0.016667894356545847,0.0,0.0,0.0,0.0,0.0,0.0,0.0,0.35437499999999994,-0.17955,0.2835,-0.08625959999999999,-0.09009336,0.00383376
1779586027616489648,A_+,0.15789697537502434,0.0,1.4733022347784934,-2.9139144526671332,-0.08681267699419795,-0.016667894356545847,0.0,0.0,0.0,0.0,0.0,0.0,0.0,0.35437499999999994,-0.17955,0.2835,-0.08625959999999999,-0.09009336,0.00383376
1779586027646470308,A_+,0.1592068234999715,0.0,1.4733022347784934,-2.9139144526671332,-0.08681267699419795,-0.016667894356545847,0.0,0.0,0.0,0.0,0.0,0.0,0.0,0.326025,-0.16065,0.28822499999999995,-0.095844,-0.0910518,0.00670908
1779586027646470308,A_+,0.16058841025005677,0.0,1.4733022347784934,-2.9139144526671332,-0.08681267699419795,-0.016667894356545847,0.0,0.0,0.0,0.0,0.0,0.0,0.0,0.326025,-0.16065,0.28822499999999995,-0.095844,-0.0910518,0.00670908
1779586027646470308,A_+,0.16194080725017557,0.0,1.4733022347784934,-2.9139144526671332,-0.08681267699419795,-0.016667894356545847,0.0,0.0,0.0,0.0,0.0,0.0,0.0,0.326025,-0.16065,0.28822499999999995,-0.095844,-0.0910518,0.00670908
1779586027681485176,A_+,0.16325417899997774,0.0,1.4733022347784934,-2.9139144526671332,-0.08681267699419795,-0.016667894356545847,0.0,0.0,0.0,0.0,0.0,0.0,0.0,0.36382499999999995,-0.19372499999999998,0.307125,-0.08625959999999999,-0.08913491999999999,0.00766752
1779586027681485176,A_+,0.1646142153749679,0.0,1.4733022347784934,-2.9139144526671332,-0.08681267699419795,-0.016667894356545847,0.0,0.0,0.0,0.0,0.0,0.0,0.0,0.36382499999999995,-0.19372499999999998,0.307125,-0.08625959999999999,-0.08913491999999999,0.00766752
1779586027681485176,A_+,0.16591741599995657,0.0,1.4733022347784934,-2.9139144526671332,-0.08681267699419795,-0.016667894356545847,0.0,0.0,0.0,0.0,0.0,0.0,0.0,0.36382499999999995,-0.19372499999999998,0.307125,-0.08625959999999999,-0.08913491999999999,0.00766752
1779586027711473703,A_+,0.1672167647502647,0.0,1.4733022347784934,-2.9139144526671332,-0.08681267699419795,-0.016667894356545847,0.0,0.0,0.0,0.0,0.0,0.0,0.0,0.335475,-0.155925,0.307125,-0.09392712,-0.09009336,0.01054284
1779586027711473703,A_+,0.16862556962496456,0.0,1.4733022347784934,-2.9139144526671332,-0.08681267699419795,-0.016667894356545847,0.0,0.0,0.0,0.0,0.0,0.0,0.0,0.335475,-0.155925,0.307125,-0.09392712,-0.09009336,0.01054284
1779586027711473703,A_+,0.16994528087525396,0.0,1.4733022347784934,-2.9139144526671332,-0.08681267699419795,-0.016667894356545847,0.0,0.0,0.0,0.0,0.0,0.0,0.0,0.335475,-0.155925,0.307125,-0.09392712,-0.09009336,0.01054284
1779586027746484041,A_+,0.1712612364999586,0.0,1.4733022347784934,-2.9139144526671332,-0.08681267699419795,-0.016667894356545847,0.0,0.0,0.0,0.0,0.0,0.0,0.0,0.3591,-0.16065,0.29295,-0.0910518,-0.08625959999999999,0.0095844
1779586027746484041,A_+,0.17263390400012213,0.0,1.4733022347784934,-2.9139144526671332,-0.08681267699419795,-0.016667894356545847,0.0,0.0,0.0,0.0,0.0,0.0,0.0,0.3591,-0.16065,0.29295,-0.0910518,-0.08625959999999999,0.0095844
1779586027746484041,A_+,0.1739482477501042,0.0,1.4733022347784934,-2.9139144526671332,-0.08681267699419795,-0.016667894356545847,0.0,0.0,0.0,0.0,0.0,0.0,0.0,0.3591,-0.16065,0.29295,-0.0910518,-0.08625959999999999,0.0095844
1779586027776490211,A_+,0.17525655987492428,0.0,1.4733022347784934,-2.9139144526671332,-0.08681267699419795,-0.016667894356545847,0.0,0.0,0.0,0.0,0.0,0.0,0.0,0.34964999999999996,-0.155925,0.29767499999999997,-0.095844,-0.08721804,0.01150128
1779586027776490211,A_+,0.17662243987524562,0.0,1.4733022347784934,-2.9139144526671332,-0.08681267699419795,-0.016667894356545847,0.0,0.0,0.0,0.0,0.0,0.0,0.0,0.34964999999999996,-0.155925,0.29767499999999997,-0.095844,-0.08721804,0.01150128
1779586027776490211,A_+,0.1779404232502202,0.0,1.4733022347784934,-2.9139144526671332,-0.08681267699419795,-0.016667894356545847,0.0,0.0,0.0,0.0,0.0,0.0,0.0,0.34964999999999996,-0.155925,0.29767499999999997,-0.095844,-0.08721804,0.01150128
1779586027806488037,A_+,0.17925169125010143,0.0,1.4733022347784934,-2.9139144526671332,-0.08681267699419795,-0.016667894356545847,0.0,0.0,0.0,0.0,0.0,0.0,0.0,0.3449249999999999,-0.165375,0.278775,-0.08721804,-0.09871932,0.00575064
1779586027806488037,A_+,0.18062427875020148,0.0,1.4733022347784934,-2.9139144526671332,-0.08681267699419795,-0.016667894356545847,0.0,0.0,0.0,0.0,0.0,0.0,0.0,0.3449249999999999,-0.165375,0.278775,-0.08721804,-0.09871932,0.00575064
1779586027806488037,A_+,0.1819640166249883,0.0,1.4733022347784934,-2.9139144526671332,-0.08681267699419795,-0.016667894356545847,0.0,0.0,0.0,0.0,0.0,0.0,0.0,0.3449249999999999,-0.165375,0.278775,-0.08721804,-0.09871932,0.00575064
1779586027841480493,A_+,0.18328659162489203,0.0,1.4733022347784934,-2.9139144526671332,-0.08681267699419795,-0.016667894356545847,0.0,0.0,0.0,0.0,0.0,0.0,0.0,0.3402,-0.165375,0.316575,-0.09201024,-0.09392712,0.0191688
1779586027841480493,A_+,0.1846563113749653,0.0,1.4733022347784934,-2.9139144526671332,-0.08681267699419795,-0.016667894356545847,0.0,0.0,0.0,0.0,0.0,0.0,0.0,0.3402,-0.165375,0.316575,-0.09201024,-0.09392712,0.0191688
1779586027841480493,A_+,0.1859841461250653,0.0,1.4733022347784934,-2.9139144526671332,-0.08681267699419795,-0.016667894356545847,0.0,0.0,0.0,0.0,0.0,0.0,0.0,0.3402,-0.165375,0.316575,-0.09201024,-0.09392712,0.0191688
1779586027871484756,A_+,0.18729268625020268,0.0,1.4733022347784934,-2.9139144526671332,-0.08681267699419795,-0.016667894356545847,0.0,0.0,0.0,0.0,0.0,0.0,0.0,0.34964999999999996,-0.1512,0.3024,-0.0910518,-0.09009336,0.00575064
1779586027871484756,A_+,0.1886811965000561,0.0,1.4733022347784934,-2.9139144526671332,-0.08681267699419795,-0.016667894356545847,0.0,0.0,0.0,0.0,0.0,0.0,0.0,0.34964999999999996,-0.1512,0.3024,-0.0910518,-0.09009336,0.00575064
1779586027871484756,A_+,0.190008019375,0.0,1.4733022347784934,-2.9139144526671332,-0.08681267699419795,-0.016667894356545847,0.0,0.0,0.0,0.0,0.0,0.0,0.0,0.34964999999999996,-0.1512,0.3024,-0.0910518,-0.09009336,0.00575064
1779586027906485557,A_+,0.19131410762520318,0.0,1.4733022347784934,-2.9139144526671332,-0.08681267699419795,-0.016667894356545847,0.0,0.0,0.0,0.0,0.0,0.0,0.0,0.3402,-0.165375,0.3024,-0.08721804,-0.0910518,0.01054284
1779586027906485557,A_+,0.19268744712508123,0.0,1.4733022347784934,-2.9139144526671332,-0.08681267699419795,-0.016667894356545847,0.0,0.0,0.0,0.0,0.0,0.0,0.0,0.3402,-0.165375,0.3024,-0.08721804,-0.0910518,0.01054284
1779586027906485557,A_+,0.19400857437494778,0.0,1.4733022347784934,-2.9139144526671332,-0.08681267699419795,-0.016667894356545847,0.0,0.0,0.0,0.0,0.0,0.0,0.0,0.3402,-0.165375,0.3024,-0.08721804,-0.0910518,0.01054284
1779586027936501502,A_+,0.1953310335002243,0.0,1.4733022347784934,-2.9139144526671332,-0.08681267699419795,-0.016667894356545847,0.0,0.0,0.0,0.0,0.0,0.0,0.0,0.3449249999999999,-0.1701,0.31185,-0.09488556,-0.09296868,0.00383376
1779586027936501502,A_+,0.19669824125003288,0.0,1.4733022347784934,-2.9139144526671332,-0.08681267699419795,-0.016667894356545847,0.0,0.0,0.0,0.0,0.0,0.0,0.0,0.3449249999999999,-0.1701,0.31185,-0.09488556,-0.09296868,0.00383376
1779586027936501502,A_+,0.19802138037493933,0.0,1.4733022347784934,-2.9139144526671332,-0.08681267699419795,-0.016667894356545847,0.0,0.0,0.0,0.0,0.0,0.0,0.0,0.3449249999999999,-0.1701,0.31185,-0.09488556,-0.09296868,0.00383376
1779586027966612815,A_+,0.19933859987486358,0.0,1.4733022347784934,-2.9139144526671332,-0.08681267699419795,-0.016667894356545847,0.0,0.0,0.0,0.0,0.0,0.0,0.0,0.34964999999999996,-0.17482499999999998,0.28822499999999995,-0.09009336,-0.1006362,0.014376599999999998
1779586027966612815,A_+,0.20071856687491163,0.0,1.4733022347784934,-2.9139144526671332,-0.08681267699419795,-0.016667894356545847,0.0,0.0,0.0,0.0,0.0,0.0,0.0,0.34964999999999996,-0.17482499999999998,0.28822499999999995,-0.09009336,-0.1006362,0.014376599999999998
1779586027966612815,A_+,0.2020330665000074,0.0,1.4733022347784934,-2.9139144526671332,-0.08681267699419795,-0.016667894356545847,0.0,0.0,0.0,0.0,0.0,0.0,0.0,0.34964999999999996,-0.17482499999999998,0.28822499999999995,-0.09009336,-0.1006362,0.014376599999999998
1779586027996495962,A_+,0.2033492941250188,0.0,1.4733022347784934,-2.9139144526671332,-0.08681267699419795,-0.016667894356545847,0.0,0.0,0.0,0.0,0.0,0.0,0.0,0.34964999999999996,-0.17482499999999998,0.28822499999999995,-0.09201024,-0.095844,0.01150128
1779586027996495962,A_+,0.20473903250012881,0.0,1.4733022347784934,-2.9139144526671332,-0.08681267699419795,-0.016667894356545847,0.0,0.0,0.0,0.0,0.0,0.0,0.0,0.34964999999999996,-0.17482499999999998,0.28822499999999995,-0.09201024,-0.095844,0.01150128
1779586027996495962,A_+,0.20605686399994738,0.0,1.4733022347784934,-2.9139144526671332,-0.08681267699419795,-0.016667894356545847,0.0,0.0,0.0,0.0,0.0,0.0,0.0,0.34964999999999996,-0.17482499999999998,0.28822499999999995,-0.09201024,-0.095844,0.01150128
1779586028031494855,A_+,0.20736613625012978,0.0,1.4733022347784934,-2.9139144526671332,-0.08681267699419795,-0.016667894356545847,0.0,0.0,0.0,0.0,0.0,0.0,0.0,0.35437499999999994,-0.165375,0.29767499999999997,-0.07955052,-0.09296868,0.00670908
1779586028031494855,A_+,0.20874207162523817,0.0,1.4733022347784934,-2.9139144526671332,-0.08681267699419795,-0.016667894356545847,0.0,0.0,0.0,0.0,0.0,0.0,0.0,0.35437499999999994,-0.165375,0.29767499999999997,-0.07955052,-0.09296868,0.00670908
1779586028031494855,A_+,0.2100722822501666,0.0,1.4733022347784934,-2.9139144526671332,-0.08681267699419795,-0.016667894356545847,0.0,0.0,0.0,0.0,0.0,0.0,0.0,0.35437499999999994,-0.165375,0.29767499999999997,-0.07955052,-0.09296868,0.00670908
1779586028066493034,A_+,0.21139194175020748,0.0,1.4733022347784934,-2.9139144526671332,-0.08681267699419795,-0.016667894356545847,0.0,0.0,0.0,0.0,0.0,0.0,0.0,0.3449249999999999,-0.137025,0.316575,-0.08625959999999999,-0.095844,0.00383376
1779586028066493034,A_+,0.21275502200023766,0.0,1.4733022347784934,-2.9139144526671332,-0.08681267699419795,-0.016667894356545847,0.0,0.0,0.0,0.0,0.0,0.0,0.0,0.3449249999999999,-0.137025,0.316575,-0.08625959999999999,-0.095844,0.00383376
1779586028066493034,A_+,0.21405635874998552,0.0,1.4733022347784934,-2.9139144526671332,-0.08681267699419795,-0.016667894356545847,0.0,0.0,0.0,0.0,0.0,0.0,0.0,0.3449249999999999,-0.137025,0.316575,-0.08625959999999999,-0.095844,0.00383376
1779586028096502542,A_+,0.21534910424998088,0.0,1.4733022347784934,-2.9139144526671332,-0.08681267699419795,-0.016667894356545847,0.0,0.0,0.0,0.0,0.0,0.0,0.0,0.3402,-0.165375,0.25987499999999997,-0.08817648,-0.0910518,0.0047922
1779586028096502542,A_+,0.21671268850013803,0.0,1.4733022347784934,-2.9139144526671332,-0.08681267699419795,-0.016667894356545847,0.0,0.0,0.0,0.0,0.0,0.0,0.0,0.3402,-0.165375,0.25987499999999997,-0.08817648,-0.0910518,0.0047922
1779586028096502542,A_+,0.21804419499994765,0.0,1.4733022347784934,-2.9139144526671332,-0.08681267699419795,-0.016667894356545847,0.0,0.0,0.0,0.0,0.0,0.0,0.0,0.3402,-0.165375,0.25987499999999997,-0.08817648,-0.0910518,0.0047922
1779586028127090215,A_+,0.21934756774999187,0.0,1.4733022347784934,-2.9139144526671332,-0.08681267699419795,-0.016667894356545847,0.0,0.0,0.0,0.0,0.0,0.0,0.0,0.3402,-0.1512,0.307125,-0.09201024,-0.09201024,0.00766752
1779586028127090215,A_+,0.22072551487508463,0.0,1.4733022347784934,-2.9139144526671332,-0.08681267699419795,-0.016667894356545847,0.0,0.0,0.0,0.0,0.0,0.0,0.0,0.3402,-0.1512,0.307125,-0.09201024,-0.09201024,0.00766752
1779586028127090215,A_+,0.22203990275011165,0.0,1.4733022347784934,-2.9139144526671332,-0.08681267699419795,-0.016667894356545847,0.0,0.0,0.0,0.0,0.0,0.0,0.0,0.3402,-0.1512,0.307125,-0.09201024,-0.09201024,0.00766752
1779586028161507844,A_+,0.2233414755000922,0.0,1.4733022347784934,-2.9139144526671332,-0.08681267699419795,-0.016667894356545847,0.0,0.0,0.0,0.0,0.0,0.0,0.0,0.33075,-0.184275,0.3024,-0.08530115999999999,-0.10542839999999999,0.01054284
1779586028161507844,A_+,0.22471088337488254,0.0,1.4733022347784934,-2.9139144526671332,-0.08681267699419795,-0.016667894356545847,0.0,0.0,0.0,0.0,0.0,0.0,0.0,0.33075,-0.184275,0.3024,-0.08530115999999999,-0.10542839999999999,0.01054284
1779586028161507844,A_+,0.22602322325019486,0.0,1.4733022347784934,-2.9139144526671332,-0.08681267699419795,-0.016667894356545847,0.0,0.0,0.0,0.0,0.0,0.0,0.0,0.33075,-0.184275,0.3024,-0.08530115999999999,-0.10542839999999999,0.01054284
1779586028186505317,A_+,0.2273282278752049,0.0,1.4733022347784934,-2.9139144526671332,-0.08681267699419795,-0.016667894356545847,0.0,0.0,0.0,0.0,0.0,0.0,0.0,0.34964999999999996,-0.1701,0.29295,-0.08625959999999999,-0.08721804,0.01629348
1779586028186505317,A_+,0.2287290733752343,0.0,1.4733022347784934,-2.9139144526671332,-0.08681267699419795,-0.016667894356545847,0.0,0.0,0.0,0.0,0.0,0.0,0.0,0.34964999999999996,-0.1701,0.29295,-0.08625959999999999,-0.08721804,0.01629348
1779586028186505317,A_+,0.23006177187517096,0.0,1.4733022347784934,-2.9139144526671332,-0.08681267699419795,-0.016667894356545847,0.0,0.0,0.0,0.0,0.0,0.0,0.0,0.34964999999999996,-0.1701,0.29295,-0.08625959999999999,-0.08721804,0.01629348
1779586028226548910,A_+,0.23138859475011486,0.0,1.4733022347784934,-2.9139144526671332,-0.08681267699419795,-0.016667894356545847,0.0,0.0,0.0,0.0,0.0,0.0,0.0,0.34964999999999996,-0.137025,0.3024,-0.08338428,-0.08913491999999999,0.01341816
1779586028226548910,A_+,0.2327652459998717,0.0,1.4733022347784934,-2.9139144526671332,-0.08681267699419795,-0.016667894356545847,0.0,0.0,0.0,0.0,0.0,0.0,0.0,0.34964999999999996,-0.137025,0.3024,-0.08338428,-0.08913491999999999,0.01341816
1779586028226548910,A_+,0.23410494800009474,0.0,1.4733022347784934,-2.9139144526671332,-0.08681267699419795,-0.016667894356545847,0.0,0.0,0.0,0.0,0.0,0.0,0.0,0.34964999999999996,-0.137025,0.3024,-0.08338428,-0.08913491999999999,0.01341816
1779586028256519079,A_+,0.23541233637524783,0.0,1.4733022347784934,-2.9139144526671332,-0.08681267699419795,-0.016667894356545847,0.0,0.0,0.0,0.0,0.0,0.0,0.0,0.335475,-0.17955,0.3024,-0.08530115999999999,-0.09392712,0.0047922
1779586028256519079,A_+,0.23678388000007544,0.0,1.4733022347784934,-2.9139144526671332,-0.08681267699419795,-0.016667894356545847,0.0,0.0,0.0,0.0,0.0,0.0,0.0,0.335475,-0.17955,0.3024,-0.08530115999999999,-0.09392712,0.0047922
1779586028256519079,A_+,0.23810262350025369,0.0,1.4733022347784934,-2.9139144526671332,-0.08681267699419795,-0.016667894356545847,0.0,0.0,0.0,0.0,0.0,0.0,0.0,0.335475,-0.17955,0.3024,-0.08530115999999999,-0.09392712,0.0047922
1779586028287063837,A_+,0.23940941999990173,0.0,1.4733022347784934,-2.9139144526671332,-0.08681267699419795,-0.016667894356545847,0.0,0.0,0.0,0.0,0.0,0.0,0.0,0.335475,-0.165375,0.269325,-0.0910518,-0.09201024,0.0095844
1779586028287063837,A_+,0.2407902588752222,0.0,1.4733022347784934,-2.9139144526671332,-0.08681267699419795,-0.016667894356545847,0.0,0.0,0.0,0.0,0.0,0.0,0.0,0.335475,-0.165375,0.269325,-0.0910518,-0.09201024,0.0095844
1779586028287063837,A_+,0.24211475800029802,0.0,1.4733022347784934,-2.9139144526671332,-0.08681267699419795,-0.016667894356545847,0.0,0.0,0.0,0.0,0.0,0.0,0.0,0.335475,-0.165375,0.269325,-0.0910518,-0.09201024,0.0095844
1779586028316850900,A_+,0.2434140790001038,0.0,1.4733022347784934,-2.9139144526671332,-0.08681267699419795,-0.016667894356545847,0.0,0.0,0.0,0.0,0.0,0.0,0.0,0.33075,-0.12285,0.29295,-0.09009336,-0.08817648,0.0095844
1779586028316850900,A_+,0.24478484662495248,0.0,1.4733022347784934,-2.9139144526671332,-0.08681267699419795,-0.016667894356545847,0.0,0.0,0.0,0.0,0.0,0.0,0.0,0.33075,-0.12285,0.29295,-0.09009336,-0.08817648,0.0095844
1779586028316850900,A_+,0.24610464612487704,0.0,1.4733022347784934,-2.9139144526671332,-0.08681267699419795,-0.016667894356545847,0.0,0.0,0.0,0.0,0.0,0.0,0.0,0.33075,-0.12285,0.29295,-0.09009336,-0.08817648,0.0095844
1779586028351528644,A_+,0.2474103986251066,0.0,1.4733022347784934,-2.9139144526671332,-0.08681267699419795,-0.016667894356545847,0.0,0.0,0.0,0.0,0.0,0.0,0.0,0.3402,-0.16065,0.29295,-0.08817648,-0.09776088000000001,0.00287532
1779586028351528644,A_+,0.2487762586251847,0.0,1.4733022347784934,-2.9139144526671332,-0.08681267699419795,-0.016667894356545847,0.0,0.0,0.0,0.0,0.0,0.0,0.0,0.3402,-0.16065,0.29295,-0.08817648,-0.09776088000000001,0.00287532
1779586028351528644,A_+,0.25008923862515076,0.0,1.4733022347784934,-2.9139144526671332,-0.08681267699419795,-0.016667894356545847,0.0,0.0,0.0,0.0,0.0,0.0,0.0,0.3402,-0.16065,0.29295,-0.08817648,-0.09776088000000001,0.00287532
1779586028381998538,A_+,0.25139739087489943,0.0,1.4733022347784934,-2.9139144526671332,-0.08681267699419795,-0.016667894356545847,0.0,0.0,0.0,0.0,0.0,0.0,0.0,0.33075,-0.1701,0.33075,-0.09392712,-0.1006362,0.01341816
1779586028381998538,A_+,0.2527711343750525,0.0,1.4733022347784934,-2.9139144526671332,-0.08681267699419795,-0.016667894356545847,0.0,0.0,0.0,0.0,0.0,0.0,0.0,0.33075,-0.1701,0.33075,-0.09392712,-0.1006362,0.01341816
1779586028381998538,A_+,0.25408716212496074,0.0,1.4733022347784934,-2.9139144526671332,-0.08681267699419795,-0.016667894356545847,0.0,0.0,0.0,0.0,0.0,0.0,0.0,0.33075,-0.1701,0.33075,-0.09392712,-0.1006362,0.01341816
1779586028416514873,A_+,0.2553990101250747,0.0,1.4733022347784934,-2.9139144526671332,-0.08681267699419795,-0.016667894356545847,0.0,0.0,0.0,0.0,0.0,0.0,0.0,0.3402,-0.155925,0.278775,-0.08242584,-0.095844,0.00287532
1779586028416514873,A_+,0.2567685898752643,0.0,1.4733022347784934,-2.9139144526671332,-0.08681267699419795,-0.016667894356545847,0.0,0.0,0.0,0.0,0.0,0.0,0.0,0.3402,-0.155925,0.278775,-0.08242584,-0.095844,0.00287532
1779586028416514873,A_+,0.2581056961248578,0.0,1.4733022347784934,-2.9139144526671332,-0.08681267699419795,-0.016667894356545847,0.0,0.0,0.0,0.0,0.0,0.0,0.0,0.3402,-0.155925,0.278775,-0.08242584,-0.095844,0.00287532
1779586028446986913,A_+,0.25942619950001244,0.0,1.4733022347784934,-2.9139144526671332,-0.08681267699419795,-0.016667894356545847,0.0,0.0,0.0,0.0,0.0,0.0,0.0,0.34964999999999996,-0.127575,0.2835,-0.09488556,-0.09201024,0.00095844
1779586028446986913,A_+,0.260808442375037,0.0,1.4733022347784934,-2.9139144526671332,-0.08681267699419795,-0.016667894356545847,0.0,0.0,0.0,0.0,0.0,0.0,0.0,0.34964999999999996,-0.127575,0.2835,-0.09488556,-0.09201024,0.00095844
1779586028446986913,A_+,0.26213578124998094,0.0,1.4733022347784934,-2.9139144526671332,-0.08681267699419795,-0.016667894356545847,0.0,0.0,0.0,0.0,0.0,0.0,0.0,0.34964999999999996,-0.127575,0.2835,-0.09488556,-0.09201024,0.00095844
1779586028481534481,A_+,0.26343342237487377,0.0,1.4733022347784934,-2.9139144526671332,-0.08681267699419795,-0.016667894356545847,0.0,0.0,0.0,0.0,0.0,0.0,0.0,0.326025,-0.184275,0.3024,-0.08721804,-0.09009336,0.01341816
1779586028481534481,A_+,0.2647960266249356,0.0,1.4733022347784934,-2.9139144526671332,-0.08681267699419795,-0.016667894356545847,0.0,0.0,0.0,0.0,0.0,0.0,0.0,0.326025,-0.184275,0.3024,-0.08721804,-0.09009336,0.01341816
1779586028481534481,A_+,0.2661286491252213,0.0,1.4733022347784934,-2.9139144526671332,-0.08681267699419795,-0.016667894356545847,0.0,0.0,0.0,0.0,0.0,0.0,0.0,0.326025,-0.184275,0.3024,-0.08721804,-0.09009336,0.01341816
1779586028511549472,A_+,0.26743550550008877,0.0,1.4733022347784934,-2.9139144526671332,-0.08681267699419795,-0.016667894356545847,0.0,0.0,0.0,0.0,0.0,0.0,0.0,0.3591,-0.1701,0.27405,-0.08721804,-0.08625959999999999,0.01150128
1779586028511549472,A_+,0.26880754512512794,0.0,1.4733022347784934,-2.9139144526671332,-0.08681267699419795,-0.016667894356545847,0.0,0.0,0.0,0.0,0.0,0.0,0.0,0.3591,-0.1701,0.27405,-0.08721804,-0.08625959999999999,0.01150128
1779586028511549472,A_+,0.2701276126249468,0.0,1.4733022347784934,-2.9139144526671332,-0.08681267699419795,-0.016667894356545847,0.0,0.0,0.0,0.0,0.0,0.0,0.0,0.3591,-0.1701,0.27405,-0.08721804,-0.08625959999999999,0.01150128
1779586028546531438,A_+,0.27143556487499154,0.0,1.4733022347784934,-2.9139144526671332,-0.08681267699419795,-0.016667894356545847,0.0,0.0,0.0,0.0,0.0,0.0,0.0,0.335475,-0.16065,0.3024,-0.0910518,-0.08530115999999999,0.01245972
1779586028546531438,A_+,0.2728100003751024,0.0,1.4733022347784934,-2.9139144526671332,-0.08681267699419795,-0.016667894356545847,0.0,0.0,0.0,0.0,0.0,0.0,0.0,0.335475,-0.16065,0.3024,-0.0910518,-0.08530115999999999,0.01245972
1779586028546531438,A_+,0.274129927749982,0.0,1.4733022347784934,-2.9139144526671332,-0.08681267699419795,-0.016667894356545847,0.0,0.0,0.0,0.0,0.0,0.0,0.0,0.335475,-0.16065,0.3024,-0.0910518,-0.08530115999999999,0.01245972
1779586028576529264,A_+,0.27543448037522467,0.0,1.4733022347784934,-2.9139144526671332,-0.08681267699419795,-0.016667894356545847,0.0,0.0,0.0,0.0,0.0,0.0,0.0,0.33075,-0.17482499999999998,0.3024,-0.08530115999999999,-0.09201024,0.01245972
1779586028576529264,A_+,0.27681335950001085,0.0,1.4733022347784934,-2.9139144526671332,-0.08681267699419795,-0.016667894356545847,0.0,0.0,0.0,0.0,0.0,0.0,0.0,0.33075,-0.17482499999999998,0.3024,-0.08530115999999999,-0.09201024,0.01245972
1779586028576529264,A_+,0.2781312390002313,0.0,1.4733022347784934,-2.9139144526671332,-0.08681267699419795,-0.016667894356545847,0.0,0.0,0.0,0.0,0.0,0.0,0.0,0.33075,-0.17482499999999998,0.3024,-0.08530115999999999,-0.09201024,0.01245972
1779586028611604213,A_+,0.2794479067501925,0.0,1.4733022347784934,-2.9139144526671332,-0.08681267699419795,-0.016667894356545847,0.0,0.0,0.0,0.0,0.0,0.0,0.0,0.3449249999999999,-0.12285,0.29295,-0.09296868,-0.08434272,0.00862596
1779586028611604213,A_+,0.2808204262501022,0.0,1.4733022347784934,-2.9139144526671332,-0.08681267699419795,-0.016667894356545847,0.0,0.0,0.0,0.0,0.0,0.0,0.0,0.3449249999999999,-0.12285,0.29295,-0.09296868,-0.08434272,0.00862596
1779586028611604213,A_+,0.28214863712491933,0.0,1.4733022347784934,-2.9139144526671332,-0.08681267699419795,-0.016667894356545847,0.0,0.0,0.0,0.0,0.0,0.0,0.0,0.3449249999999999,-0.12285,0.29295,-0.09296868,-0.08434272,0.00862596
1779586028641537189,A_+,0.28345160575008777,0.0,1.4733022347784934,-2.9139144526671332,-0.08681267699419795,-0.016667894356545847,0.0,0.0,0.0,0.0,0.0,0.0,0.0,0.36382499999999995,-0.137025,0.27405,-0.08625959999999999,-0.09392712,0.00670908
1779586028641537189,A_+,0.284870014000262,0.0,1.4733022347784934,-2.9139144526671332,-0.08681267699419795,-0.016667894356545847,0.0,0.0,0.0,0.0,0.0,0.0,0.0,0.36382499999999995,-0.137025,0.27405,-0.08625959999999999,-0.09392712,0.00670908
1779586028641537189,A_+,0.2861913173751418,0.0,1.4733022347784934,-2.9139144526671332,-0.08681267699419795,-0.016667894356545847,0.0,0.0,0.0,0.0,0.0,0.0,0.0,0.36382499999999995,-0.137025,0.27405,-0.08625959999999999,-0.09392712,0.00670908
1779586028676543474,A_+,0.2875062571251874,0.0,1.4733022347784934,-2.9139144526671332,-0.08681267699419795,-0.016667894356545847,0.0,0.0,0.0,0.0,0.0,0.0,0.0,0.33075,-0.17482499999999998,0.29295,-0.09009336,-0.08721804,0.00862596
1779586028676543474,A_+,0.28888423637499727,0.0,1.4733022347784934,-2.9139144526671332,-0.08681267699419795,-0.016667894356545847,0.0,0.0,0.0,0.0,0.0,0.0,0.0,0.33075,-0.17482499999999998,0.29295,-0.09009336,-0.08721804,0.00862596
1779586028676543474,A_+,0.29020059999993464,0.0,1.4733022347784934,-2.9139144526671332,-0.08681267699419795,-0.016667894356545847,0.0,0.0,0.0,0.0,0.0,0.0,0.0,0.33075,-0.17482499999999998,0.29295,-0.09009336,-0.08721804,0.00862596
1779586028706651926,A_+,0.29151392787525765,0.0,1.4733022347784934,-2.9139144526671332,-0.08681267699419795,-0.016667894356545847,0.0,0.0,0.0,0.0,0.0,0.0,0.0,0.33075,-0.14175,0.29295,-0.09201024,-0.09392712,0.00862596
1779586028706651926,A_+,0.2929005304999919,0.0,1.4733022347784934,-2.9139144526671332,-0.08681267699419795,-0.016667894356545847,0.0,0.0,0.0,0.0,0.0,0.0,0.0,0.33075,-0.14175,0.29295,-0.09201024,-0.09392712,0.00862596
1779586028706651926,A_+,0.2942431402502734,0.0,1.4733022347784934,-2.9139144526671332,-0.08681267699419795,-0.016667894356545847,0.0,0.0,0.0,0.0,0.0,0.0,0.0,0.33075,-0.14175,0.29295,-0.09201024,-0.09392712,0.00862596
1779586028736544370,A_+,0.2955662915001085,0.0,1.4733022347784934,-2.9139144526671332,-0.08681267699419795,-0.016667894356545847,0.0,0.0,0.0,0.0,0.0,0.0,0.0,0.33075,-0.17482499999999998,0.316575,-0.09009336,-0.08721804,0.01341816
1779586028736544370,A_+,0.2969571777503006,0.0,1.4733022347784934,-2.9139144526671332,-0.08681267699419795,-0.016667894356545847,0.0,0.0,0.0,0.0,0.0,0.0,0.0,0.33075,-0.17482499999999998,0.316575,-0.09009336,-0.08721804,0.01341816
1779586028736544370,A_+,0.29827844900000855,0.0,1.4733022347784934,-2.9139144526671332,-0.08681267699419795,-0.016667894356545847,0.0,0.0,0.0,0.0,0.0,0.0,0.0,0.33075,-0.17482499999999998,0.316575,-0.09009336,-0.08721804,0.01341816
1779586028771564960,A_+,0.2995866253750137,0.0,1.4733022347784934,-2.9139144526671332,-0.08681267699419795,-0.016667894356545847,0.0,0.0,0.0,0.0,0.0,0.0,0.0,0.3449249999999999,-0.165375,0.307125,-0.09296868,-0.09488556,0.00383376
1779586028771564960,A_+,0.3009568011252668,0.0,1.4733022347784934,-2.9139144526671332,-0.08681267699419795,-0.016667894356545847,0.0,0.0,0.0,0.0,0.0,0.0,0.0,0.3449249999999999,-0.165375,0.307125,-0.09296868,-0.09488556,0.00383376
1779586028771564960,A_+,0.3022771764999561,0.0,1.4733022347784934,-2.9139144526671332,-0.08681267699419795,-0.016667894356545847,0.0,0.0,0.0,0.0,0.0,0.0,0.0,0.3449249999999999,-0.165375,0.307125,-0.09296868,-0.09488556,0.00383376
1779586028796540975,A_+,0.30359312825021334,0.0,1.4733022347784934,-2.9139144526671332,-0.08681267699419795,-0.016667894356545847,0.0,0.0,0.0,0.0,0.0,0.0,0.0,0.335475,-0.1701,0.3024,-0.09488556,-0.09488556,0.014376599999999998
1779586028796540975,A_+,0.3049817746250483,0.0,1.4733022347784934,-2.9139144526671332,-0.08681267699419795,-0.016667894356545847,0.0,0.0,0.0,0.0,0.0,0.0,0.0,0.335475,-0.1701,0.3024,-0.09488556,-0.09488556,0.014376599999999998
1779586028796540975,A_+,0.30631895675014675,0.0,1.4733022347784934,-2.9139144526671332,-0.08681267699419795,-0.016667894356545847,0.0,0.0,0.0,0.0,0.0,0.0,0.0,0.335475,-0.1701,0.3024,-0.09488556,-0.09488556,0.014376599999999998
1779586028836553335,A_+,0.3076285209999696,0.0,1.4733022347784934,-2.9139144526671332,-0.08681267699419795,-0.016667894356545847,0.0,0.0,0.0,0.0,0.0,0.0,0.0,0.335475,-0.127575,0.29767499999999997,-0.08338428,-0.09009336,0.01245972
1779586028836553335,A_+,0.30899826475024383,0.0,1.4733022347784934,-2.9139144526671332,-0.08681267699419795,-0.016667894356545847,0.0,0.0,0.0,0.0,0.0,0.0,0.0,0.335475,-0.127575,0.29767499999999997,-0.08338428,-0.09009336,0.01245972
1779586028836553335,A_+,0.31031139662491114,0.0,1.4733022347784934,-2.9139144526671332,-0.08681267699419795,-0.016667894356545847,0.0,0.0,0.0,0.0,0.0,0.0,0.0,0.335475,-0.127575,0.29767499999999997,-0.08338428,-0.09009336,0.01245972
1779586028866576433,A_+,0.3116125295000529,0.0,1.4733022347784934,-2.9139144526671332,-0.08681267699419795,-0.016667894356545847,0.0,0.0,0.0,0.0,0.0,0.0,0.0,0.3402,-0.16065,0.29767499999999997,-0.08434272,-0.08625959999999999,-0.00095844
1779586028866576433,A_+,0.3129843171250286,0.0,1.4733022347784934,-2.9139144526671332,-0.08681267699419795,-0.016667894356545847,0.0,0.0,0.0,0.0,0.0,0.0,0.0,0.3402,-0.16065,0.29767499999999997,-0.08434272,-0.08625959999999999,-0.00095844
1779586028866576433,A_+,0.3143002248752964,0.0,1.4733022347784934,-2.9139144526671332,-0.08681267699419795,-0.016667894356545847,0.0,0.0,0.0,0.0,0.0,0.0,0.0,0.3402,-0.16065,0.29767499999999997,-0.08434272,-0.08625959999999999,-0.00095844
1779586028891562223,A_+,0.31560902912497113,0.0,1.4733022347784934,-2.9139144526671332,-0.08681267699419795,-0.016667894356545847,0.0,0.0,0.0,0.0,0.0,0.0,0.0,0.34964999999999996,-0.1701,0.3024,-0.08530115999999999,-0.09680244,0.014376599999999998
1779586028891562223,A_+,0.3169749571252396,0.0,1.4733022347784934,-2.9139144526671332,-0.08681267699419795,-0.016667894356545847,0.0,0.0,0.0,0.0,0.0,0.0,0.0,0.34964999999999996,-0.1701,0.3024,-0.08530115999999999,-0.09680244,0.014376599999999998
1779586028891562223,A_+,0.318294808625069,0.0,1.4733022347784934,-2.9139144526671332,-0.08681267699419795,-0.016667894356545847,0.0,0.0,0.0,0.0,0.0,0.0,0.0,0.34964999999999996,-0.1701,0.3024,-0.08530115999999999,-0.09680244,0.014376599999999998
1779586028931626319,A_+,0.31960417287518794,0.0,1.4733022347784934,-2.9139144526671332,-0.08681267699419795,-0.016667894356545847,0.0,0.0,0.0,0.0,0.0,0.0,0.0,0.335475,-0.1512,0.29767499999999997,-0.08721804,-0.095844,-0.00670908
1779586028931626319,A_+,0.3209889595000277,0.0,1.4733022347784934,-2.9139144526671332,-0.08681267699419795,-0.016667894356545847,0.0,0.0,0.0,0.0,0.0,0.0,0.0,0.335475,-0.1512,0.29767499999999997,-0.08721804,-0.095844,-0.00670908
1779586028931626319,A_+,0.3223142985002596,0.0,1.4733022347784934,-2.9139144526671332,-0.08681267699419795,-0.016667894356545847,0.0,0.0,0.0,0.0,0.0,0.0,0.0,0.335475,-0.1512,0.29767499999999997,-0.08721804,-0.095844,-0.00670908
1779586028961574554,A_+,0.32362152287487334,0.0,1.4733022347784934,-2.9139144526671332,-0.08681267699419795,-0.016667894356545847,0.0,0.0,0.0,0.0,0.0,0.0,0.0,0.3402,-0.1701,0.316575,-0.0910518,-0.08721804,0.00766752
1779586028961574554,A_+,0.32499531837493123,0.0,1.4733022347784934,-2.9139144526671332,-0.08681267699419795,-0.016667894356545847,0.0,0.0,0.0,0.0,0.0,0.0,0.0,0.3402,-0.1701,0.316575,-0.0910518,-0.08721804,0.00766752
1779586028961574554,A_+,0.3263193574998695,0.0,1.4733022347784934,-2.9139144526671332,-0.08681267699419795,-0.016667894356545847,0.0,0.0,0.0,0.0,0.0,0.0,0.0,0.3402,-0.1701,0.316575,-0.0910518,-0.08721804,0.00766752
1779586028996555805,A_+,0.3276306536249649,0.0,1.4733022347784934,-2.9139144526671332,-0.08681267699419795,-0.016667894356545847,0.0,0.0,0.0,0.0,0.0,0.0,0.0,0.35437499999999994,-0.146475,0.31185,-0.08625959999999999,-0.09201024,0.0095844
1779586028996555805,A_+,0.3290676404999431,0.0,1.4733022347784934,-2.9139144526671332,-0.08681267699419795,-0.016667894356545847,0.0,0.0,0.0,0.0,0.0,0.0,0.0,0.35437499999999994,-0.146475,0.31185,-0.08625959999999999,-0.09201024,0.0095844
1779586028996555805,A_+,0.33040185900017605,0.0,1.4733022347784934,-2.9139144526671332,-0.08681267699419795,-0.016667894356545847,0.0,0.0,0.0,0.0,0.0,0.0,0.0,0.35437499999999994,-0.146475,0.31185,-0.08625959999999999,-0.09201024,0.0095844
1779586029026555538,A_+,0.3317194347500845,0.0,1.4733022347784934,-2.9139144526671332,-0.08681267699419795,-0.016667894356545847,0.0,0.0,0.0,0.0,0.0,0.0,0.0,0.3591,-0.1512,0.2835,-0.08721804,-0.08050896,0.00766752
1779586029026555538,A_+,0.3330927263750709,0.0,1.4733022347784934,-2.9139144526671332,-0.08681267699419795,-0.016667894356545847,0.0,0.0,0.0,0.0,0.0,0.0,0.0,0.3591,-0.1512,0.2835,-0.08721804,-0.08050896,0.00766752
1779586029026555538,A_+,0.3344185615001152,0.0,1.4733022347784934,-2.9139144526671332,-0.08681267699419795,-0.016667894356545847,0.0,0.0,0.0,0.0,0.0,0.0,0.0,0.3591,-0.1512,0.2835,-0.08721804,-0.08050896,0.00766752
1779586029056975603,A_+,0.33572908975020255,0.0,1.4733022347784934,-2.9139144526671332,-0.08681267699419795,-0.016667894356545847,0.0,0.0,0.0,0.0,0.0,0.0,0.0,0.3402,-0.146475,0.278775,-0.08434272,-0.095844,0.00766752
1779586029056975603,A_+,0.3371036772500702,0.0,1.4733022347784934,-2.9139144526671332,-0.08681267699419795,-0.016667894356545847,0.0,0.0,0.0,0.0,0.0,0.0,0.0,0.3402,-0.146475,0.278775,-0.08434272,-0.095844,0.00766752
1779586029056975603,A_+,0.338419741125108,0.0,1.4733022347784934,-2.9139144526671332,-0.08681267699419795,-0.016667894356545847,0.0,0.0,0.0,0.0,0.0,0.0,0.0,0.3402,-0.146475,0.278775,-0.08434272,-0.095844,0.00766752
1779586029091578006,A_+,0.3397297973751847,0.0,1.4733022347784934,-2.9139144526671332,-0.08681267699419795,-0.016667894356545847,0.0,0.0,0.0,0.0,0.0,0.0,0.0,0.335475,-0.17955,0.307125,-0.0910518,-0.09201024,0.00766752
1779586029091578006,A_+,0.3411037050000232,0.0,1.4733022347784934,-2.9139144526671332,-0.08681267699419795,-0.016667894356545847,0.0,0.0,0.0,0.0,0.0,0.0,0.0,0.335475,-0.17955,0.307125,-0.0910518,-0.09201024,0.00766752
1779586029091578006,A_+,0.34242552037494534,0.0,1.4733022347784934,-2.9139144526671332,-0.08681267699419795,-0.016667894356545847,0.0,0.0,0.0,0.0,0.0,0.0,0.0,0.335475,-0.17955,0.307125,-0.0910518,-0.09201024,0.00766752
1779586029116565704,A_+,0.34373741650006195,0.0,1.4733022347784934,-2.9139144526671332,-0.08681267699419795,-0.016667894356545847,0.0,0.0,0.0,0.0,0.0,0.0,0.0,0.335475,-0.155925,0.28822499999999995,-0.08721804,-0.0910518,0.01054284
1779586029116565704,A_+,0.34512506312512414,0.0,1.4733022347784934,-2.9139144526671332,-0.08681267699419795,-0.016667894356545847,0.0,0.0,0.0,0.0,0.0,0.0,0.0,0.335475,-0.155925,0.28822499999999995,-0.08721804,-0.0910518,0.01054284
1779586029116565704,A_+,0.3464487743749487,0.0,1.4733022347784934,-2.9139144526671332,-0.08681267699419795,-0.016667894356545847,0.0,0.0,0.0,0.0,0.0,0.0,0.0,0.335475,-0.155925,0.28822499999999995,-0.08721804,-0.0910518,0.01054284
1779586029151684999,A_+,0.3477614905000337,0.0,1.4733022347784934,-2.9139144526671332,-0.08681267699419795,-0.016667894356545847,0.0,0.0,0.0,0.0,0.0,0.0,0.0,0.3449249999999999,-0.155925,0.29295,-0.08242584,-0.09488556,0.01054284
1779586029151684999,A_+,0.34913209424985325,0.0,1.4733022347784934,-2.9139144526671332,-0.08681267699419795,-0.016667894356545847,0.0,0.0,0.0,0.0,0.0,0.0,0.0,0.3449249999999999,-0.155925,0.29295,-0.08242584,-0.09488556,0.01054284
1779586029151684999,A_+,0.35045836537528885,0.0,1.4733022347784934,-2.9139144526671332,-0.08681267699419795,-0.016667894356545847,0.0,0.0,0.0,0.0,0.0,0.0,0.0,0.3449249999999999,-0.155925,0.29295,-0.08242584,-0.09488556,0.01054284
1779586029177753925,A_+,0.35176592987500044,0.0,1.4733022347784934,-2.9139144526671332,-0.08681267699419795,-0.016667894356545847,0.0,0.0,0.0,0.0,0.0,0.0,0.0,0.326025,-0.127575,0.3024,-0.09392712,-0.08530115999999999,0.00862596
1779586029177753925,A_+,0.353138285499881,0.0,1.4733022347784934,-2.9139144526671332,-0.08681267699419795,-0.016667894356545847,0.0,0.0,0.0,0.0,0.0,0.0,0.0,0.326025,-0.127575,0.3024,-0.09392712,-0.08530115999999999,0.00862596
1779586029177753925,A_+,0.3544622767499277,0.0,1.4733022347784934,-2.9139144526671332,-0.08681267699419795,-0.016667894356545847,0.0,0.0,0.0,0.0,0.0,0.0,0.0,0.326025,-0.127575,0.3024,-0.09392712,-0.08530115999999999,0.00862596
1779586029201587438,A_+,0.3557812283752355,0.0,1.4733022347784934,-2.9139144526671332,-0.08681267699419795,-0.016667894356545847,0.0,0.0,0.0,0.0,0.0,0.0,0.0,0.33075,-0.19845,0.2835,-0.08913491999999999,-0.09680244,0.01629348
1779586029201587438,A_+,0.3571664512501229,0.0,1.4733022347784934,-2.9139144526671332,-0.08681267699419795,-0.016667894356545847,0.0,0.0,0.0,0.0,0.0,0.0,0.0,0.33075,-0.19845,0.2835,-0.08913491999999999,-0.09680244,0.01629348
1779586029201587438,A_+,0.35848505487501825,0.0,1.4733022347784934,-2.9139144526671332,-0.08681267699419795,-0.016667894356545847,0.0,0.0,0.0,0.0,0.0,0.0,0.0,0.33075,-0.19845,0.2835,-0.08913491999999999,-0.09680244,0.01629348
1779586029241572856,A_+,0.35978489587523654,0.0,1.4733022347784934,-2.9139144526671332,-0.08681267699419795,-0.016667894356545847,0.0,0.0,0.0,0.0,0.0,0.0,0.0,0.3402,-0.137025,0.307125,-0.09296868,-0.09392712,0.0095844
1779586029241572856,A_+,0.3611497801252881,0.0,1.4733022347784934,-2.9139144526671332,-0.08681267699419795,-0.016667894356545847,0.0,0.0,0.0,0.0,0.0,0.0,0.0,0.3402,-0.137025,0.307125,-0.09296868,-0.09392712,0.0095844
1779586029241572856,A_+,0.3624651720001566,0.0,1.4733022347784934,-2.9139144526671332,-0.08681267699419795,-0.016667894356545847,0.0,0.0,0.0,0.0,0.0,0.0,0.0,0.3402,-0.137025,0.307125,-0.09296868,-0.09392712,0.0095844
1779586029276573419,A_+,0.3637749602498843,0.0,1.4733022347784934,-2.9139144526671332,-0.08681267699419795,-0.016667894356545847,0.0,0.0,0.0,0.0,0.0,0.0,0.0,0.3449249999999999,-0.17955,0.29295,-0.08434272,-0.08721804,0.00670908
1779586029276573419,A_+,0.3651464121248864,0.0,1.4733022347784934,-2.9139144526671332,-0.08681267699419795,-0.016667894356545847,0.0,0.0,0.0,0.0,0.0,0.0,0.0,0.3449249999999999,-0.17955,0.29295,-0.08434272,-0.08721804,0.00670908
1779586029276573419,A_+,0.36647131525023724,0.0,1.4733022347784934,-2.9139144526671332,-0.08681267699419795,-0.016667894356545847,0.0,0.0,0.0,0.0,0.0,0.0,0.0,0.3449249999999999,-0.17955,0.29295,-0.08434272,-0.08721804,0.00670908
1779586029316578626,A_+,0.3677784517499276,0.0,1.4733022347784934,-2.9139144526671332,-0.08681267699419795,-0.016667894356545847,0.0,0.0,0.0,0.0,0.0,0.0,0.0,0.33075,-0.14175,0.31185,-0.09201024,-0.09871932,0.00862596
1779586029316578626,A_+,0.36914948750018084,0.0,1.4733022347784934,-2.9139144526671332,-0.08681267699419795,-0.016667894356545847,0.0,0.0,0.0,0.0,0.0,0.0,0.0,0.33075,-0.14175,0.31185,-0.09201024,-0.09871932,0.00862596
1779586029316578626,A_+,0.3704725828752089,0.0,1.4733022347784934,-2.9139144526671332,-0.08681267699419795,-0.016667894356545847,0.0,0.0,0.0,0.0,0.0,0.0,0.0,0.33075,-0.14175,0.31185,-0.09201024,-0.09871932,0.00862596
1779586029346590042,A_+,0.37178067925015057,0.0,1.4733022347784934,-2.9139144526671332,-0.08681267699419795,-0.016667894356545847,0.0,0.0,0.0,0.0,0.0,0.0,0.0,0.3591,-0.137025,0.29767499999999997,-0.09009336,-0.09488556,0.00670908
1779586029346590042,A_+,0.3731493512500492,0.0,1.4733022347784934,-2.9139144526671332,-0.08681267699419795,-0.016667894356545847,0.0,0.0,0.0,0.0,0.0,0.0,0.0,0.3591,-0.137025,0.29767499999999997,-0.09009336,-0.09488556,0.00670908
1779586029346590042,A_+,0.3744697547499527,0.0,1.4733022347784934,-2.9139144526671332,-0.08681267699419795,-0.016667894356545847,0.0,0.0,0.0,0.0,0.0,0.0,0.0,0.3591,-0.137025,0.29767499999999997,-0.09009336,-0.09488556,0.00670908
1779586029381602287,A_+,0.3757759833752061,0.0,1.4733022347784934,-2.9139144526671332,-0.08681267699419795,-0.016667894356545847,0.0,0.0,0.0,0.0,0.0,0.0,0.0,0.33075,-0.19372499999999998,0.29295,-0.08913491999999999,-0.09296868,0.01533504
1779586029381602287,A_+,0.3771788848748656,0.0,1.4733022347784934,-2.9139144526671332,-0.08681267699419795,-0.016667894356545847,0.0,0.0,0.0,0.0,0.0,0.0,0.0,0.33075,-0.19372499999999998,0.29295,-0.08913491999999999,-0.09296868,0.01533504
1779586029381602287,A_+,0.37850510787529856,0.0,1.4733022347784934,-2.9139144526671332,-0.08681267699419795,-0.016667894356545847,0.0,0.0,0.0,0.0,0.0,0.0,0.0,0.33075,-0.19372499999999998,0.29295,-0.08913491999999999,-0.09296868,0.01533504
1779586029401609420,A_+,0.3798218636252386,0.0,1.4733022347784934,-2.9139144526671332,-0.08681267699419795,-0.016667894356545847,0.0,0.0,0.0,0.0,0.0,0.0,0.0,0.36382499999999995,-0.1701,0.3024,-0.08913491999999999,-0.08817648,0.00862596
1779586029401609420,A_+,0.38121612175018527,0.0,1.4733022347784934,-2.9139144526671332,-0.08681267699419795,-0.016667894356545847,0.0,0.0,0.0,0.0,0.0,0.0,0.0,0.36382499999999995,-0.1701,0.3024,-0.08913491999999999,-0.08817648,0.00862596
1779586029401609420,A_+,0.3825366252499407,0.0,1.4733022347784934,-2.9139144526671332,-0.08681267699419795,-0.016667894356545847,0.0,0.0,0.0,0.0,0.0,0.0,0.0,0.36382499999999995,-0.1701,0.3024,-0.08913491999999999,-0.08817648,0.00862596
1779586029446596622,A_+,0.3838406939999004,0.0,1.4733022347784934,-2.9139144526671332,-0.08681267699419795,-0.016667894356545847,0.0,0.0,0.0,0.0,0.0,0.0,0.0,0.6000749999999999,-0.14175,0.278775,-0.08721804,-0.09488556,0.0095844
1779586029446596622,A_+,0.38521781337522043,0.0,1.4733022347784934,-2.9139144526671332,-0.08681267699419795,-0.016667894356545847,0.0,0.0,0.0,0.0,0.0,0.0,0.0,0.6000749999999999,-0.14175,0.278775,-0.08721804,-0.09488556,0.0095844
1779586029446596622,A_+,0.3865311453751019,0.0,1.4733022347784934,-2.9139144526671332,-0.08681267699419795,-0.016667894356545847,0.0,0.0,0.0,0.0,0.0,0.0,0.0,0.6000749999999999,-0.14175,0.278775,-0.08721804,-0.09488556,0.0095844
1779586029476592063,A_+,0.38785097300024063,0.0,1.4733022347784934,-2.9139144526671332,-0.08681267699419795,-0.016667894356545847,0.0,0.0,0.0,0.0,0.0,0.0,0.0,0.6000749999999999,-0.165375,0.335475,-0.08721804,-0.08338428,0.00575064
1779586029476592063,A_+,0.38922653250028816,0.0,1.4733022347784934,-2.9139144526671332,-0.08681267699419795,-0.016667894356545847,0.0,0.0,0.0,0.0,0.0,0.0,0.0,0.6000749999999999,-0.165375,0.335475,-0.08721804,-0.08338428,0.00575064
1779586029476592063,A_+,0.3905609030002779,0.0,1.4733022347784934,-2.9139144526671332,-0.08681267699419795,-0.016667894356545847,0.0,0.0,0.0,0.0,0.0,0.0,0.0,0.6000749999999999,-0.165375,0.335475,-0.08721804,-0.08338428,0.00575064
1779586029507029533,A_+,0.3918725471248763,0.0,1.4733022347784934,-2.9139144526671332,-0.08681267699419795,-0.016667894356545847,0.0,0.0,0.0,0.0,0.0,0.0,0.0,0.6000749999999999,-0.146475,0.278775,-0.08817648,-0.09296868,0.01150128
1779586029507029533,A_+,0.393248054625019,0.0,1.4733022347784934,-2.9139144526671332,-0.08681267699419795,-0.016667894356545847,0.0,0.0,0.0,0.0,0.0,0.0,0.0,0.6000749999999999,-0.146475,0.278775,-0.08817648,-0.09296868,0.01150128
1779586029507029533,A_+,0.3945754216251771,0.0,1.4733022347784934,-2.9139144526671332,-0.08681267699419795,-0.016667894356545847,0.0,0.0,0.0,0.0,0.0,0.0,0.0,0.6000749999999999,-0.146475,0.278775,-0.08817648,-0.09296868,0.01150128
1779586029541596651,A_+,0.3959041045000049,0.0,1.4733022347784934,-2.9139144526671332,-0.08681267699419795,-0.016667894356545847,0.0,0.0,0.0,0.0,0.0,0.0,0.0,0.590625,-0.19845,0.307125,-0.08913491999999999,-0.09392712,-0.00191688
1779586029541596651,A_+,0.397282239749984,0.0,1.4733022347784934,-2.9139144526671332,-0.08681267699419795,-0.016667894356545847,0.0,0.0,0.0,0.0,0.0,0.0,0.0,0.590625,-0.19845,0.307125,-0.08913491999999999,-0.09392712,-0.00191688
1779586029541596651,A_+,0.3986035952502789,0.0,1.4733022347784934,-2.9139144526671332,-0.08681267699419795,-0.016667894356545847,0.0,0.0,0.0,0.0,0.0,0.0,0.0,0.590625,-0.19845,0.307125,-0.08913491999999999,-0.09392712,-0.00191688
1779586029571604728,A_+,0.39991481137485607,0.0,1.4733022347784934,-2.9139144526671332,-0.08681267699419795,-0.016667894356545847,0.0,0.0,0.0,0.0,0.0,0.0,0.0,0.5953499999999999,-0.19845,0.31185,-0.08721804,-0.09201024,0.01054284
1779586029571604728,A_+,0.401292670750081,0.0,1.4733022347784934,-2.9139144526671332,-0.08681267699419795,-0.016667894356545847,0.0,0.0,0.0,0.0,0.0,0.0,0.0,0.5953499999999999,-0.19845,0.31185,-0.08721804,-0.09201024,0.01054284
1779586029571604728,A_+,0.4026209216249299,0.0,1.4733022347784934,-2.9139144526671332,-0.08681267699419795,-0.016667894356545847,0.0,0.0,0.0,0.0,0.0,0.0,0.0,0.5953499999999999,-0.19845,0.31185,-0.08721804,-0.09201024,0.01054284
1779586029601634979,A_+,0.40393764149985145,0.0,1.4733022347784934,-2.9139144526671332,-0.08681267699419795,-0.016667894356545847,0.0,0.0,0.0,0.0,0.0,0.0,0.0,0.6000749999999999,-0.099225,0.31185,-0.09296868,-0.09871932,0.014376599999999998
1779586029601634979,A_+,0.4053210883748761,0.0,1.4733022347784934,-2.9139144526671332,-0.08681267699419795,-0.016667894356545847,0.0,0.0,0.0,0.0,0.0,0.0,0.0,0.6000749999999999,-0.099225,0.31185,-0.09296868,-0.09871932,0.014376599999999998
1779586029601634979,A_+,0.40664436762517653,0.0,1.4733022347784934,-2.9139144526671332,-0.08681267699419795,-0.016667894356545847,0.0,0.0,0.0,0.0,0.0,0.0,0.0,0.6000749999999999,-0.099225,0.31185,-0.09296868,-0.09871932,0.014376599999999998
1779586029616607904,A_+,0.40795064824988003,0.0,1.4733022347784934,-2.9139144526671332,-0.08681267699419795,-0.016667894356545847,0.0,0.0,0.0,0.0,0.0,0.0,0.0,0.5859,-0.165375,0.3024,-0.09392712,-0.09201024,0.01245972
1779586029616607904,A_+,0.40931436450000547,0.0,1.4733022347784934,-2.9139144526671332,-0.08681267699419795,-0.016667894356545847,0.0,0.0,0.0,0.0,0.0,0.0,0.0,0.5859,-0.165375,0.3024,-0.09392712,-0.09201024,0.01245972
1779586029616607904,A_+,0.41062226900021415,0.0,1.4733022347784934,-2.9139144526671332,-0.08681267699419795,-0.016667894356545847,0.0,0.0,0.0,0.0,0.0,0.0,0.0,0.5859,-0.165375,0.3024,-0.09392712,-0.09201024,0.01245972
1779586029641609430,A_+,0.4119359690002966,0.0,1.4733022347784934,-2.9139144526671332,-0.08681267699419795,-0.016667894356545847,0.0,0.0,0.0,0.0,0.0,0.0,0.0,0.6048,-0.137025,0.29767499999999997,-0.08817648,-0.0910518,0.00287532
1779586029641609430,A_+,0.41333255087511134,0.0,1.4733022347784934,-2.9139144526671332,-0.08681267699419795,-0.016667894356545847,0.0,0.0,0.0,0.0,0.0,0.0,0.0,0.6048,-0.137025,0.29767499999999997,-0.08817648,-0.0910518,0.00287532
1779586029641609430,A_+,0.4146863599999051,0.0,1.4733022347784934,-2.9139144526671332,-0.08681267699419795,-0.016667894356545847,0.0,0.0,0.0,0.0,0.0,0.0,0.0,0.6048,-0.137025,0.29767499999999997,-0.08817648,-0.0910518,0.00287532
1779586029661614179,A_+,0.41599481237517466,0.0,1.4733022347784934,-2.9139144526671332,-0.08681267699419795,-0.016667894356545847,0.0,0.0,0.0,0.0,0.0,0.0,0.0,0.637875,-0.184275,0.29295,-0.08721804,-0.11309592,0.0095844
1779586029661614179,A_+,0.417367959999865,0.0,1.4733022347784934,-2.9139144526671332,-0.08681267699419795,-0.016667894356545847,0.0,0.0,0.0,0.0,0.0,0.0,0.0,0.637875,-0.184275,0.29295,-0.08721804,-0.11309592,0.0095844
1779586029661614179,A_+,0.4186956349999491,0.0,1.4733022347784934,-2.9139144526671332,-0.08681267699419795,-0.016667894356545847,0.0,0.0,0.0,0.0,0.0,0.0,0.0,0.637875,-0.184275,0.29295,-0.08721804,-0.11309592,0.0095844
1779586029676612138,A_+,0.4200358851248893,0.0,1.4733022347784934,-2.9139144526671332,-0.08681267699419795,-0.016667894356545847,0.0,0.0,0.0,0.0,0.0,0.0,0.0,0.590625,-0.184275,0.31185,-0.08721804,-0.09392712,0.00191688
1779586029676612138,A_+,0.4214082327498545,0.0,1.4733022347784934,-2.9139144526671332,-0.08681267699419795,-0.016667894356545847,0.0,0.0,0.0,0.0,0.0,0.0,0.0,0.590625,-0.184275,0.31185,-0.08721804,-0.09392712,0.00191688
1779586029676612138,A_+,0.42273188812487206,0.0,1.4733022347784934,-2.9139144526671332,-0.08681267699419795,-0.016667894356545847,0.0,0.0,0.0,0.0,0.0,0.0,0.0,0.590625,-0.184275,0.31185,-0.08721804,-0.09392712,0.00191688
1779586029691603183,A_+,0.42405574337499274,0.0,1.4733022347784934,-2.9139144526671332,-0.08681267699419795,-0.016667894356545847,0.0,0.0,0.0,0.0,0.0,0.0,0.0,0.562275,-0.17955,0.29295,-0.08625959999999999,-0.09009336,0.01054284
1779586029691603183,A_+,0.4254307228752623,0.0,1.4733022347784934,-2.9139144526671332,-0.08681267699419795,-0.016667894356545847,0.0,0.0,0.0,0.0,0.0,0.0,0.0,0.562275,-0.17955,0.29295,-0.08625959999999999,-0.09009336,0.01054284
1779586029691603183,A_+,0.426751862375113,0.0,1.4733022347784934,-2.9139144526671332,-0.08681267699419795,-0.016667894356545847,0.0,0.0,0.0,0.0,0.0,0.0,0.0,0.562275,-0.17955,0.29295,-0.08625959999999999,-0.09009336,0.01054284
1779586029706615447,A_+,0.4280755856252654,0.0,1.4733022347784934,-2.9139144526671332,-0.08681267699419795,-0.016667894356545847,0.0,0.0,0.0,0.0,0.0,0.0,0.0,0.5717249999999999,-0.17482499999999998,0.29295,-0.0910518,-0.08913491999999999,0.0047922
1779586029706615447,A_+,0.42945862850001504,0.0,1.4733022347784934,-2.9139144526671332,-0.08681267699419795,-0.016667894356545847,0.0,0.0,0.0,0.0,0.0,0.0,0.0,0.5717249999999999,-0.17482499999999998,0.29295,-0.0910518,-0.08913491999999999,0.0047922
1779586029706615447,A_+,0.43078371174988206,0.0,1.4733022347784934,-2.9139144526671332,-0.08681267699419795,-0.016667894356545847,0.0,0.0,0.0,0.0,0.0,0.0,0.0,0.5717249999999999,-0.17482499999999998,0.29295,-0.0910518,-0.08913491999999999,0.0047922
1779586029732481479,A_+,0.4320956438750727,0.0,1.4733022347784934,-2.9139144526671332,-0.08681267699419795,-0.016667894356545847,0.0,0.0,0.0,0.0,0.0,0.0,0.0,0.5764499999999999,-0.17955,0.31185,-0.09201024,-0.09392712,0.00287532
1779586029732481479,A_+,0.4334773708751527,0.0,1.4733022347784934,-2.9139144526671332,-0.08681267699419795,-0.016667894356545847,0.0,0.0,0.0,0.0,0.0,0.0,0.0,0.5764499999999999,-0.17955,0.31185,-0.09201024,-0.09392712,0.00287532
1779586029732481479,A_+,0.4347901788751187,0.0,1.4733022347784934,-2.9139144526671332,-0.08681267699419795,-0.016667894356545847,0.0,0.0,0.0,0.0,0.0,0.0,0.0,0.5764499999999999,-0.17955,0.31185,-0.09201024,-0.09392712,0.00287532
1779586029751608133,A_+,0.4360998512502192,0.0,1.4733022347784934,-2.9139144526671332,-0.08681267699419795,-0.016667894356545847,0.0,0.0,0.0,0.0,0.0,0.0,0.0,0.590625,-0.17482499999999998,0.3024,-0.08434272,-0.08913491999999999,0.00575064
1779586029751608133,A_+,0.4374907976252871,0.0,1.4733022347784934,-2.9139144526671332,-0.08681267699419795,-0.016667894356545847,0.0,0.0,0.0,0.0,0.0,0.0,0.0,0.590625,-0.17482499999999998,0.3024,-0.08434272,-0.08913491999999999,0.00575064
1779586029751608133,A_+,0.43880586949990175,0.0,1.4733022347784934,-2.9139144526671332,-0.08681267699419795,-0.016667894356545847,0.0,0.0,0.0,0.0,0.0,0.0,0.0,0.590625,-0.17482499999999998,0.3024,-0.08434272,-0.08913491999999999,0.00575064
1779586029796640157,A_+,0.4401115941250282,0.0,1.4733022347784934,-2.9139144526671332,-0.08681267699419795,-0.016667894356545847,0.0,0.0,0.0,0.0,0.0,0.0,0.0,0.5859,-0.17482499999999998,0.316575,-0.08625959999999999,-0.08434272,0.0047922
1779586029796640157,A_+,0.4414833978748902,0.0,1.4733022347784934,-2.9139144526671332,-0.08681267699419795,-0.016667894356545847,0.0,0.0,0.0,0.0,0.0,0.0,0.0,0.5859,-0.17482499999999998,0.316575,-0.08625959999999999,-0.08434272,0.0047922
1779586029796640157,A_+,0.44280026562501007,0.0,1.4733022347784934,-2.9139144526671332,-0.08681267699419795,-0.016667894356545847,0.0,0.0,0.0,0.0,0.0,0.0,0.0,0.5859,-0.17482499999999998,0.316575,-0.08625959999999999,-0.08434272,0.0047922
1779586029811733961,A_+,0.4441045142502844,0.0,1.4733022347784934,-2.9139144526671332,-0.08681267699419795,-0.016667894356545847,0.0,0.0,0.0,0.0,0.0,0.0,0.0,0.6000749999999999,-0.16065,0.307125,-0.08913491999999999,-0.0910518,0.0047922
1779586029811733961,A_+,0.4454861453750709,0.0,1.4733022347784934,-2.9139144526671332,-0.08681267699419795,-0.016667894356545847,0.0,0.0,0.0,0.0,0.0,0.0,0.0,0.6000749999999999,-0.16065,0.307125,-0.08913491999999999,-0.0910518,0.0047922
1779586029811733961,A_+,0.4468002052499287,0.0,1.4733022347784934,-2.9139144526671332,-0.08681267699419795,-0.016667894356545847,0.0,0.0,0.0,0.0,0.0,0.0,0.0,0.6000749999999999,-0.16065,0.307125,-0.08913491999999999,-0.0910518,0.0047922
1779586029852108240,A_+,0.448109313625082,0.0,1.4733022347784934,-2.9139144526671332,-0.08681267699419795,-0.016667894356545847,0.0,0.0,0.0,0.0,0.0,0.0,0.0,0.5953499999999999,-0.16065,0.29767499999999997,-0.08434272,-0.09392712,0.014376599999999998
1779586029852108240,A_+,0.4494812173752507,0.0,1.4733022347784934,-2.9139144526671332,-0.08681267699419795,-0.016667894356545847,0.0,0.0,0.0,0.0,0.0,0.0,0.0,0.5953499999999999,-0.16065,0.29767499999999997,-0.08434272,-0.09392712,0.014376599999999998
1779586029852108240,A_+,0.4508055926248744,0.0,1.4733022347784934,-2.9139144526671332,-0.08681267699419795,-0.016667894356545847,0.0,0.0,0.0,0.0,0.0,0.0,0.0,0.5953499999999999,-0.16065,0.29767499999999997,-0.08434272,-0.09392712,0.014376599999999998
1779586029871954679,A_+,0.452113676999943,0.0,1.4733022347784934,-2.9139144526671332,-0.08681267699419795,-0.016667894356545847,0.0,0.0,0.0,0.0,0.0,0.0,0.0,0.6048,-0.17955,0.3213,-0.08721804,-0.09009336,0.00191688
1779586029871954679,A_+,0.4535013156250898,0.0,1.4733022347784934,-2.9139144526671332,-0.08681267699419795,-0.016667894356545847,0.0,0.0,0.0,0.0,0.0,0.0,0.0,0.6048,-0.17955,0.3213,-0.08721804,-0.09009336,0.00191688
1779586029871954679,A_+,0.4548197273752521,0.0,1.4733022347784934,-2.9139144526671332,-0.08681267699419795,-0.016667894356545847,0.0,0.0,0.0,0.0,0.0,0.0,0.0,0.6048,-0.17955,0.3213,-0.08721804,-0.09009336,0.00191688
1779586029886626482,A_+,0.4561233442500452,0.0,1.4733022347784934,-2.9139144526671332,-0.08681267699419795,-0.016667894356545847,0.0,0.0,0.0,0.0,0.0,0.0,0.0,0.581175,-0.155925,0.307125,-0.08625959999999999,-0.07284144,0.01341816
1779586029886626482,A_+,0.4574933602502824,0.0,1.4733022347784934,-2.9139144526671332,-0.08681267699419795,-0.016667894356545847,0.0,0.0,0.0,0.0,0.0,0.0,0.0,0.581175,-0.155925,0.307125,-0.08625959999999999,-0.07284144,0.01341816
1779586029886626482,A_+,0.4587932093750169,0.0,1.4733022347784934,-2.9139144526671332,-0.08681267699419795,-0.016667894356545847,0.0,0.0,0.0,0.0,0.0,0.0,0.0,0.581175,-0.155925,0.307125,-0.08625959999999999,-0.07284144,0.01341816
1779586029911619424,A_+,0.46010327375006455,0.0,1.4733022347784934,-2.9139144526671332,-0.08681267699419795,-0.016667894356545847,0.0,0.0,0.0,0.0,0.0,0.0,0.0,0.5859,-0.146475,0.28822499999999995,-0.09296868,-0.09776088000000001,0.01245972
1779586029911619424,A_+,0.46153998087493164,0.0,1.4733022347784934,-2.9139144526671332,-0.08681267699419795,-0.016667894356545847,0.0,0.0,0.0,0.0,0.0,0.0,0.0,0.5859,-0.146475,0.28822499999999995,-0.09296868,-0.09776088000000001,0.01245972
1779586029911619424,A_+,0.46285628887517305,0.0,1.4733022347784934,-2.9139144526671332,-0.08681267699419795,-0.016667894356545847,0.0,0.0,0.0,0.0,0.0,0.0,0.0,0.5859,-0.146475,0.28822499999999995,-0.09296868,-0.09776088000000001,0.01245972
1779586029937172889,A_+,0.4641576498752329,0.0,1.4733022347784934,-2.9139144526671332,-0.08681267699419795,-0.016667894356545847,0.0,0.0,0.0,0.0,0.0,0.0,0.0,0.5859,-0.184275,0.3024,-0.08817648,-0.08913491999999999,0.014376599999999998
1779586029937172889,A_+,0.46552802987525865,0.0,1.4733022347784934,-2.9139144526671332,-0.08681267699419795,-0.016667894356545847,0.0,0.0,0.0,0.0,0.0,0.0,0.0,0.5859,-0.184275,0.3024,-0.08817648,-0.08913491999999999,0.014376599999999998
1779586029937172889,A_+,0.4668446497498735,0.0,1.4733022347784934,-2.9139144526671332,-0.08681267699419795,-0.016667894356545847,0.0,0.0,0.0,0.0,0.0,0.0,0.0,0.5859,-0.184275,0.3024,-0.08817648,-0.08913491999999999,0.014376599999999998
1779586029957743644,A_+,0.46815149437497894,0.0,1.4733022347784934,-2.9139144526671332,-0.08681267699419795,-0.016667894356545847,0.0,0.0,0.0,0.0,0.0,0.0,0.0,0.5953499999999999,-0.17955,0.316575,-0.08721804,-0.0910518,0.00766752
1779586029957743644,A_+,0.4695377651250965,0.0,1.4733022347784934,-2.9139144526671332,-0.08681267699419795,-0.016667894356545847,0.0,0.0,0.0,0.0,0.0,0.0,0.0,0.5953499999999999,-0.17955,0.316575,-0.08721804,-0.0910518,0.00766752
1779586029957743644,A_+,0.47084942137507824,0.0,1.4733022347784934,-2.9139144526671332,-0.08681267699419795,-0.016667894356545847,0.0,0.0,0.0,0.0,0.0,0.0,0.0,0.5953499999999999,-0.17955,0.316575,-0.08721804,-0.0910518,0.00766752
1779586030022750377,A_+,0.4721620656250707,0.0,1.4733022347784934,-2.9139144526671332,-0.08681267699419795,-0.016667894356545847,0.0,0.0,0.0,0.0,0.0,0.0,0.0,0.590625,-0.146475,0.28822499999999995,-0.08625959999999999,-0.10159463999999999,0.0095844
1779586030022750377,A_+,0.47353216962528677,0.0,1.4733022347784934,-2.9139144526671332,-0.08681267699419795,-0.016667894356545847,0.0,0.0,0.0,0.0,0.0,0.0,0.0,0.590625,-0.146475,0.28822499999999995,-0.08625959999999999,-0.10159463999999999,0.0095844
1779586030022750377,A_+,0.47484661775024506,0.0,1.4733022347784934,-2.9139144526671332,-0.08681267699419795,-0.016667894356545847,0.0,0.0,0.0,0.0,0.0,0.0,0.0,0.590625,-0.146475,0.28822499999999995,-0.08625959999999999,-0.10159463999999999,0.0095844
1779586030052348613,A_+,0.4761520823749379,0.0,1.4733022347784934,-2.9139144526671332,-0.08681267699419795,-0.016667894356545847,0.0,0.0,0.0,0.0,0.0,0.0,0.0,0.5717249999999999,-0.189,0.3024,-0.09009336,-0.09201024,0.01341816
1779586030052348613,A_+,0.47752314637500604,0.0,1.4733022347784934,-2.9139144526671332,-0.08681267699419795,-0.016667894356545847,0.0,0.0,0.0,0.0,0.0,0.0,0.0,0.5717249999999999,-0.189,0.3024,-0.09009336,-0.09201024,0.01341816
1779586030052348613,A_+,0.47885354124991864,0.0,1.4733022347784934,-2.9139144526671332,-0.08681267699419795,-0.016667894356545847,0.0,0.0,0.0,0.0,0.0,0.0,0.0,0.5717249999999999,-0.189,0.3024,-0.09009336,-0.09201024,0.01341816
1779586030086640357,A_+,0.4801644895001118,0.0,1.4733022347784934,-2.9139144526671332,-0.08681267699419795,-0.016667894356545847,0.0,0.0,0.0,0.0,0.0,0.0,0.0,0.6048,-0.146475,0.307125,-0.09009336,-0.08146740000000001,0.00095844
1779586030086640357,A_+,0.4815431688748504,0.0,1.4733022347784934,-2.9139144526671332,-0.08681267699419795,-0.016667894356545847,0.0,0.0,0.0,0.0,0.0,0.0,0.0,0.6048,-0.146475,0.307125,-0.09009336,-0.08146740000000001,0.00095844
1779586030086640357,A_+,0.4828655603751031,0.0,1.4733022347784934,-2.9139144526671332,-0.08681267699419795,-0.016667894356545847,0.0,0.0,0.0,0.0,0.0,0.0,0.0,0.6048,-0.146475,0.307125,-0.09009336,-0.08146740000000001,0.00095844
1779586030131946086,A_+,0.4841741528748571,0.0,1.4733022347784934,-2.9139144526671332,-0.08681267699419795,-0.016667894356545847,0.0,0.0,0.0,0.0,0.0,0.0,0.0,0.609525,-0.16065,0.3024,-0.08817648,-0.09201024,0.00766752
1779586030131946086,A_+,0.48555419612512196,0.0,1.4733022347784934,-2.9139144526671332,-0.08681267699419795,-0.016667894356545847,0.0,0.0,0.0,0.0,0.0,0.0,0.0,0.609525,-0.16065,0.3024,-0.08817648,-0.09201024,0.00766752
1779586030131946086,A_+,0.4868926945000567,0.0,1.4733022347784934,-2.9139144526671332,-0.08681267699419795,-0.016667894356545847,0.0,0.0,0.0,0.0,0.0,0.0,0.0,0.609525,-0.16065,0.3024,-0.08817648,-0.09201024,0.00766752
1779586030192368984,A_+,0.4882060426252792,0.0,1.4733022347784934,-2.9139144526671332,-0.08681267699419795,-0.016667894356545847,0.0,0.0,0.0,0.0,0.0,0.0,0.0,0.5953499999999999,-0.155925,0.316575,-0.08530115999999999,-0.08913491999999999,0.01054284
1779586030192368984,A_+,0.4895887377501822,0.0,1.4733022347784934,-2.9139144526671332,-0.08681267699419795,-0.016667894356545847,0.0,0.0,0.0,0.0,0.0,0.0,0.0,0.5953499999999999,-0.155925,0.316575,-0.08530115999999999,-0.08913491999999999,0.01054284
1779586030192368984,A_+,0.4909136930000386,0.0,1.4733022347784934,-2.9139144526671332,-0.08681267699419795,-0.016667894356545847,0.0,0.0,0.0,0.0,0.0,0.0,0.0,0.5953499999999999,-0.155925,0.316575,-0.08530115999999999,-0.08913491999999999,0.01054284
1779586030241683959,A_+,0.49222733312490163,0.0,1.4733022347784934,-2.9139144526671332,-0.08681267699419795,-0.016667894356545847,0.0,0.0,0.0,0.0,0.0,0.0,0.0,0.6237,-0.16065,0.316575,-0.09009336,-0.08625959999999999,0.00862596
1779586030241683959,A_+,0.49360413662498104,0.0,1.4733022347784934,-2.9139144526671332,-0.08681267699419795,-0.016667894356545847,0.0,0.0,0.0,0.0,0.0,0.0,0.0,0.6237,-0.16065,0.316575,-0.09009336,-0.08625959999999999,0.00862596
1779586030241683959,A_+,0.49492416024986596,0.0,1.4733022347784934,-2.9139144526671332,-0.08681267699419795,-0.016667894356545847,0.0,0.0,0.0,0.0,0.0,0.0,0.0,0.6237,-0.16065,0.316575,-0.09009336,-0.08625959999999999,0.00862596
1779586030261646032,A_+,0.4962331887500113,0.0,1.4733022347784934,-2.9139144526671332,-0.08681267699419795,-0.016667894356545847,0.0,0.0,0.0,0.0,0.0,0.0,0.0,0.6048,-0.155925,0.29295,-0.08817648,-0.08913491999999999,0.01150128
1779586030261646032,A_+,0.4976038487502592,0.0,1.4733022347784934,-2.9139144526671332,-0.08681267699419795,-0.016667894356545847,0.0,0.0,0.0,0.0,0.0,0.0,0.0,0.6048,-0.155925,0.29295,-0.08817648,-0.08913491999999999,0.01150128
1779586030261646032,A_+,0.49892548825027916,0.0,1.4733022347784934,-2.9139144526671332,-0.08681267699419795,-0.016667894356545847,0.0,0.0,0.0,0.0,0.0,0.0,0.0,0.6048,-0.155925,0.29295,-0.08817648,-0.08913491999999999,0.01150128
1779586030286675214,A_+,0.5002402602499387,0.0,1.4733022347784934,-2.9139144526671332,-0.08681267699419795,-0.016667894356545847,0.0,0.0,0.0,0.0,0.0,0.0,0.0,0.5953499999999999,-0.1512,0.3213,-0.09009336,-0.09296868,0.00862596
1779586030286675214,A_+,0.501612952125015,0.0,1.4733022347784934,-2.9139144526671332,-0.08681267699419795,-0.016667894356545847,0.0,0.0,0.0,0.0,0.0,0.0,0.0,0.5953499999999999,-0.1512,0.3213,-0.09009336,-0.09296868,0.00862596
1779586030286675214,A_+,0.5029336117499952,0.0,1.4733022347784934,-2.9139144526671332,-0.08681267699419795,-0.016667894356545847,0.0,0.0,0.0,0.0,0.0,0.0,0.0,0.5953499999999999,-0.1512,0.3213,-0.09009336,-0.09296868,0.00862596
1779586030296638727,A_+,0.5042446840002413,0.0,1.4733022347784934,-2.9139144526671332,-0.08681267699419795,-0.016667894356545847,0.0,0.0,0.0,0.0,0.0,0.0,0.0,0.609525,-0.17482499999999998,0.27405,-0.095844,-0.08625959999999999,0.0047922
1779586030296638727,A_+,0.5056194836251962,0.0,1.4733022347784934,-2.9139144526671332,-0.08681267699419795,-0.016667894356545847,0.0,0.0,0.0,0.0,0.0,0.0,0.0,0.609525,-0.17482499999999998,0.27405,-0.095844,-0.08625959999999999,0.0047922
1779586030296638727,A_+,0.5069350956250673,0.0,1.4733022347784934,-2.9139144526671332,-0.08681267699419795,-0.016667894356545847,0.0,0.0,0.0,0.0,0.0,0.0,0.0,0.609525,-0.17482499999999998,0.27405,-0.095844,-0.08625959999999999,0.0047922
1779586030322470426,A_+,0.5082399683751646,0.0,1.4733022347784934,-2.9139144526671332,-0.08681267699419795,-0.016667894356545847,0.0,0.0,0.0,0.0,0.0,0.0,0.0,0.6000749999999999,-0.1512,0.29767499999999997,-0.08625959999999999,-0.09201024,0.00766752
1779586030322470426,A_+,0.5096159240001725,0.0,1.4733022347784934,-2.9139144526671332,-0.08681267699419795,-0.016667894356545847,0.0,0.0,0.0,0.0,0.0,0.0,0.0,0.6000749999999999,-0.1512,0.29767499999999997,-0.08625959999999999,-0.09201024,0.00766752
1779586030322470426,A_+,0.5109326358751787,0.0,1.4733022347784934,-2.9139144526671332,-0.08681267699419795,-0.016667894356545847,0.0,0.0,0.0,0.0,0.0,0.0,0.0,0.6000749999999999,-0.1512,0.29767499999999997,-0.08625959999999999,-0.09201024,0.00766752
1779586030336698770,A_+,0.5122391965001043,0.0,1.4733022347784934,-2.9139144526671332,-0.08681267699419795,-0.016667894356545847,0.0,0.0,0.0,0.0,0.0,0.0,0.0,0.590625,-0.189,0.3024,-0.08625959999999999,-0.0910518,-0.00095844
1779586030336698770,A_+,0.5136273072498625,0.0,1.4733022347784934,-2.9139144526671332,-0.08681267699419795,-0.016667894356545847,0.0,0.0,0.0,0.0,0.0,0.0,0.0,0.590625,-0.189,0.3024,-0.08625959999999999,-0.0910518,-0.00095844
1779586030336698770,A_+,0.514988287874985,0.0,1.4733022347784934,-2.9139144526671332,-0.08681267699419795,-0.016667894356545847,0.0,0.0,0.0,0.0,0.0,0.0,0.0,0.590625,-0.189,0.3024,-0.08625959999999999,-0.0910518,-0.00095844
1779586030356658697,A_+,0.5163356494999789,0.0,1.4733022347784934,-2.9139144526671332,-0.08681267699419795,-0.016667894356545847,0.0,0.0,0.0,0.0,0.0,0.0,0.0,0.581175,-0.165375,0.29295,-0.08530115999999999,-0.08913491999999999,0.00287532
1779586030356658697,A_+,0.5177751364999494,0.0,1.4733022347784934,-2.9139144526671332,-0.08681267699419795,-0.016667894356545847,0.0,0.0,0.0,0.0,0.0,0.0,0.0,0.581175,-0.165375,0.29295,-0.08530115999999999,-0.08913491999999999,0.00287532
1779586030356658697,A_+,0.5191232461252184,0.0,1.4733022347784934,-2.9139144526671332,-0.08681267699419795,-0.016667894356545847,0.0,0.0,0.0,0.0,0.0,0.0,0.0,0.581175,-0.165375,0.29295,-0.08530115999999999,-0.08913491999999999,0.00287532
1779586030376657724,A_+,0.5204534610002156,0.0,1.4733022347784934,-2.9139144526671332,-0.08681267699419795,-0.016667894356545847,0.0,0.0,0.0,0.0,0.0,0.0,0.0,0.590625,-0.16065,0.29295,-0.08530115999999999,-0.09009336,0.0095844
1779586030376657724,A_+,0.5218940278750779,0.0,1.4733022347784934,-2.9139144526671332,-0.08681267699419795,-0.016667894356545847,0.0,0.0,0.0,0.0,0.0,0.0,0.0,0.590625,-0.16065,0.29295,-0.08530115999999999,-0.09009336,0.0095844
1779586030376657724,A_+,0.5232409575000929,0.0,1.4733022347784934,-2.9139144526671332,-0.08681267699419795,-0.016667894356545847,0.0,0.0,0.0,0.0,0.0,0.0,0.0,0.590625,-0.16065,0.29295,-0.08530115999999999,-0.09009336,0.0095844
1779586030411747932,A_+,0.5245699964998494,0.0,1.4733022347784934,-2.9139144526671332,-0.08681267699419795,-0.016667894356545847,0.0,0.0,0.0,0.0,0.0,0.0,0.0,0.6000749999999999,-0.17955,0.29295,-0.08913491999999999,-0.09296868,0.01341816
1779586030411747932,A_+,0.5260410291252811,0.0,1.4733022347784934,-2.9139144526671332,-0.08681267699419795,-0.016667894356545847,0.0,0.0,0.0,0.0,0.0,0.0,0.0,0.6000749999999999,-0.17955,0.29295,-0.08913491999999999,-0.09296868,0.01341816
1779586030411747932,A_+,0.5273912186248708,0.0,1.4733022347784934,-2.9139144526671332,-0.08681267699419795,-0.016667894356545847,0.0,0.0,0.0,0.0,0.0,0.0,0.0,0.6000749999999999,-0.17955,0.29295,-0.08913491999999999,-0.09296868,0.01341816
1779586030436664581,A_+,0.5287402361250315,0.0,1.4733022347784934,-2.9139144526671332,-0.08681267699419795,-0.016667894356545847,0.0,0.0,0.0,0.0,0.0,0.0,0.0,0.5717249999999999,-0.165375,0.29295,-0.08913491999999999,-0.09201024,0.00862596
1779586030436664581,A_+,0.5301593766248516,0.0,1.4733022347784934,-2.9139144526671332,-0.08681267699419795,-0.016667894356545847,0.0,0.0,0.0,0.0,0.0,0.0,0.0,0.5717249999999999,-0.165375,0.29295,-0.08913491999999999,-0.09201024,0.00862596
1779586030436664581,A_+,0.5315210291250878,0.0,1.4733022347784934,-2.9139144526671332,-0.08681267699419795,-0.016667894356545847,0.0,0.0,0.0,0.0,0.0,0.0,0.0,0.5717249999999999,-0.165375,0.29295,-0.08913491999999999,-0.09201024,0.00862596
1779586030516670227,A_+,0.532858471624877,0.0,1.4733022347784934,-2.9139144526671332,-0.08681267699419795,-0.016667894356545847,0.0,0.0,0.0,0.0,0.0,0.0,0.0,0.5764499999999999,-0.146475,0.316575,-0.08625959999999999,-0.09296868,0.00766752
1779586030516670227,A_+,0.5342939987499449,0.0,1.4733022347784934,-2.9139144526671332,-0.08681267699419795,-0.016667894356545847,0.0,0.0,0.0,0.0,0.0,0.0,0.0,0.5764499999999999,-0.146475,0.316575,-0.08625959999999999,-0.09296868,0.00766752
1779586030516670227,A_+,0.5356471160002911,0.0,1.4733022347784934,-2.9139144526671332,-0.08681267699419795,-0.016667894356545847,0.0,0.0,0.0,0.0,0.0,0.0,0.0,0.5764499999999999,-0.146475,0.316575,-0.08625959999999999,-0.09296868,0.00766752
1779586030601923942,A_+,0.5369906579999224,0.0,1.4733022347784934,-2.9139144526671332,-0.08681267699419795,-0.016667894356545847,0.0,0.0,0.0,0.0,0.0,0.0,0.0,0.5953499999999999,-0.12285,0.29295,-0.08817648,-0.0910518,0.00670908
1779586030601923942,A_+,0.5384311048751442,0.0,1.4733022347784934,-2.9139144526671332,-0.08681267699419795,-0.016667894356545847,0.0,0.0,0.0,0.0,0.0,0.0,0.0,0.5953499999999999,-0.12285,0.29295,-0.08817648,-0.0910518,0.00670908
1779586030601923942,A_+,0.5397717350001585,0.0,1.4733022347784934,-2.9139144526671332,-0.08681267699419795,-0.016667894356545847,0.0,0.0,0.0,0.0,0.0,0.0,0.0,0.5953499999999999,-0.12285,0.29295,-0.08817648,-0.0910518,0.00670908
1779586030641683340,A_+,0.5410945705002632,0.0,1.4733022347784934,-2.9139144526671332,-0.08681267699419795,-0.016667894356545847,0.0,0.0,0.0,0.0,0.0,0.0,0.0,0.5859,-0.1701,0.28822499999999995,-0.08625959999999999,-0.09680244,0.0095844
1779586030641683340,A_+,0.5425367971251944,0.0,1.4733022347784934,-2.9139144526671332,-0.08681267699419795,-0.016667894356545847,0.0,0.0,0.0,0.0,0.0,0.0,0.0,0.5859,-0.1701,0.28822499999999995,-0.08625959999999999,-0.09680244,0.0095844
1779586030641683340,A_+,0.5438902503751706,0.0,1.4733022347784934,-2.9139144526671332,-0.08681267699419795,-0.016667894356545847,0.0,0.0,0.0,0.0,0.0,0.0,0.0,0.5859,-0.1701,0.28822499999999995,-0.08625959999999999,-0.09680244,0.0095844
1779586030666686773,A_+,0.5452313925002272,0.0,1.4733022347784934,-2.9139144526671332,-0.08681267699419795,-0.016667894356545847,0.0,0.0,0.0,0.0,0.0,0.0,0.0,0.5859,-0.189,0.29767499999999997,-0.09009336,-0.09776088000000001,0.01054284
1779586030666686773,A_+,0.546657896375109,0.0,1.4733022347784934,-2.9139144526671332,-0.08681267699419795,-0.016667894356545847,0.0,0.0,0.0,0.0,0.0,0.0,0.0,0.5859,-0.189,0.29767499999999997,-0.09009336,-0.09776088000000001,0.01054284
1779586030666686773,A_+,0.5480016623750998,0.0,1.4733022347784934,-2.9139144526671332,-0.08681267699419795,-0.016667894356545847,0.0,0.0,0.0,0.0,0.0,0.0,0.0,0.5859,-0.189,0.29767499999999997,-0.09009336,-0.09776088000000001,0.01054284
1779586030706794023,A_+,0.5493269136250092,0.0,1.4733022347784934,-2.9139144526671332,-0.08681267699419795,-0.016667894356545847,0.0,0.0,0.0,0.0,0.0,0.0,0.0,0.5717249999999999,-0.17482499999999998,0.316575,-0.09201024,-0.08817648,0.0047922
1779586030706794023,A_+,0.5507548933751423,0.0,1.4733022347784934,-2.9139144526671332,-0.08681267699419795,-0.016667894356545847,0.0,0.0,0.0,0.0,0.0,0.0,0.0,0.5717249999999999,-0.17482499999999998,0.316575,-0.09201024,-0.08817648,0.0047922
1779586030706794023,A_+,0.5521075706251395,0.0,1.4733022347784934,-2.9139144526671332,-0.08681267699419795,-0.016667894356545847,0.0,0.0,0.0,0.0,0.0,0.0,0.0,0.5717249999999999,-0.17482499999999998,0.316575,-0.09201024,-0.08817648,0.0047922
1779586030766679763,A_+,0.5534400453752824,0.0,1.4733022347784934,-2.9139144526671332,-0.08681267699419795,-0.016667894356545847,0.0,0.0,0.0,0.0,0.0,0.0,0.0,0.609525,-0.17955,0.307125,-0.09201024,-0.07284144,0.00766752
1779586030766679763,A_+,0.554822204499942,0.0,1.4733022347784934,-2.9139144526671332,-0.08681267699419795,-0.016667894356545847,0.0,0.0,0.0,0.0,0.0,0.0,0.0,0.609525,-0.17955,0.307125,-0.09201024,-0.07284144,0.00766752
1779586030766679763,A_+,0.5561488076250498,0.0,1.4733022347784934,-2.9139144526671332,-0.08681267699419795,-0.016667894356545847,0.0,0.0,0.0,0.0,0.0,0.0,0.0,0.609525,-0.17955,0.307125,-0.09201024,-0.07284144,0.00766752
1779586030796889066,A_+,0.5574552923749252,0.0,1.4733022347784934,-2.9139144526671332,-0.08681267699419795,-0.016667894356545847,0.0,0.0,0.0,0.0,0.0,0.0,0.0,0.6000749999999999,-0.17482499999999998,0.3024,-0.095844,-0.08721804,0.01245972
1779586030796889066,A_+,0.5588781165001819,0.0,1.4733022347784934,-2.9139144526671332,-0.08681267699419795,-0.016667894356545847,0.0,0.0,0.0,0.0,0.0,0.0,0.0,0.6000749999999999,-0.17482499999999998,0.3024,-0.095844,-0.08721804,0.01245972
1779586030796889066,A_+,0.5602119791251425,0.0,1.4733022347784934,-2.9139144526671332,-0.08681267699419795,-0.016667894356545847,0.0,0.0,0.0,0.0,0.0,0.0,0.0,0.6000749999999999,-0.17482499999999998,0.3024,-0.095844,-0.08721804,0.01245972
1779586030816694498,A_+,0.5615283910001381,0.0,1.4733022347784934,-2.9139144526671332,-0.08681267699419795,-0.016667894356545847,0.0,0.0,0.0,0.0,0.0,0.0,0.0,0.6048,-0.1323,0.3024,-0.08625959999999999,-0.0910518,0.01245972
1779586030816694498,A_+,0.5629291847499189,0.0,1.4733022347784934,-2.9139144526671332,-0.08681267699419795,-0.016667894356545847,0.0,0.0,0.0,0.0,0.0,0.0,0.0,0.6048,-0.1323,0.3024,-0.08625959999999999,-0.0910518,0.01245972
1779586030816694498,A_+,0.564278886250122,0.0,1.4733022347784934,-2.9139144526671332,-0.08681267699419795,-0.016667894356545847,0.0,0.0,0.0,0.0,0.0,0.0,0.0,0.6048,-0.1323,0.3024,-0.08625959999999999,-0.0910518,0.01245972
1779586030851808071,A_+,0.5655942942498768,0.0,1.4733022347784934,-2.9139144526671332,-0.08681267699419795,-0.016667894356545847,0.0,0.0,0.0,0.0,0.0,0.0,0.0,0.5859,-0.127575,0.2835,-0.09680244,-0.095844,0.00191688
1779586030851808071,A_+,0.5670108308750059,0.0,1.4733022347784934,-2.9139144526671332,-0.08681267699419795,-0.016667894356545847,0.0,0.0,0.0,0.0,0.0,0.0,0.0,0.5859,-0.127575,0.2835,-0.09680244,-0.095844,0.00191688
1779586030851808071,A_+,0.5683507291250862,0.0,1.4733022347784934,-2.9139144526671332,-0.08681267699419795,-0.016667894356545847,0.0,0.0,0.0,0.0,0.0,0.0,0.0,0.5859,-0.127575,0.2835,-0.09680244,-0.095844,0.00191688
1779586030881692409,A_+,0.5696776962499825,0.0,1.4733022347784934,-2.9139144526671332,-0.08681267699419795,-0.016667894356545847,0.0,0.0,0.0,0.0,0.0,0.0,0.0,0.6000749999999999,-0.189,0.29767499999999997,-0.08050896,-0.09680244,0.0047922
1779586030881692409,A_+,0.5711044561248855,0.0,1.4733022347784934,-2.9139144526671332,-0.08681267699419795,-0.016667894356545847,0.0,0.0,0.0,0.0,0.0,0.0,0.0,0.6000749999999999,-0.189,0.29767499999999997,-0.08050896,-0.09680244,0.0047922
1779586030881692409,A_+,0.5724472541251089,0.0,1.4733022347784934,-2.9139144526671332,-0.08681267699419795,-0.016667894356545847,0.0,0.0,0.0,0.0,0.0,0.0,0.0,0.6000749999999999,-0.189,0.29767499999999997,-0.08050896,-0.09680244,0.0047922
1779586030908015489,A_+,0.5737703135000629,0.0,1.4733022347784934,-2.9139144526671332,-0.08681267699419795,-0.016667894356545847,0.0,0.0,0.0,0.0,0.0,0.0,0.0,0.6189749999999999,-0.17482499999999998,0.35437499999999994,-0.08721804,-0.09009336,0.01054284
1779586030908015489,A_+,0.5752019530000325,0.0,1.4733022347784934,-2.9139144526671332,-0.08681267699419795,-0.016667894356545847,0.0,0.0,0.0,0.0,0.0,0.0,0.0,0.6189749999999999,-0.17482499999999998,0.35437499999999994,-0.08721804,-0.09009336,0.01054284
1779586030908015489,A_+,0.5765611218748745,0.0,1.4733022347784934,-2.9139144526671332,-0.08681267699419795,-0.016667894356545847,0.0,0.0,0.0,0.0,0.0,0.0,0.0,0.6189749999999999,-0.17482499999999998,0.35437499999999994,-0.08721804,-0.09009336,0.01054284
1779586030962719678,A_+,0.5779709309999816,0.0,1.4733022347784934,-2.9139144526671332,-0.08681267699419795,-0.016667894356545847,0.0,0.0,0.0,0.0,0.0,0.0,0.0,0.581175,-0.165375,0.307125,-0.09392712,-0.09296868,0.00095844
