deepaktalwardt/rage-cage-arm-hackstorm/ros2/ws/sysid/runs/sysid_20260524_014017/raw/joint1_phaseA_pos.csv
t_ns,phase,tau_cmd,q1,q2,q3,q4,q5,q6,qd1,qd2,qd3,qd4,qd5,qd6,tau1,tau2,tau3,tau4,tau5,tau6
1779586823797547340,A_+,1.7599995771888644e-07,0.0,1.4723772102749364,-2.912971974871056,-0.09019861574306695,-0.017627825445142728,0.0,0.0,0.0,0.0,0.0,0.0,0.0,-0.165375,0.0,0.2835,-0.029711639999999997,-0.06996611999999999,0.01629348
1779586827272472143,A_+,0.002663066999957664,0.0,1.4723772102749364,-2.912971974871056,-0.09019861574306695,-0.017627825445142728,0.0,0.0,0.0,0.0,0.0,0.0,0.0,-0.3213,-0.189,0.316575,-0.05463108,-0.07955052,0.00670908
1779586827272472143,A_+,0.005557469250561553,0.0,1.4723772102749364,-2.912971974871056,-0.09019861574306695,-0.017627825445142728,0.0,0.0,0.0,0.0,0.0,0.0,0.0,-0.3213,-0.189,0.316575,-0.05463108,-0.07955052,0.00670908
1779586827272472143,A_+,0.008257966750534251,0.0,1.4723772102749364,-2.912971974871056,-0.09019861574306695,-0.017627825445142728,0.0,0.0,0.0,0.0,0.0,0.0,0.0,-0.3213,-0.189,0.316575,-0.05463108,-0.07955052,0.00670908
1779586827288351535,A_+,0.010939560999759124,0.0,1.4723772102749364,-2.912971974871056,-0.09019861574306695,-0.017627825445142728,0.0,0.0,0.0,0.0,0.0,0.0,0.0,-0.16065,-0.14175,0.29767499999999997,-0.05367264,-0.08817648,0.01341816
1779586827288351535,A_+,0.013806116249725164,0.0,1.4723772102749364,-2.912971974871056,-0.09019861574306695,-0.017627825445142728,0.0,0.0,0.0,0.0,0.0,0.0,0.0,-0.16065,-0.14175,0.29767499999999997,-0.05367264,-0.08817648,0.01341816
1779586827288351535,A_+,0.01648375849981676,0.0,1.4723772102749364,-2.912971974871056,-0.09019861574306695,-0.017627825445142728,0.0,0.0,0.0,0.0,0.0,0.0,0.0,-0.16065,-0.14175,0.29767499999999997,-0.05367264,-0.08817648,0.01341816
1779586827307414531,A_+,0.019164473000273574,0.0,1.4723772102749364,-2.912971974871056,-0.09019861574306695,-0.017627825445142728,0.0,0.0,0.0,0.0,0.0,0.0,0.0,0.108675,-0.1512,0.29767499999999997,-0.05175576,-0.09296868,0.00862596
1779586827307414531,A_+,0.02201917250022234,0.0,1.4723772102749364,-2.912971974871056,-0.09019861574306695,-0.017627825445142728,0.0,0.0,0.0,0.0,0.0,0.0,0.0,0.108675,-0.1512,0.29767499999999997,-0.05175576,-0.09296868,0.00862596
1779586827307414531,A_+,0.024717230249734712,0.0,1.4723772102749364,-2.912971974871056,-0.09019861574306695,-0.017627825445142728,0.0,0.0,0.0,0.0,0.0,0.0,0.0,0.108675,-0.1512,0.29767499999999997,-0.05175576,-0.09296868,0.00862596
1779586827322412967,A_+,0.027363497750229726,0.0,1.4723772102749364,-2.912971974871056,-0.09019861574306695,-0.017627825445142728,0.0,0.0,0.0,0.0,0.0,0.0,0.0,0.0945,-0.1701,0.3213,-0.04408824,-0.08913491999999999,0.00670908
1779586827322412967,A_+,0.030199062250176212,0.0,1.4723772102749364,-2.912971974871056,-0.09019861574306695,-0.017627825445142728,0.0,0.0,0.0,0.0,0.0,0.0,0.0,0.0945,-0.1701,0.3213,-0.04408824,-0.08913491999999999,0.00670908
1779586827322412967,A_+,0.03289119224973547,0.0,1.4723772102749364,-2.912971974871056,-0.09019861574306695,-0.017627825445142728,0.0,0.0,0.0,0.0,0.0,0.0,0.0,0.0945,-0.1701,0.3213,-0.04408824,-0.08913491999999999,0.00670908
1779586827387399435,A_+,0.03556893049972132,0.0,1.4723772102749364,-2.912971974871056,-0.09019861574306695,-0.017627825445142728,0.0,0.0,0.0,0.0,0.0,0.0,0.0,0.080325,-0.17955,0.2835,-0.043129799999999996,-0.09488556,0.00670908
1779586827387399435,A_+,0.038422486250055954,0.0,1.4723772102749364,-2.912971974871056,-0.09019861574306695,-0.017627825445142728,0.0,0.0,0.0,0.0,0.0,0.0,0.0,0.080325,-0.17955,0.2835,-0.043129799999999996,-0.09488556,0.00670908
1779586827387399435,A_+,0.04108959325003525,0.0,1.4723772102749364,-2.912971974871056,-0.09019861574306695,-0.017627825445142728,0.0,0.0,0.0,0.0,0.0,0.0,0.0,0.080325,-0.17955,0.2835,-0.043129799999999996,-0.09488556,0.00670908
1779586827432414770,A_+,0.043780603000413976,0.0,1.4723772102749364,-2.912971974871056,-0.09019861574306695,-0.017627825445142728,0.0,0.0,0.0,0.0,0.0,0.0,0.0,0.089775,-0.165375,0.335475,-0.04600512,-0.0910518,0.01245972
1779586827432414770,A_+,0.046667837500535825,0.0,1.4723772102749364,-2.912971974871056,-0.09019861574306695,-0.017627825445142728,0.0,0.0,0.0,0.0,0.0,0.0,0.0,0.089775,-0.165375,0.335475,-0.04600512,-0.0910518,0.01245972
1779586827432414770,A_+,0.049351407749782084,0.0,1.4723772102749364,-2.912971974871056,-0.09019861574306695,-0.017627825445142728,0.0,0.0,0.0,0.0,0.0,0.0,0.0,0.089775,-0.165375,0.335475,-0.04600512,-0.0910518,0.01245972
1779586827472872495,A_+,0.051997483250488585,0.0,1.4723772102749364,-2.912971974871056,-0.09019861574306695,-0.017627825445142728,0.0,0.0,0.0,0.0,0.0,0.0,0.0,0.0945,-0.155925,0.3213,-0.048880440000000004,-0.09392712,0.00670908
1779586827472872495,A_+,0.05487582200021279,0.0,1.4723772102749364,-2.912971974871056,-0.09019861574306695,-0.017627825445142728,0.0,0.0,0.0,0.0,0.0,0.0,0.0,0.0945,-0.155925,0.3213,-0.048880440000000004,-0.09392712,0.00670908
1779586827472872495,A_+,0.05759486300030403,0.0,1.4723772102749364,-2.912971974871056,-0.09019861574306695,-0.017627825445142728,0.0,0.0,0.0,0.0,0.0,0.0,0.0,0.0945,-0.155925,0.3213,-0.048880440000000004,-0.09392712,0.00670908
1779586827498109579,A_+,0.060264849749728455,0.0,1.4723772102749364,-2.912971974871056,-0.09019861574306695,-0.017627825445142728,0.0,0.0,0.0,0.0,0.0,0.0,0.0,0.108675,-0.1701,0.27405,-0.05367264,-0.09009336,0.0
1779586827498109579,A_+,0.06314548425052635,0.0,1.4723772102749364,-2.912971974871056,-0.09019861574306695,-0.017627825445142728,0.0,0.0,0.0,0.0,0.0,0.0,0.0,0.108675,-0.1701,0.27405,-0.05367264,-0.09009336,0.0
1779586827498109579,A_+,0.06582064699978218,0.0,1.4723772102749364,-2.912971974871056,-0.09019861574306695,-0.017627825445142728,0.0,0.0,0.0,0.0,0.0,0.0,0.0,0.108675,-0.1701,0.27405,-0.05367264,-0.09009336,0.0
1779586827542404174,A_+,0.06846702650000225,0.0,1.4723772102749364,-2.912971974871056,-0.09019861574306695,-0.017627825445142728,0.0,0.0,0.0,0.0,0.0,0.0,0.0,0.0756,-0.184275,0.2835,-0.048880440000000004,-0.09392712,0.00095844
1779586827542404174,A_+,0.0713514290000603,0.0,1.4723772102749364,-2.912971974871056,-0.09019861574306695,-0.017627825445142728,0.0,0.0,0.0,0.0,0.0,0.0,0.0,0.0756,-0.184275,0.2835,-0.048880440000000004,-0.09392712,0.00095844
1779586827542404174,A_+,0.07404864675027056,0.0,1.4723772102749364,-2.912971974871056,-0.09019861574306695,-0.017627825445142728,0.0,0.0,0.0,0.0,0.0,0.0,0.0,0.0756,-0.184275,0.2835,-0.048880440000000004,-0.09392712,0.00095844
1779586827573241949,A_+,0.0767058179999367,0.0,1.4723772102749364,-2.912971974871056,-0.09019861574306695,-0.017627825445142728,0.0,0.0,0.0,0.0,0.0,0.0,0.0,0.108675,-0.16065,0.28822499999999995,-0.04983888,-0.08434272,-0.00095844
1779586827573241949,A_+,0.07955459774984774,0.0,1.4723772102749364,-2.912971974871056,-0.09019861574306695,-0.017627825445142728,0.0,0.0,0.0,0.0,0.0,0.0,0.0,0.108675,-0.16065,0.28822499999999995,-0.04983888,-0.08434272,-0.00095844
1779586827573241949,A_+,0.0822416319997501,0.0,1.4723772102749364,-2.912971974871056,-0.09019861574306695,-0.017627825445142728,0.0,0.0,0.0,0.0,0.0,0.0,0.0,0.108675,-0.16065,0.28822499999999995,-0.04983888,-0.08434272,-0.00095844
1779586827603243350,A_+,0.08489678724981786,0.0,1.4723772102749364,-2.912971974871056,-0.09019861574306695,-0.017627825445142728,0.0,0.0,0.0,0.0,0.0,0.0,0.0,0.099225,-0.16065,0.29295,-0.04408824,-0.08625959999999999,0.0
1779586827603243350,A_+,0.08775352675002068,0.0,1.4723772102749364,-2.912971974871056,-0.09019861574306695,-0.017627825445142728,0.0,0.0,0.0,0.0,0.0,0.0,0.0,0.099225,-0.16065,0.29295,-0.04408824,-0.08625959999999999,0.0
1779586827603243350,A_+,0.09042699324982095,0.0,1.4723772102749364,-2.912971974871056,-0.09019861574306695,-0.017627825445142728,0.0,0.0,0.0,0.0,0.0,0.0,0.0,0.099225,-0.16065,0.29295,-0.04408824,-0.08625959999999999,0.0
1779586827638573646,A_+,0.09308092475021112,0.0,1.4723772102749364,-2.912971974871056,-0.09019861574306695,-0.017627825445142728,0.0,0.0,0.0,0.0,0.0,0.0,0.0,0.099225,-0.189,0.3213,-0.04696356,-0.095844,0.01150128
1779586827638573646,A_+,0.09592982449976262,0.0,1.4723772102749364,-2.912971974871056,-0.09019861574306695,-0.017627825445142728,0.0,0.0,0.0,0.0,0.0,0.0,0.0,0.099225,-0.189,0.3213,-0.04696356,-0.095844,0.01150128
1779586827638573646,A_+,0.09860706700055744,0.0,1.4723772102749364,-2.912971974871056,-0.09019861574306695,-0.017627825445142728,0.0,0.0,0.0,0.0,0.0,0.0,0.0,0.099225,-0.189,0.3213,-0.04696356,-0.095844,0.01150128
1779586827668852806,A_+,0.10130213274987909,0.0,1.4723772102749364,-2.912971974871056,-0.09019861574306695,-0.017627825445142728,0.0,0.0,0.0,0.0,0.0,0.0,0.0,0.099225,-0.1512,0.29767499999999997,-0.047922,-0.08817648,0.00575064
1779586827668852806,A_+,0.10417094400054339,0.0,1.4723772102749364,-2.912971974871056,-0.09019861574306695,-0.017627825445142728,0.0,0.0,0.0,0.0,0.0,0.0,0.0,0.099225,-0.1512,0.29767499999999997,-0.047922,-0.08817648,0.00575064
1779586827668852806,A_+,0.10685601000022871,0.0,1.4723772102749364,-2.912971974871056,-0.09019861574306695,-0.017627825445142728,0.0,0.0,0.0,0.0,0.0,0.0,0.0,0.099225,-0.1512,0.29767499999999997,-0.047922,-0.08817648,0.00575064
1779586827702396869,A_+,0.10952230900056747,0.0,1.4723772102749364,-2.912971974871056,-0.09019861574306695,-0.017627825445142728,0.0,0.0,0.0,0.0,0.0,0.0,0.0,0.08505,-0.1701,0.28822499999999995,-0.047922,-0.08721804,0.01245972
1779586827702396869,A_+,0.11248583650012733,0.0,1.4723772102749364,-2.912971974871056,-0.09019861574306695,-0.017627825445142728,0.0,0.0,0.0,0.0,0.0,0.0,0.0,0.08505,-0.1701,0.28822499999999995,-0.047922,-0.08721804,0.01245972
1779586827702396869,A_+,0.1151813102496817,0.0,1.4723772102749364,-2.912971974871056,-0.09019861574306695,-0.017627825445142728,0.0,0.0,0.0,0.0,0.0,0.0,0.0,0.08505,-0.1701,0.28822499999999995,-0.047922,-0.08721804,0.01245972
1779586827722403764,A_+,0.11783468950034148,0.0,1.4723772102749364,-2.912971974871056,-0.09019861574306695,-0.017627825445142728,0.0,0.0,0.0,0.0,0.0,0.0,0.0,0.08505,-0.17955,0.307125,-0.043129799999999996,-0.09009336,0.00575064
1779586827722403764,A_+,0.12069194924970361,0.0,1.4723772102749364,-2.912971974871056,-0.09019861574306695,-0.017627825445142728,0.0,0.0,0.0,0.0,0.0,0.0,0.0,0.08505,-0.17955,0.307125,-0.043129799999999996,-0.09009336,0.00575064
1779586827722403764,A_+,0.12336533575034991,0.0,1.4723772102749364,-2.912971974871056,-0.09019861574306695,-0.017627825445142728,0.0,0.0,0.0,0.0,0.0,0.0,0.0,0.08505,-0.17955,0.307125,-0.043129799999999996,-0.09009336,0.00575064
1779586827752388238,A_+,0.126022627000566,0.0,1.4723772102749364,-2.912971974871056,-0.09019861574306695,-0.017627825445142728,0.0,0.0,0.0,0.0,0.0,0.0,0.0,0.099225,-0.16065,0.31185,-0.052714199999999996,-0.08913491999999999,0.0095844
1779586827752388238,A_+,0.12886119125050755,0.0,1.4723772102749364,-2.912971974871056,-0.09019861574306695,-0.017627825445142728,0.0,0.0,0.0,0.0,0.0,0.0,0.0,0.099225,-0.16065,0.31185,-0.052714199999999996,-0.08913491999999999,0.0095844
1779586827752388238,A_+,0.13154527349979617,0.0,1.4723772102749364,-2.912971974871056,-0.09019861574306695,-0.017627825445142728,0.0,0.0,0.0,0.0,0.0,0.0,0.0,0.099225,-0.16065,0.31185,-0.052714199999999996,-0.08913491999999999,0.0095844
1779586827802639245,A_+,0.1342397632497523,0.0,1.4723772102749364,-2.912971974871056,-0.09019861574306695,-0.017627825445142728,0.0,0.0,0.0,0.0,0.0,0.0,0.0,0.3024,-0.184275,0.316575,-0.04504668,-0.09009336,0.00670908
1779586827802639245,A_+,0.13707212774988875,0.0,1.4723772102749364,-2.912971974871056,-0.09019861574306695,-0.017627825445142728,0.0,0.0,0.0,0.0,0.0,0.0,0.0,0.3024,-0.184275,0.316575,-0.04504668,-0.09009336,0.00670908
1779586827802639245,A_+,0.13978112899985717,0.0,1.4723772102749364,-2.912971974871056,-0.09019861574306695,-0.017627825445142728,0.0,0.0,0.0,0.0,0.0,0.0,0.0,0.3024,-0.184275,0.316575,-0.04504668,-0.09009336,0.00670908
1779586827837391376,A_+,0.1423945177502901,0.0,1.4723772102749364,-2.912971974871056,-0.09019861574306695,-0.017627825445142728,0.0,0.0,0.0,0.0,0.0,0.0,0.0,0.335475,-0.14175,0.29295,-0.04217136,-0.08817648,0.00095844
1779586827837391376,A_+,0.14513811775032082,0.0,1.4723772102749364,-2.912971974871056,-0.09019861574306695,-0.017627825445142728,0.0,0.0,0.0,0.0,0.0,0.0,0.0,0.335475,-0.14175,0.29295,-0.04217136,-0.08817648,0.00095844
1779586827837391376,A_+,0.14779971275038406,0.0,1.4723772102749364,-2.912971974871056,-0.09019861574306695,-0.017627825445142728,0.0,0.0,0.0,0.0,0.0,0.0,0.0,0.335475,-0.14175,0.29295,-0.04217136,-0.08817648,0.00095844
1779586827862391233,A_+,0.15042862100017373,0.0,1.4723772102749364,-2.912971974871056,-0.09019861574306695,-0.017627825445142728,0.0,0.0,0.0,0.0,0.0,0.0,0.0,0.3591,-0.165375,0.31185,-0.04408824,-0.08913491999999999,0.01054284
1779586827862391233,A_+,0.1532296747500368,0.0,1.4723772102749364,-2.912971974871056,-0.09019861574306695,-0.017627825445142728,0.0,0.0,0.0,0.0,0.0,0.0,0.0,0.3591,-0.165375,0.31185,-0.04408824,-0.08913491999999999,0.01054284
1779586827862391233,A_+,0.15590173350028635,0.0,1.4723772102749364,-2.912971974871056,-0.09019861574306695,-0.017627825445142728,0.0,0.0,0.0,0.0,0.0,0.0,0.0,0.3591,-0.165375,0.31185,-0.04408824,-0.08913491999999999,0.01054284
1779586827902390718,A_+,0.15854440124985558,0.0,1.4723772102749364,-2.912971974871056,-0.09019861574306695,-0.017627825445142728,0.0,0.0,0.0,0.0,0.0,0.0,0.0,0.35437499999999994,-0.165375,0.316575,-0.048880440000000004,-0.08338428,0.00287532
1779586827902390718,A_+,0.16142080400004488,0.0,1.4723772102749364,-2.912971974871056,-0.09019861574306695,-0.017627825445142728,0.0,0.0,0.0,0.0,0.0,0.0,0.0,0.35437499999999994,-0.165375,0.316575,-0.048880440000000004,-0.08338428,0.00287532
1779586827902390718,A_+,0.1641014062497561,0.0,1.4723772102749364,-2.912971974871056,-0.09019861574306695,-0.017627825445142728,0.0,0.0,0.0,0.0,0.0,0.0,0.0,0.35437499999999994,-0.165375,0.316575,-0.048880440000000004,-0.08338428,0.00287532
1779586827927440166,A_+,0.16673852224994334,0.0,1.4723772102749364,-2.912971974871056,-0.09019861574306695,-0.017627825445142728,0.0,0.0,0.0,0.0,0.0,0.0,0.0,0.3213,-0.14175,0.29767499999999997,-0.05463108,-0.09201024,0.014376599999999998
1779586827927440166,A_+,0.16958937399977003,0.0,1.4723772102749364,-2.912971974871056,-0.09019861574306695,-0.017627825445142728,0.0,0.0,0.0,0.0,0.0,0.0,0.0,0.3213,-0.14175,0.29767499999999997,-0.05463108,-0.09201024,0.014376599999999998
1779586827927440166,A_+,0.17225532900010876,0.0,1.4723772102749364,-2.912971974871056,-0.09019861574306695,-0.017627825445142728,0.0,0.0,0.0,0.0,0.0,0.0,0.0,0.3213,-0.14175,0.29767499999999997,-0.05463108,-0.09201024,0.014376599999999998
1779586827957394838,A_+,0.17491194025024015,0.0,1.4723772102749364,-2.912971974871056,-0.09019861574306695,-0.017627825445142728,0.0,0.0,0.0,0.0,0.0,0.0,0.0,0.326025,-0.1512,0.28822499999999995,-0.04983888,-0.09488556,0.0095844
1779586827957394838,A_+,0.17775525624983857,0.0,1.4723772102749364,-2.912971974871056,-0.09019861574306695,-0.017627825445142728,0.0,0.0,0.0,0.0,0.0,0.0,0.0,0.326025,-0.1512,0.28822499999999995,-0.04983888,-0.09488556,0.0095844
1779586827957394838,A_+,0.18042932275056955,0.0,1.4723772102749364,-2.912971974871056,-0.09019861574306695,-0.017627825445142728,0.0,0.0,0.0,0.0,0.0,0.0,0.0,0.326025,-0.1512,0.28822499999999995,-0.04983888,-0.09488556,0.0095844
1779586827998548030,A_+,0.18308931800038408,0.0,1.4723772102749364,-2.912971974871056,-0.09019861574306695,-0.017627825445142728,0.0,0.0,0.0,0.0,0.0,0.0,0.0,0.335475,-0.165375,0.326025,-0.04504668,-0.09009336,0.00287532
1779586827998548030,A_+,0.18595474525045574,0.0,1.4723772102749364,-2.912971974871056,-0.09019861574306695,-0.017627825445142728,0.0,0.0,0.0,0.0,0.0,0.0,0.0,0.335475,-0.165375,0.326025,-0.04504668,-0.09009336,0.00287532
1779586827998548030,A_+,0.18872128050043102,0.0,1.4723772102749364,-2.912971974871056,-0.09019861574306695,-0.017627825445142728,0.0,0.0,0.0,0.0,0.0,0.0,0.0,0.335475,-0.165375,0.326025,-0.04504668,-0.09009336,0.00287532
1779586828022378921,A_+,0.19139285900018876,0.0,1.4723772102749364,-2.912971974871056,-0.09019861574306695,-0.017627825445142728,0.0,0.0,0.0,0.0,0.0,0.0,0.0,0.3591,-0.146475,0.3024,-0.04600512,-0.09680244,0.0047922
1779586828022378921,A_+,0.19427560574968084,0.0,1.4723772102749364,-2.912971974871056,-0.09019861574306695,-0.017627825445142728,0.0,0.0,0.0,0.0,0.0,0.0,0.0,0.3591,-0.146475,0.3024,-0.04600512,-0.09680244,0.0047922
1779586828022378921,A_+,0.1969747435005047,0.0,1.4723772102749364,-2.912971974871056,-0.09019861574306695,-0.017627825445142728,0.0,0.0,0.0,0.0,0.0,0.0,0.0,0.3591,-0.146475,0.3024,-0.04600512,-0.09680244,0.0047922
1779586828037385463,A_+,0.1997023439998884,0.0,1.4723772102749364,-2.912971974871056,-0.09019861574306695,-0.017627825445142728,0.0,0.0,0.0,0.0,0.0,0.0,0.0,0.3449249999999999,-0.118125,0.29295,-0.05079731999999999,-0.08338428,0.028753199999999996
1779586828037385463,A_+,0.2025975622500482,0.0,1.4723772102749364,-2.912971974871056,-0.09019861574306695,-0.017627825445142728,0.0,0.0,0.0,0.0,0.0,0.0,0.0,0.3449249999999999,-0.118125,0.29295,-0.05079731999999999,-0.08338428,0.028753199999999996
1779586828037385463,A_+,0.20530951525051933,0.0,1.4723772102749364,-2.912971974871056,-0.09019861574306695,-0.017627825445142728,0.0,0.0,0.0,0.0,0.0,0.0,0.0,0.3449249999999999,-0.118125,0.29295,-0.05079731999999999,-0.08338428,0.028753199999999996
1779586828067392587,A_+,0.2079934615003367,0.0,1.4723772102749364,-2.912971974871056,-0.09019861574306695,-0.017627825445142728,0.0,0.0,0.0,0.0,0.0,0.0,0.0,0.3402,-0.165375,0.307125,-0.04600512,-0.13322316,0.0095844
1779586828067392587,A_+,0.21077709200017125,0.0,1.4723772102749364,-2.912971974871056,-0.09019861574306695,-0.017627825445142728,0.0,0.0,0.0,0.0,0.0,0.0,0.0,0.3402,-0.165375,0.307125,-0.04600512,-0.13322316,0.0095844
1779586828067392587,A_+,0.21345477449995087,0.0,1.4723772102749364,-2.912971974871056,-0.09019861574306695,-0.017627825445142728,0.0,0.0,0.0,0.0,0.0,0.0,0.0,0.3402,-0.165375,0.307125,-0.04600512,-0.13322316,0.0095844
1779586828128769397,A_+,0.21610368199981167,0.0,1.4723772102749364,-2.912971974871056,-0.09019861574306695,-0.017627825445142728,0.0,0.0,0.0,0.0,0.0,0.0,0.0,0.3402,-0.184275,0.31185,-0.043129799999999996,-0.09296868,0.00191688
1779586828128769397,A_+,0.21888420049981505,0.0,1.4723772102749364,-2.912971974871056,-0.09019861574306695,-0.017627825445142728,0.0,0.0,0.0,0.0,0.0,0.0,0.0,0.3402,-0.184275,0.31185,-0.043129799999999996,-0.09296868,0.00191688
1779586828128769397,A_+,0.22156321100010246,0.0,1.4723772102749364,-2.912971974871056,-0.09019861574306695,-0.017627825445142728,0.0,0.0,0.0,0.0,0.0,0.0,0.0,0.3402,-0.184275,0.31185,-0.043129799999999996,-0.09296868,0.00191688
1779586828167432785,A_+,0.2241965192497446,0.0,1.4723772102749364,-2.912971974871056,-0.09019861574306695,-0.017627825445142728,0.0,0.0,0.0,0.0,0.0,0.0,0.0,0.326025,-0.17482499999999998,0.28822499999999995,-0.047922,-0.08913491999999999,0.01341816
1779586828167432785,A_+,0.2270365075000882,0.0,1.4723772102749364,-2.912971974871056,-0.09019861574306695,-0.017627825445142728,0.0,0.0,0.0,0.0,0.0,0.0,0.0,0.326025,-0.17482499999999998,0.28822499999999995,-0.047922,-0.08913491999999999,0.01341816
1779586828167432785,A_+,0.2297327652504464,0.0,1.4723772102749364,-2.912971974871056,-0.09019861574306695,-0.017627825445142728,0.0,0.0,0.0,0.0,0.0,0.0,0.0,0.326025,-0.17482499999999998,0.28822499999999995,-0.047922,-0.08913491999999999,0.01341816
1779586828193794250,A_+,0.23240395999982866,0.0,1.4723772102749364,-2.912971974871056,-0.09019861574306695,-0.017627825445142728,0.0,0.0,0.0,0.0,0.0,0.0,0.0,0.35437499999999994,-0.1512,0.28822499999999995,-0.04696356,-0.09488556,0.0047922
1779586828193794250,A_+,0.2353050660003646,0.0,1.4723772102749364,-2.912971974871056,-0.09019861574306695,-0.017627825445142728,0.0,0.0,0.0,0.0,0.0,0.0,0.0,0.35437499999999994,-0.1512,0.28822499999999995,-0.04696356,-0.09488556,0.0047922
1779586828193794250,A_+,0.23802483474992187,0.0,1.4723772102749364,-2.912971974871056,-0.09019861574306695,-0.017627825445142728,0.0,0.0,0.0,0.0,0.0,0.0,0.0,0.35437499999999994,-0.1512,0.28822499999999995,-0.04696356,-0.09488556,0.0047922
1779586828228297472,A_+,0.24072009249994153,0.0,1.4723772102749364,-2.912971974871056,-0.09019861574306695,-0.017627825445142728,0.0,0.0,0.0,0.0,0.0,0.0,0.0,0.3402,-0.1701,0.316575,-0.04983888,-0.09009336,0.00575064
1779586828228297472,A_+,0.24368528425020486,0.0,1.4723772102749364,-2.912971974871056,-0.09019861574306695,-0.017627825445142728,0.0,0.0,0.0,0.0,0.0,0.0,0.0,0.3402,-0.1701,0.316575,-0.04983888,-0.09009336,0.00575064
1779586828228297472,A_+,0.2463837417499235,0.0,1.4723772102749364,-2.912971974871056,-0.09019861574306695,-0.017627825445142728,0.0,0.0,0.0,0.0,0.0,0.0,0.0,0.3402,-0.1701,0.316575,-0.04983888,-0.09009336,0.00575064
1779586828267366409,A_+,0.24904194500049925,0.0,1.4723772102749364,-2.912971974871056,-0.09019861574306695,-0.017627825445142728,0.0,0.0,0.0,0.0,0.0,0.0,0.0,0.316575,-0.19372499999999998,0.3024,-0.048880440000000004,-0.095844,0.01245972
1779586828267366409,A_+,0.25198394549988734,0.0,1.4723772102749364,-2.912971974871056,-0.09019861574306695,-0.017627825445142728,0.0,0.0,0.0,0.0,0.0,0.0,0.0,0.316575,-0.19372499999999998,0.3024,-0.048880440000000004,-0.095844,0.01245972
1779586828267366409,A_+,0.25470981000034953,0.0,1.4723772102749364,-2.912971974871056,-0.09019861574306695,-0.017627825445142728,0.0,0.0,0.0,0.0,0.0,0.0,0.0,0.316575,-0.19372499999999998,0.3024,-0.048880440000000004,-0.095844,0.01245972
1779586828293803691,A_+,0.25742677099970024,0.0,1.4723772102749364,-2.912971974871056,-0.09019861574306695,-0.017627825445142728,0.0,0.0,0.0,0.0,0.0,0.0,0.0,0.3449249999999999,-0.17482499999999998,0.3024,-0.048880440000000004,-0.09201024,0.00670908
1779586828293803691,A_+,0.26069754299987835,0.0,1.4723772102749364,-2.912971974871056,-0.09019861574306695,-0.017627825445142728,0.0,0.0,0.0,0.0,0.0,0.0,0.0,0.3449249999999999,-0.17482499999999998,0.3024,-0.048880440000000004,-0.09201024,0.00670908
1779586828293803691,A_+,0.2634383672502736,0.0,1.4723772102749364,-2.912971974871056,-0.09019861574306695,-0.017627825445142728,0.0,0.0,0.0,0.0,0.0,0.0,0.0,0.3449249999999999,-0.17482499999999998,0.3024,-0.048880440000000004,-0.09201024,0.00670908
1779586828332431077,A_+,0.2661198494997734,0.0,1.4723772102749364,-2.912971974871056,-0.09019861574306695,-0.017627825445142728,0.0,0.0,0.0,0.0,0.0,0.0,0.0,0.35437499999999994,-0.19372499999999998,0.29295,-0.04504668,-0.09488556,0.00383376
1779586828332431077,A_+,0.2690214515005209,0.0,1.4723772102749364,-2.912971974871056,-0.09019861574306695,-0.017627825445142728,0.0,0.0,0.0,0.0,0.0,0.0,0.0,0.35437499999999994,-0.19372499999999998,0.29295,-0.04504668,-0.09488556,0.00383376
1779586828332431077,A_+,0.27174262024982454,0.0,1.4723772102749364,-2.912971974871056,-0.09019861574306695,-0.017627825445142728,0.0,0.0,0.0,0.0,0.0,0.0,0.0,0.35437499999999994,-0.19372499999999998,0.29295,-0.04504668,-0.09488556,0.00383376
1779586828363221645,A_+,0.27443204624978534,0.0,1.4723772102749364,-2.912971974871056,-0.09019861574306695,-0.017627825445142728,0.0,0.0,0.0,0.0,0.0,0.0,0.0,0.34964999999999996,-0.155925,0.31185,-0.04983888,-0.08242584,0.01245972
1779586828363221645,A_+,0.27733366425036365,0.0,1.4723772102749364,-2.912971974871056,-0.09019861574306695,-0.017627825445142728,0.0,0.0,0.0,0.0,0.0,0.0,0.0,0.34964999999999996,-0.155925,0.31185,-0.04983888,-0.08242584,0.01245972
1779586828363221645,A_+,0.28003274599996075,0.0,1.4723772102749364,-2.912971974871056,-0.09019861574306695,-0.017627825445142728,0.0,0.0,0.0,0.0,0.0,0.0,0.0,0.34964999999999996,-0.155925,0.31185,-0.04983888,-0.08242584,0.01245972
1779586828397371530,A_+,0.2826832455002659,0.0,1.4723772102749364,-2.912971974871056,-0.09019861574306695,-0.017627825445142728,0.0,0.0,0.0,0.0,0.0,0.0,0.0,0.326025,-0.203175,0.31185,-0.03737916,-0.09201024,0.00766752
1779586828397371530,A_+,0.2856437330001427,0.0,1.4723772102749364,-2.912971974871056,-0.09019861574306695,-0.017627825445142728,0.0,0.0,0.0,0.0,0.0,0.0,0.0,0.326025,-0.203175,0.31185,-0.03737916,-0.09201024,0.00766752
1779586828397371530,A_+,0.2883989087504233,0.0,1.4723772102749364,-2.912971974871056,-0.09019861574306695,-0.017627825445142728,0.0,0.0,0.0,0.0,0.0,0.0,0.0,0.326025,-0.203175,0.31185,-0.03737916,-0.09201024,0.00766752
1779586828432435750,A_+,0.29104940024990356,0.0,1.4723772102749364,-2.912971974871056,-0.09019861574306695,-0.017627825445142728,0.0,0.0,0.0,0.0,0.0,0.0,0.0,0.38744999999999996,-0.1701,0.29295,-0.03737916,-0.08530115999999999,0.00670908
1779586828432435750,A_+,0.2938655892503448,0.0,1.4723772102749364,-2.912971974871056,-0.09019861574306695,-0.017627825445142728,0.0,0.0,0.0,0.0,0.0,0.0,0.0,0.38744999999999996,-0.1701,0.29295,-0.03737916,-0.08530115999999999,0.00670908
1779586828432435750,A_+,0.2965565352496924,0.0,1.4723772102749364,-2.912971974871056,-0.09019861574306695,-0.017627825445142728,0.0,0.0,0.0,0.0,0.0,0.0,0.0,0.38744999999999996,-0.1701,0.29295,-0.03737916,-0.08530115999999999,0.00670908
1779586828462831258,A_+,0.29920426700027747,0.0,1.4723772102749364,-2.912971974871056,-0.09019861574306695,-0.017627825445142728,0.0,0.0,0.0,0.0,0.0,0.0,0.0,0.36855,-0.1512,0.3449249999999999,-0.04504668,-0.0910518,0.01054284
1779586828462831258,A_+,0.30204150324971124,0.0,1.4723772102749364,-2.912971974871056,-0.09019861574306695,-0.017627825445142728,0.0,0.0,0.0,0.0,0.0,0.0,0.0,0.36855,-0.1512,0.3449249999999999,-0.04504668,-0.0910518,0.01054284
1779586828462831258,A_+,0.3047202017505697,0.0,1.4723772102749364,-2.912971974871056,-0.09019861574306695,-0.017627825445142728,0.0,0.0,0.0,0.0,0.0,0.0,0.0,0.36855,-0.1512,0.3449249999999999,-0.04504668,-0.0910518,0.01054284
1779586828493786811,A_+,0.30737426900032006,0.0,1.4723772102749364,-2.912971974871056,-0.09019861574306695,-0.017627825445142728,0.0,0.0,0.0,0.0,0.0,0.0,0.0,0.335475,-0.189,0.28822499999999995,-0.04696356,-0.08817648,-0.00095844
1779586828493786811,A_+,0.31028510274973087,0.0,1.4723772102749364,-2.912971974871056,-0.09019861574306695,-0.017627825445142728,0.0,0.0,0.0,0.0,0.0,0.0,0.0,0.335475,-0.189,0.28822499999999995,-0.04696356,-0.08817648,-0.00095844
1779586828493786811,A_+,0.31297993649968703,0.0,1.4723772102749364,-2.912971974871056,-0.09019861574306695,-0.017627825445142728,0.0,0.0,0.0,0.0,0.0,0.0,0.0,0.335475,-0.189,0.28822499999999995,-0.04696356,-0.08817648,-0.00095844
1779586828528110742,A_+,0.3156378597504954,0.0,1.4723772102749364,-2.912971974871056,-0.09019861574306695,-0.017627825445142728,0.0,0.0,0.0,0.0,0.0,0.0,0.0,0.3402,-0.165375,0.3024,-0.04983888,-0.08338428,0.00383376
1779586828528110742,A_+,0.3184883437497774,0.0,1.4723772102749364,-2.912971974871056,-0.09019861574306695,-0.017627825445142728,0.0,0.0,0.0,0.0,0.0,0.0,0.0,0.3402,-0.165375,0.3024,-0.04983888,-0.08338428,0.00383376
1779586828528110742,A_+,0.3211734497499492,0.0,1.4723772102749364,-2.912971974871056,-0.09019861574306695,-0.017627825445142728,0.0,0.0,0.0,0.0,0.0,0.0,0.0,0.3402,-0.165375,0.3024,-0.04983888,-0.08338428,0.00383376
1779586828557353734,A_+,0.32383659674997034,0.0,1.4723772102749364,-2.912971974871056,-0.09019861574306695,-0.017627825445142728,0.0,0.0,0.0,0.0,0.0,0.0,0.0,0.3402,-0.17482499999999998,0.29295,-0.048880440000000004,-0.08530115999999999,0.00095844
1779586828557353734,A_+,0.3266876407496966,0.0,1.4723772102749364,-2.912971974871056,-0.09019861574306695,-0.017627825445142728,0.0,0.0,0.0,0.0,0.0,0.0,0.0,0.3402,-0.17482499999999998,0.29295,-0.048880440000000004,-0.08530115999999999,0.00095844
1779586828557353734,A_+,0.3293985939999402,0.0,1.4723772102749364,-2.912971974871056,-0.09019861574306695,-0.017627825445142728,0.0,0.0,0.0,0.0,0.0,0.0,0.0,0.3402,-0.17482499999999998,0.29295,-0.048880440000000004,-0.08530115999999999,0.00095844
1779586828593079805,A_+,0.33203675000004296,0.0,1.4723772102749364,-2.912971974871056,-0.09019861574306695,-0.017627825445142728,0.0,0.0,0.0,0.0,0.0,0.0,0.0,0.335475,-0.1512,0.2835,-0.05367264,-0.08913491999999999,0.0
1779586828593079805,A_+,0.33486112275022606,0.0,1.4723772102749364,-2.912971974871056,-0.09019861574306695,-0.017627825445142728,0.0,0.0,0.0,0.0,0.0,0.0,0.0,0.335475,-0.1512,0.2835,-0.05367264,-0.08913491999999999,0.0
1779586828593079805,A_+,0.33756680424994556,0.0,1.4723772102749364,-2.912971974871056,-0.09019861574306695,-0.017627825445142728,0.0,0.0,0.0,0.0,0.0,0.0,0.0,0.335475,-0.1512,0.2835,-0.05367264,-0.08913491999999999,0.0
1779586828622353792,A_+,0.34020362425053463,0.0,1.4723772102749364,-2.912971974871056,-0.09019861574306695,-0.017627825445142728,0.0,0.0,0.0,0.0,0.0,0.0,0.0,0.335475,-0.19372499999999998,0.28822499999999995,-0.05463108,-0.095844,-0.0095844
1779586828622353792,A_+,0.34305674799998087,0.0,1.4723772102749364,-2.912971974871056,-0.09019861574306695,-0.017627825445142728,0.0,0.0,0.0,0.0,0.0,0.0,0.0,0.335475,-0.19372499999999998,0.28822499999999995,-0.05463108,-0.095844,-0.0095844
1779586828622353792,A_+,0.3457382222504748,0.0,1.4723772102749364,-2.912971974871056,-0.09019861574306695,-0.017627825445142728,0.0,0.0,0.0,0.0,0.0,0.0,0.0,0.335475,-0.19372499999999998,0.28822499999999995,-0.05463108,-0.095844,-0.0095844
1779586828662356853,A_+,0.3483843940002771,0.0,1.4723772102749364,-2.912971974871056,-0.09019861574306695,-0.017627825445142728,0.0,0.0,0.0,0.0,0.0,0.0,0.0,0.335475,-0.19845,0.3024,-0.047922,-0.08625959999999999,0.0047922
1779586828662356853,A_+,0.3512378057503156,0.0,1.4723772102749364,-2.912971974871056,-0.09019861574306695,-0.017627825445142728,0.0,0.0,0.0,0.0,0.0,0.0,0.0,0.335475,-0.19845,0.3024,-0.047922,-0.08625959999999999,0.0047922
1779586828662356853,A_+,0.35393743950044154,0.0,1.4723772102749364,-2.912971974871056,-0.09019861574306695,-0.017627825445142728,0.0,0.0,0.0,0.0,0.0,0.0,0.0,0.335475,-0.19845,0.3024,-0.047922,-0.08625959999999999,0.0047922
1779586828692957401,A_+,0.35659205874981126,0.0,1.4723772102749364,-2.912971974871056,-0.09019861574306695,-0.017627825445142728,0.0,0.0,0.0,0.0,0.0,0.0,0.0,0.335475,-0.203175,0.2835,-0.05079731999999999,-0.08721804,-0.00095844
1779586828692957401,A_+,0.3596062565002285,0.0,1.4723772102749364,-2.912971974871056,-0.09019861574306695,-0.017627825445142728,0.0,0.0,0.0,0.0,0.0,0.0,0.0,0.335475,-0.203175,0.2835,-0.05079731999999999,-0.08721804,-0.00095844
1779586828692957401,A_+,0.3622764272504355,0.0,1.4723772102749364,-2.912971974871056,-0.09019861574306695,-0.017627825445142728,0.0,0.0,0.0,0.0,0.0,0.0,0.0,0.335475,-0.203175,0.2835,-0.05079731999999999,-0.08721804,-0.00095844
1779586828723767518,A_+,0.36491973500051245,0.0,1.4723772102749364,-2.912971974871056,-0.09019861574306695,-0.017627825445142728,0.0,0.0,0.0,0.0,0.0,0.0,0.0,0.326025,-0.1701,0.31185,-0.04696356,-0.08625959999999999,0.00287532
1779586828723767518,A_+,0.3677237807505662,0.0,1.4723772102749364,-2.912971974871056,-0.09019861574306695,-0.017627825445142728,0.0,0.0,0.0,0.0,0.0,0.0,0.0,0.326025,-0.1701,0.31185,-0.04696356,-0.08625959999999999,0.00287532
1779586828723767518,A_+,0.37045087724982295,0.0,1.4723772102749364,-2.912971974871056,-0.09019861574306695,-0.017627825445142728,0.0,0.0,0.0,0.0,0.0,0.0,0.0,0.326025,-0.1701,0.31185,-0.04696356,-0.08625959999999999,0.00287532
1779586828757358074,A_+,0.37312137600019923,0.0,1.4723772102749364,-2.912971974871056,-0.09019861574306695,-0.017627825445142728,0.0,0.0,0.0,0.0,0.0,0.0,0.0,0.33075,-0.17955,0.316575,-0.047922,-0.08817648,0.00095844
1779586828757358074,A_+,0.3760125702501682,0.0,1.4723772102749364,-2.912971974871056,-0.09019861574306695,-0.017627825445142728,0.0,0.0,0.0,0.0,0.0,0.0,0.0,0.33075,-0.17955,0.316575,-0.047922,-0.08817648,0.00095844
1779586828757358074,A_+,0.37871006800014584,0.0,1.4723772102749364,-2.912971974871056,-0.09019861574306695,-0.017627825445142728,0.0,0.0,0.0,0.0,0.0,0.0,0.0,0.33075,-0.17955,0.316575,-0.047922,-0.08817648,0.00095844
1779586828787346601,A_+,0.3813622474999647,0.0,1.4723772102749364,-2.912971974871056,-0.09019861574306695,-0.017627825445142728,0.0,0.0,0.0,0.0,0.0,0.0,0.0,0.3402,-0.17482499999999998,0.2646,-0.03546228,-0.09488556,0.00862596
1779586828787346601,A_+,0.38418342850036424,0.0,1.4723772102749364,-2.912971974871056,-0.09019861574306695,-0.017627825445142728,0.0,0.0,0.0,0.0,0.0,0.0,0.0,0.3402,-0.17482499999999998,0.2646,-0.03546228,-0.09488556,0.00862596
1779586828787346601,A_+,0.3868746465004733,0.0,1.4723772102749364,-2.912971974871056,-0.09019861574306695,-0.017627825445142728,0.0,0.0,0.0,0.0,0.0,0.0,0.0,0.3402,-0.17482499999999998,0.2646,-0.03546228,-0.09488556,0.00862596
1779586828823425292,A_+,0.3895274500000596,0.0,1.4723772102749364,-2.912971974871056,-0.09019861574306695,-0.017627825445142728,0.0,0.0,0.0,0.0,0.0,0.0,0.0,0.609525,-0.146475,0.326025,-0.04696356,-0.08625959999999999,0.00575064
1779586828823425292,A_+,0.3924111004998849,0.0,1.4723772102749364,-2.912971974871056,-0.09019861574306695,-0.017627825445142728,0.0,0.0,0.0,0.0,0.0,0.0,0.0,0.609525,-0.146475,0.326025,-0.04696356,-0.08625959999999999,0.00575064
1779586828823425292,A_+,0.3950944147500195,0.0,1.4723772102749364,-2.912971974871056,-0.09019861574306695,-0.017627825445142728,0.0,0.0,0.0,0.0,0.0,0.0,0.0,0.609525,-0.146475,0.326025,-0.04696356,-0.08625959999999999,0.00575064
1779586828862343072,A_+,0.3977527140004895,0.0,1.4723772102749364,-2.912971974871056,-0.09019861574306695,-0.017627825445142728,0.0,0.0,0.0,0.0,0.0,0.0,0.0,0.6000749999999999,-0.16065,0.29767499999999997,-0.05654796,-0.0910518,0.00095844
1779586828862343072,A_+,0.40066973924967897,0.0,1.4723772102749364,-2.912971974871056,-0.09019861574306695,-0.017627825445142728,0.0,0.0,0.0,0.0,0.0,0.0,0.0,0.6000749999999999,-0.16065,0.29767499999999997,-0.05654796,-0.0910518,0.00095844
1779586828862343072,A_+,0.4033834524998383,0.0,1.4723772102749364,-2.912971974871056,-0.09019861574306695,-0.017627825445142728,0.0,0.0,0.0,0.0,0.0,0.0,0.0,0.6000749999999999,-0.16065,0.29767499999999997,-0.05654796,-0.0910518,0.00095844
1779586828892343997,A_+,0.4060442874997534,0.0,1.4723772102749364,-2.912971974871056,-0.09019861574306695,-0.017627825445142728,0.0,0.0,0.0,0.0,0.0,0.0,0.0,0.609525,-0.14175,0.29767499999999997,-0.05367264,-0.0910518,0.00766752
1779586828892343997,A_+,0.40897930425035156,0.0,1.4723772102749364,-2.912971974871056,-0.09019861574306695,-0.017627825445142728,0.0,0.0,0.0,0.0,0.0,0.0,0.0,0.609525,-0.14175,0.29767499999999997,-0.05367264,-0.0910518,0.00766752
1779586828892343997,A_+,0.4117060569997193,0.0,1.4723772102749364,-2.912971974871056,-0.09019861574306695,-0.017627825445142728,0.0,0.0,0.0,0.0,0.0,0.0,0.0,0.609525,-0.14175,0.29767499999999997,-0.05367264,-0.0910518,0.00766752
1779586828922639131,A_+,0.4144007387503734,0.0,1.4723772102749364,-2.912971974871056,-0.09019861574306695,-0.017627825445142728,0.0,0.0,0.0,0.0,0.0,0.0,0.0,0.5764499999999999,-0.17955,0.31185,-0.04025448,-0.06517392,0.0047922
1779586828922639131,A_+,0.417270070000086,0.0,1.4723772102749364,-2.912971974871056,-0.09019861574306695,-0.017627825445142728,0.0,0.0,0.0,0.0,0.0,0.0,0.0,0.5764499999999999,-0.17955,0.31185,-0.04025448,-0.06517392,0.0047922
1779586828922639131,A_+,0.4199433764997593,0.0,1.4723772102749364,-2.912971974871056,-0.09019861574306695,-0.017627825445142728,0.0,0.0,0.0,0.0,0.0,0.0,0.0,0.5764499999999999,-0.17955,0.31185,-0.04025448,-0.06517392,0.0047922
1779586828952337741,A_+,0.42264513800000714,0.0,1.4723772102749364,-2.912971974871056,-0.09019861574306695,-0.017627825445142728,0.0,0.0,0.0,0.0,0.0,0.0,0.0,0.5717249999999999,-0.155925,0.3024,-0.05463108,-0.09680244,0.0
1779586828952337741,A_+,0.4256264490004469,0.0,1.4723772102749364,-2.912971974871056,-0.09019861574306695,-0.017627825445142728,0.0,0.0,0.0,0.0,0.0,0.0,0.0,0.5717249999999999,-0.155925,0.3024,-0.05463108,-0.09680244,0.0
1779586828952337741,A_+,0.4283603692501856,0.0,1.4723772102749364,-2.912971974871056,-0.09019861574306695,-0.017627825445142728,0.0,0.0,0.0,0.0,0.0,0.0,0.0,0.5717249999999999,-0.155925,0.3024,-0.05463108,-0.09680244,0.0
1779586828988280057,A_+,0.431018100500296,0.0,1.4723772102749364,-2.912971974871056,-0.09019861574306695,-0.017627825445142728,0.0,0.0,0.0,0.0,0.0,0.0,0.0,0.5717249999999999,-0.1512,0.31185,-0.04600512,-0.08530115999999999,0.00575064
1779586828988280057,A_+,0.4339245902501716,0.0,1.4723772102749364,-2.912971974871056,-0.09019861574306695,-0.017627825445142728,0.0,0.0,0.0,0.0,0.0,0.0,0.0,0.5717249999999999,-0.1512,0.31185,-0.04600512,-0.08530115999999999,0.00575064
1779586828988280057,A_+,0.4366227919999801,0.0,1.4723772102749364,-2.912971974871056,-0.09019861574306695,-0.017627825445142728,0.0,0.0,0.0,0.0,0.0,0.0,0.0,0.5717249999999999,-0.1512,0.31185,-0.04600512,-0.08530115999999999,0.00575064
1779586829022339344,A_+,0.4393007384996963,0.0,1.4723772102749364,-2.912971974871056,-0.09019861574306695,-0.017627825445142728,0.0,0.0,0.0,0.0,0.0,0.0,0.0,0.581175,-0.17482499999999998,0.28822499999999995,-0.05367264,-0.09201024,0.00670908
1779586829022339344,A_+,0.4422401552501469,0.0,1.4723772102749364,-2.912971974871056,-0.09019861574306695,-0.017627825445142728,0.0,0.0,0.0,0.0,0.0,0.0,0.0,0.581175,-0.17482499999999998,0.28822499999999995,-0.05367264,-0.09201024,0.00670908
1779586829022339344,A_+,0.4449545242505337,0.0,1.4723772102749364,-2.912971974871056,-0.09019861574306695,-0.017627825445142728,0.0,0.0,0.0,0.0,0.0,0.0,0.0,0.581175,-0.17482499999999998,0.28822499999999995,-0.05367264,-0.09201024,0.00670908
1779586829052626371,A_+,0.4476718132500537,0.0,1.4723772102749364,-2.912971974871056,-0.09019861574306695,-0.017627825445142728,0.0,0.0,0.0,0.0,0.0,0.0,0.0,0.590625,-0.165375,0.3024,-0.05175576,-0.09009336,0.00383376
1779586829052626371,A_+,0.450585614999909,0.0,1.4723772102749364,-2.912971974871056,-0.09019861574306695,-0.017627825445142728,0.0,0.0,0.0,0.0,0.0,0.0,0.0,0.590625,-0.165375,0.3024,-0.05175576,-0.09009336,0.00383376
1779586829052626371,A_+,0.4533076797497415,0.0,1.4723772102749364,-2.912971974871056,-0.09019861574306695,-0.017627825445142728,0.0,0.0,0.0,0.0,0.0,0.0,0.0,0.590625,-0.165375,0.3024,-0.05175576,-0.09009336,0.00383376
1779586829092336654,A_+,0.45597933849967376,0.0,1.4723772102749364,-2.912971974871056,-0.09019861574306695,-0.017627825445142728,0.0,0.0,0.0,0.0,0.0,0.0,0.0,0.5953499999999999,-0.14175,0.29295,-0.04504668,-0.10830371999999999,0.01054284
1779586829092336654,A_+,0.45898231274986756,0.0,1.4723772102749364,-2.912971974871056,-0.09019861574306695,-0.017627825445142728,0.0,0.0,0.0,0.0,0.0,0.0,0.0,0.5953499999999999,-0.14175,0.29295,-0.04504668,-0.10830371999999999,0.01054284
1779586829092336654,A_+,0.4617199129997971,0.0,1.4723772102749364,-2.912971974871056,-0.09019861574306695,-0.017627825445142728,0.0,0.0,0.0,0.0,0.0,0.0,0.0,0.5953499999999999,-0.14175,0.29295,-0.04504668,-0.10830371999999999,0.01054284
1779586829122723579,A_+,0.46442988225044246,0.0,1.4723772102749364,-2.912971974871056,-0.09019861574306695,-0.017627825445142728,0.0,0.0,0.0,0.0,0.0,0.0,0.0,0.6000749999999999,-0.19372499999999998,0.316575,-0.05175576,-0.09680244,0.01150128
1779586829122723579,A_+,0.467375394499868,0.0,1.4723772102749364,-2.912971974871056,-0.09019861574306695,-0.017627825445142728,0.0,0.0,0.0,0.0,0.0,0.0,0.0,0.6000749999999999,-0.19372499999999998,0.316575,-0.05175576,-0.09680244,0.01150128
1779586829122723579,A_+,0.4700927635003609,0.0,1.4723772102749364,-2.912971974871056,-0.09019861574306695,-0.017627825445142728,0.0,0.0,0.0,0.0,0.0,0.0,0.0,0.6000749999999999,-0.19372499999999998,0.316575,-0.05175576,-0.09680244,0.01150128
1779586829152343750,A_+,0.47276375825003925,0.0,1.4723772102749364,-2.912971974871056,-0.09019861574306695,-0.017627825445142728,0.0,0.0,0.0,0.0,0.0,0.0,0.0,0.581175,-0.155925,0.31185,-0.04408824,-0.08530115999999999,0.01341816
1779586829152343750,A_+,0.4757540850005171,0.0,1.4723772102749364,-2.912971974871056,-0.09019861574306695,-0.017627825445142728,0.0,0.0,0.0,0.0,0.0,0.0,0.0,0.581175,-0.155925,0.31185,-0.04408824,-0.08530115999999999,0.01341816
1779586829152343750,A_+,0.4784522307500083,0.0,1.4723772102749364,-2.912971974871056,-0.09019861574306695,-0.017627825445142728,0.0,0.0,0.0,0.0,0.0,0.0,0.0,0.581175,-0.155925,0.31185,-0.04408824,-0.08530115999999999,0.01341816
1779586829187361717,A_+,0.48112964124993596,0.0,1.4723772102749364,-2.912971974871056,-0.09019861574306695,-0.017627825445142728,0.0,0.0,0.0,0.0,0.0,0.0,0.0,0.61425,-0.16065,0.316575,-0.04696356,-0.08338428,0.01725192
1779586829187361717,A_+,0.4840494905001833,0.0,1.4723772102749364,-2.912971974871056,-0.09019861574306695,-0.017627825445142728,0.0,0.0,0.0,0.0,0.0,0.0,0.0,0.61425,-0.16065,0.316575,-0.04696356,-0.08338428,0.01725192
1779586829187361717,A_+,0.4867902267496902,0.0,1.4723772102749364,-2.912971974871056,-0.09019861574306695,-0.017627825445142728,0.0,0.0,0.0,0.0,0.0,0.0,0.0,0.61425,-0.16065,0.316575,-0.04696356,-0.08338428,0.01725192
1779586829222972631,A_+,0.48950557174975984,0.0,1.4723772102749364,-2.912971974871056,-0.09019861574306695,-0.017627825445142728,0.0,0.0,0.0,0.0,0.0,0.0,0.0,0.5953499999999999,-0.184275,0.29767499999999997,-0.047922,-0.09201024,0.01150128
1779586829222972631,A_+,0.4924878907504535,0.0,1.4723772102749364,-2.912971974871056,-0.09019861574306695,-0.017627825445142728,0.0,0.0,0.0,0.0,0.0,0.0,0.0,0.5953499999999999,-0.184275,0.29767499999999997,-0.047922,-0.09201024,0.01150128
1779586829222972631,A_+,0.49518962825004564,0.0,1.4723772102749364,-2.912971974871056,-0.09019861574306695,-0.017627825445142728,0.0,0.0,0.0,0.0,0.0,0.0,0.0,0.5953499999999999,-0.184275,0.29767499999999997,-0.047922,-0.09201024,0.01150128
1779586829242349147,A_+,0.4978702787502698,0.0,1.4723772102749364,-2.912971974871056,-0.09019861574306695,-0.017627825445142728,0.0,0.0,0.0,0.0,0.0,0.0,0.0,0.5953499999999999,-0.21735,0.28822499999999995,-0.047922,-0.07859208,-0.00287532
1779586829242349147,A_+,0.5007886880002843,0.0,1.4723772102749364,-2.912971974871056,-0.09019861574306695,-0.017627825445142728,0.0,0.0,0.0,0.0,0.0,0.0,0.0,0.5953499999999999,-0.21735,0.28822499999999995,-0.047922,-0.07859208,-0.00287532
1779586829242349147,A_+,0.503497945500385,0.0,1.4723772102749364,-2.912971974871056,-0.09019861574306695,-0.017627825445142728,0.0,0.0,0.0,0.0,0.0,0.0,0.0,0.5953499999999999,-0.21735,0.28822499999999995,-0.047922,-0.07859208,-0.00287532
1779586829258271694,A_+,0.5061760680000589,0.0,1.4723772102749364,-2.912971974871056,-0.09019861574306695,-0.017627825445142728,0.0,0.0,0.0,0.0,0.0,0.0,0.0,0.5953499999999999,-0.1512,0.29295,-0.04504668,-0.0910518,0.0
1779586829258271694,A_+,0.5090946052505387,0.0,1.4723772102749364,-2.912971974871056,-0.09019861574306695,-0.017627825445142728,0.0,0.0,0.0,0.0,0.0,0.0,0.0,0.5953499999999999,-0.1512,0.29295,-0.04504668,-0.0910518,0.0
1779586829258271694,A_+,0.5118270777502403,0.0,1.4723772102749364,-2.912971974871056,-0.09019861574306695,-0.017627825445142728,0.0,0.0,0.0,0.0,0.0,0.0,0.0,0.5953499999999999,-0.1512,0.29295,-0.04504668,-0.0910518,0.0
1779586829268362283,A_+,0.5145158397499472,0.0,1.4723772102749364,-2.912971974871056,-0.09019861574306695,-0.017627825445142728,0.0,0.0,0.0,0.0,0.0,0.0,0.0,0.5859,-0.155925,0.307125,-0.048880440000000004,-0.08530115999999999,0.00575064
1779586829268362283,A_+,0.5174951589997363,0.0,1.4723772102749364,-2.912971974871056,-0.09019861574306695,-0.017627825445142728,0.0,0.0,0.0,0.0,0.0,0.0,0.0,0.5859,-0.155925,0.307125,-0.048880440000000004,-0.08530115999999999,0.00575064
1779586829268362283,A_+,0.5202233115005583,0.0,1.4723772102749364,-2.912971974871056,-0.09019861574306695,-0.017627825445142728,0.0,0.0,0.0,0.0,0.0,0.0,0.0,0.5859,-0.155925,0.307125,-0.048880440000000004,-0.08530115999999999,0.00575064
1779586829292685031,A_+,0.5228801867497168,0.0,1.4723772102749364,-2.912971974871056,-0.09019861574306695,-0.017627825445142728,0.0,0.0,0.0,0.0,0.0,0.0,0.0,0.5859,-0.1701,0.31185,-0.04600512,-0.08817648,0.00766752
1779586829292685031,A_+,0.525799204249779,0.0,1.4723772102749364,-2.912971974871056,-0.09019861574306695,-0.017627825445142728,0.0,0.0,0.0,0.0,0.0,0.0,0.0,0.5859,-0.1701,0.31185,-0.04600512,-0.08817648,0.00766752
1779586829292685031,A_+,0.5285062855000433,0.0,1.4723772102749364,-2.912971974871056,-0.09019861574306695,-0.017627825445142728,0.0,0.0,0.0,0.0,0.0,0.0,0.0,0.5859,-0.1701,0.31185,-0.04600512,-0.08817648,0.00766752
1779586829307348251,A_+,0.5311702565004452,0.0,1.4723772102749364,-2.912971974871056,-0.09019861574306695,-0.017627825445142728,0.0,0.0,0.0,0.0,0.0,0.0,0.0,0.581175,-0.1701,0.29767499999999997,-0.04217136,-0.08530115999999999,-0.00095844
1779586829307348251,A_+,0.53403630000048,0.0,1.4723772102749364,-2.912971974871056,-0.09019861574306695,-0.017627825445142728,0.0,0.0,0.0,0.0,0.0,0.0,0.0,0.581175,-0.1701,0.29767499999999997,-0.04217136,-0.08530115999999999,-0.00095844
1779586829307348251,A_+,0.5367608607502916,0.0,1.4723772102749364,-2.912971974871056,-0.09019861574306695,-0.017627825445142728,0.0,0.0,0.0,0.0,0.0,0.0,0.0,0.581175,-0.1701,0.29767499999999997,-0.04217136,-0.08530115999999999,-0.00095844
1779586829332489490,A_+,0.5394389032499021,0.0,1.4723772102749364,-2.912971974871056,-0.09019861574306695,-0.017627825445142728,0.0,0.0,0.0,0.0,0.0,0.0,0.0,0.6000749999999999,-0.17955,0.3213,-0.059423279999999995,-0.08050896,0.01150128
1779586829332489490,A_+,0.5423915592500634,0.0,1.4723772102749364,-2.912971974871056,-0.09019861574306695,-0.017627825445142728,0.0,0.0,0.0,0.0,0.0,0.0,0.0,0.6000749999999999,-0.17955,0.3213,-0.059423279999999995,-0.08050896,0.01150128
1779586829332489490,A_+,0.5451472547501908,0.0,1.4723772102749364,-2.912971974871056,-0.09019861574306695,-0.017627825445142728,0.0,0.0,0.0,0.0,0.0,0.0,0.0,0.6000749999999999,-0.17955,0.3213,-0.059423279999999995,-0.08050896,0.01150128
1779586829352324485,A_+,0.5478124817500429,0.0,1.4723772102749364,-2.912971974871056,-0.09019861574306695,-0.017627825445142728,0.0,0.0,0.0,0.0,0.0,0.0,0.0,0.5859,-0.16065,0.31185,-0.04600512,-0.08913491999999999,0.00095844
1779586829352324485,A_+,0.5507704737501626,0.0,1.4723772102749364,-2.912971974871056,-0.09019861574306695,-0.017627825445142728,0.0,0.0,0.0,0.0,0.0,0.0,0.0,0.5859,-0.16065,0.31185,-0.04600512,-0.08913491999999999,0.00095844
1779586829352324485,A_+,0.553496290500334,0.0,1.4723772102749364,-2.912971974871056,-0.09019861574306695,-0.017627825445142728,0.0,0.0,0.0,0.0,0.0,0.0,0.0,0.5859,-0.16065,0.31185,-0.04600512,-0.08913491999999999,0.00095844
1779586829367457628,A_+,0.5561757807499816,0.0,1.4723772102749364,-2.912971974871056,-0.09019861574306695,-0.017627825445142728,0.0,0.0,0.0,0.0,0.0,0.0,0.0,0.581175,-0.155925,0.3024,-0.047922,-0.08434272,0.00191688
1779586829367457628,A_+,0.5590960942499805,0.0,1.4723772102749364,-2.912971974871056,-0.09019861574306695,-0.017627825445142728,0.0,0.0,0.0,0.0,0.0,0.0,0.0,0.581175,-0.155925,0.3024,-0.047922,-0.08434272,0.00191688
1779586829367457628,A_+,0.5618044555003507,0.0,1.4723772102749364,-2.912971974871056,-0.09019861574306695,-0.017627825445142728,0.0,0.0,0.0,0.0,0.0,0.0,0.0,0.581175,-0.155925,0.3024,-0.047922,-0.08434272,0.00191688
1779586829387325048,A_+,0.5644517632499628,0.0,1.4723772102749364,-2.912971974871056,-0.09019861574306695,-0.017627825445142728,0.0,0.0,0.0,0.0,0.0,0.0,0.0,0.590625,-0.17955,0.3024,-0.04504668,-0.08625959999999999,0.01054284
1779586829387325048,A_+,0.5673755164998511,0.0,1.4723772102749364,-2.912971974871056,-0.09019861574306695,-0.017627825445142728,0.0,0.0,0.0,0.0,0.0,0.0,0.0,0.590625,-0.17955,0.3024,-0.04504668,-0.08625959999999999,0.01054284
1779586829387325048,A_+,0.5700944052505292,0.0,1.4723772102749364,-2.912971974871056,-0.09019861574306695,-0.017627825445142728,0.0,0.0,0.0,0.0,0.0,0.0,0.0,0.590625,-0.17955,0.3024,-0.04504668,-0.08625959999999999,0.01054284
1779586829402324676,A_+,0.5727798075004102,0.0,1.4723772102749364,-2.912971974871056,-0.09019861574306695,-0.017627825445142728,0.0,0.0,0.0,0.0,0.0,0.0,0.0,0.6000749999999999,-0.16065,0.31185,-0.048880440000000004,-0.09009336,0.00862596
1779586829402324676,A_+,0.5756930172501598,0.0,1.4723772102749364,-2.912971974871056,-0.09019861574306695,-0.017627825445142728,0.0,0.0,0.0,0.0,0.0,0.0,0.0,0.6000749999999999,-0.16065,0.31185,-0.048880440000000004,-0.09009336,0.00862596
1779586829402324676,A_+,0.5784096022498488,0.0,1.4723772102749364,-2.912971974871056,-0.09019861574306695,-0.017627825445142728,0.0,0.0,0.0,0.0,0.0,0.0,0.0,0.6000749999999999,-0.16065,0.31185,-0.048880440000000004,-0.09009336,0.00862596
1779586829417317390,A_+,0.5810797570002251,0.0,1.4723772102749364,-2.912971974871056,-0.09019861574306695,-0.017627825445142728,0.0,0.0,0.0,0.0,0.0,0.0,0.0,0.609525,-0.155925,0.31185,-0.04600512,-0.08434272,-0.00095844
1779586829417317390,A_+,0.58394960024998,0.0,1.4723772102749364,-2.912971974871056,-0.09019861574306695,-0.017627825445142728,0.0,0.0,0.0,0.0,0.0,0.0,0.0,0.609525,-0.155925,0.31185,-0.04600512,-0.08434272,-0.00095844
1779586829417317390,A_+,0.5866932002500107,0.0,1.4723772102749364,-2.912971974871056,-0.09019861574306695,-0.017627825445142728,0.0,0.0,0.0,0.0,0.0,0.0,0.0,0.609525,-0.155925,0.31185,-0.04600512,-0.08434272,-0.00095844
1779586829452325820,A_+,0.5893470037499355,0.0,1.4723772102749364,-2.912971974871056,-0.09019861574306695,-0.017627825445142728,0.0,0.0,0.0,0.0,0.0,0.0,0.0,0.628425,-0.184275,0.3213,-0.052714199999999996,-0.09776088000000001,0.00383376
1779586829452325820,A_+,0.5922296302496761,0.0,1.4723772102749364,-2.912971974871056,-0.09019861574306695,-0.017627825445142728,0.0,0.0,0.0,0.0,0.0,0.0,0.0,0.628425,-0.184275,0.3213,-0.052714199999999996,-0.09776088000000001,0.00383376
1779586829452325820,A_+,0.5949673505001556,0.0,1.4723772102749364,-2.912971974871056,-0.09019861574306695,-0.017627825445142728,0.0,0.0,0.0,0.0,0.0,0.0,0.0,0.628425,-0.184275,0.3213,-0.052714199999999996,-0.09776088000000001,0.00383376
1779586829552316188,A_+,0.5976133782505713,0.0,1.4723772102749364,-2.912971974871056,-0.09019861574306695,-0.017627825445142728,0.0,0.0,0.0,0.0,0.0,0.0,0.0,0.6048,-0.17482499999999998,0.31185,-0.052714199999999996,-0.09201024,0.0095844
1779586829552316188,A_+,0.6004841174999456,0.0,1.4723772102749364,-2.912971974871056,-0.09019861574306695,-0.017627825445142728,0.0,0.0,0.0,0.0,0.0,0.0,0.0,0.6048,-0.17482499999999998,0.31185,-0.052714199999999996,-0.09201024,0.0095844
1779586829552316188,A_+,0.6031535282500045,0.0,1.4723772102749364,-2.912971974871056,-0.09019861574306695,-0.017627825445142728,0.0,0.0,0.0,0.0,0.0,0.0,0.0,0.6048,-0.17482499999999998,0.31185,-0.052714199999999996,-0.09201024,0.0095844
1779586829613288402,A_+,0.6058107957496759,0.0,1.4723772102749364,-2.912971974871056,-0.09019861574306695,-0.017627825445142728,0.0,0.0,0.0,0.0,0.0,0.0,0.0,0.590625,-0.17955,0.307125,-0.052714199999999996,-0.08530115999999999,0.01054284
1779586829613288402,A_+,0.6087551319997146,0.0,1.4723772102749364,-2.912971974871056,-0.09019861574306695,-0.017627825445142728,0.0,0.0,0.0,0.0,0.0,0.0,0.0,0.590625,-0.17955,0.307125,-0.052714199999999996,-0.08530115999999999,0.01054284
1779586829613288402,A_+,0.6114334305002558,0.0,1.4723772102749364,-2.912971974871056,-0.09019861574306695,-0.017627825445142728,0.0,0.0,0.0,0.0,0.0,0.0,0.0,0.590625,-0.17955,0.307125,-0.052714199999999996,-0.08530115999999999,0.01054284
1779586829697553396,A_+,0.6140831140000955,0.0,1.4723772102749364,-2.912971974871056,-0.09019861574306695,-0.017627825445142728,0.0,0.0,0.0,0.0,0.0,0.0,0.0,0.5859,-0.16065,0.3213,-0.043129799999999996,-0.09296868,0.00383376
1779586829697553396,A_+,0.6169758605001334,0.0,1.4723772102749364,-2.912971974871056,-0.09019861574306695,-0.017627825445142728,0.0,0.0,0.0,0.0,0.0,0.0,0.0,0.5859,-0.16065,0.3213,-0.043129799999999996,-0.09296868,0.00383376
1779586829697553396,A_+,0.6196845337499326,0.0,1.4723772102749364,-2.912971974871056,-0.09019861574306695,-0.017627825445142728,0.0,0.0,0.0,0.0,0.0,0.0,0.0,0.5859,-0.16065,0.3213,-0.043129799999999996,-0.09296868,0.00383376
1779586829752295017,A_+,0.6223579924999285,0.0,1.4723772102749364,-2.912971974871056,-0.09019861574306695,-0.017627825445142728,0.0,0.0,0.0,0.0,0.0,0.0,0.0,0.590625,-0.165375,0.3024,-0.04600512,-0.09967776,0.0047922
1779586829752295017,A_+,0.6252460830000928,0.0,1.4723772102749364,-2.912971974871056,-0.09019861574306695,-0.017627825445142728,0.0,0.0,0.0,0.0,0.0,0.0,0.0,0.590625,-0.165375,0.3024,-0.04600512,-0.09967776,0.0047922
1779586829752295017,A_+,0.627935477000392,0.0,1.4723772102749364,-2.912971974871056,-0.09019861574306695,-0.017627825445142728,0.0,0.0,0.0,0.0,0.0,0.0,0.0,0.590625,-0.165375,0.3024,-0.04600512,-0.09967776,0.0047922
1779586829792326927,A_+,0.630593352249889,0.0,1.4723772102749364,-2.912971974871056,-0.09019861574306695,-0.017627825445142728,0.0,0.0,0.0,0.0,0.0,0.0,0.0,0.5953499999999999,-0.155925,0.316575,-0.04600512,-0.0910518,0.01245972
1779586829792326927,A_+,0.6334836267496939,0.0,1.4723772102749364,-2.912971974871056,-0.09019861574306695,-0.017627825445142728,0.0,0.0,0.0,0.0,0.0,0.0,0.0,0.5953499999999999,-0.155925,0.316575,-0.04600512,-0.0910518,0.01245972
1779586829792326927,A_+,0.6361575575001552,0.0,1.4723772102749364,-2.912971974871056,-0.09019861574306695,-0.017627825445142728,0.0,0.0,0.0,0.0,0.0,0.0,0.0,0.5953499999999999,-0.155925,0.316575,-0.04600512,-0.0910518,0.01245972
1779586829822311162,A_+,0.6388161607501388,-0.0005759586531581288,1.4723772102749364,-2.912971974871056,-0.09019861574306695,-0.017627825445142728,0.0,0.018000000000000002,0.0,0.0,0.0,0.0,0.0,0.713475,-0.189,0.278775,-0.04408824,-0.09488556,-0.00095844
1779586829822311162,A_+,0.6416054070004975,-0.0005759586531581288,1.4723772102749364,-2.912971974871056,-0.09019861574306695,-0.017627825445142728,0.0,0.018000000000000002,0.0,0.0,0.0,0.0,0.0,0.713475,-0.189,0.278775,-0.04408824,-0.09488556,-0.00095844
1779586829822311162,A_+,0.6443329274998177,-0.0005759586531581288,1.4723772102749364,-2.912971974871056,-0.09019861574306695,-0.017627825445142728,0.0,0.018000000000000002,0.0,0.0,0.0,0.0,0.0,0.713475,-0.189,0.278775,-0.04408824,-0.09488556,-0.00095844
1779586829857304096,A_+,0.6470124899997245,0.0037524578917878084,1.4723772102749364,-2.912971974871056,-0.09019861574306695,-0.017627825445142728,0.0,0.155,0.0,0.0,0.0,0.0,0.0,0.1701,-0.17955,0.335475,-0.04600512,-0.08625959999999999,0.00575064
1779586829857304096,A_+,0.649921379749685,0.0037524578917878084,1.4723772102749364,-2.912971974871056,-0.09019861574306695,-0.017627825445142728,0.0,0.155,0.0,0.0,0.0,0.0,0.0,0.1701,-0.17955,0.335475,-0.04600512,-0.08625959999999999,0.00575064
1779586829857304096,A_+,0.6526256212500812,0.0037524578917878084,1.4723772102749364,-2.912971974871056,-0.09019861574306695,-0.017627825445142728,0.0,0.155,0.0,0.0,0.0,0.0,0.0,0.1701,-0.17955,0.335475,-0.04600512,-0.08625959999999999,0.00575064
