deepaktalwardt/rage-cage-arm-hackstorm/ros2/ws/sysid/runs/sysid_20260524_014017/raw/joint1_phaseC.csv
t_ns,phase,tau_cmd,q1,q2,q3,q4,q5,q6,qd1,qd2,qd3,qd4,qd5,qd6,tau1,tau2,tau3,tau4,tau5,tau6
1779586839161931991,C,3.544519713448288e-05,0.09330530181161686,1.4723772102749364,-2.912971974871056,-0.09019861574306695,-0.017627825445142728,0.0,0.0,0.0,0.0,0.0,0.0,0.0,0.10394999999999999,-0.20789999999999997,0.3024,-0.047922,-0.08338428,0.0
1779586839161931991,C,0.07659730626984447,0.09330530181161686,1.4723772102749364,-2.912971974871056,-0.09019861574306695,-0.017627825445142728,0.0,0.0,0.0,0.0,0.0,0.0,0.0,0.10394999999999999,-0.20789999999999997,0.3024,-0.047922,-0.08338428,0.0
1779586842241782426,C,0.15221312718415184,0.09330530181161686,1.4723772102749364,-2.912971974871056,-0.09019861574306695,-0.017627825445142728,0.0,0.0,0.0,0.0,0.0,0.0,0.0,0.11339999999999999,-0.16065,0.316575,-0.04983888,-0.09392712,0.00383376
1779586842241782426,C,0.23459172448599433,0.09330530181161686,1.4723772102749364,-2.912971974871056,-0.09019861574306695,-0.017627825445142728,0.0,0.0,0.0,0.0,0.0,0.0,0.0,0.11339999999999999,-0.16065,0.316575,-0.04983888,-0.09392712,0.00383376
1779586842241782426,C,0.31195873364170545,0.09330530181161686,1.4723772102749364,-2.912971974871056,-0.09019861574306695,-0.017627825445142728,0.0,0.0,0.0,0.0,0.0,0.0,0.0,0.11339999999999999,-0.16065,0.316575,-0.04983888,-0.09392712,0.00383376
1779586842251807451,C,0.38689410744276737,0.09330530181161686,1.4723772102749364,-2.912971974871056,-0.09019861574306695,-0.017627825445142728,0.0,0.0,0.0,0.0,0.0,0.0,0.0,0.06615,-0.16065,0.3024,-0.05175576,-0.08434272,0.00287532
1779586842251807451,C,0.4686382188361239,0.09330530181161686,1.4723772102749364,-2.912971974871056,-0.09019861574306695,-0.017627825445142728,0.0,0.0,0.0,0.0,0.0,0.0,0.0,0.06615,-0.16065,0.3024,-0.05175576,-0.08434272,0.00287532
1779586842251807451,C,0.5445642812281667,0.09330530181161686,1.4723772102749364,-2.912971974871056,-0.09019861574306695,-0.017627825445142728,0.0,0.0,0.0,0.0,0.0,0.0,0.0,0.06615,-0.16065,0.3024,-0.05175576,-0.08434272,0.00287532
1779586842267061471,C,0.6196580645638882,0.09330530181161686,1.4723772102749364,-2.912971974871056,-0.09019861574306695,-0.017627825445142728,0.0,0.0,0.0,0.0,0.0,0.0,0.0,0.155925,-0.1701,0.278775,-0.05175576,-0.08625959999999999,0.01629348
1779586842267061471,C,0.7023823484908518,0.09330530181161686,1.4723772102749364,-2.912971974871056,-0.09019861574306695,-0.017627825445142728,0.0,0.0,0.0,0.0,0.0,0.0,0.0,0.155925,-0.1701,0.278775,-0.05175576,-0.08625959999999999,0.01629348
1779586842267061471,C,0.7781653171729289,0.09330530181161686,1.4723772102749364,-2.912971974871056,-0.09019861574306695,-0.017627825445142728,0.0,0.0,0.0,0.0,0.0,0.0,0.0,0.155925,-0.1701,0.278775,-0.05175576,-0.08625959999999999,0.01629348
1779586842276778936,C,0.8520387017598716,0.09330530181161686,1.4723772102749364,-2.912971974871056,-0.09019861574306695,-0.017627825445142728,0.0,0.0,0.0,0.0,0.0,0.0,0.0,0.28822499999999995,-0.165375,0.29767499999999997,-0.04983888,-0.08434272,0.00191688
1779586842276778936,C,0.9325667766805399,0.09330530181161686,1.4723772102749364,-2.912971974871056,-0.09019861574306695,-0.017627825445142728,0.0,0.0,0.0,0.0,0.0,0.0,0.0,0.28822499999999995,-0.165375,0.29767499999999997,-0.04983888,-0.08434272,0.00191688
1779586842276778936,C,1.007626427591308,0.09330530181161686,1.4723772102749364,-2.912971974871056,-0.09019861574306695,-0.017627825445142728,0.0,0.0,0.0,0.0,0.0,0.0,0.0,0.28822499999999995,-0.165375,0.29767499999999997,-0.04983888,-0.08434272,0.00191688
1779586842287011146,C,1.0803021547150948,0.09330530181161686,1.4723772102749364,-2.912971974871056,-0.09019861574306695,-0.017627825445142728,0.0,0.002,0.0,0.0,0.0,0.0,0.0,0.3591,-0.17955,0.316575,-0.05079731999999999,-0.08434272,0.00191688
1779586842287011146,C,1.1589101432636812,0.09330530181161686,1.4723772102749364,-2.912971974871056,-0.09019861574306695,-0.017627825445142728,0.0,0.002,0.0,0.0,0.0,0.0,0.0,0.3591,-0.17955,0.316575,-0.05079731999999999,-0.08434272,0.00191688
1779586842287011146,C,1.233209280793349,0.09330530181161686,1.4723772102749364,-2.912971974871056,-0.09019861574306695,-0.017627825445142728,0.0,0.002,0.0,0.0,0.0,0.0,0.0,0.3591,-0.17955,0.316575,-0.05079731999999999,-0.08434272,0.00191688
1779586842297486782,C,1.3063405310087233,0.09330530181161686,1.4723772102749364,-2.912971974871056,-0.09019861574306695,-0.017627825445142728,0.0,0.002,0.0,0.0,0.0,0.0,0.0,0.6048,-0.16065,0.29295,-0.043129799999999996,-0.09201024,0.0047922
1779586842297486782,C,1.367485483800192,0.09330530181161686,1.4723772102749364,-2.912971974871056,-0.09019861574306695,-0.017627825445142728,0.0,0.002,0.0,0.0,0.0,0.0,0.0,0.6048,-0.16065,0.29295,-0.043129799999999996,-0.09201024,0.0047922
1779586842297486782,C,1.367485483800192,0.09330530181161686,1.4723772102749364,-2.912971974871056,-0.09019861574306695,-0.017627825445142728,0.0,0.002,0.0,0.0,0.0,0.0,0.0,0.6048,-0.16065,0.29295,-0.043129799999999996,-0.09201024,0.0047922
1779586842301954746,C,1.367485483800192,0.09330530181161686,1.4723772102749364,-2.912971974871056,-0.09019861574306695,-0.017627825445142728,0.0,0.002,0.0,0.0,0.0,0.0,0.0,0.6048,-0.137025,0.326025,-0.048880440000000004,-0.08913491999999999,0.00575064
1779586842301954746,C,1.367485483800192,0.09330530181161686,1.4723772102749364,-2.912971974871056,-0.09019861574306695,-0.017627825445142728,0.0,0.002,0.0,0.0,0.0,0.0,0.0,0.6048,-0.137025,0.326025,-0.048880440000000004,-0.08913491999999999,0.00575064
1779586842301954746,C,1.367485483800192,0.09330530181161686,1.4723772102749364,-2.912971974871056,-0.09019861574306695,-0.017627825445142728,0.0,0.002,0.0,0.0,0.0,0.0,0.0,0.6048,-0.137025,0.326025,-0.048880440000000004,-0.08913491999999999,0.00575064
1779586842317211389,C,1.367485483800192,0.09330530181161686,1.4723772102749364,-2.912971974871056,-0.09019861574306695,-0.017627825445142728,0.0,0.022,0.0,0.0,0.0,0.0,0.0,0.7465499999999999,-0.11339999999999999,0.307125,-0.05175576,-0.09296868,0.0095844
1779586842317211389,C,1.367485483800192,0.09330530181161686,1.4723772102749364,-2.912971974871056,-0.09019861574306695,-0.017627825445142728,0.0,0.022,0.0,0.0,0.0,0.0,0.0,0.7465499999999999,-0.11339999999999999,0.307125,-0.05175576,-0.09296868,0.0095844
1779586842317211389,C,1.367485483800192,0.09330530181161686,1.4723772102749364,-2.912971974871056,-0.09019861574306695,-0.017627825445142728,0.0,0.022,0.0,0.0,0.0,0.0,0.0,0.7465499999999999,-0.11339999999999999,0.307125,-0.05175576,-0.09296868,0.0095844
1779586842326777696,C,1.367485483800192,0.09330530181161686,1.4723772102749364,-2.912971974871056,-0.09019861574306695,-0.017627825445142728,0.0,0.031,0.0,0.0,0.0,0.0,0.0,0.95445,-0.146475,0.3213,-0.04217136,-0.09201024,-0.00287532
1779586842326777696,C,1.367485483800192,0.09330530181161686,1.4723772102749364,-2.912971974871056,-0.09019861574306695,-0.017627825445142728,0.0,0.031,0.0,0.0,0.0,0.0,0.0,0.95445,-0.146475,0.3213,-0.04217136,-0.09201024,-0.00287532
1779586842326777696,C,1.367485483800192,0.09330530181161686,1.4723772102749364,-2.912971974871056,-0.09019861574306695,-0.017627825445142728,0.0,0.031,0.0,0.0,0.0,0.0,0.0,0.95445,-0.146475,0.3213,-0.04217136,-0.09201024,-0.00287532
1779586842346776247,C,1.367485483800192,0.09330530181161686,1.4723772102749364,-2.912971974871056,-0.09019861574306695,-0.017627825445142728,0.0,0.041,0.0,0.0,0.0,0.0,0.0,1.110375,-0.165375,0.307125,-0.04696356,-0.08434272,0.00862596
1779586842346776247,C,1.367485483800192,0.09330530181161686,1.4723772102749364,-2.912971974871056,-0.09019861574306695,-0.017627825445142728,0.0,0.041,0.0,0.0,0.0,0.0,0.0,1.110375,-0.165375,0.307125,-0.04696356,-0.08434272,0.00862596
1779586842346776247,C,1.367485483800192,0.09330530181161686,1.4723772102749364,-2.912971974871056,-0.09019861574306695,-0.017627825445142728,0.0,0.041,0.0,0.0,0.0,0.0,0.0,1.110375,-0.165375,0.307125,-0.04696356,-0.08434272,0.00862596
1779586842357159852,C,1.367485483800192,0.09330530181161686,1.4723772102749364,-2.912971974871056,-0.09019861574306695,-0.017627825445142728,0.0,0.061,0.0,0.0,0.0,0.0,0.0,0.9213749999999999,-0.16065,0.307125,-0.048880440000000004,-0.08434272,0.0047922
1779586842357159852,C,1.367485483800192,0.09330530181161686,1.4723772102749364,-2.912971974871056,-0.09019861574306695,-0.017627825445142728,0.0,0.061,0.0,0.0,0.0,0.0,0.0,0.9213749999999999,-0.16065,0.307125,-0.048880440000000004,-0.08434272,0.0047922
1779586842357159852,C,1.367485483800192,0.09330530181161686,1.4723772102749364,-2.912971974871056,-0.09019861574306695,-0.017627825445142728,0.0,0.061,0.0,0.0,0.0,0.0,0.0,0.9213749999999999,-0.16065,0.307125,-0.048880440000000004,-0.08434272,0.0047922
1779586842371775627,C,1.367485483800192,0.09601056215220807,1.4723772102749364,-2.912971974871056,-0.09019861574306695,-0.017627825445142728,0.0,0.192,0.0,0.0,0.0,0.0,0.0,0.36855,-0.16065,0.31185,-0.048880440000000004,-0.09392712,0.00191688
1779586842371775627,C,1.367485483800192,0.09601056215220807,1.4723772102749364,-2.912971974871056,-0.09019861574306695,-0.017627825445142728,0.0,0.192,0.0,0.0,0.0,0.0,0.0,0.36855,-0.16065,0.31185,-0.048880440000000004,-0.09392712,0.00191688
1779586842371775627,C,1.367485483800192,0.09601056215220807,1.4723772102749364,-2.912971974871056,-0.09019861574306695,-0.017627825445142728,0.0,0.192,0.0,0.0,0.0,0.0,0.0,0.36855,-0.16065,0.31185,-0.048880440000000004,-0.09392712,0.00191688
1779586842381778478,C,1.367485483800192,0.0990474350506782,1.4723772102749364,-2.912971974871056,-0.09019861574306695,-0.017627825445142728,0.0,0.248,0.0,0.0,0.0,0.0,0.0,0.42524999999999996,-0.1701,0.307125,-0.04504668,-0.08817648,0.00383376
1779586842381778478,C,1.367485483800192,0.0990474350506782,1.4723772102749364,-2.912971974871056,-0.09019861574306695,-0.017627825445142728,0.0,0.248,0.0,0.0,0.0,0.0,0.0,0.42524999999999996,-0.1701,0.307125,-0.04504668,-0.08817648,0.00383376
1779586842381778478,C,1.367485483800192,0.0990474350506782,1.4723772102749364,-2.912971974871056,-0.09019861574306695,-0.017627825445142728,0.0,0.248,0.0,0.0,0.0,0.0,0.0,0.42524999999999996,-0.1701,0.307125,-0.04504668,-0.08817648,0.00383376
1779586842392421722,C,1.367485483800192,0.10082767088771243,1.4723772102749364,-2.912971974871056,-0.09019861574306695,-0.017627825445142728,0.0,0.245,0.0,0.0,0.0,0.0,0.0,0.28822499999999995,-0.19372499999999998,0.31185,-0.04504668,-0.08817648,0.00383376
1779586842392421722,C,1.367485483800192,0.10082767088771243,1.4723772102749364,-2.912971974871056,-0.09019861574306695,-0.017627825445142728,0.0,0.245,0.0,0.0,0.0,0.0,0.0,0.28822499999999995,-0.19372499999999998,0.31185,-0.04504668,-0.08817648,0.00383376
1779586842392421722,C,1.367485483800192,0.10082767088771243,1.4723772102749364,-2.912971974871056,-0.09019861574306695,-0.017627825445142728,0.0,0.245,0.0,0.0,0.0,0.0,0.0,0.28822499999999995,-0.19372499999999998,0.31185,-0.04504668,-0.08817648,0.00383376
1779586842406776905,C,1.367485483800192,0.10503391438501875,1.4723772102749364,-2.912971974871056,-0.09019861574306695,-0.017627825445142728,0.0,0.328,0.0,0.0,0.0,0.0,0.0,0.505575,-0.1323,0.278775,-0.06613236,-0.08434272,0.00766752
1779586842406776905,C,1.367485483800192,0.10503391438501875,1.4723772102749364,-2.912971974871056,-0.09019861574306695,-0.017627825445142728,0.0,0.328,0.0,0.0,0.0,0.0,0.0,0.505575,-0.1323,0.278775,-0.06613236,-0.08434272,0.00766752
1779586842406776905,C,1.367485483800192,0.10503391438501875,1.4723772102749364,-2.912971974871056,-0.09019861574306695,-0.017627825445142728,0.0,0.328,0.0,0.0,0.0,0.0,0.0,0.505575,-0.1323,0.278775,-0.06613236,-0.08434272,0.00766752
1779586842426775693,C,1.367485483800192,0.11110766018195903,1.4723772102749364,-2.912971974871056,-0.09019861574306695,-0.017627825445142728,0.0,0.313,0.0,0.0,0.0,0.0,0.0,0.467775,-0.16065,0.316575,-0.047922,-0.08530115999999999,0.00670908
1779586842426775693,C,1.367485483800192,0.11110766018195903,1.4723772102749364,-2.912971974871056,-0.09019861574306695,-0.017627825445142728,0.0,0.313,0.0,0.0,0.0,0.0,0.0,0.467775,-0.16065,0.316575,-0.047922,-0.08530115999999999,0.00670908
1779586842426775693,C,1.367485483800192,0.11110766018195903,1.4723772102749364,-2.912971974871056,-0.09019861574306695,-0.017627825445142728,0.0,0.313,0.0,0.0,0.0,0.0,0.0,0.467775,-0.16065,0.316575,-0.047922,-0.08530115999999999,0.00670908
1779586842437831878,C,1.367485483800192,0.11506955758398614,1.4723772102749364,-2.912971974871056,-0.09019861574306695,-0.017627825445142728,0.0,0.256,0.0,0.0,0.0,0.0,0.0,0.7087499999999999,-0.146475,0.3024,-0.04600512,-0.08817648,0.00575064
1779586842437831878,C,1.367485483800192,0.11506955758398614,1.4723772102749364,-2.912971974871056,-0.09019861574306695,-0.017627825445142728,0.0,0.256,0.0,0.0,0.0,0.0,0.0,0.7087499999999999,-0.146475,0.3024,-0.04600512,-0.08817648,0.00575064
1779586842437831878,C,1.367485483800192,0.11506955758398614,1.4723772102749364,-2.912971974871056,-0.09019861574306695,-0.017627825445142728,0.0,0.256,0.0,0.0,0.0,0.0,0.0,0.7087499999999999,-0.146475,0.3024,-0.04600512,-0.08817648,0.00575064
1779586842452349424,C,1.367485483800192,0.11903145498601328,1.4723772102749364,-2.912971974871056,-0.09019861574306695,-0.017627825445142728,0.0,0.28200000000000003,0.0,0.0,0.0,0.0,0.0,0.23625,-0.1512,0.3024,-0.04600512,-0.0910518,0.00383376
1779586842452349424,C,1.367485483800192,0.11903145498601328,1.4723772102749364,-2.912971974871056,-0.09019861574306695,-0.017627825445142728,0.0,0.28200000000000003,0.0,0.0,0.0,0.0,0.0,0.23625,-0.1512,0.3024,-0.04600512,-0.0910518,0.00383376
1779586842452349424,C,1.367485483800192,0.11903145498601328,1.4723772102749364,-2.912971974871056,-0.09019861574306695,-0.017627825445142728,0.0,0.28200000000000003,0.0,0.0,0.0,0.0,0.0,0.23625,-0.1512,0.3024,-0.04600512,-0.0910518,0.00383376
1779586842466771841,C,1.367485483800192,0.12327260506835949,1.4723772102749364,-2.912971974871056,-0.09019861574306695,-0.017627825445142728,0.0,0.28500000000000003,0.0,0.0,0.0,0.0,0.0,0.33075,-0.1701,0.29295,-0.047922,-0.08721804,0.00095844
1779586842466771841,C,1.367485483800192,0.12327260506835949,1.4723772102749364,-2.912971974871056,-0.09019861574306695,-0.017627825445142728,0.0,0.28500000000000003,0.0,0.0,0.0,0.0,0.0,0.33075,-0.1701,0.29295,-0.047922,-0.08721804,0.00095844
1779586842466771841,C,1.367485483800192,0.12327260506835949,1.4723772102749364,-2.912971974871056,-0.09019861574306695,-0.017627825445142728,0.0,0.28500000000000003,0.0,0.0,0.0,0.0,0.0,0.33075,-0.1701,0.29295,-0.047922,-0.08721804,0.00095844
1779586842476873636,C,1.367485483800192,0.12519246724555325,1.4723772102749364,-2.912971974871056,-0.09019861574306695,-0.017627825445142728,0.0,0.276,0.0,0.0,0.0,0.0,0.0,0.741825,-0.189,0.29767499999999997,-0.047922,-0.08625959999999999,0.01629348
1779586842476873636,C,1.367485483800192,0.12519246724555325,1.4723772102749364,-2.912971974871056,-0.09019861574306695,-0.017627825445142728,0.0,0.276,0.0,0.0,0.0,0.0,0.0,0.741825,-0.189,0.29767499999999997,-0.047922,-0.08625959999999999,0.01629348
1779586842476873636,C,1.367485483800192,0.12519246724555325,1.4723772102749364,-2.912971974871056,-0.09019861574306695,-0.017627825445142728,0.0,0.276,0.0,0.0,0.0,0.0,0.0,0.741825,-0.189,0.29767499999999997,-0.047922,-0.08625959999999999,0.01629348
1779586842486820697,C,1.367485483800192,0.13158037230785252,1.4723772102749364,-2.912971974871056,-0.09019861574306695,-0.017627825445142728,0.0,0.294,0.0,0.0,0.0,0.0,0.0,0.6426,-0.1701,0.28822499999999995,-0.047922,-0.08434272,0.00095844
1779586842486820697,C,1.367485483800192,0.13158037230785252,1.4723772102749364,-2.912971974871056,-0.09019861574306695,-0.017627825445142728,0.0,0.294,0.0,0.0,0.0,0.0,0.0,0.6426,-0.1701,0.28822499999999995,-0.047922,-0.08434272,0.00095844
1779586842486820697,C,1.367485483800192,0.13158037230785252,1.4723772102749364,-2.912971974871056,-0.09019861574306695,-0.017627825445142728,0.0,0.294,0.0,0.0,0.0,0.0,0.0,0.6426,-0.1701,0.28822499999999995,-0.047922,-0.08434272,0.00095844
1779586842496772766,C,1.367485483800192,0.133587500947646,1.4723772102749364,-2.912971974871056,-0.09019861574306695,-0.017627825445142728,0.0,0.334,0.0,0.0,0.0,0.0,0.0,0.45359999999999995,-0.16065,0.3024,-0.043129799999999996,-0.08625959999999999,0.00766752
1779586842496772766,C,1.367485483800192,0.133587500947646,1.4723772102749364,-2.912971974871056,-0.09019861574306695,-0.017627825445142728,0.0,0.334,0.0,0.0,0.0,0.0,0.0,0.45359999999999995,-0.16065,0.3024,-0.043129799999999996,-0.08625959999999999,0.00766752
1779586842496772766,C,1.367485483800192,0.133587500947646,1.4723772102749364,-2.912971974871056,-0.09019861574306695,-0.017627825445142728,0.0,0.334,0.0,0.0,0.0,0.0,0.0,0.45359999999999995,-0.16065,0.3024,-0.043129799999999996,-0.08625959999999999,0.00766752
1779586842506925582,C,1.367485483800192,0.13533283019964032,1.4723772102749364,-2.912971974871056,-0.09019861574306695,-0.017627825445142728,0.0,0.213,0.0,0.0,0.0,0.0,0.0,0.945,-0.17482499999999998,0.29767499999999997,-0.04408824,-0.07955052,0.0095844
1779586842506925582,C,1.367485483800192,0.13533283019964032,1.4723772102749364,-2.912971974871056,-0.09019861574306695,-0.017627825445142728,0.0,0.213,0.0,0.0,0.0,0.0,0.0,0.945,-0.17482499999999998,0.29767499999999997,-0.04408824,-0.07955052,0.0095844
1779586842506925582,C,1.367485483800192,0.13533283019964032,1.4723772102749364,-2.912971974871056,-0.09019861574306695,-0.017627825445142728,0.0,0.213,0.0,0.0,0.0,0.0,0.0,0.945,-0.17482499999999998,0.29767499999999997,-0.04408824,-0.07955052,0.0095844
1779586842522209882,C,1.367485483800192,0.13908528809142812,1.4723772102749364,-2.912971974871056,-0.09019861574306695,-0.017627825445142728,0.0,0.296,0.0,0.0,0.0,0.0,0.0,0.11339999999999999,-0.1323,0.3213,-0.04217136,-0.08913491999999999,0.0
1779586842522209882,C,1.367485483800192,0.13908528809142812,1.4723772102749364,-2.912971974871056,-0.09019861574306695,-0.017627825445142728,0.0,0.296,0.0,0.0,0.0,0.0,0.0,0.11339999999999999,-0.1323,0.3213,-0.04217136,-0.08913491999999999,0.0
1779586842522209882,C,1.367485483800192,0.13908528809142812,1.4723772102749364,-2.912971974871056,-0.09019861574306695,-0.017627825445142728,0.0,0.296,0.0,0.0,0.0,0.0,0.0,0.11339999999999999,-0.1323,0.3213,-0.04217136,-0.08913491999999999,0.0
1779586842532586336,C,1.367485483800192,0.1412145897788612,1.4723772102749364,-2.912971974871056,-0.09019861574306695,-0.017627825445142728,0.0,0.27,0.0,0.0,0.0,0.0,0.0,0.5953499999999999,-0.1701,0.31185,-0.048880440000000004,-0.08913491999999999,0.0
1779586842532586336,C,1.367485483800192,0.1412145897788612,1.4723772102749364,-2.912971974871056,-0.09019861574306695,-0.017627825445142728,0.0,0.27,0.0,0.0,0.0,0.0,0.0,0.5953499999999999,-0.1701,0.31185,-0.048880440000000004,-0.08913491999999999,0.0
1779586842532586336,C,1.367485483800192,0.1412145897788612,1.4723772102749364,-2.912971974871056,-0.09019861574306695,-0.017627825445142728,0.0,0.27,0.0,0.0,0.0,0.0,0.0,0.5953499999999999,-0.1701,0.31185,-0.048880440000000004,-0.08913491999999999,0.0
1779586842536777734,C,1.367485483800192,0.14329153158873448,1.4723772102749364,-2.912971974871056,-0.09019861574306695,-0.017627825445142728,0.0,0.312,0.0,0.0,0.0,0.0,0.0,0.562275,-0.14175,0.316575,-0.048880440000000004,-0.08625959999999999,-0.00095844
1779586842536777734,C,1.367485483800192,0.14329153158873448,1.4723772102749364,-2.912971974871056,-0.09019861574306695,-0.017627825445142728,0.0,0.312,0.0,0.0,0.0,0.0,0.0,0.562275,-0.14175,0.316575,-0.048880440000000004,-0.08625959999999999,-0.00095844
1779586842536777734,C,1.367485483800192,0.14329153158873448,1.4723772102749364,-2.912971974871056,-0.09019861574306695,-0.017627825445142728,0.0,0.312,0.0,0.0,0.0,0.0,0.0,0.562275,-0.14175,0.316575,-0.048880440000000004,-0.08625959999999999,-0.00095844
1779586842562640666,C,1.367485483800192,0.15145967248806794,1.4723772102749364,-2.912971974871056,-0.09019861574306695,-0.017627825445142728,0.0,0.292,0.0,0.0,0.0,0.0,0.0,0.5103,-0.184275,0.307125,-0.048880440000000004,-0.09201024,0.01054284
1779586842562640666,C,1.367485483800192,0.15145967248806794,1.4723772102749364,-2.912971974871056,-0.09019861574306695,-0.017627825445142728,0.0,0.292,0.0,0.0,0.0,0.0,0.0,0.5103,-0.184275,0.307125,-0.048880440000000004,-0.09201024,0.01054284
1779586842562640666,C,1.367485483800192,0.15145967248806794,1.4723772102749364,-2.912971974871056,-0.09019861574306695,-0.017627825445142728,0.0,0.292,0.0,0.0,0.0,0.0,0.0,0.5103,-0.184275,0.307125,-0.048880440000000004,-0.09201024,0.01054284
1779586842587233781,C,1.367485483800192,0.1553168501349754,1.4723772102749364,-2.912971974871056,-0.09019861574306695,-0.017627825445142728,0.0,0.279,0.0,0.0,0.0,0.0,0.0,0.486675,-0.189,0.316575,-0.04983888,-0.07571676,0.00575064
1779586842587233781,C,1.367485483800192,0.1553168501349754,1.4723772102749364,-2.912971974871056,-0.09019861574306695,-0.017627825445142728,0.0,0.279,0.0,0.0,0.0,0.0,0.0,0.486675,-0.189,0.316575,-0.04983888,-0.07571676,0.00575064
1779586842587233781,C,1.367485483800192,0.1553168501349754,1.4723772102749364,-2.912971974871056,-0.09019861574306695,-0.017627825445142728,0.0,0.279,0.0,0.0,0.0,0.0,0.0,0.486675,-0.189,0.316575,-0.04983888,-0.07571676,0.00575064
1779586842612478017,C,1.367485483800192,0.16526522687134307,1.4723772102749364,-2.912971974871056,-0.09019861574306695,-0.017627825445142728,0.0,0.253,0.0,0.0,0.0,0.0,0.0,0.65205,-0.155925,0.307125,-0.04121292,-0.08817648,0.00766752
1779586842612478017,C,1.367485483800192,0.16526522687134307,1.4723772102749364,-2.912971974871056,-0.09019861574306695,-0.017627825445142728,0.0,0.253,0.0,0.0,0.0,0.0,0.0,0.65205,-0.155925,0.307125,-0.04121292,-0.08817648,0.00766752
1779586842612478017,C,1.367485483800192,0.16526522687134307,1.4723772102749364,-2.912971974871056,-0.09019861574306695,-0.017627825445142728,0.0,0.253,0.0,0.0,0.0,0.0,0.0,0.65205,-0.155925,0.307125,-0.04121292,-0.08817648,0.00766752
1779586842657420873,C,1.367485483800192,0.17751743822034324,1.4723772102749364,-2.912971974871056,-0.09019861574306695,-0.017627825445142728,0.0,0.28800000000000003,0.0,0.0,0.0,0.0,0.0,0.3024,-0.184275,0.3213,-0.05175576,-0.08625959999999999,0.01150128
1779586842657420873,C,1.367485483800192,0.17751743822034324,1.4723772102749364,-2.912971974871056,-0.09019861574306695,-0.017627825445142728,0.0,0.28800000000000003,0.0,0.0,0.0,0.0,0.0,0.3024,-0.184275,0.3213,-0.05175576,-0.08625959999999999,0.01150128
1779586842657420873,C,1.367485483800192,0.17751743822034324,1.4723772102749364,-2.912971974871056,-0.09019861574306695,-0.017627825445142728,0.0,0.28800000000000003,0.0,0.0,0.0,0.0,0.0,0.3024,-0.184275,0.3213,-0.05175576,-0.08625959999999999,0.01150128
1779586842711766004,C,1.367485483800192,0.19444713196468827,1.4723772102749364,-2.912971974871056,-0.09019861574306695,-0.017627825445142728,0.0,0.289,0.0,0.0,0.0,0.0,0.0,0.505575,-0.17482499999999998,0.3024,-0.048880440000000004,-0.08817648,0.00670908
1779586842711766004,C,1.367485483800192,0.19444713196468827,1.4723772102749364,-2.912971974871056,-0.09019861574306695,-0.017627825445142728,0.0,0.289,0.0,0.0,0.0,0.0,0.0,0.505575,-0.17482499999999998,0.3024,-0.048880440000000004,-0.08817648,0.00670908
1779586842711766004,C,1.367485483800192,0.19444713196468827,1.4723772102749364,-2.912971974871056,-0.09019861574306695,-0.017627825445142728,0.0,0.289,0.0,0.0,0.0,0.0,0.0,0.505575,-0.17482499999999998,0.3024,-0.048880440000000004,-0.08817648,0.00670908
1779586842726827383,C,1.367485483800192,0.19847884253679515,1.4723772102749364,-2.912971974871056,-0.09019861574306695,-0.017627825445142728,0.0,0.33,0.0,0.0,0.0,0.0,0.0,0.5764499999999999,-0.17482499999999998,0.3024,-0.048880440000000004,-0.08913491999999999,-0.00191688
1779586842726827383,C,1.367485483800192,0.19847884253679515,1.4723772102749364,-2.912971974871056,-0.09019861574306695,-0.017627825445142728,0.0,0.33,0.0,0.0,0.0,0.0,0.0,0.5764499999999999,-0.17482499999999998,0.3024,-0.048880440000000004,-0.08913491999999999,-0.00191688
1779586842726827383,C,1.367485483800192,0.19847884253679515,1.4723772102749364,-2.912971974871056,-0.09019861574306695,-0.017627825445142728,0.0,0.33,0.0,0.0,0.0,0.0,0.0,0.5764499999999999,-0.17482499999999998,0.3024,-0.048880440000000004,-0.08913491999999999,-0.00191688
1779586842761883020,C,1.367485483800192,0.2086541120759221,1.4723772102749364,-2.912971974871056,-0.09019861574306695,-0.017627825445142728,0.0,0.31,0.0,0.0,0.0,0.0,0.0,0.17482499999999998,-0.1701,0.27405,-0.04983888,-0.08625959999999999,0.0
1779586842761883020,C,1.367485483800192,0.2086541120759221,1.4723772102749364,-2.912971974871056,-0.09019861574306695,-0.017627825445142728,0.0,0.31,0.0,0.0,0.0,0.0,0.0,0.17482499999999998,-0.1701,0.27405,-0.04983888,-0.08625959999999999,0.0
1779586842761883020,C,1.367485483800192,0.2086541120759221,1.4723772102749364,-2.912971974871056,-0.09019861574306695,-0.017627825445142728,0.0,0.31,0.0,0.0,0.0,0.0,0.0,0.17482499999999998,-0.1701,0.27405,-0.04983888,-0.08625959999999999,0.0
1779586842772312402,C,1.367485483800192,0.2130872483759877,1.4723772102749364,-2.912971974871056,-0.09019861574306695,-0.017627825445142728,0.0,0.308,0.0,0.0,0.0,0.0,0.0,0.7701749999999999,-0.1701,0.3024,-0.048880440000000004,-0.09871932,0.02204412
1779586842772312402,C,1.367485483800192,0.2130872483759877,1.4723772102749364,-2.912971974871056,-0.09019861574306695,-0.017627825445142728,0.0,0.308,0.0,0.0,0.0,0.0,0.0,0.7701749999999999,-0.1701,0.3024,-0.048880440000000004,-0.09871932,0.02204412
1779586842772312402,C,1.367485483800192,0.2130872483759877,1.4723772102749364,-2.912971974871056,-0.09019861574306695,-0.017627825445142728,0.0,0.308,0.0,0.0,0.0,0.0,0.0,0.7701749999999999,-0.1701,0.3024,-0.048880440000000004,-0.09871932,0.02204412
1779586842792096138,C,1.367485483800192,0.2167175332201359,1.4723772102749364,-2.912971974871056,-0.09019861574306695,-0.017627825445142728,0.0,0.245,0.0,0.0,0.0,0.0,0.0,0.741825,-0.19845,0.29767499999999997,-0.02587788,-0.08530115999999999,0.00862596
1779586842792096138,C,1.367485483800192,0.2167175332201359,1.4723772102749364,-2.912971974871056,-0.09019861574306695,-0.017627825445142728,0.0,0.245,0.0,0.0,0.0,0.0,0.0,0.741825,-0.19845,0.29767499999999997,-0.02587788,-0.08530115999999999,0.00862596
1779586842792096138,C,1.367485483800192,0.2167175332201359,1.4723772102749364,-2.912971974871056,-0.09019861574306695,-0.017627825445142728,0.0,0.245,0.0,0.0,0.0,0.0,0.0,0.741825,-0.19845,0.29767499999999997,-0.02587788,-0.08530115999999999,0.00862596
1779586842816789388,C,1.367485483800192,0.22499039387458902,1.4723772102749364,-2.912971974871056,-0.09019861574306695,-0.017627825445142728,0.0,0.279,0.0,0.0,0.0,0.0,0.0,0.9024749999999999,-0.189,0.3024,-0.059423279999999995,-0.08817648,0.00862596
1779586842816789388,C,1.367485483800192,0.22499039387458902,1.4723772102749364,-2.912971974871056,-0.09019861574306695,-0.017627825445142728,0.0,0.279,0.0,0.0,0.0,0.0,0.0,0.9024749999999999,-0.189,0.3024,-0.059423279999999995,-0.08817648,0.00862596
1779586842816789388,C,1.367485483800192,0.22499039387458902,1.4723772102749364,-2.912971974871056,-0.09019861574306695,-0.017627825445142728,0.0,0.279,0.0,0.0,0.0,0.0,0.0,0.9024749999999999,-0.189,0.3024,-0.059423279999999995,-0.08817648,0.00862596
1779586842862570524,C,1.367485483800192,0.2370331657133499,1.4723772102749364,-2.912971974871056,-0.09019861574306695,-0.017627825445142728,0.0,0.23600000000000002,0.0,0.0,0.0,0.0,0.0,0.590625,-0.1701,0.29767499999999997,-0.052714199999999996,-0.095844,0.00095844
1779586842862570524,C,1.367485483800192,0.2370331657133499,1.4723772102749364,-2.912971974871056,-0.09019861574306695,-0.017627825445142728,0.0,0.23600000000000002,0.0,0.0,0.0,0.0,0.0,0.590625,-0.1701,0.29767499999999997,-0.052714199999999996,-0.095844,0.00095844
1779586842862570524,C,1.367485483800192,0.2370331657133499,1.4723772102749364,-2.912971974871056,-0.09019861574306695,-0.017627825445142728,0.0,0.23600000000000002,0.0,0.0,0.0,0.0,0.0,0.590625,-0.1701,0.29767499999999997,-0.052714199999999996,-0.095844,0.00095844
1779586842886759996,C,1.367485483800192,0.24530602636780302,1.4723772102749364,-2.912971974871056,-0.09019861574306695,-0.017627825445142728,0.0,0.28,0.0,0.0,0.0,0.0,0.0,0.959175,-0.189,0.307125,-0.048880440000000004,-0.08242584,0.0
1779586842886759996,C,1.367485483800192,0.24530602636780302,1.4723772102749364,-2.912971974871056,-0.09019861574306695,-0.017627825445142728,0.0,0.28,0.0,0.0,0.0,0.0,0.0,0.959175,-0.189,0.307125,-0.048880440000000004,-0.08242584,0.0
1779586842886759996,C,1.367485483800192,0.24530602636780302,1.4723772102749364,-2.912971974871056,-0.09019861574306695,-0.017627825445142728,0.0,0.28,0.0,0.0,0.0,0.0,0.0,0.959175,-0.189,0.307125,-0.048880440000000004,-0.08242584,0.0
1779586842906755447,C,1.367485483800192,0.25151939850490285,1.4723772102749364,-2.912971974871056,-0.09019861574306695,-0.017627825445142728,0.0,0.297,0.0,0.0,0.0,0.0,0.0,0.82215,-0.1701,0.3024,-0.04696356,-0.08913491999999999,0.00095844
1779586842906755447,C,1.367485483800192,0.25151939850490285,1.4723772102749364,-2.912971974871056,-0.09019861574306695,-0.017627825445142728,0.0,0.297,0.0,0.0,0.0,0.0,0.0,0.82215,-0.1701,0.3024,-0.04696356,-0.08913491999999999,0.00095844
1779586842906755447,C,1.367485483800192,0.25151939850490285,1.4723772102749364,-2.912971974871056,-0.09019861574306695,-0.017627825445142728,0.0,0.297,0.0,0.0,0.0,0.0,0.0,0.82215,-0.1701,0.3024,-0.04696356,-0.08913491999999999,0.00095844
1779586842926754474,C,1.367485483800192,0.2572789850364841,1.4723772102749364,-2.912971974871056,-0.09019861574306695,-0.017627825445142728,0.0,0.25,0.0,0.0,0.0,0.0,0.0,0.7323749999999999,-0.19372499999999998,0.316575,-0.04983888,-0.08817648,0.0
1779586842926754474,C,1.367485483800192,0.2572789850364841,1.4723772102749364,-2.912971974871056,-0.09019861574306695,-0.017627825445142728,0.0,0.25,0.0,0.0,0.0,0.0,0.0,0.7323749999999999,-0.19372499999999998,0.316575,-0.04983888,-0.08817648,0.0
1779586842926754474,C,1.367485483800192,0.2572789850364841,1.4723772102749364,-2.912971974871056,-0.09019861574306695,-0.017627825445142728,0.0,0.25,0.0,0.0,0.0,0.0,0.0,0.7323749999999999,-0.19372499999999998,0.316575,-0.04983888,-0.08817648,0.0
1779586842947587490,C,1.367485483800192,0.26324801107830476,1.4723772102749364,-2.912971974871056,-0.09019861574306695,-0.017627825445142728,0.0,0.295,0.0,0.0,0.0,0.0,0.0,0.3402,-0.16065,0.28822499999999995,-0.048880440000000004,-0.0766752,0.00862596
1779586842947587490,C,1.367485483800192,0.26324801107830476,1.4723772102749364,-2.912971974871056,-0.09019861574306695,-0.017627825445142728,0.0,0.295,0.0,0.0,0.0,0.0,0.0,0.3402,-0.16065,0.28822499999999995,-0.048880440000000004,-0.0766752,0.00862596
1779586842947587490,C,1.367485483800192,0.26324801107830476,1.4723772102749364,-2.912971974871056,-0.09019861574306695,-0.017627825445142728,0.0,0.295,0.0,0.0,0.0,0.0,0.0,0.3402,-0.16065,0.28822499999999995,-0.048880440000000004,-0.0766752,0.00862596
1779586842961796045,C,1.367485483800192,0.26703537555513246,1.4723772102749364,-2.912971974871056,-0.09019861574306695,-0.017627825445142728,0.0,0.255,0.0,0.0,0.0,0.0,0.0,0.807975,-0.184275,0.27405,-0.04696356,-0.095844,0.00766752
1779586842961796045,C,1.367485483800192,0.26703537555513246,1.4723772102749364,-2.912971974871056,-0.09019861574306695,-0.017627825445142728,0.0,0.255,0.0,0.0,0.0,0.0,0.0,0.807975,-0.184275,0.27405,-0.04696356,-0.095844,0.00766752
1779586842961796045,C,1.367485483800192,0.26703537555513246,1.4723772102749364,-2.912971974871056,-0.09019861574306695,-0.017627825445142728,0.0,0.255,0.0,0.0,0.0,0.0,0.0,0.807975,-0.184275,0.27405,-0.04696356,-0.095844,0.00766752
1779586842977557182,C,1.367485483800192,0.2713812453925983,1.4723772102749364,-2.912971974871056,-0.09019861574306695,-0.017627825445142728,0.0,0.321,0.0,0.0,0.0,0.0,0.0,0.6615,-0.1701,0.33075,-0.04983888,-0.08913491999999999,0.01245972
1779586842977557182,C,1.367485483800192,0.2713812453925983,1.4723772102749364,-2.912971974871056,-0.09019861574306695,-0.017627825445142728,0.0,0.321,0.0,0.0,0.0,0.0,0.0,0.6615,-0.1701,0.33075,-0.04983888,-0.08913491999999999,0.01245972
1779586842977557182,C,1.367485483800192,0.2713812453925983,1.4723772102749364,-2.912971974871056,-0.09019861574306695,-0.017627825445142728,0.0,0.321,0.0,0.0,0.0,0.0,0.0,0.6615,-0.1701,0.33075,-0.04983888,-0.08913491999999999,0.01245972
1779586842996751070,C,1.367485483800192,0.2767743127812608,1.4723772102749364,-2.912971974871056,-0.09019861574306695,-0.017627825445142728,0.0,0.242,0.0,0.0,0.0,0.0,0.0,0.7087499999999999,-0.16065,0.3024,-0.043129799999999996,-0.08913491999999999,0.00383376
1779586842996751070,C,1.367485483800192,0.2767743127812608,1.4723772102749364,-2.912971974871056,-0.09019861574306695,-0.017627825445142728,0.0,0.242,0.0,0.0,0.0,0.0,0.0,0.7087499999999999,-0.16065,0.3024,-0.043129799999999996,-0.08913491999999999,0.00383376
1779586842996751070,C,1.367485483800192,0.2767743127812608,1.4723772102749364,-2.912971974871056,-0.09019861574306695,-0.017627825445142728,0.0,0.242,0.0,0.0,0.0,0.0,0.0,0.7087499999999999,-0.16065,0.3024,-0.043129799999999996,-0.08913491999999999,0.00383376
1779586843012336492,C,1.367485483800192,0.2807013035982481,1.4723772102749364,-2.912971974871056,-0.09019861574306695,-0.017627825445142728,0.0,0.262,0.0,0.0,0.0,0.0,0.0,0.6426,-0.16065,0.31185,-0.048880440000000004,-0.08146740000000001,0.0
1779586843012336492,C,1.367485483800192,0.2807013035982481,1.4723772102749364,-2.912971974871056,-0.09019861574306695,-0.017627825445142728,0.0,0.262,0.0,0.0,0.0,0.0,0.0,0.6426,-0.16065,0.31185,-0.048880440000000004,-0.08146740000000001,0.0
1779586843012336492,C,1.367485483800192,0.2807013035982481,1.4723772102749364,-2.912971974871056,-0.09019861574306695,-0.017627825445142728,0.0,0.262,0.0,0.0,0.0,0.0,0.0,0.6426,-0.16065,0.31185,-0.048880440000000004,-0.08146740000000001,0.0
1779586843026748657,C,1.367485483800192,0.28457593453767543,1.4723772102749364,-2.912971974871056,-0.09019861574306695,-0.017627825445142728,0.0,0.274,0.0,0.0,0.0,0.0,0.0,0.609525,-0.14175,0.307125,-0.04983888,-0.09009336,0.00862596
1779586843026748657,C,1.367485483800192,0.28457593453767543,1.4723772102749364,-2.912971974871056,-0.09019861574306695,-0.017627825445142728,0.0,0.274,0.0,0.0,0.0,0.0,0.0,0.609525,-0.14175,0.307125,-0.04983888,-0.09009336,0.00862596
1779586843026748657,C,1.367485483800192,0.28457593453767543,1.4723772102749364,-2.912971974871056,-0.09019861574306695,-0.017627825445142728,0.0,0.274,0.0,0.0,0.0,0.0,0.0,0.609525,-0.14175,0.307125,-0.04983888,-0.09009336,0.00862596
1779586843041979312,C,1.367485483800192,0.28839820559954304,1.4723772102749364,-2.912971974871056,-0.09019861574306695,-0.017627825445142728,0.0,0.28500000000000003,0.0,0.0,0.0,0.0,0.0,0.637875,-0.19845,0.28822499999999995,-0.04121292,-0.08817648,-0.00191688
1779586843041979312,C,1.367485483800192,0.28839820559954304,1.4723772102749364,-2.912971974871056,-0.09019861574306695,-0.017627825445142728,0.0,0.28500000000000003,0.0,0.0,0.0,0.0,0.0,0.637875,-0.19845,0.28822499999999995,-0.04121292,-0.08817648,-0.00191688
1779586843041979312,C,1.367485483800192,0.28839820559954304,1.4723772102749364,-2.912971974871056,-0.09019861574306695,-0.017627825445142728,0.0,0.28500000000000003,0.0,0.0,0.0,0.0,0.0,0.637875,-0.19845,0.28822499999999995,-0.04121292,-0.08817648,-0.00191688
1779586843056761980,C,1.367485483800192,0.2926219023893693,1.4723772102749364,-2.912971974871056,-0.09019861574306695,-0.017627825445142728,0.0,0.278,0.0,0.0,0.0,0.0,0.0,0.713475,-0.1701,0.316575,-0.05367264,-0.08625959999999999,0.0095844
1779586843056761980,C,1.367485483800192,0.2926219023893693,1.4723772102749364,-2.912971974871056,-0.09019861574306695,-0.017627825445142728,0.0,0.278,0.0,0.0,0.0,0.0,0.0,0.713475,-0.1701,0.316575,-0.05367264,-0.08625959999999999,0.0095844
1779586843056761980,C,1.367485483800192,0.2926219023893693,1.4723772102749364,-2.912971974871056,-0.09019861574306695,-0.017627825445142728,0.0,0.278,0.0,0.0,0.0,0.0,0.0,0.713475,-0.1701,0.316575,-0.05367264,-0.08625959999999999,0.0095844
1779586843067385673,C,1.367485483800192,0.29487337712444195,1.4723772102749364,-2.912971974871056,-0.09019861574306695,-0.017627825445142728,0.0,0.275,0.0,0.0,0.0,0.0,0.0,0.562275,-0.17482499999999998,0.3213,-0.04504668,-0.08625959999999999,0.00287532
