deepaktalwardt/rage-cage-arm-hackstorm/ros2/ws/sysid/runs/sysid_20260524_014017/raw/joint1_phaseA_neg.csv
t_ns,phase,tau_cmd,q1,q2,q3,q4,q5,q6,qd1,qd2,qd3,qd4,qd5,qd6,tau1,tau2,tau3,tau4,tau5,tau6
1779586830532265901,A_-,-1.4400029613170773e-07,0.01244419756671957,1.4723772102749364,-2.912971974871056,-0.09019861574306695,-0.017627825445142728,0.0,0.0,0.0,0.0,0.0,0.0,0.0,0.0945,-0.1701,0.31185,-0.0383376,-0.09009336,0.01150128
1779586830532265901,A_-,-0.0028242850003152853,0.01244419756671957,1.4723772102749364,-2.912971974871056,-0.09019861574306695,-0.017627825445142728,0.0,0.0,0.0,0.0,0.0,0.0,0.0,0.0945,-0.1701,0.31185,-0.0383376,-0.09009336,0.01150128
1779586830532265901,A_-,-0.0055446217502321815,0.01244419756671957,1.4723772102749364,-2.912971974871056,-0.09019861574306695,-0.017627825445142728,0.0,0.0,0.0,0.0,0.0,0.0,0.0,0.0945,-0.1701,0.31185,-0.0383376,-0.09009336,0.01150128
1779586830552270889,A_-,-0.008215936750275432,0.01244419756671957,1.4723772102749364,-2.912971974871056,-0.09019861574306695,-0.017627825445142728,0.0,0.0,0.0,0.0,0.0,0.0,0.0,0.10394999999999999,-0.1701,0.307125,-0.04504668,-0.08913491999999999,0.00095844
1779586830552270889,A_-,-0.011130906250400585,0.01244419756671957,1.4723772102749364,-2.912971974871056,-0.09019861574306695,-0.017627825445142728,0.0,0.0,0.0,0.0,0.0,0.0,0.0,0.10394999999999999,-0.1701,0.307125,-0.04504668,-0.08913491999999999,0.00095844
1779586830552270889,A_-,-0.013818660499964608,0.01244419756671957,1.4723772102749364,-2.912971974871056,-0.09019861574306695,-0.017627825445142728,0.0,0.0,0.0,0.0,0.0,0.0,0.0,0.10394999999999999,-0.1701,0.307125,-0.04504668,-0.08913491999999999,0.00095844
1779586830577279806,A_-,-0.016466248000142514,0.01244419756671957,1.4723772102749364,-2.912971974871056,-0.09019861574306695,-0.017627825445142728,0.0,0.0,0.0,0.0,0.0,0.0,0.0,0.080325,-0.155925,0.307125,-0.05079731999999999,-0.08913491999999999,0.00766752
1779586830577279806,A_-,-0.019354402749740984,0.01244419756671957,1.4723772102749364,-2.912971974871056,-0.09019861574306695,-0.017627825445142728,0.0,0.0,0.0,0.0,0.0,0.0,0.0,0.080325,-0.155925,0.307125,-0.05079731999999999,-0.08913491999999999,0.00766752
1779586830577279806,A_-,-0.022031197249816614,0.01244419756671957,1.4723772102749364,-2.912971974871056,-0.09019861574306695,-0.017627825445142728,0.0,0.0,0.0,0.0,0.0,0.0,0.0,0.080325,-0.155925,0.307125,-0.05079731999999999,-0.08913491999999999,0.00766752
1779586830598220109,A_-,-0.024658193749928614,0.01244419756671957,1.4723772102749364,-2.912971974871056,-0.09019861574306695,-0.017627825445142728,0.0,0.0,0.0,0.0,0.0,0.0,0.0,0.080325,-0.1701,0.307125,-0.04504668,-0.08817648,0.00383376
1779586830598220109,A_-,-0.027490022500387568,0.01244419756671957,1.4723772102749364,-2.912971974871056,-0.09019861574306695,-0.017627825445142728,0.0,0.0,0.0,0.0,0.0,0.0,0.0,0.080325,-0.1701,0.307125,-0.04504668,-0.08817648,0.00383376
1779586830598220109,A_-,-0.03013032250055403,0.01244419756671957,1.4723772102749364,-2.912971974871056,-0.09019861574306695,-0.017627825445142728,0.0,0.0,0.0,0.0,0.0,0.0,0.0,0.080325,-0.1701,0.307125,-0.04504668,-0.08817648,0.00383376
1779586830612257719,A_-,-0.03275985475011112,0.01244419756671957,1.4723772102749364,-2.912971974871056,-0.09019861574306695,-0.017627825445142728,0.0,0.0,0.0,0.0,0.0,0.0,0.0,0.11339999999999999,-0.16065,0.29767499999999997,-0.04408824,-0.08721804,0.0095844
1779586830612257719,A_-,-0.035537509500500164,0.01244419756671957,1.4723772102749364,-2.912971974871056,-0.09019861574306695,-0.017627825445142728,0.0,0.0,0.0,0.0,0.0,0.0,0.0,0.11339999999999999,-0.16065,0.29767499999999997,-0.04408824,-0.08721804,0.0095844
1779586830612257719,A_-,-0.038214816249819705,0.01244419756671957,1.4723772102749364,-2.912971974871056,-0.09019861574306695,-0.017627825445142728,0.0,0.0,0.0,0.0,0.0,0.0,0.0,0.11339999999999999,-0.16065,0.29767499999999997,-0.04408824,-0.08721804,0.0095844
1779586830627378463,A_-,-0.04084672449971549,0.01244419756671957,1.4723772102749364,-2.912971974871056,-0.09019861574306695,-0.017627825445142728,0.0,0.0,0.0,0.0,0.0,0.0,0.0,0.061425,-0.17955,0.29767499999999997,-0.047922,-0.08625959999999999,0.01054284
1779586830627378463,A_-,-0.04358658075034327,0.01244419756671957,1.4723772102749364,-2.912971974871056,-0.09019861574306695,-0.017627825445142728,0.0,0.0,0.0,0.0,0.0,0.0,0.0,0.061425,-0.17955,0.29767499999999997,-0.047922,-0.08625959999999999,0.01054284
1779586830627378463,A_-,-0.04622191275029763,0.01244419756671957,1.4723772102749364,-2.912971974871056,-0.09019861574306695,-0.017627825445142728,0.0,0.0,0.0,0.0,0.0,0.0,0.0,0.061425,-0.17955,0.29767499999999997,-0.047922,-0.08625959999999999,0.01054284
1779586830647268295,A_-,-0.04889355575051013,0.01244419756671957,1.4723772102749364,-2.912971974871056,-0.09019861574306695,-0.017627825445142728,0.0,0.0,0.0,0.0,0.0,0.0,0.0,0.099225,-0.1701,0.28822499999999995,-0.04696356,-0.09296868,0.00287532
1779586830647268295,A_-,-0.05163773174990638,0.01244419756671957,1.4723772102749364,-2.912971974871056,-0.09019861574306695,-0.017627825445142728,0.0,0.0,0.0,0.0,0.0,0.0,0.0,0.099225,-0.1701,0.28822499999999995,-0.04696356,-0.09296868,0.00287532
1779586830647268295,A_-,-0.054305758500049706,0.01244419756671957,1.4723772102749364,-2.912971974871056,-0.09019861574306695,-0.017627825445142728,0.0,0.0,0.0,0.0,0.0,0.0,0.0,0.099225,-0.1701,0.28822499999999995,-0.04696356,-0.09296868,0.00287532
1779586830667265176,A_-,-0.057021911749870924,0.01244419756671957,1.4723772102749364,-2.912971974871056,-0.09019861574306695,-0.017627825445142728,0.0,0.0,0.0,0.0,0.0,0.0,0.0,0.08505,-0.14175,0.3024,-0.04983888,-0.08913491999999999,0.00575064
1779586830667265176,A_-,-0.06044603800000914,0.01244419756671957,1.4723772102749364,-2.912971974871056,-0.09019861574306695,-0.017627825445142728,0.0,0.0,0.0,0.0,0.0,0.0,0.0,0.08505,-0.14175,0.3024,-0.04983888,-0.08913491999999999,0.00575064
1779586830667265176,A_-,-0.06316451099974074,0.01244419756671957,1.4723772102749364,-2.912971974871056,-0.09019861574306695,-0.017627825445142728,0.0,0.0,0.0,0.0,0.0,0.0,0.0,0.08505,-0.14175,0.3024,-0.04983888,-0.08913491999999999,0.00575064
1779586830687255144,A_-,-0.06584804125031951,0.01244419756671957,1.4723772102749364,-2.912971974871056,-0.09019861574306695,-0.017627825445142728,0.0,0.0,0.0,0.0,0.0,0.0,0.0,0.155925,-0.17955,0.3024,-0.048880440000000004,-0.09392712,0.00862596
1779586830687255144,A_-,-0.06893626825058163,0.01244419756671957,1.4723772102749364,-2.912971974871056,-0.09019861574306695,-0.017627825445142728,0.0,0.0,0.0,0.0,0.0,0.0,0.0,0.155925,-0.17955,0.3024,-0.048880440000000004,-0.09392712,0.00862596
1779586830687255144,A_-,-0.07166530900030921,0.01244419756671957,1.4723772102749364,-2.912971974871056,-0.09019861574306695,-0.017627825445142728,0.0,0.0,0.0,0.0,0.0,0.0,0.0,0.155925,-0.17955,0.3024,-0.048880440000000004,-0.09392712,0.00862596
1779586830702318191,A_-,-0.07436599075026606,0.01244419756671957,1.4723772102749364,-2.912971974871056,-0.09019861574306695,-0.017627825445142728,0.0,0.0,0.0,0.0,0.0,0.0,0.0,0.080325,-0.155925,0.28822499999999995,-0.043129799999999996,-0.09201024,0.00287532
1779586830702318191,A_-,-0.07733242225003778,0.01244419756671957,1.4723772102749364,-2.912971974871056,-0.09019861574306695,-0.017627825445142728,0.0,0.0,0.0,0.0,0.0,0.0,0.0,0.080325,-0.155925,0.28822499999999995,-0.043129799999999996,-0.09201024,0.00287532
1779586830702318191,A_-,-0.08005663099993399,0.01244419756671957,1.4723772102749364,-2.912971974871056,-0.09019861574306695,-0.017627825445142728,0.0,0.0,0.0,0.0,0.0,0.0,0.0,0.080325,-0.155925,0.28822499999999995,-0.043129799999999996,-0.09201024,0.00287532
1779586830728113174,A_-,-0.08274253724994196,0.01244419756671957,1.4723772102749364,-2.912971974871056,-0.09019861574306695,-0.017627825445142728,0.0,0.0,0.0,0.0,0.0,0.0,0.0,0.0945,-0.155925,0.316575,-0.05367264,-0.09201024,0.00670908
1779586830728113174,A_-,-0.0856612187499195,0.01244419756671957,1.4723772102749364,-2.912971974871056,-0.09019861574306695,-0.017627825445142728,0.0,0.0,0.0,0.0,0.0,0.0,0.0,0.0945,-0.155925,0.316575,-0.05367264,-0.09201024,0.00670908
1779586830728113174,A_-,-0.08837664400016365,0.01244419756671957,1.4723772102749364,-2.912971974871056,-0.09019861574306695,-0.017627825445142728,0.0,0.0,0.0,0.0,0.0,0.0,0.0,0.0945,-0.155925,0.316575,-0.05367264,-0.09201024,0.00670908
1779586830747294664,A_-,-0.09152760449978814,0.01244419756671957,1.4723772102749364,-2.912971974871056,-0.09019861574306695,-0.017627825445142728,0.0,0.0,0.0,0.0,0.0,0.0,0.0,0.08505,-0.155925,0.29295,-0.04983888,-0.08625959999999999,0.0095844
1779586830747294664,A_-,-0.09456956924987026,0.01244419756671957,1.4723772102749364,-2.912971974871056,-0.09019861574306695,-0.017627825445142728,0.0,0.0,0.0,0.0,0.0,0.0,0.0,0.08505,-0.155925,0.29295,-0.04983888,-0.08625959999999999,0.0095844
1779586830747294664,A_-,-0.09729375400002027,0.01244419756671957,1.4723772102749364,-2.912971974871056,-0.09019861574306695,-0.017627825445142728,0.0,0.0,0.0,0.0,0.0,0.0,0.0,0.08505,-0.155925,0.29295,-0.04983888,-0.08625959999999999,0.0095844
1779586830773310184,A_-,-0.10006172125031298,0.01244419756671957,1.4723772102749364,-2.912971974871056,-0.09019861574306695,-0.017627825445142728,0.0,0.0,0.0,0.0,0.0,0.0,0.0,0.118125,-0.1701,0.3213,-0.04408824,-0.09488556,0.0
1779586830773310184,A_-,-0.10307026324971957,0.01244419756671957,1.4723772102749364,-2.912971974871056,-0.09019861574306695,-0.017627825445142728,0.0,0.0,0.0,0.0,0.0,0.0,0.0,0.118125,-0.1701,0.3213,-0.04408824,-0.09488556,0.0
1779586830773310184,A_-,-0.10578870424978959,0.01244419756671957,1.4723772102749364,-2.912971974871056,-0.09019861574306695,-0.017627825445142728,0.0,0.0,0.0,0.0,0.0,0.0,0.0,0.118125,-0.1701,0.3213,-0.04408824,-0.09488556,0.0
1779586830808102846,A_-,-0.10847637050028425,0.01244419756671957,1.4723772102749364,-2.912971974871056,-0.09019861574306695,-0.017627825445142728,0.0,0.0,0.0,0.0,0.0,0.0,0.0,0.06615,-0.1512,0.3024,-0.048880440000000004,-0.09488556,0.0047922
1779586830808102846,A_-,-0.1113774844998261,0.01244419756671957,1.4723772102749364,-2.912971974871056,-0.09019861574306695,-0.017627825445142728,0.0,0.0,0.0,0.0,0.0,0.0,0.0,0.06615,-0.1512,0.3024,-0.048880440000000004,-0.09488556,0.0047922
1779586830808102846,A_-,-0.11406450274989766,0.01244419756671957,1.4723772102749364,-2.912971974871056,-0.09019861574306695,-0.017627825445142728,0.0,0.0,0.0,0.0,0.0,0.0,0.0,0.06615,-0.1512,0.3024,-0.048880440000000004,-0.09488556,0.0047922
1779586830842254877,A_-,-0.11677464800050075,0.01244419756671957,1.4723772102749364,-2.912971974871056,-0.09019861574306695,-0.017627825445142728,0.0,0.0,0.0,0.0,0.0,0.0,0.0,0.10394999999999999,-0.16065,0.29295,-0.04600512,-0.09488556,0.00191688
1779586830842254877,A_-,-0.11967992199970467,0.01244419756671957,1.4723772102749364,-2.912971974871056,-0.09019861574306695,-0.017627825445142728,0.0,0.0,0.0,0.0,0.0,0.0,0.0,0.10394999999999999,-0.16065,0.29295,-0.04600512,-0.09488556,0.00191688
1779586830842254877,A_-,-0.12237107624969212,0.01244419756671957,1.4723772102749364,-2.912971974871056,-0.09019861574306695,-0.017627825445142728,0.0,0.0,0.0,0.0,0.0,0.0,0.0,0.10394999999999999,-0.16065,0.29295,-0.04600512,-0.09488556,0.00191688
1779586830882267713,A_-,-0.12514151525010675,0.01244419756671957,1.4723772102749364,-2.912971974871056,-0.09019861574306695,-0.017627825445142728,0.0,0.0,0.0,0.0,0.0,0.0,0.0,0.089775,-0.155925,0.307125,-0.047922,-0.08913491999999999,0.00383376
1779586830882267713,A_-,-0.12802462200033915,0.01244419756671957,1.4723772102749364,-2.912971974871056,-0.09019861574306695,-0.017627825445142728,0.0,0.0,0.0,0.0,0.0,0.0,0.0,0.089775,-0.155925,0.307125,-0.047922,-0.08913491999999999,0.00383376
1779586830882267713,A_-,-0.13071034449967556,0.01244419756671957,1.4723772102749364,-2.912971974871056,-0.09019861574306695,-0.017627825445142728,0.0,0.0,0.0,0.0,0.0,0.0,0.0,0.089775,-0.155925,0.307125,-0.047922,-0.08913491999999999,0.00383376
1779586830942963361,A_-,-0.1333657717505048,0.01244419756671957,1.4723772102749364,-2.912971974871056,-0.09019861574306695,-0.017627825445142728,0.0,0.0,0.0,0.0,0.0,0.0,0.0,0.1512,-0.146475,0.316575,-0.04121292,-0.07571676,0.01150128
1779586830942963361,A_-,-0.1362446067505516,0.01244419756671957,1.4723772102749364,-2.912971974871056,-0.09019861574306695,-0.017627825445142728,0.0,0.0,0.0,0.0,0.0,0.0,0.0,0.1512,-0.146475,0.316575,-0.04121292,-0.07571676,0.01150128
1779586830942963361,A_-,-0.13894104075006908,0.01244419756671957,1.4723772102749364,-2.912971974871056,-0.09019861574306695,-0.017627825445142728,0.0,0.0,0.0,0.0,0.0,0.0,0.0,0.1512,-0.146475,0.316575,-0.04121292,-0.07571676,0.01150128
1779586831043777227,A_-,-0.14157230900036666,0.01244419756671957,1.4723772102749364,-2.912971974871056,-0.09019861574306695,-0.017627825445142728,0.0,0.0,0.0,0.0,0.0,0.0,0.0,0.0945,-0.203175,0.3213,-0.048880440000000004,-0.08625959999999999,0.00766752
1779586831043777227,A_-,-0.14446599150051043,0.01244419756671957,1.4723772102749364,-2.912971974871056,-0.09019861574306695,-0.017627825445142728,0.0,0.0,0.0,0.0,0.0,0.0,0.0,0.0945,-0.203175,0.3213,-0.048880440000000004,-0.08625959999999999,0.00766752
1779586831043777227,A_-,-0.14714867400016374,0.01244419756671957,1.4723772102749364,-2.912971974871056,-0.09019861574306695,-0.017627825445142728,0.0,0.0,0.0,0.0,0.0,0.0,0.0,0.0945,-0.203175,0.3213,-0.048880440000000004,-0.08625959999999999,0.00766752
1779586831118671894,A_-,-0.14978858199992828,0.01244419756671957,1.4723772102749364,-2.912971974871056,-0.09019861574306695,-0.017627825445142728,0.0,0.0,0.0,0.0,0.0,0.0,0.0,-0.3591,-0.165375,0.31185,-0.04983888,-0.07955052,0.01245972
1779586831118671894,A_-,-0.1526409460002469,0.01244419756671957,1.4723772102749364,-2.912971974871056,-0.09019861574306695,-0.017627825445142728,0.0,0.0,0.0,0.0,0.0,0.0,0.0,-0.3591,-0.165375,0.31185,-0.04983888,-0.07955052,0.01245972
1779586831118671894,A_-,-0.15532950025044556,0.01244419756671957,1.4723772102749364,-2.912971974871056,-0.09019861574306695,-0.017627825445142728,0.0,0.0,0.0,0.0,0.0,0.0,0.0,-0.3591,-0.165375,0.31185,-0.04983888,-0.07955052,0.01245972
1779586831157240390,A_-,-0.15798834349971003,0.01244419756671957,1.4723772102749364,-2.912971974871056,-0.09019861574306695,-0.017627825445142728,0.0,0.0,0.0,0.0,0.0,0.0,0.0,-0.41579999999999995,-0.1701,0.31185,-0.04983888,-0.09488556,0.0047922
1779586831157240390,A_-,-0.1608641387501848,0.01244419756671957,1.4723772102749364,-2.912971974871056,-0.09019861574306695,-0.017627825445142728,0.0,0.0,0.0,0.0,0.0,0.0,0.0,-0.41579999999999995,-0.1701,0.31185,-0.04983888,-0.09488556,0.0047922
1779586831157240390,A_-,-0.16355133300021407,0.01244419756671957,1.4723772102749364,-2.912971974871056,-0.09019861574306695,-0.017627825445142728,0.0,0.0,0.0,0.0,0.0,0.0,0.0,-0.41579999999999995,-0.1701,0.31185,-0.04983888,-0.09488556,0.0047922
1779586831192236661,A_-,-0.16620924025028216,0.01244419756671957,1.4723772102749364,-2.912971974871056,-0.09019861574306695,-0.017627825445142728,0.0,0.0,0.0,0.0,0.0,0.0,0.0,-0.42524999999999996,-0.165375,0.3024,-0.06421548,-0.08338428,0.01054284
1779586831192236661,A_-,-0.1691392172497217,0.01244419756671957,1.4723772102749364,-2.912971974871056,-0.09019861574306695,-0.017627825445142728,0.0,0.0,0.0,0.0,0.0,0.0,0.0,-0.42524999999999996,-0.165375,0.3024,-0.06421548,-0.08338428,0.01054284
1779586831192236661,A_-,-0.17183418725016963,0.01244419756671957,1.4723772102749364,-2.912971974871056,-0.09019861574306695,-0.017627825445142728,0.0,0.0,0.0,0.0,0.0,0.0,0.0,-0.42524999999999996,-0.165375,0.3024,-0.06421548,-0.08338428,0.01054284
1779586831222265243,A_-,-0.17450383024970506,0.01244419756671957,1.4723772102749364,-2.912971974871056,-0.09019861574306695,-0.017627825445142728,0.0,0.0,0.0,0.0,0.0,0.0,0.0,-0.401625,-0.17482499999999998,0.29295,-0.05079731999999999,-0.08721804,0.00766752
1779586831222265243,A_-,-0.17749509300028876,0.01244419756671957,1.4723772102749364,-2.912971974871056,-0.09019861574306695,-0.017627825445142728,0.0,0.0,0.0,0.0,0.0,0.0,0.0,-0.401625,-0.17482499999999998,0.29295,-0.05079731999999999,-0.08721804,0.00766752
1779586831222265243,A_-,-0.18022310149990517,0.01244419756671957,1.4723772102749364,-2.912971974871056,-0.09019861574306695,-0.017627825445142728,0.0,0.0,0.0,0.0,0.0,0.0,0.0,-0.401625,-0.17482499999999998,0.29295,-0.05079731999999999,-0.08721804,0.00766752
1779586831253571510,A_-,-0.18295360625052126,0.01244419756671957,1.4723772102749364,-2.912971974871056,-0.09019861574306695,-0.017627825445142728,0.0,0.0,0.0,0.0,0.0,0.0,0.0,-0.411075,-0.19372499999999998,0.307125,-0.043129799999999996,-0.08338428,0.00766752
1779586831253571510,A_-,-0.18591058225047163,0.01244419756671957,1.4723772102749364,-2.912971974871056,-0.09019861574306695,-0.017627825445142728,0.0,0.0,0.0,0.0,0.0,0.0,0.0,-0.411075,-0.19372499999999998,0.307125,-0.043129799999999996,-0.08338428,0.00766752
1779586831253571510,A_-,-0.1885951925005429,0.01244419756671957,1.4723772102749364,-2.912971974871056,-0.09019861574306695,-0.017627825445142728,0.0,0.0,0.0,0.0,0.0,0.0,0.0,-0.411075,-0.19372499999999998,0.307125,-0.043129799999999996,-0.08338428,0.00766752
1779586831272833585,A_-,-0.19125585975052672,0.01244419756671957,1.4723772102749364,-2.912971974871056,-0.09019861574306695,-0.017627825445142728,0.0,0.0,0.0,0.0,0.0,0.0,0.0,-0.392175,-0.189,0.2835,-0.04696356,-0.08434272,0.0047922
1779586831272833585,A_-,-0.1941610377498364,0.01244419756671957,1.4723772102749364,-2.912971974871056,-0.09019861574306695,-0.017627825445142728,0.0,0.0,0.0,0.0,0.0,0.0,0.0,-0.392175,-0.189,0.2835,-0.04696356,-0.08434272,0.0047922
1779586831272833585,A_-,-0.1968842867499916,0.01244419756671957,1.4723772102749364,-2.912971974871056,-0.09019861574306695,-0.017627825445142728,0.0,0.0,0.0,0.0,0.0,0.0,0.0,-0.392175,-0.189,0.2835,-0.04696356,-0.08434272,0.0047922
1779586831287242174,A_-,-0.19954700200014486,0.01244419756671957,1.4723772102749364,-2.912971974871056,-0.09019861574306695,-0.017627825445142728,0.0,0.0,0.0,0.0,0.0,0.0,0.0,-0.40635,-0.137025,0.31185,-0.04504668,-0.0910518,0.00670908
1779586831287242174,A_-,-0.20246781125024427,0.01244419756671957,1.4723772102749364,-2.912971974871056,-0.09019861574306695,-0.017627825445142728,0.0,0.0,0.0,0.0,0.0,0.0,0.0,-0.40635,-0.137025,0.31185,-0.04504668,-0.0910518,0.00670908
1779586831287242174,A_-,-0.20517945250048797,0.01244419756671957,1.4723772102749364,-2.912971974871056,-0.09019861574306695,-0.017627825445142728,0.0,0.0,0.0,0.0,0.0,0.0,0.0,-0.40635,-0.137025,0.31185,-0.04504668,-0.0910518,0.00670908
1779586831302258014,A_-,-0.20794037999985449,0.01244419756671957,1.4723772102749364,-2.912971974871056,-0.09019861574306695,-0.017627825445142728,0.0,0.0,0.0,0.0,0.0,0.0,0.0,-0.401625,-0.165375,0.31185,-0.05079731999999999,-0.08338428,0.00287532
1779586831302258014,A_-,-0.21090504375024466,0.01244419756671957,1.4723772102749364,-2.912971974871056,-0.09019861574306695,-0.017627825445142728,0.0,0.0,0.0,0.0,0.0,0.0,0.0,-0.401625,-0.165375,0.31185,-0.05079731999999999,-0.08338428,0.00287532
1779586831302258014,A_-,-0.21359884575031174,0.01244419756671957,1.4723772102749364,-2.912971974871056,-0.09019861574306695,-0.017627825445142728,0.0,0.0,0.0,0.0,0.0,0.0,0.0,-0.401625,-0.165375,0.31185,-0.05079731999999999,-0.08338428,0.00287532
1779586831327241420,A_-,-0.2162756884999908,0.01244419756671957,1.4723772102749364,-2.912971974871056,-0.09019861574306695,-0.017627825445142728,0.0,0.0,0.0,0.0,0.0,0.0,0.0,-0.3969,-0.17955,0.307125,-0.048880440000000004,-0.08817648,0.01054284
1779586831327241420,A_-,-0.21926755124968622,0.01244419756671957,1.4723772102749364,-2.912971974871056,-0.09019861574306695,-0.017627825445142728,0.0,0.0,0.0,0.0,0.0,0.0,0.0,-0.3969,-0.17955,0.307125,-0.048880440000000004,-0.08817648,0.01054284
1779586831327241420,A_-,-0.22193920199970307,0.01244419756671957,1.4723772102749364,-2.912971974871056,-0.09019861574306695,-0.017627825445142728,0.0,0.0,0.0,0.0,0.0,0.0,0.0,-0.3969,-0.17955,0.307125,-0.048880440000000004,-0.08817648,0.01054284
1779586831427229642,A_-,-0.22458716575056314,0.01244419756671957,1.4723772102749364,-2.912971974871056,-0.09019861574306695,-0.017627825445142728,0.0,0.0,0.0,0.0,0.0,0.0,0.0,-0.36382499999999995,-0.19845,0.326025,-0.05175576,-0.09009336,0.01054284
1779586831427229642,A_-,-0.22740545099986775,0.01244419756671957,1.4723772102749364,-2.912971974871056,-0.09019861574306695,-0.017627825445142728,0.0,0.0,0.0,0.0,0.0,0.0,0.0,-0.36382499999999995,-0.19845,0.326025,-0.05175576,-0.09009336,0.01054284
1779586831427229642,A_-,-0.23006818224985182,0.01244419756671957,1.4723772102749364,-2.912971974871056,-0.09019861574306695,-0.017627825445142728,0.0,0.0,0.0,0.0,0.0,0.0,0.0,-0.36382499999999995,-0.19845,0.326025,-0.05175576,-0.09009336,0.01054284
1779586831457231760,A_-,-0.2326949787502599,0.01244419756671957,1.4723772102749364,-2.912971974871056,-0.09019861574306695,-0.017627825445142728,0.0,0.0,0.0,0.0,0.0,0.0,0.0,-0.41579999999999995,-0.165375,0.31185,-0.04408824,-0.09201024,0.02587788
1779586831457231760,A_-,-0.2358195964998231,0.01244419756671957,1.4723772102749364,-2.912971974871056,-0.09019861574306695,-0.017627825445142728,0.0,0.0,0.0,0.0,0.0,0.0,0.0,-0.41579999999999995,-0.165375,0.31185,-0.04408824,-0.09201024,0.02587788
1779586831457231760,A_-,-0.23854281325020565,0.01244419756671957,1.4723772102749364,-2.912971974871056,-0.09019861574306695,-0.017627825445142728,0.0,0.0,0.0,0.0,0.0,0.0,0.0,-0.41579999999999995,-0.165375,0.31185,-0.04408824,-0.09201024,0.02587788
1779586831482354879,A_-,-0.2411895450004522,0.01244419756671957,1.4723772102749364,-2.912971974871056,-0.09019861574306695,-0.017627825445142728,0.0,0.0,0.0,0.0,0.0,0.0,0.0,-0.4205249999999999,-0.127575,0.3024,-0.04217136,-0.09488556,0.00766752
1779586831482354879,A_-,-0.24404619699998875,0.01244419756671957,1.4723772102749364,-2.912971974871056,-0.09019861574306695,-0.017627825445142728,0.0,0.0,0.0,0.0,0.0,0.0,0.0,-0.4205249999999999,-0.127575,0.3024,-0.04217136,-0.09488556,0.00766752
1779586831482354879,A_-,-0.24674632675032626,0.01244419756671957,1.4723772102749364,-2.912971974871056,-0.09019861574306695,-0.017627825445142728,0.0,0.0,0.0,0.0,0.0,0.0,0.0,-0.4205249999999999,-0.127575,0.3024,-0.04217136,-0.09488556,0.00766752
1779586831528005838,A_-,-0.2494418485002825,0.01244419756671957,1.4723772102749364,-2.912971974871056,-0.09019861574306695,-0.017627825445142728,0.0,0.0,0.0,0.0,0.0,0.0,0.0,-0.401625,-0.17955,0.3024,-0.048880440000000004,-0.08913491999999999,-0.00095844
1779586831528005838,A_-,-0.2523402349997923,0.01244419756671957,1.4723772102749364,-2.912971974871056,-0.09019861574306695,-0.017627825445142728,0.0,0.0,0.0,0.0,0.0,0.0,0.0,-0.401625,-0.17955,0.3024,-0.048880440000000004,-0.08913491999999999,-0.00095844
1779586831528005838,A_-,-0.2550664197497099,0.01244419756671957,1.4723772102749364,-2.912971974871056,-0.09019861574306695,-0.017627825445142728,0.0,0.0,0.0,0.0,0.0,0.0,0.0,-0.401625,-0.17955,0.3024,-0.048880440000000004,-0.08913491999999999,-0.00095844
1779586831552222728,A_-,-0.2577620134998142,0.01244419756671957,1.4723772102749364,-2.912971974871056,-0.09019861574306695,-0.017627825445142728,0.0,0.0,0.0,0.0,0.0,0.0,0.0,-0.41579999999999995,-0.17955,0.326025,-0.048880440000000004,-0.08721804,0.00383376
1779586831552222728,A_-,-0.26063188900025125,0.01244419756671957,1.4723772102749364,-2.912971974871056,-0.09019861574306695,-0.017627825445142728,0.0,0.0,0.0,0.0,0.0,0.0,0.0,-0.41579999999999995,-0.17955,0.326025,-0.048880440000000004,-0.08721804,0.00383376
1779586831552222728,A_-,-0.263329530750525,0.01244419756671957,1.4723772102749364,-2.912971974871056,-0.09019861574306695,-0.017627825445142728,0.0,0.0,0.0,0.0,0.0,0.0,0.0,-0.41579999999999995,-0.17955,0.326025,-0.048880440000000004,-0.08721804,0.00383376
1779586831577234983,A_-,-0.26598815800025477,0.01244419756671957,1.4723772102749364,-2.912971974871056,-0.09019861574306695,-0.017627825445142728,0.0,0.0,0.0,0.0,0.0,0.0,0.0,-0.41579999999999995,-0.184275,0.3024,-0.04983888,-0.08817648,0.00670908
1779586831577234983,A_-,-0.268885624500399,0.01244419756671957,1.4723772102749364,-2.912971974871056,-0.09019861574306695,-0.017627825445142728,0.0,0.0,0.0,0.0,0.0,0.0,0.0,-0.41579999999999995,-0.184275,0.3024,-0.04983888,-0.08817648,0.00670908
1779586831577234983,A_-,-0.2715859302497847,0.01244419756671957,1.4723772102749364,-2.912971974871056,-0.09019861574306695,-0.017627825445142728,0.0,0.0,0.0,0.0,0.0,0.0,0.0,-0.41579999999999995,-0.184275,0.3024,-0.04983888,-0.08817648,0.00670908
1779586831602212429,A_-,-0.2743330180001067,0.01244419756671957,1.4723772102749364,-2.912971974871056,-0.09019861574306695,-0.017627825445142728,0.0,0.0,0.0,0.0,0.0,0.0,0.0,-0.411075,-0.16065,0.3024,-0.04983888,-0.09488556,0.00287532
1779586831602212429,A_-,-0.2774066057500022,0.01244419756671957,1.4723772102749364,-2.912971974871056,-0.09019861574306695,-0.017627825445142728,0.0,0.0,0.0,0.0,0.0,0.0,0.0,-0.411075,-0.16065,0.3024,-0.04983888,-0.09488556,0.00287532
1779586831602212429,A_-,-0.28013031049977144,0.01244419756671957,1.4723772102749364,-2.912971974871056,-0.09019861574306695,-0.017627825445142728,0.0,0.0,0.0,0.0,0.0,0.0,0.0,-0.411075,-0.16065,0.3024,-0.04983888,-0.09488556,0.00287532
1779586831667221069,A_-,-0.28279245775047457,0.01244419756671957,1.4723772102749364,-2.912971974871056,-0.09019861574306695,-0.017627825445142728,0.0,0.0,0.0,0.0,0.0,0.0,0.0,-0.38744999999999996,-0.137025,0.326025,-0.04408824,-0.0910518,0.00670908
1779586831667221069,A_-,-0.28570503550054127,0.01244419756671957,1.4723772102749364,-2.912971974871056,-0.09019861574306695,-0.017627825445142728,0.0,0.0,0.0,0.0,0.0,0.0,0.0,-0.38744999999999996,-0.137025,0.326025,-0.04408824,-0.0910518,0.00670908
1779586831667221069,A_-,-0.28841977274987585,0.01244419756671957,1.4723772102749364,-2.912971974871056,-0.09019861574306695,-0.017627825445142728,0.0,0.0,0.0,0.0,0.0,0.0,0.0,-0.38744999999999996,-0.137025,0.326025,-0.04408824,-0.0910518,0.00670908
1779586831692224740,A_-,-0.29109239150056965,0.01244419756671957,1.4723772102749364,-2.912971974871056,-0.09019861574306695,-0.017627825445142728,0.0,0.0,0.0,0.0,0.0,0.0,0.0,-0.382725,-0.155925,0.3024,-0.047922,-0.08721804,0.0095844
1779586831692224740,A_-,-0.2940520635002031,0.01244419756671957,1.4723772102749364,-2.912971974871056,-0.09019861574306695,-0.017627825445142728,0.0,0.0,0.0,0.0,0.0,0.0,0.0,-0.382725,-0.155925,0.3024,-0.047922,-0.08721804,0.0095844
1779586831692224740,A_-,-0.29678401599994686,0.01244419756671957,1.4723772102749364,-2.912971974871056,-0.09019861574306695,-0.017627825445142728,0.0,0.0,0.0,0.0,0.0,0.0,0.0,-0.382725,-0.155925,0.3024,-0.047922,-0.08721804,0.0095844
1779586831732214927,A_-,-0.2994432912500997,0.01244419756671957,1.4723772102749364,-2.912971974871056,-0.09019861574306695,-0.017627825445142728,0.0,0.0,0.0,0.0,0.0,0.0,0.0,-0.401625,-0.189,0.31185,-0.04696356,-0.09392712,0.00287532
1779586831732214927,A_-,-0.30233921375020145,0.01244419756671957,1.4723772102749364,-2.912971974871056,-0.09019861574306695,-0.017627825445142728,0.0,0.0,0.0,0.0,0.0,0.0,0.0,-0.401625,-0.189,0.31185,-0.04696356,-0.09392712,0.00287532
1779586831732214927,A_-,-0.3050507429998106,0.01244419756671957,1.4723772102749364,-2.912971974871056,-0.09019861574306695,-0.017627825445142728,0.0,0.0,0.0,0.0,0.0,0.0,0.0,-0.401625,-0.189,0.31185,-0.04696356,-0.09392712,0.00287532
1779586831767217636,A_-,-0.3077436889998353,0.01244419756671957,1.4723772102749364,-2.912971974871056,-0.09019861574306695,-0.017627825445142728,0.0,0.0,0.0,0.0,0.0,0.0,0.0,-0.4205249999999999,-0.184275,0.31185,-0.04408824,-0.08530115999999999,-0.0047922
1779586831767217636,A_-,-0.31067860199982533,0.01244419756671957,1.4723772102749364,-2.912971974871056,-0.09019861574306695,-0.017627825445142728,0.0,0.0,0.0,0.0,0.0,0.0,0.0,-0.4205249999999999,-0.184275,0.31185,-0.04408824,-0.08530115999999999,-0.0047922
1779586831767217636,A_-,-0.313375595749676,0.01244419756671957,1.4723772102749364,-2.912971974871056,-0.09019861574306695,-0.017627825445142728,0.0,0.0,0.0,0.0,0.0,0.0,0.0,-0.4205249999999999,-0.184275,0.31185,-0.04408824,-0.08530115999999999,-0.0047922
1779586831797210454,A_-,-0.31607165375044133,0.01244419756671957,1.4723772102749364,-2.912971974871056,-0.09019861574306695,-0.017627825445142728,0.0,0.0,0.0,0.0,0.0,0.0,0.0,-0.3969,-0.165375,0.31185,-0.04600512,-0.08721804,0.00670908
1779586831797210454,A_-,-0.3190053104999606,0.01244419756671957,1.4723772102749364,-2.912971974871056,-0.09019861574306695,-0.017627825445142728,0.0,0.0,0.0,0.0,0.0,0.0,0.0,-0.3969,-0.165375,0.31185,-0.04600512,-0.08721804,0.00670908
1779586831797210454,A_-,-0.3217241677502898,0.01244419756671957,1.4723772102749364,-2.912971974871056,-0.09019861574306695,-0.017627825445142728,0.0,0.0,0.0,0.0,0.0,0.0,0.0,-0.3969,-0.165375,0.31185,-0.04600512,-0.08721804,0.00670908
1779586831832215309,A_-,-0.3244225135003944,0.01244419756671957,1.4723772102749364,-2.912971974871056,-0.09019861574306695,-0.017627825445142728,0.0,0.0,0.0,0.0,0.0,0.0,0.0,-0.4347,-0.17955,0.29295,-0.04600512,-0.09776088000000001,0.0095844
1779586831832215309,A_-,-0.32733863500016014,0.01244419756671957,1.4723772102749364,-2.912971974871056,-0.09019861574306695,-0.017627825445142728,0.0,0.0,0.0,0.0,0.0,0.0,0.0,-0.4347,-0.17955,0.29295,-0.04600512,-0.09776088000000001,0.0095844
1779586831832215309,A_-,-0.3300181895001515,0.01244419756671957,1.4723772102749364,-2.912971974871056,-0.09019861574306695,-0.017627825445142728,0.0,0.0,0.0,0.0,0.0,0.0,0.0,-0.4347,-0.17955,0.29295,-0.04600512,-0.09776088000000001,0.0095844
1779586831867207765,A_-,-0.33265911350008537,0.01244419756671957,1.4723772102749364,-2.912971974871056,-0.09019861574306695,-0.017627825445142728,0.0,0.0,0.0,0.0,0.0,0.0,0.0,-0.3969,-0.146475,0.3024,-0.05367264,-0.09201024,0.02300256
1779586831867207765,A_-,-0.335530828750052,0.01244419756671957,1.4723772102749364,-2.912971974871056,-0.09019861574306695,-0.017627825445142728,0.0,0.0,0.0,0.0,0.0,0.0,0.0,-0.3969,-0.146475,0.3024,-0.05367264,-0.09201024,0.02300256
1779586831867207765,A_-,-0.33820027174988354,0.01244419756671957,1.4723772102749364,-2.912971974871056,-0.09019861574306695,-0.017627825445142728,0.0,0.0,0.0,0.0,0.0,0.0,0.0,-0.3969,-0.146475,0.3024,-0.05367264,-0.09201024,0.02300256
1779586831892338991,A_-,-0.34088297825019254,0.01244419756671957,1.4723772102749364,-2.912971974871056,-0.09019861574306695,-0.017627825445142728,0.0,0.0,0.0,0.0,0.0,0.0,0.0,-0.378,-0.19845,0.316575,-0.05079731999999999,-0.08817648,0.01054284
1779586831892338991,A_-,-0.34370165549989906,0.01244419756671957,1.4723772102749364,-2.912971974871056,-0.09019861574306695,-0.017627825445142728,0.0,0.0,0.0,0.0,0.0,0.0,0.0,-0.378,-0.19845,0.316575,-0.05079731999999999,-0.08817648,0.01054284
1779586831892338991,A_-,-0.34637693824970484,0.01244419756671957,1.4723772102749364,-2.912971974871056,-0.09019861574306695,-0.017627825445142728,0.0,0.0,0.0,0.0,0.0,0.0,0.0,-0.378,-0.19845,0.316575,-0.05079731999999999,-0.08817648,0.01054284
1779586831932209968,A_-,-0.34901367025031504,0.01244419756671957,1.4723772102749364,-2.912971974871056,-0.09019861574306695,-0.017627825445142728,0.0,0.0,0.0,0.0,0.0,0.0,0.0,-0.4205249999999999,-0.14175,0.31185,-0.04600512,-0.08817648,0.00095844
1779586831932209968,A_-,-0.3519135844999255,0.01244419756671957,1.4723772102749364,-2.912971974871056,-0.09019861574306695,-0.017627825445142728,0.0,0.0,0.0,0.0,0.0,0.0,0.0,-0.4205249999999999,-0.14175,0.31185,-0.04600512,-0.08817648,0.00095844
1779586831932209968,A_-,-0.35461403425051685,0.01244419756671957,1.4723772102749364,-2.912971974871056,-0.09019861574306695,-0.017627825445142728,0.0,0.0,0.0,0.0,0.0,0.0,0.0,-0.4205249999999999,-0.14175,0.31185,-0.04600512,-0.08817648,0.00095844
1779586831957228660,A_-,-0.35728096525053843,0.01244419756671957,1.4723772102749364,-2.912971974871056,-0.09019861574306695,-0.017627825445142728,0.0,0.0,0.0,0.0,0.0,0.0,0.0,-0.40635,-0.17482499999999998,0.28822499999999995,-0.047922,-0.0910518,0.00383376
1779586831957228660,A_-,-0.3601134660002572,0.01244419756671957,1.4723772102749364,-2.912971974871056,-0.09019861574306695,-0.017627825445142728,0.0,0.0,0.0,0.0,0.0,0.0,0.0,-0.40635,-0.17482499999999998,0.28822499999999995,-0.047922,-0.0910518,0.00383376
1779586831957228660,A_-,-0.3627848930000255,0.01244419756671957,1.4723772102749364,-2.912971974871056,-0.09019861574306695,-0.017627825445142728,0.0,0.0,0.0,0.0,0.0,0.0,0.0,-0.40635,-0.17482499999999998,0.28822499999999995,-0.047922,-0.0910518,0.00383376
1779586831997211456,A_-,-0.36545846374974644,0.01244419756671957,1.4723772102749364,-2.912971974871056,-0.09019861574306695,-0.017627825445142728,0.0,0.0,0.0,0.0,0.0,0.0,0.0,-0.40635,-0.17482499999999998,0.307125,-0.04696356,-0.09296868,0.0095844
1779586831997211456,A_-,-0.3683062837499165,0.01244419756671957,1.4723772102749364,-2.912971974871056,-0.09019861574306695,-0.017627825445142728,0.0,0.0,0.0,0.0,0.0,0.0,0.0,-0.40635,-0.17482499999999998,0.307125,-0.04696356,-0.09296868,0.0095844
1779586831997211456,A_-,-0.3710111335003603,0.01244419756671957,1.4723772102749364,-2.912971974871056,-0.09019861574306695,-0.017627825445142728,0.0,0.0,0.0,0.0,0.0,0.0,0.0,-0.40635,-0.17482499999999998,0.307125,-0.04696356,-0.09296868,0.0095844
1779586832027207612,A_-,-0.37370393550008885,0.01244419756671957,1.4723772102749364,-2.912971974871056,-0.09019861574306695,-0.017627825445142728,0.0,0.0,0.0,0.0,0.0,0.0,0.0,-0.42524999999999996,-0.1512,0.307125,-0.052714199999999996,-0.09009336,0.0095844
1779586832027207612,A_-,-0.37666670349972264,0.01244419756671957,1.4723772102749364,-2.912971974871056,-0.09019861574306695,-0.017627825445142728,0.0,0.0,0.0,0.0,0.0,0.0,0.0,-0.42524999999999996,-0.1512,0.307125,-0.052714199999999996,-0.09009336,0.0095844
1779586832027207612,A_-,-0.37935408975044993,0.01244419756671957,1.4723772102749364,-2.912971974871056,-0.09019861574306695,-0.017627825445142728,0.0,0.0,0.0,0.0,0.0,0.0,0.0,-0.42524999999999996,-0.1512,0.307125,-0.052714199999999996,-0.09009336,0.0095844
1779586832062208414,A_-,-0.3819952777503204,0.01244419756671957,1.4723772102749364,-2.912971974871056,-0.09019861574306695,-0.017627825445142728,0.0,0.0,0.0,0.0,0.0,0.0,0.0,-0.40635,-0.189,0.307125,-0.048880440000000004,-0.08721804,0.00191688
1779586832062208414,A_-,-0.3848636812499535,0.01244419756671957,1.4723772102749364,-2.912971974871056,-0.09019861574306695,-0.017627825445142728,0.0,0.0,0.0,0.0,0.0,0.0,0.0,-0.40635,-0.189,0.307125,-0.048880440000000004,-0.08721804,0.00191688
1779586832062208414,A_-,-0.3875485315002152,0.01244419756671957,1.4723772102749364,-2.912971974871056,-0.09019861574306695,-0.017627825445142728,0.0,0.0,0.0,0.0,0.0,0.0,0.0,-0.40635,-0.189,0.307125,-0.048880440000000004,-0.08721804,0.00191688
1779586832097202301,A_-,-0.39020107124997594,0.01244419756671957,1.4723772102749364,-2.912971974871056,-0.09019861574306695,-0.017627825445142728,0.0,0.0,0.0,0.0,0.0,0.0,0.0,-0.4205249999999999,-0.165375,0.326025,-0.047922,-0.08338428,-0.00383376
1779586832097202301,A_-,-0.393051475250104,0.01244419756671957,1.4723772102749364,-2.912971974871056,-0.09019861574306695,-0.017627825445142728,0.0,0.0,0.0,0.0,0.0,0.0,0.0,-0.4205249999999999,-0.165375,0.326025,-0.047922,-0.08338428,-0.00383376
1779586832097202301,A_-,-0.39573553374975745,0.01244419756671957,1.4723772102749364,-2.912971974871056,-0.09019861574306695,-0.017627825445142728,0.0,0.0,0.0,0.0,0.0,0.0,0.0,-0.4205249999999999,-0.165375,0.326025,-0.047922,-0.08338428,-0.00383376
1779586832127201080,A_-,-0.3983910652505074,0.01244419756671957,1.4723772102749364,-2.912971974871056,-0.09019861574306695,-0.017627825445142728,0.0,0.0,0.0,0.0,0.0,0.0,0.0,-0.3591,-0.17955,0.307125,-0.03929604,-0.08625959999999999,0.0
1779586832127201080,A_-,-0.4012534687499283,0.01244419756671957,1.4723772102749364,-2.912971974871056,-0.09019861574306695,-0.017627825445142728,0.0,0.0,0.0,0.0,0.0,0.0,0.0,-0.3591,-0.17955,0.307125,-0.03929604,-0.08625959999999999,0.0
1779586832127201080,A_-,-0.4039291355002206,0.01244419756671957,1.4723772102749364,-2.912971974871056,-0.09019861574306695,-0.017627825445142728,0.0,0.0,0.0,0.0,0.0,0.0,0.0,-0.3591,-0.17955,0.307125,-0.03929604,-0.08625959999999999,0.0
1779586832162195205,A_-,-0.4065895069998078,0.01244419756671957,1.4723772102749364,-2.912971974871056,-0.09019861574306695,-0.017627825445142728,0.0,0.0,0.0,0.0,0.0,0.0,0.0,-0.411075,-0.165375,0.31185,-0.04696356,-0.0910518,0.00766752
1779586832162195205,A_-,-0.409435503250279,0.01244419756671957,1.4723772102749364,-2.912971974871056,-0.09019861574306695,-0.017627825445142728,0.0,0.0,0.0,0.0,0.0,0.0,0.0,-0.411075,-0.165375,0.31185,-0.04696356,-0.0910518,0.00766752
1779586832162195205,A_-,-0.41212337750039296,0.01244419756671957,1.4723772102749364,-2.912971974871056,-0.09019861574306695,-0.017627825445142728,0.0,0.0,0.0,0.0,0.0,0.0,0.0,-0.411075,-0.165375,0.31185,-0.04696356,-0.0910518,0.00766752
1779586832192206144,A_-,-0.4147716212501109,0.01244419756671957,1.4723772102749364,-2.912971974871056,-0.09019861574306695,-0.017627825445142728,0.0,0.0,0.0,0.0,0.0,0.0,0.0,-0.3969,-0.165375,0.29767499999999997,-0.052714199999999996,-0.09296868,-0.00191688
1779586832192206144,A_-,-0.4176057060003586,0.01244419756671957,1.4723772102749364,-2.912971974871056,-0.09019861574306695,-0.017627825445142728,0.0,0.0,0.0,0.0,0.0,0.0,0.0,-0.3969,-0.165375,0.29767499999999997,-0.052714199999999996,-0.09296868,-0.00191688
1779586832192206144,A_-,-0.4202807807505451,0.01244419756671957,1.4723772102749364,-2.912971974871056,-0.09019861574306695,-0.017627825445142728,0.0,0.0,0.0,0.0,0.0,0.0,0.0,-0.3969,-0.165375,0.29767499999999997,-0.052714199999999996,-0.09296868,-0.00191688
1779586832227200984,A_-,-0.4229652472504313,0.01244419756671957,1.4723772102749364,-2.912971974871056,-0.09019861574306695,-0.017627825445142728,0.0,0.0,0.0,0.0,0.0,0.0,0.0,-0.378,-0.1512,0.28822499999999995,-0.04121292,-0.08050896,0.01150128
1779586832227200984,A_-,-0.42572473475047445,0.01244419756671957,1.4723772102749364,-2.912971974871056,-0.09019861574306695,-0.017627825445142728,0.0,0.0,0.0,0.0,0.0,0.0,0.0,-0.378,-0.1512,0.28822499999999995,-0.04121292,-0.08050896,0.01150128
1779586832227200984,A_-,-0.4283689147505356,0.01244419756671957,1.4723772102749364,-2.912971974871056,-0.09019861574306695,-0.017627825445142728,0.0,0.0,0.0,0.0,0.0,0.0,0.0,-0.378,-0.1512,0.28822499999999995,-0.04121292,-0.08050896,0.01150128
1779586832257187604,A_-,-0.4309846717496839,0.01244419756671957,1.4723772102749364,-2.912971974871056,-0.09019861574306695,-0.017627825445142728,0.0,0.0,0.0,0.0,0.0,0.0,0.0,-0.42524999999999996,-0.146475,0.31185,-0.05367264,-0.08625959999999999,0.01245972
1779586832257187604,A_-,-0.43372732774969336,0.01244419756671957,1.4723772102749364,-2.912971974871056,-0.09019861574306695,-0.017627825445142728,0.0,0.0,0.0,0.0,0.0,0.0,0.0,-0.42524999999999996,-0.146475,0.31185,-0.05367264,-0.08625959999999999,0.01245972
1779586832257187604,A_-,-0.4363671720002458,0.01244419756671957,1.4723772102749364,-2.912971974871056,-0.09019861574306695,-0.017627825445142728,0.0,0.0,0.0,0.0,0.0,0.0,0.0,-0.42524999999999996,-0.146475,0.31185,-0.05367264,-0.08625959999999999,0.01245972
1779586832282201528,A_-,-0.43899892025001463,0.01244419756671957,1.4723772102749364,-2.912971974871056,-0.09019861574306695,-0.017627825445142728,0.0,0.0,0.0,0.0,0.0,0.0,0.0,-0.41579999999999995,-0.1701,0.31185,-0.043129799999999996,-0.09296868,0.00575064
1779586832282201528,A_-,-0.44175942375022714,0.01244419756671957,1.4723772102749364,-2.912971974871056,-0.09019861574306695,-0.017627825445142728,0.0,0.0,0.0,0.0,0.0,0.0,0.0,-0.41579999999999995,-0.1701,0.31185,-0.043129799999999996,-0.09296868,0.00575064
1779586832282201528,A_-,-0.4444029557498652,0.01244419756671957,1.4723772102749364,-2.912971974871056,-0.09019861574306695,-0.017627825445142728,0.0,0.0,0.0,0.0,0.0,0.0,0.0,-0.41579999999999995,-0.1701,0.31185,-0.043129799999999996,-0.09296868,0.00575064
1779586832307263851,A_-,-0.44703248025052744,0.01244419756671957,1.4723772102749364,-2.912971974871056,-0.09019861574306695,-0.017627825445142728,0.0,0.0,0.0,0.0,0.0,0.0,0.0,-0.40635,-0.155925,0.316575,-0.047922,-0.08338428,0.0095844
1779586832307263851,A_-,-0.44978677600010997,0.01244419756671957,1.4723772102749364,-2.912971974871056,-0.09019861574306695,-0.017627825445142728,0.0,0.0,0.0,0.0,0.0,0.0,0.0,-0.40635,-0.155925,0.316575,-0.047922,-0.08338428,0.0095844
1779586832307263851,A_-,-0.452431660000002,0.01244419756671957,1.4723772102749364,-2.912971974871056,-0.09019861574306695,-0.017627825445142728,0.0,0.0,0.0,0.0,0.0,0.0,0.0,-0.40635,-0.155925,0.316575,-0.047922,-0.08338428,0.0095844
1779586832347187995,A_-,-0.4550955350005097,0.01244419756671957,1.4723772102749364,-2.912971974871056,-0.09019861574306695,-0.017627825445142728,0.0,0.0,0.0,0.0,0.0,0.0,0.0,-0.40635,-0.155925,0.316575,-0.05654796,-0.08146740000000001,-0.00287532
1779586832347187995,A_-,-0.457948315250178,0.01244419756671957,1.4723772102749364,-2.912971974871056,-0.09019861574306695,-0.017627825445142728,0.0,0.0,0.0,0.0,0.0,0.0,0.0,-0.40635,-0.155925,0.316575,-0.05654796,-0.08146740000000001,-0.00287532
1779586832347187995,A_-,-0.46059131899983186,0.01244419756671957,1.4723772102749364,-2.912971974871056,-0.09019861574306695,-0.017627825445142728,0.0,0.0,0.0,0.0,0.0,0.0,0.0,-0.40635,-0.155925,0.316575,-0.05654796,-0.08146740000000001,-0.00287532
1779586832387186050,A_-,-0.4632055402498736,0.01244419756671957,1.4723772102749364,-2.912971974871056,-0.09019861574306695,-0.017627825445142728,0.0,0.0,0.0,0.0,0.0,0.0,0.0,-0.42524999999999996,-0.19372499999999998,0.3024,-0.04696356,-0.09488556,0.0
1779586832387186050,A_-,-0.46597977925011946,0.01244419756671957,1.4723772102749364,-2.912971974871056,-0.09019861574306695,-0.017627825445142728,0.0,0.0,0.0,0.0,0.0,0.0,0.0,-0.42524999999999996,-0.19372499999999998,0.3024,-0.04696356,-0.09488556,0.0
1779586832387186050,A_-,-0.4686190072497993,0.01244419756671957,1.4723772102749364,-2.912971974871056,-0.09019861574306695,-0.017627825445142728,0.0,0.0,0.0,0.0,0.0,0.0,0.0,-0.42524999999999996,-0.19372499999999998,0.3024,-0.04696356,-0.09488556,0.0
1779586832417191267,A_-,-0.4712386682504075,0.01244419756671957,1.4723772102749364,-2.912971974871056,-0.09019861574306695,-0.017627825445142728,0.0,0.0,0.0,0.0,0.0,0.0,0.0,-0.38744999999999996,-0.118125,0.28822499999999995,-0.043129799999999996,-0.09009336,0.01054284
1779586832417191267,A_-,-0.47419439624991355,0.01244419756671957,1.4723772102749364,-2.912971974871056,-0.09019861574306695,-0.017627825445142728,0.0,0.0,0.0,0.0,0.0,0.0,0.0,-0.38744999999999996,-0.118125,0.28822499999999995,-0.043129799999999996,-0.09009336,0.01054284
1779586832417191267,A_-,-0.4769379565004783,0.01244419756671957,1.4723772102749364,-2.912971974871056,-0.09019861574306695,-0.017627825445142728,0.0,0.0,0.0,0.0,0.0,0.0,0.0,-0.38744999999999996,-0.118125,0.28822499999999995,-0.043129799999999996,-0.09009336,0.01054284
1779586832437204360,A_-,-0.4796161270005541,0.01244419756671957,1.4723772102749364,-2.912971974871056,-0.09019861574306695,-0.017627825445142728,0.0,0.0,0.0,0.0,0.0,0.0,0.0,-0.42997499999999994,-0.155925,0.3024,-0.04025448,-0.08434272,-0.00670908
1779586832437204360,A_-,-0.4823768864998783,0.01244419756671957,1.4723772102749364,-2.912971974871056,-0.09019861574306695,-0.017627825445142728,0.0,0.0,0.0,0.0,0.0,0.0,0.0,-0.42997499999999994,-0.155925,0.3024,-0.04025448,-0.08434272,-0.00670908
1779586832437204360,A_-,-0.4850140027501766,0.01244419756671957,1.4723772102749364,-2.912971974871056,-0.09019861574306695,-0.017627825445142728,0.0,0.0,0.0,0.0,0.0,0.0,0.0,-0.42997499999999994,-0.155925,0.3024,-0.04025448,-0.08434272,-0.00670908
1779586832477188110,A_-,-0.48763174375017115,0.01244419756671957,1.4723772102749364,-2.912971974871056,-0.09019861574306695,-0.017627825445142728,0.0,0.0,0.0,0.0,0.0,0.0,0.0,-0.41579999999999995,-0.17955,0.307125,-0.04504668,-0.08913491999999999,-0.00095844
1779586832477188110,A_-,-0.4904460852503689,0.01244419756671957,1.4723772102749364,-2.912971974871056,-0.09019861574306695,-0.017627825445142728,0.0,0.0,0.0,0.0,0.0,0.0,0.0,-0.41579999999999995,-0.17955,0.307125,-0.04504668,-0.08913491999999999,-0.00095844
1779586832477188110,A_-,-0.4930993767502514,0.01244419756671957,1.4723772102749364,-2.912971974871056,-0.09019861574306695,-0.017627825445142728,0.0,0.0,0.0,0.0,0.0,0.0,0.0,-0.41579999999999995,-0.17955,0.307125,-0.04504668,-0.08913491999999999,-0.00095844
1779586832502200126,A_-,-0.49572328550038947,0.01244419756671957,1.4723772102749364,-2.912971974871056,-0.09019861574306695,-0.017627825445142728,0.0,0.0,0.0,0.0,0.0,0.0,0.0,-0.37327499999999997,-0.16065,0.29295,-0.04983888,-0.07571676,-0.00575064
1779586832502200126,A_-,-0.49847230950035737,0.01244419756671957,1.4723772102749364,-2.912971974871056,-0.09019861574306695,-0.017627825445142728,0.0,0.0,0.0,0.0,0.0,0.0,0.0,-0.37327499999999997,-0.16065,0.29295,-0.04983888,-0.07571676,-0.00575064
1779586832502200126,A_-,-0.5011208572504984,0.01244419756671957,1.4723772102749364,-2.912971974871056,-0.09019861574306695,-0.017627825445142728,0.0,0.0,0.0,0.0,0.0,0.0,0.0,-0.37327499999999997,-0.16065,0.29295,-0.04983888,-0.07571676,-0.00575064
1779586832522198200,A_-,-0.5037151590004214,0.01244419756671957,1.4723772102749364,-2.912971974871056,-0.09019861574306695,-0.017627825445142728,0.0,0.0,0.0,0.0,0.0,0.0,0.0,-0.40635,-0.127575,0.3024,-0.04600512,-0.09009336,-0.00287532
1779586832522198200,A_-,-0.5064690787503423,0.01244419756671957,1.4723772102749364,-2.912971974871056,-0.09019861574306695,-0.017627825445142728,0.0,0.0,0.0,0.0,0.0,0.0,0.0,-0.40635,-0.127575,0.3024,-0.04600512,-0.09009336,-0.00287532
1779586832522198200,A_-,-0.5091043310003442,0.01244419756671957,1.4723772102749364,-2.912971974871056,-0.09019861574306695,-0.017627825445142728,0.0,0.0,0.0,0.0,0.0,0.0,0.0,-0.40635,-0.127575,0.3024,-0.04600512,-0.09009336,-0.00287532
1779586832537194013,A_-,-0.5117409832500925,0.01244419756671957,1.4723772102749364,-2.912971974871056,-0.09019861574306695,-0.017627825445142728,0.0,0.0,0.0,0.0,0.0,0.0,0.0,-0.4205249999999999,-0.21262499999999998,0.278775,-0.03162852,-0.08625959999999999,0.00383376
1779586832537194013,A_-,-0.5144766717503444,0.01244419756671957,1.4723772102749364,-2.912971974871056,-0.09019861574306695,-0.017627825445142728,0.0,0.0,0.0,0.0,0.0,0.0,0.0,-0.4205249999999999,-0.21262499999999998,0.278775,-0.03162852,-0.08625959999999999,0.00383376
1779586832537194013,A_-,-0.5171064682499491,0.01244419756671957,1.4723772102749364,-2.912971974871056,-0.09019861574306695,-0.017627825445142728,0.0,0.0,0.0,0.0,0.0,0.0,0.0,-0.4205249999999999,-0.21262499999999998,0.278775,-0.03162852,-0.08625959999999999,0.00383376
1779586832547189474,A_-,-0.5197268729998541,0.01244419756671957,1.4723772102749364,-2.912971974871056,-0.09019861574306695,-0.017627825445142728,0.0,0.0,0.0,0.0,0.0,0.0,0.0,-0.37327499999999997,-0.137025,0.31185,-0.04121292,-0.09296868,0.01150128
1779586832547189474,A_-,-0.5225646614999278,0.01244419756671957,1.4723772102749364,-2.912971974871056,-0.09019861574306695,-0.017627825445142728,0.0,0.0,0.0,0.0,0.0,0.0,0.0,-0.37327499999999997,-0.137025,0.31185,-0.04121292,-0.09296868,0.01150128
1779586832547189474,A_-,-0.525298006250523,0.01244419756671957,1.4723772102749364,-2.912971974871056,-0.09019861574306695,-0.017627825445142728,0.0,0.0,0.0,0.0,0.0,0.0,0.0,-0.37327499999999997,-0.137025,0.31185,-0.04121292,-0.09296868,0.01150128
1779586832568443298,A_-,-0.5280044957498831,0.01244419756671957,1.4723772102749364,-2.912971974871056,-0.09019861574306695,-0.017627825445142728,0.0,0.0,0.0,0.0,0.0,0.0,0.0,-0.44415,-0.16065,0.316575,-0.047922,-0.08913491999999999,0.00670908
1779586832568443298,A_-,-0.5309336247501051,0.01244419756671957,1.4723772102749364,-2.912971974871056,-0.09019861574306695,-0.017627825445142728,0.0,0.0,0.0,0.0,0.0,0.0,0.0,-0.44415,-0.16065,0.316575,-0.047922,-0.08913491999999999,0.00670908
1779586832568443298,A_-,-0.5336298507500032,0.01244419756671957,1.4723772102749364,-2.912971974871056,-0.09019861574306695,-0.017627825445142728,0.0,0.0,0.0,0.0,0.0,0.0,0.0,-0.44415,-0.16065,0.316575,-0.047922,-0.08913491999999999,0.00670908
1779586832602189302,A_-,-0.5362946459999876,0.01244419756671957,1.4723772102749364,-2.912971974871056,-0.09019861574306695,-0.017627825445142728,0.0,0.0,0.0,0.0,0.0,0.0,0.0,-0.392175,-0.16065,0.29295,-0.04600512,-0.13514004000000002,0.0047922
1779586832602189302,A_-,-0.5392208712501088,0.01244419756671957,1.4723772102749364,-2.912971974871056,-0.09019861574306695,-0.017627825445142728,0.0,0.0,0.0,0.0,0.0,0.0,0.0,-0.392175,-0.16065,0.29295,-0.04600512,-0.13514004000000002,0.0047922
1779586832602189302,A_-,-0.5419355445001202,0.01244419756671957,1.4723772102749364,-2.912971974871056,-0.09019861574306695,-0.017627825445142728,0.0,0.0,0.0,0.0,0.0,0.0,0.0,-0.392175,-0.16065,0.29295,-0.04600512,-0.13514004000000002,0.0047922
1779586832632197618,A_-,-0.5445825642500495,0.01244419756671957,1.4723772102749364,-2.912971974871056,-0.09019861574306695,-0.017627825445142728,0.0,0.0,0.0,0.0,0.0,0.0,0.0,-0.41579999999999995,-0.184275,0.31185,-0.04504668,-0.07955052,0.0047922
1779586832632197618,A_-,-0.5474141452505137,0.01244419756671957,1.4723772102749364,-2.912971974871056,-0.09019861574306695,-0.017627825445142728,0.0,0.0,0.0,0.0,0.0,0.0,0.0,-0.41579999999999995,-0.184275,0.31185,-0.04504668,-0.07955052,0.0047922
1779586832632197618,A_-,-0.550117098749979,0.01244419756671957,1.4723772102749364,-2.912971974871056,-0.09019861574306695,-0.017627825445142728,0.0,0.0,0.0,0.0,0.0,0.0,0.0,-0.41579999999999995,-0.184275,0.31185,-0.04504668,-0.07955052,0.0047922
1779586832652874946,A_-,-0.5527748302502005,0.01244419756671957,1.4723772102749364,-2.912971974871056,-0.09019861574306695,-0.017627825445142728,0.0,0.0,0.0,0.0,0.0,0.0,0.0,-0.41579999999999995,-0.165375,0.3024,-0.04504668,-0.08721804,0.00191688
1779586832652874946,A_-,-0.5556624810005815,0.01244419756671957,1.4723772102749364,-2.912971974871056,-0.09019861574306695,-0.017627825445142728,0.0,0.0,0.0,0.0,0.0,0.0,0.0,-0.41579999999999995,-0.165375,0.3024,-0.04504668,-0.08721804,0.00191688
1779586832652874946,A_-,-0.5583356277502389,0.01244419756671957,1.4723772102749364,-2.912971974871056,-0.09019861574306695,-0.017627825445142728,0.0,0.0,0.0,0.0,0.0,0.0,0.0,-0.41579999999999995,-0.165375,0.3024,-0.04504668,-0.08721804,0.00191688
1779586832667172431,A_-,-0.5609834155002318,0.01244419756671957,1.4723772102749364,-2.912971974871056,-0.09019861574306695,-0.017627825445142728,0.0,0.0,0.0,0.0,0.0,0.0,0.0,-0.401625,-0.146475,0.29295,-0.047922,-0.08817648,0.00862596
1779586832667172431,A_-,-0.5638015009999435,0.01244419756671957,1.4723772102749364,-2.912971974871056,-0.09019861574306695,-0.017627825445142728,0.0,0.0,0.0,0.0,0.0,0.0,0.0,-0.401625,-0.146475,0.29295,-0.047922,-0.08817648,0.00862596
1779586832667172431,A_-,-0.5664746477505105,0.01244419756671957,1.4723772102749364,-2.912971974871056,-0.09019861574306695,-0.017627825445142728,0.0,0.0,0.0,0.0,0.0,0.0,0.0,-0.401625,-0.146475,0.29295,-0.047922,-0.08817648,0.00862596
1779586832712184906,A_-,-0.5691165797497888,0.01244419756671957,1.4723772102749364,-2.912971974871056,-0.09019861574306695,-0.017627825445142728,0.0,0.0,0.0,0.0,0.0,0.0,0.0,-0.411075,-0.17482499999999998,0.3024,-0.04983888,-0.09009336,0.0
1779586832712184906,A_-,-0.5719870310003898,0.01244419756671957,1.4723772102749364,-2.912971974871056,-0.09019861574306695,-0.017627825445142728,0.0,0.0,0.0,0.0,0.0,0.0,0.0,-0.411075,-0.17482499999999998,0.3024,-0.04983888,-0.09009336,0.0
1779586832712184906,A_-,-0.5746731055005512,0.01244419756671957,1.4723772102749364,-2.912971974871056,-0.09019861574306695,-0.017627825445142728,0.0,0.0,0.0,0.0,0.0,0.0,0.0,-0.411075,-0.17482499999999998,0.3024,-0.04983888,-0.09009336,0.0
1779586832752762079,A_-,-0.577316613500443,0.01244419756671957,1.4723772102749364,-2.912971974871056,-0.09019861574306695,-0.017627825445142728,0.0,0.0,0.0,0.0,0.0,0.0,0.0,-0.401625,-0.184275,0.3213,-0.047922,-0.09201024,0.01629348
1779586832752762079,A_-,-0.5801702495000427,0.01244419756671957,1.4723772102749364,-2.912971974871056,-0.09019861574306695,-0.017627825445142728,0.0,0.0,0.0,0.0,0.0,0.0,0.0,-0.401625,-0.184275,0.3213,-0.047922,-0.09201024,0.01629348
1779586832752762079,A_-,-0.5828639235005539,0.01244419756671957,1.4723772102749364,-2.912971974871056,-0.09019861574306695,-0.017627825445142728,0.0,0.0,0.0,0.0,0.0,0.0,0.0,-0.401625,-0.184275,0.3213,-0.047922,-0.09201024,0.01629348
1779586832857173681,A_-,-0.5855210070003523,0.01244419756671957,1.4723772102749364,-2.912971974871056,-0.09019861574306695,-0.017627825445142728,0.0,0.0,0.0,0.0,0.0,0.0,0.0,-0.392175,-0.17482499999999998,0.3024,-0.052714199999999996,-0.09201024,0.00575064
1779586832857173681,A_-,-0.5883728110002266,0.01244419756671957,1.4723772102749364,-2.912971974871056,-0.09019861574306695,-0.017627825445142728,0.0,0.0,0.0,0.0,0.0,0.0,0.0,-0.392175,-0.17482499999999998,0.3024,-0.052714199999999996,-0.09201024,0.00575064
1779586832857173681,A_-,-0.5910734767503527,0.01244419756671957,1.4723772102749364,-2.912971974871056,-0.09019861574306695,-0.017627825445142728,0.0,0.0,0.0,0.0,0.0,0.0,0.0,-0.392175,-0.17482499999999998,0.3024,-0.052714199999999996,-0.09201024,0.00575064
1779586832907166957,A_-,-0.5937320322500454,0.01244419756671957,1.4723772102749364,-2.912971974871056,-0.09019861574306695,-0.017627825445142728,0.0,0.0,0.0,0.0,0.0,0.0,0.0,-0.411075,-0.165375,0.316575,-0.05654796,-0.08530115999999999,0.00191688
1779586832907166957,A_-,-0.5965815802501311,0.01244419756671957,1.4723772102749364,-2.912971974871056,-0.09019861574306695,-0.017627825445142728,0.0,0.0,0.0,0.0,0.0,0.0,0.0,-0.411075,-0.165375,0.316575,-0.05654796,-0.08530115999999999,0.00191688
1779586832907166957,A_-,-0.5992633507503342,0.01244419756671957,1.4723772102749364,-2.912971974871056,-0.09019861574306695,-0.017627825445142728,0.0,0.0,0.0,0.0,0.0,0.0,0.0,-0.411075,-0.165375,0.316575,-0.05654796,-0.08530115999999999,0.00191688
1779586832942174434,A_-,-0.6019353617502929,0.01244419756671957,1.4723772102749364,-2.912971974871056,-0.09019861574306695,-0.017627825445142728,0.0,0.0,0.0,0.0,0.0,0.0,0.0,-0.38744999999999996,-0.12285,0.316575,-0.048880440000000004,-0.09009336,0.00191688
1779586832942174434,A_-,-0.6048087890003444,0.01244419756671957,1.4723772102749364,-2.912971974871056,-0.09019861574306695,-0.017627825445142728,0.0,0.0,0.0,0.0,0.0,0.0,0.0,-0.38744999999999996,-0.12285,0.316575,-0.048880440000000004,-0.09009336,0.00191688
1779586832942174434,A_-,-0.6075182462500379,0.01244419756671957,1.4723772102749364,-2.912971974871056,-0.09019861574306695,-0.017627825445142728,0.0,0.0,0.0,0.0,0.0,0.0,0.0,-0.38744999999999996,-0.12285,0.316575,-0.048880440000000004,-0.09009336,0.00191688
1779586832972167491,A_-,-0.6101780817498366,0.01244419756671957,1.4723772102749364,-2.912971974871056,-0.09019861574306695,-0.017627825445142728,0.0,0.0,0.0,0.0,0.0,0.0,0.0,-0.3969,-0.16065,0.29767499999999997,-0.04504668,-0.08721804,0.0047922
1779586832972167491,A_-,-0.6130808757498016,0.01244419756671957,1.4723772102749364,-2.912971974871056,-0.09019861574306695,-0.017627825445142728,0.0,0.0,0.0,0.0,0.0,0.0,0.0,-0.3969,-0.16065,0.29767499999999997,-0.04504668,-0.08721804,0.0047922
1779586832972167491,A_-,-0.6158119484998679,0.01244419756671957,1.4723772102749364,-2.912971974871056,-0.09019861574306695,-0.017627825445142728,0.0,0.0,0.0,0.0,0.0,0.0,0.0,-0.3969,-0.16065,0.29767499999999997,-0.04504668,-0.08721804,0.0047922
1779586833007167816,A_-,-0.618534005499896,0.01244419756671957,1.4723772102749364,-2.912971974871056,-0.09019861574306695,-0.017627825445142728,0.0,0.0,0.0,0.0,0.0,0.0,0.0,-0.4205249999999999,-0.17482499999999998,0.3024,-0.04600512,-0.08242584,0.01341816
1779586833007167816,A_-,-0.6213959532497029,0.01244419756671957,1.4723772102749364,-2.912971974871056,-0.09019861574306695,-0.017627825445142728,0.0,0.0,0.0,0.0,0.0,0.0,0.0,-0.4205249999999999,-0.17482499999999998,0.3024,-0.04600512,-0.08242584,0.01341816
1779586833007167816,A_-,-0.6240928112501933,0.01244419756671957,1.4723772102749364,-2.912971974871056,-0.09019861574306695,-0.017627825445142728,0.0,0.0,0.0,0.0,0.0,0.0,0.0,-0.4205249999999999,-0.17482499999999998,0.3024,-0.04600512,-0.08242584,0.01341816
1779586833032713413,A_-,-0.6267462947498643,0.01244419756671957,1.4723772102749364,-2.912971974871056,-0.09019861574306695,-0.017627825445142728,0.0,0.0,0.0,0.0,0.0,0.0,0.0,-0.4205249999999999,-0.155925,0.3024,-0.047922,-0.08913491999999999,0.00383376
1779586833032713413,A_-,-0.6296272017498268,0.01244419756671957,1.4723772102749364,-2.912971974871056,-0.09019861574306695,-0.017627825445142728,0.0,0.0,0.0,0.0,0.0,0.0,0.0,-0.4205249999999999,-0.155925,0.3024,-0.047922,-0.08913491999999999,0.00383376
1779586833032713413,A_-,-0.6323609065002529,0.01244419756671957,1.4723772102749364,-2.912971974871056,-0.09019861574306695,-0.017627825445142728,0.0,0.0,0.0,0.0,0.0,0.0,0.0,-0.4205249999999999,-0.155925,0.3024,-0.047922,-0.08913491999999999,0.00383376
1779586833047232389,A_-,-0.6350328052503755,0.01244419756671957,1.4723772102749364,-2.912971974871056,-0.09019861574306695,-0.017627825445142728,0.0,0.0,0.0,0.0,0.0,0.0,0.0,-0.35437499999999994,-0.184275,0.29767499999999997,-0.04696356,-0.09296868,0.01150128
1779586833047232389,A_-,-0.6379132644997298,0.01244419756671957,1.4723772102749364,-2.912971974871056,-0.09019861574306695,-0.017627825445142728,0.0,0.0,0.0,0.0,0.0,0.0,0.0,-0.35437499999999994,-0.184275,0.29767499999999997,-0.04696356,-0.09296868,0.01150128
1779586833047232389,A_-,-0.6406517287505267,0.01244419756671957,1.4723772102749364,-2.912971974871056,-0.09019861574306695,-0.017627825445142728,0.0,0.0,0.0,0.0,0.0,0.0,0.0,-0.35437499999999994,-0.184275,0.29767499999999997,-0.04696356,-0.09296868,0.01150128
1779586833067163467,A_-,-0.6432931647505029,0.01244419756671957,1.4723772102749364,-2.912971974871056,-0.09019861574306695,-0.017627825445142728,0.0,0.0,0.0,0.0,0.0,0.0,0.0,-0.38744999999999996,-0.1701,0.316575,-0.04696356,-0.08530115999999999,0.00287532
1779586833067163467,A_-,-0.6461365532504715,0.01244419756671957,1.4723772102749364,-2.912971974871056,-0.09019861574306695,-0.017627825445142728,0.0,0.0,0.0,0.0,0.0,0.0,0.0,-0.38744999999999996,-0.1701,0.316575,-0.04696356,-0.08530115999999999,0.00287532
1779586833067163467,A_-,-0.648820915750548,0.01244419756671957,1.4723772102749364,-2.912971974871056,-0.09019861574306695,-0.017627825445142728,0.0,0.0,0.0,0.0,0.0,0.0,0.0,-0.38744999999999996,-0.1701,0.316575,-0.04696356,-0.08530115999999999,0.00287532
1779586833083306789,A_-,-0.6514789272505368,0.01244419756671957,1.4723772102749364,-2.912971974871056,-0.09019861574306695,-0.017627825445142728,0.0,-0.028,0.0,0.0,0.0,0.0,0.0,-0.8410499999999999,-0.19845,0.29295,-0.03642072,-0.09296868,0.0
1779586833083306789,A_-,-0.6543446107498312,0.01244419756671957,1.4723772102749364,-2.912971974871056,-0.09019861574306695,-0.017627825445142728,0.0,-0.028,0.0,0.0,0.0,0.0,0.0,-0.8410499999999999,-0.19845,0.29295,-0.03642072,-0.09296868,0.0
1779586833083306789,A_-,-0.6570460205002746,0.01244419756671957,1.4723772102749364,-2.912971974871056,-0.09019861574306695,-0.017627825445142728,0.0,-0.028,0.0,0.0,0.0,0.0,0.0,-0.8410499999999999,-0.19845,0.29295,-0.03642072,-0.09296868,0.0
1779586833102169513,A_-,-0.6596993522498451,0.01244419756671957,1.4723772102749364,-2.912971974871056,-0.09019861574306695,-0.017627825445142728,0.0,0.0,0.0,0.0,0.0,0.0,0.0,-0.911925,-0.17482499999999998,0.307125,-0.047922,-0.09296868,0.00383376
1779586833102169513,A_-,-0.6625373249999029,0.01244419756671957,1.4723772102749364,-2.912971974871056,-0.09019861574306695,-0.017627825445142728,0.0,0.0,0.0,0.0,0.0,0.0,0.0,-0.911925,-0.17482499999999998,0.307125,-0.047922,-0.09296868,0.00383376
1779586833102169513,A_-,-0.6652141037502588,0.01244419756671957,1.4723772102749364,-2.912971974871056,-0.09019861574306695,-0.017627825445142728,0.0,0.0,0.0,0.0,0.0,0.0,0.0,-0.911925,-0.17482499999999998,0.307125,-0.047922,-0.09296868,0.00383376
1779586833152210712,A_-,-0.6678751310000735,0.01244419756671957,1.4723772102749364,-2.912971974871056,-0.09019861574306695,-0.017627825445142728,0.0,0.0,0.0,0.0,0.0,0.0,0.0,-0.930825,-0.146475,0.316575,-0.047922,-0.09009336,0.01245972
1779586833152210712,A_-,-0.6707296710001174,0.01244419756671957,1.4723772102749364,-2.912971974871056,-0.09019861574306695,-0.017627825445142728,0.0,0.0,0.0,0.0,0.0,0.0,0.0,-0.930825,-0.146475,0.316575,-0.047922,-0.09009336,0.01245972
1779586833152210712,A_-,-0.6734288567504336,0.01244419756671957,1.4723772102749364,-2.912971974871056,-0.09019861574306695,-0.017627825445142728,0.0,0.0,0.0,0.0,0.0,0.0,0.0,-0.930825,-0.146475,0.316575,-0.047922,-0.09009336,0.01245972
1779586833177161931,A_-,-0.676087132250359,0.01244419756671957,1.4723772102749364,-2.912971974871056,-0.09019861574306695,-0.017627825445142728,0.0,0.0,0.0,0.0,0.0,0.0,0.0,-0.911925,-0.17955,0.326025,-0.04983888,-0.09296868,0.00862596
1779586833177161931,A_-,-0.6789577757499501,0.01244419756671957,1.4723772102749364,-2.912971974871056,-0.09019861574306695,-0.017627825445142728,0.0,0.0,0.0,0.0,0.0,0.0,0.0,-0.911925,-0.17955,0.326025,-0.04983888,-0.09296868,0.00862596
1779586833177161931,A_-,-0.6816490179999164,0.01244419756671957,1.4723772102749364,-2.912971974871056,-0.09019861574306695,-0.017627825445142728,0.0,0.0,0.0,0.0,0.0,0.0,0.0,-0.911925,-0.17955,0.326025,-0.04983888,-0.09296868,0.00862596
1779586833207151889,A_-,-0.6843157969997264,0.01244419756671957,1.4723772102749364,-2.912971974871056,-0.09019861574306695,-0.017627825445142728,0.0,0.0,0.0,0.0,0.0,0.0,0.0,-0.940275,-0.16065,0.3402,-0.05367264,-0.09488556,0.014376599999999998
1779586833207151889,A_-,-0.6872145752504366,0.01244419756671957,1.4723772102749364,-2.912971974871056,-0.09019861574306695,-0.017627825445142728,0.0,0.0,0.0,0.0,0.0,0.0,0.0,-0.940275,-0.16065,0.3402,-0.05367264,-0.09488556,0.014376599999999998
1779586833207151889,A_-,-0.6899179609999919,0.01244419756671957,1.4723772102749364,-2.912971974871056,-0.09019861574306695,-0.017627825445142728,0.0,0.0,0.0,0.0,0.0,0.0,0.0,-0.940275,-0.16065,0.3402,-0.05367264,-0.09488556,0.014376599999999998
1779586833222168445,A_-,-0.692566620999969,0.01244419756671957,1.4723772102749364,-2.912971974871056,-0.09019861574306695,-0.017627825445142728,0.0,0.0,0.0,0.0,0.0,0.0,0.0,-0.8694,-0.1701,0.307125,-0.04504668,-0.08721804,0.00862596
1779586833222168445,A_-,-0.6954368642500413,0.01244419756671957,1.4723772102749364,-2.912971974871056,-0.09019861574306695,-0.017627825445142728,0.0,0.0,0.0,0.0,0.0,0.0,0.0,-0.8694,-0.1701,0.307125,-0.04504668,-0.08721804,0.00862596
1779586833222168445,A_-,-0.6981249307500548,0.01244419756671957,1.4723772102749364,-2.912971974871056,-0.09019861574306695,-0.017627825445142728,0.0,0.0,0.0,0.0,0.0,0.0,0.0,-0.8694,-0.1701,0.307125,-0.04504668,-0.08721804,0.00862596
1779586833242154121,A_-,-0.7007727105001322,0.01244419756671957,1.4723772102749364,-2.912971974871056,-0.09019861574306695,-0.017627825445142728,0.0,0.0,0.0,0.0,0.0,0.0,0.0,-0.9260999999999999,-0.17482499999999998,0.33075,-0.052714199999999996,-0.08530115999999999,-0.00575064
1779586833242154121,A_-,-0.7036270184999012,0.01244419756671957,1.4723772102749364,-2.912971974871056,-0.09019861574306695,-0.017627825445142728,0.0,0.0,0.0,0.0,0.0,0.0,0.0,-0.9260999999999999,-0.17482499999999998,0.33075,-0.052714199999999996,-0.08530115999999999,-0.00575064
1779586833242154121,A_-,-0.7063452917500399,0.01244419756671957,1.4723772102749364,-2.912971974871056,-0.09019861574306695,-0.017627825445142728,0.0,0.0,0.0,0.0,0.0,0.0,0.0,-0.9260999999999999,-0.17482499999999998,0.33075,-0.052714199999999996,-0.08530115999999999,-0.00575064
1779586833262168884,A_-,-0.7090054790005524,0.01244419756671957,1.4723772102749364,-2.912971974871056,-0.09019861574306695,-0.017627825445142728,0.0,0.0,0.0,0.0,0.0,0.0,0.0,-0.91665,-0.165375,0.31185,-0.04696356,-0.08338428,0.00766752
1779586833262168884,A_-,-0.711899521500527,0.01244419756671957,1.4723772102749364,-2.912971974871056,-0.09019861574306695,-0.017627825445142728,0.0,0.0,0.0,0.0,0.0,0.0,0.0,-0.91665,-0.165375,0.31185,-0.04696356,-0.08338428,0.00766752
1779586833262168884,A_-,-0.7145709884998723,0.01244419756671957,1.4723772102749364,-2.912971974871056,-0.09019861574306695,-0.017627825445142728,0.0,0.0,0.0,0.0,0.0,0.0,0.0,-0.91665,-0.165375,0.31185,-0.04696356,-0.08338428,0.00766752
1779586833307164430,A_-,-0.7172228722502041,0.01244419756671957,1.4723772102749364,-2.912971974871056,-0.09019861574306695,-0.017627825445142728,0.0,0.0,0.0,0.0,0.0,0.0,0.0,-0.9071999999999999,-0.19372499999999998,0.3213,-0.047922,-0.0910518,0.0047922
1779586833307164430,A_-,-0.720099539250441,0.01244419756671957,1.4723772102749364,-2.912971974871056,-0.09019861574306695,-0.017627825445142728,0.0,0.0,0.0,0.0,0.0,0.0,0.0,-0.9071999999999999,-0.19372499999999998,0.3213,-0.047922,-0.0910518,0.0047922
1779586833307164430,A_-,-0.7228299719999995,0.01244419756671957,1.4723772102749364,-2.912971974871056,-0.09019861574306695,-0.017627825445142728,0.0,0.0,0.0,0.0,0.0,0.0,0.0,-0.9071999999999999,-0.19372499999999998,0.3213,-0.047922,-0.0910518,0.0047922
1779586833372188568,A_-,-0.7254866715002208,0.01244419756671957,1.4723772102749364,-2.912971974871056,-0.09019861574306695,-0.017627825445142728,0.0,0.0,0.0,0.0,0.0,0.0,0.0,-0.8788499999999999,-0.17482499999999998,0.31185,-0.048880440000000004,-0.09201024,0.00766752
1779586833372188568,A_-,-0.7283277960004853,0.01244419756671957,1.4723772102749364,-2.912971974871056,-0.09019861574306695,-0.017627825445142728,0.0,0.0,0.0,0.0,0.0,0.0,0.0,-0.8788499999999999,-0.17482499999999998,0.31185,-0.048880440000000004,-0.09201024,0.00766752
1779586833372188568,A_-,-0.7309815197504577,0.01244419756671957,1.4723772102749364,-2.912971974871056,-0.09019861574306695,-0.017627825445142728,0.0,0.0,0.0,0.0,0.0,0.0,0.0,-0.8788499999999999,-0.17482499999999998,0.31185,-0.048880440000000004,-0.09201024,0.00766752
1779586833397920608,A_-,-0.7336221157502223,0.01244419756671957,1.4723772102749364,-2.912971974871056,-0.09019861574306695,-0.017627825445142728,0.0,0.0,0.0,0.0,0.0,0.0,0.0,-0.9213749999999999,-0.17482499999999998,0.307125,-0.05463108,-0.09201024,0.01150128
1779586833397920608,A_-,-0.7364532007504749,0.01244419756671957,1.4723772102749364,-2.912971974871056,-0.09019861574306695,-0.017627825445142728,0.0,0.0,0.0,0.0,0.0,0.0,0.0,-0.9213749999999999,-0.17482499999999998,0.307125,-0.05463108,-0.09201024,0.01150128
1779586833397920608,A_-,-0.7391436190000604,0.01244419756671957,1.4723772102749364,-2.912971974871056,-0.09019861574306695,-0.017627825445142728,0.0,0.0,0.0,0.0,0.0,0.0,0.0,-0.9213749999999999,-0.17482499999999998,0.307125,-0.05463108,-0.09201024,0.01150128
1779586833432136774,A_-,-0.7417983985005776,0.01244419756671957,1.4723772102749364,-2.912971974871056,-0.09019861574306695,-0.017627825445142728,0.0,0.0,0.0,0.0,0.0,0.0,0.0,-0.893025,-0.155925,0.3024,-0.04696356,-0.08913491999999999,0.0095844
1779586833432136774,A_-,-0.7446513784998388,0.01244419756671957,1.4723772102749364,-2.912971974871056,-0.09019861574306695,-0.017627825445142728,0.0,0.0,0.0,0.0,0.0,0.0,0.0,-0.893025,-0.155925,0.3024,-0.04696356,-0.08913491999999999,0.0095844
1779586833432136774,A_-,-0.7473772755001846,0.01244419756671957,1.4723772102749364,-2.912971974871056,-0.09019861574306695,-0.017627825445142728,0.0,0.0,0.0,0.0,0.0,0.0,0.0,-0.893025,-0.155925,0.3024,-0.04696356,-0.08913491999999999,0.0095844
1779586833452866554,A_-,-0.7500243352496909,0.01244419756671957,1.4723772102749364,-2.912971974871056,-0.09019861574306695,-0.017627825445142728,0.0,0.0,0.0,0.0,0.0,0.0,0.0,-0.9071999999999999,-0.16065,0.31185,-0.052714199999999996,-0.08817648,0.0095844
1779586833452866554,A_-,-0.7528795472499041,0.01244419756671957,1.4723772102749364,-2.912971974871056,-0.09019861574306695,-0.017627825445142728,0.0,0.0,0.0,0.0,0.0,0.0,0.0,-0.9071999999999999,-0.16065,0.31185,-0.052714199999999996,-0.08817648,0.0095844
1779586833452866554,A_-,-0.7555729655005052,0.01244419756671957,1.4723772102749364,-2.912971974871056,-0.09019861574306695,-0.017627825445142728,0.0,0.0,0.0,0.0,0.0,0.0,0.0,-0.9071999999999999,-0.16065,0.31185,-0.052714199999999996,-0.08817648,0.0095844
1779586833472144126,A_-,-0.7582161615000587,0.01244419756671957,1.4723772102749364,-2.912971974871056,-0.09019861574306695,-0.017627825445142728,0.0,0.0,0.0,0.0,0.0,0.0,0.0,-0.91665,-0.1512,0.29767499999999997,-0.03642072,-0.09296868,-0.00287532
1779586833472144126,A_-,-0.761091644750195,0.01244419756671957,1.4723772102749364,-2.912971974871056,-0.09019861574306695,-0.017627825445142728,0.0,0.0,0.0,0.0,0.0,0.0,0.0,-0.91665,-0.1512,0.29767499999999997,-0.03642072,-0.09296868,-0.00287532
1779586833472144126,A_-,-0.7637752472501234,0.01244419756671957,1.4723772102749364,-2.912971974871056,-0.09019861574306695,-0.017627825445142728,0.0,0.0,0.0,0.0,0.0,0.0,0.0,-0.91665,-0.1512,0.29767499999999997,-0.03642072,-0.09296868,-0.00287532
1779586833497141361,A_-,-0.7664273787504499,0.01244419756671957,1.4723772102749364,-2.912971974871056,-0.09019861574306695,-0.017627825445142728,0.0,0.0,0.0,0.0,0.0,0.0,0.0,-0.9071999999999999,-0.17482499999999998,0.307125,-0.047922,-0.08530115999999999,0.00575064
1779586833497141361,A_-,-0.7692872307497964,0.01244419756671957,1.4723772102749364,-2.912971974871056,-0.09019861574306695,-0.017627825445142728,0.0,0.0,0.0,0.0,0.0,0.0,0.0,-0.9071999999999999,-0.17482499999999998,0.307125,-0.047922,-0.08530115999999999,0.00575064
1779586833497141361,A_-,-0.7719969682502779,0.01244419756671957,1.4723772102749364,-2.912971974871056,-0.09019861574306695,-0.017627825445142728,0.0,0.0,0.0,0.0,0.0,0.0,0.0,-0.9071999999999999,-0.17482499999999998,0.307125,-0.047922,-0.08530115999999999,0.00575064
1779586833537168502,A_-,-0.7746816505004972,0.01244419756671957,1.4723772102749364,-2.912971974871056,-0.09019861574306695,-0.017627825445142728,0.0,0.0,0.0,0.0,0.0,0.0,0.0,-0.8977499999999999,-0.165375,0.31185,-0.04600512,-0.08530115999999999,0.00766752
1779586833537168502,A_-,-0.7775942445005057,0.01244419756671957,1.4723772102749364,-2.912971974871056,-0.09019861574306695,-0.017627825445142728,0.0,0.0,0.0,0.0,0.0,0.0,0.0,-0.8977499999999999,-0.165375,0.31185,-0.04600512,-0.08530115999999999,0.00766752
1779586833537168502,A_-,-0.7802650072499091,0.01244419756671957,1.4723772102749364,-2.912971974871056,-0.09019861574306695,-0.017627825445142728,0.0,0.0,0.0,0.0,0.0,0.0,0.0,-0.8977499999999999,-0.165375,0.31185,-0.04600512,-0.08530115999999999,0.00766752
1779586833667172193,A_-,-0.7829285545003586,0.01244419756671957,1.4723772102749364,-2.912971974871056,-0.09019861574306695,-0.017627825445142728,0.0,0.0,0.0,0.0,0.0,0.0,0.0,-0.91665,-0.184275,0.29295,-0.05079731999999999,-0.09296868,0.01054284
1779586833667172193,A_-,-0.785773495000285,0.01244419756671957,1.4723772102749364,-2.912971974871056,-0.09019861574306695,-0.017627825445142728,0.0,0.0,0.0,0.0,0.0,0.0,0.0,-0.91665,-0.184275,0.29295,-0.05079731999999999,-0.09296868,0.01054284
1779586833667172193,A_-,-0.788460753250547,0.01244419756671957,1.4723772102749364,-2.912971974871056,-0.09019861574306695,-0.017627825445142728,0.0,0.0,0.0,0.0,0.0,0.0,0.0,-0.91665,-0.184275,0.29295,-0.05079731999999999,-0.09296868,0.01054284
1779586833697401046,A_-,-0.791192114000296,0.01244419756671957,1.4723772102749364,-2.912971974871056,-0.09019861574306695,-0.017627825445142728,0.0,0.0,0.0,0.0,0.0,0.0,0.0,-0.8883,-0.165375,0.3024,-0.05367264,-0.08913491999999999,0.0047922
1779586833697401046,A_-,-0.7940812847500638,0.01244419756671957,1.4723772102749364,-2.912971974871056,-0.09019861574306695,-0.017627825445142728,0.0,0.0,0.0,0.0,0.0,0.0,0.0,-0.8883,-0.165375,0.3024,-0.05367264,-0.08913491999999999,0.0047922
1779586833697401046,A_-,-0.7967941819997577,0.01244419756671957,1.4723772102749364,-2.912971974871056,-0.09019861574306695,-0.017627825445142728,0.0,0.0,0.0,0.0,0.0,0.0,0.0,-0.8883,-0.165375,0.3024,-0.05367264,-0.08913491999999999,0.0047922
1779586833722165584,A_-,-0.7994456737496876,0.01244419756671957,1.4723772102749364,-2.912971974871056,-0.09019861574306695,-0.017627825445142728,0.0,0.0,0.0,0.0,0.0,0.0,0.0,-0.911925,-0.14175,0.326025,-0.047922,-0.09201024,-0.00191688
1779586833722165584,A_-,-0.8023534117501185,0.01244419756671957,1.4723772102749364,-2.912971974871056,-0.09019861574306695,-0.017627825445142728,0.0,0.0,0.0,0.0,0.0,0.0,0.0,-0.911925,-0.14175,0.326025,-0.047922,-0.09201024,-0.00191688
1779586833722165584,A_-,-0.805038206250174,0.01244419756671957,1.4723772102749364,-2.912971974871056,-0.09019861574306695,-0.017627825445142728,0.0,0.0,0.0,0.0,0.0,0.0,0.0,-0.911925,-0.14175,0.326025,-0.047922,-0.09201024,-0.00191688
1779586833747153282,A_-,-0.8077057692498784,0.01244419756671957,1.4723772102749364,-2.912971974871056,-0.09019861574306695,-0.017627825445142728,0.0,0.0,0.0,0.0,0.0,0.0,0.0,-0.8977499999999999,-0.17482499999999998,0.29767499999999997,-0.04696356,-0.1006362,0.01054284
1779586833747153282,A_-,-0.8107538459998977,0.01244419756671957,1.4723772102749364,-2.912971974871056,-0.09019861574306695,-0.017627825445142728,0.0,0.0,0.0,0.0,0.0,0.0,0.0,-0.8977499999999999,-0.17482499999999998,0.29767499999999997,-0.04696356,-0.1006362,0.01054284
1779586833747153282,A_-,-0.8134212650002155,0.01244419756671957,1.4723772102749364,-2.912971974871056,-0.09019861574306695,-0.017627825445142728,0.0,0.0,0.0,0.0,0.0,0.0,0.0,-0.8977499999999999,-0.17482499999999998,0.29767499999999997,-0.04696356,-0.1006362,0.01054284
1779586833792161464,A_-,-0.8161087395001232,0.01244419756671957,1.4723772102749364,-2.912971974871056,-0.09019861574306695,-0.017627825445142728,0.0,0.0,0.0,0.0,0.0,0.0,0.0,-0.893025,-0.17955,0.29767499999999997,-0.047922,-0.09009336,0.00095844
1779586833792161464,A_-,-0.8190036860005421,0.01244419756671957,1.4723772102749364,-2.912971974871056,-0.09019861574306695,-0.017627825445142728,0.0,0.0,0.0,0.0,0.0,0.0,0.0,-0.893025,-0.17955,0.29767499999999997,-0.047922,-0.09009336,0.00095844
1779586833792161464,A_-,-0.8217261669997242,0.01244419756671957,1.4723772102749364,-2.912971974871056,-0.09019861574306695,-0.017627825445142728,0.0,0.0,0.0,0.0,0.0,0.0,0.0,-0.893025,-0.17955,0.29767499999999997,-0.047922,-0.09009336,0.00095844
1779586833832137823,A_-,-0.8244700472505428,0.01244419756671957,1.4723772102749364,-2.912971974871056,-0.09019861574306695,-0.017627825445142728,0.0,0.0,0.0,0.0,0.0,0.0,0.0,-0.9071999999999999,-0.165375,0.31185,-0.048880440000000004,-0.09680244,0.0
1779586833832137823,A_-,-0.8274513182504961,0.01244419756671957,1.4723772102749364,-2.912971974871056,-0.09019861574306695,-0.017627825445142728,0.0,0.0,0.0,0.0,0.0,0.0,0.0,-0.9071999999999999,-0.165375,0.31185,-0.048880440000000004,-0.09680244,0.0
1779586833832137823,A_-,-0.8303606162498909,0.01244419756671957,1.4723772102749364,-2.912971974871056,-0.09019861574306695,-0.017627825445142728,0.0,0.0,0.0,0.0,0.0,0.0,0.0,-0.9071999999999999,-0.165375,0.31185,-0.048880440000000004,-0.09680244,0.0
1779586833867138385,A_-,-0.8330723937497169,0.01244419756671957,1.4723772102749364,-2.912971974871056,-0.09019861574306695,-0.017627825445142728,0.0,0.0,0.0,0.0,0.0,0.0,0.0,-0.8883,-0.155925,0.316575,-0.052714199999999996,-0.09201024,0.00670908
1779586833867138385,A_-,-0.8361147347504811,0.01244419756671957,1.4723772102749364,-2.912971974871056,-0.09019861574306695,-0.017627825445142728,0.0,0.0,0.0,0.0,0.0,0.0,0.0,-0.8883,-0.155925,0.316575,-0.052714199999999996,-0.09201024,0.00670908
1779586833867138385,A_-,-0.8388308240000697,0.01244419756671957,1.4723772102749364,-2.912971974871056,-0.09019861574306695,-0.017627825445142728,0.0,0.0,0.0,0.0,0.0,0.0,0.0,-0.8883,-0.155925,0.316575,-0.052714199999999996,-0.09201024,0.00670908
1779586833887130737,A_-,-0.8415069067505101,0.01244419756671957,1.4723772102749364,-2.912971974871056,-0.09019861574306695,-0.017627825445142728,0.0,0.0,0.0,0.0,0.0,0.0,0.0,-0.9071999999999999,-0.1512,0.33075,-0.04696356,-0.09871932,0.00575064
1779586833887130737,A_-,-0.8444838020004681,0.01244419756671957,1.4723772102749364,-2.912971974871056,-0.09019861574306695,-0.017627825445142728,0.0,0.0,0.0,0.0,0.0,0.0,0.0,-0.9071999999999999,-0.1512,0.33075,-0.04696356,-0.09871932,0.00575064
1779586833887130737,A_-,-0.8471601807505067,0.01244419756671957,1.4723772102749364,-2.912971974871056,-0.09019861574306695,-0.017627825445142728,0.0,0.0,0.0,0.0,0.0,0.0,0.0,-0.9071999999999999,-0.1512,0.33075,-0.04696356,-0.09871932,0.00575064
1779586833917217016,A_-,-0.8498522230001981,0.01244419756671957,1.4723772102749364,-2.912971974871056,-0.09019861574306695,-0.017627825445142728,0.0,0.0,0.0,0.0,0.0,0.0,0.0,-0.911925,-0.146475,0.3024,-0.04504668,-0.09201024,0.00575064
1779586833917217016,A_-,-0.8527723924999009,0.01244419756671957,1.4723772102749364,-2.912971974871056,-0.09019861574306695,-0.017627825445142728,0.0,0.0,0.0,0.0,0.0,0.0,0.0,-0.911925,-0.146475,0.3024,-0.04504668,-0.09201024,0.00575064
1779586833917217016,A_-,-0.8554842900002768,0.01244419756671957,1.4723772102749364,-2.912971974871056,-0.09019861574306695,-0.017627825445142728,0.0,0.0,0.0,0.0,0.0,0.0,0.0,-0.911925,-0.146475,0.3024,-0.04504668,-0.09201024,0.00575064
1779586833957115888,A_-,-0.858166172500205,0.01244419756671957,1.4723772102749364,-2.912971974871056,-0.09019861574306695,-0.017627825445142728,0.0,0.0,0.0,0.0,0.0,0.0,0.0,-0.9024749999999999,-0.17482499999999998,0.326025,-0.05750639999999999,-0.09680244,0.00383376
1779586833957115888,A_-,-0.8611191567497372,0.01244419756671957,1.4723772102749364,-2.912971974871056,-0.09019861574306695,-0.017627825445142728,0.0,0.0,0.0,0.0,0.0,0.0,0.0,-0.9024749999999999,-0.17482499999999998,0.326025,-0.05750639999999999,-0.09680244,0.00383376
1779586833957115888,A_-,-0.8639090192500589,0.01244419756671957,1.4723772102749364,-2.912971974871056,-0.09019861574306695,-0.017627825445142728,0.0,0.0,0.0,0.0,0.0,0.0,0.0,-0.9024749999999999,-0.17482499999999998,0.326025,-0.05750639999999999,-0.09680244,0.00383376
1779586833998423099,A_-,-0.8665926297499027,0.01244419756671957,1.4723772102749364,-2.912971974871056,-0.09019861574306695,-0.017627825445142728,0.0,0.0,0.0,0.0,0.0,0.0,0.0,-0.911925,-0.1512,0.29295,-0.04025448,-0.08242584,0.0
1779586833998423099,A_-,-0.8695164072505577,0.01244419756671957,1.4723772102749364,-2.912971974871056,-0.09019861574306695,-0.017627825445142728,0.0,0.0,0.0,0.0,0.0,0.0,0.0,-0.911925,-0.1512,0.29295,-0.04025448,-0.08242584,0.0
1779586833998423099,A_-,-0.872238144250332,0.01244419756671957,1.4723772102749364,-2.912971974871056,-0.09019861574306695,-0.017627825445142728,0.0,0.0,0.0,0.0,0.0,0.0,0.0,-0.911925,-0.1512,0.29295,-0.04025448,-0.08242584,0.0
1779586834032136201,A_-,-0.8749210907499219,0.01244419756671957,1.4723772102749364,-2.912971974871056,-0.09019861574306695,-0.017627825445142728,0.0,0.0,0.0,0.0,0.0,0.0,0.0,-0.9260999999999999,-0.17482499999999998,0.307125,-0.04217136,-0.09009336,0.01341816
1779586834032136201,A_-,-0.8777689750004356,0.01244419756671957,1.4723772102749364,-2.912971974871056,-0.09019861574306695,-0.017627825445142728,0.0,0.0,0.0,0.0,0.0,0.0,0.0,-0.9260999999999999,-0.17482499999999998,0.307125,-0.04217136,-0.09009336,0.01341816
1779586834032136201,A_-,-0.8805213109999386,0.01244419756671957,1.4723772102749364,-2.912971974871056,-0.09019861574306695,-0.017627825445142728,0.0,0.0,0.0,0.0,0.0,0.0,0.0,-0.9260999999999999,-0.17482499999999998,0.307125,-0.04217136,-0.09009336,0.01341816
1779586834052656173,A_-,-0.8831455637500767,0.01244419756671957,1.4723772102749364,-2.912971974871056,-0.09019861574306695,-0.017627825445142728,0.0,0.0,0.0,0.0,0.0,0.0,0.0,-0.8977499999999999,-0.155925,0.307125,-0.05175576,-0.09488556,0.0095844
1779586834052656173,A_-,-0.8859032195005057,0.01244419756671957,1.4723772102749364,-2.912971974871056,-0.09019861574306695,-0.017627825445142728,0.0,0.0,0.0,0.0,0.0,0.0,0.0,-0.8977499999999999,-0.155925,0.307125,-0.05175576,-0.09488556,0.0095844
1779586834052656173,A_-,-0.8885506155002076,0.01244419756671957,1.4723772102749364,-2.912971974871056,-0.09019861574306695,-0.017627825445142728,0.0,0.0,0.0,0.0,0.0,0.0,0.0,-0.8977499999999999,-0.155925,0.307125,-0.05175576,-0.09488556,0.0095844
1779586834092127799,A_-,-0.8911712682502184,0.01244419756671957,1.4723772102749364,-2.912971974871056,-0.09019861574306695,-0.017627825445142728,0.0,0.0,0.0,0.0,0.0,0.0,0.0,-0.8835749999999999,-0.21262499999999998,0.3213,-0.04696356,-0.09296868,0.00862596
1779586834092127799,A_-,-0.8939361157499661,0.01244419756671957,1.4723772102749364,-2.912971974871056,-0.09019861574306695,-0.017627825445142728,0.0,0.0,0.0,0.0,0.0,0.0,0.0,-0.8835749999999999,-0.21262499999999998,0.3213,-0.04696356,-0.09296868,0.00862596
1779586834092127799,A_-,-0.8965724480003701,0.01244419756671957,1.4723772102749364,-2.912971974871056,-0.09019861574306695,-0.017627825445142728,0.0,0.0,0.0,0.0,0.0,0.0,0.0,-0.8835749999999999,-0.21262499999999998,0.3213,-0.04696356,-0.09296868,0.00862596
1779586834127829313,A_-,-0.8992779857499045,0.01244419756671957,1.4723772102749364,-2.912971974871056,-0.09019861574306695,-0.017627825445142728,0.0,0.0,0.0,0.0,0.0,0.0,0.0,-0.8977499999999999,-0.1512,0.28822499999999995,-0.03450384,-0.08913491999999999,0.00670908
1779586834127829313,A_-,-0.9020353055002488,0.01244419756671957,1.4723772102749364,-2.912971974871056,-0.09019861574306695,-0.017627825445142728,0.0,0.0,0.0,0.0,0.0,0.0,0.0,-0.8977499999999999,-0.1512,0.28822499999999995,-0.03450384,-0.08913491999999999,0.00670908
1779586834127829313,A_-,-0.9047248677497919,0.01244419756671957,1.4723772102749364,-2.912971974871056,-0.09019861574306695,-0.017627825445142728,0.0,0.0,0.0,0.0,0.0,0.0,0.0,-0.8977499999999999,-0.1512,0.28822499999999995,-0.03450384,-0.08913491999999999,0.00670908
1779586834162138700,A_-,-0.9073927190001996,0.01244419756671957,1.4723772102749364,-2.912971974871056,-0.09019861574306695,-0.017627825445142728,0.0,0.0,0.0,0.0,0.0,0.0,0.0,-0.9024749999999999,-0.1701,0.33075,-0.05079731999999999,-0.08146740000000001,0.00575064
1779586834162138700,A_-,-0.9102251320000505,0.01244419756671957,1.4723772102749364,-2.912971974871056,-0.09019861574306695,-0.017627825445142728,0.0,0.0,0.0,0.0,0.0,0.0,0.0,-0.9024749999999999,-0.1701,0.33075,-0.05079731999999999,-0.08146740000000001,0.00575064
1779586834162138700,A_-,-0.9129127022497414,0.01244419756671957,1.4723772102749364,-2.912971974871056,-0.09019861574306695,-0.017627825445142728,0.0,0.0,0.0,0.0,0.0,0.0,0.0,-0.9024749999999999,-0.1701,0.33075,-0.05079731999999999,-0.08146740000000001,0.00575064
1779586834197106361,A_-,-0.9155601542497607,0.01244419756671957,1.4723772102749364,-2.912971974871056,-0.09019861574306695,-0.017627825445142728,0.0,0.0,0.0,0.0,0.0,0.0,0.0,-0.9213749999999999,-0.16065,0.307125,-0.04408824,-0.08721804,0.0047922
1779586834197106361,A_-,-0.9183912952503306,0.01244419756671957,1.4723772102749364,-2.912971974871056,-0.09019861574306695,-0.017627825445142728,0.0,0.0,0.0,0.0,0.0,0.0,0.0,-0.9213749999999999,-0.16065,0.307125,-0.04408824,-0.08721804,0.0047922
1779586834197106361,A_-,-0.9210733777499627,0.01244419756671957,1.4723772102749364,-2.912971974871056,-0.09019861574306695,-0.017627825445142728,0.0,0.0,0.0,0.0,0.0,0.0,0.0,-0.9213749999999999,-0.16065,0.307125,-0.04408824,-0.08721804,0.0047922
1779586834222105741,A_-,-0.9237310212502052,0.01244419756671957,1.4723772102749364,-2.912971974871056,-0.09019861574306695,-0.017627825445142728,0.0,0.0,0.0,0.0,0.0,0.0,0.0,-0.9071999999999999,-0.189,0.307125,-0.052714199999999996,-0.08625959999999999,0.00862596
1779586834222105741,A_-,-0.9267031887502526,0.01244419756671957,1.4723772102749364,-2.912971974871056,-0.09019861574306695,-0.017627825445142728,0.0,0.0,0.0,0.0,0.0,0.0,0.0,-0.9071999999999999,-0.189,0.307125,-0.052714199999999996,-0.08625959999999999,0.00862596
1779586834222105741,A_-,-0.929368672000237,0.01244419756671957,1.4723772102749364,-2.912971974871056,-0.09019861574306695,-0.017627825445142728,0.0,0.0,0.0,0.0,0.0,0.0,0.0,-0.9071999999999999,-0.189,0.307125,-0.052714199999999996,-0.08625959999999999,0.00862596
1779586834262112617,A_-,-0.9320180679997065,0.01244419756671957,1.4723772102749364,-2.912971974871056,-0.09019861574306695,-0.017627825445142728,0.0,0.0,0.0,0.0,0.0,0.0,0.0,-0.911925,-0.14175,0.307125,-0.04217136,-0.0910518,0.00575064
1779586834262112617,A_-,-0.9347560682499534,0.01244419756671957,1.4723772102749364,-2.912971974871056,-0.09019861574306695,-0.017627825445142728,0.0,0.0,0.0,0.0,0.0,0.0,0.0,-0.911925,-0.14175,0.307125,-0.04217136,-0.0910518,0.00575064
1779586834262112617,A_-,-0.9373860089999653,0.01244419756671957,1.4723772102749364,-2.912971974871056,-0.09019861574306695,-0.017627825445142728,0.0,0.0,0.0,0.0,0.0,0.0,0.0,-0.911925,-0.14175,0.307125,-0.04217136,-0.0910518,0.00575064
1779586834292103290,A_-,-0.9399998300004881,0.01244419756671957,1.4723772102749364,-2.912971974871056,-0.09019861574306695,-0.017627825445142728,0.0,0.0,0.0,0.0,0.0,0.0,0.0,-0.8741249999999999,-0.165375,0.3024,-0.05463108,-0.08625959999999999,0.00575064
1779586834292103290,A_-,-0.9427632295000876,0.01244419756671957,1.4723772102749364,-2.912971974871056,-0.09019861574306695,-0.017627825445142728,0.0,0.0,0.0,0.0,0.0,0.0,0.0,-0.8741249999999999,-0.165375,0.3024,-0.05463108,-0.08625959999999999,0.00575064
1779586834292103290,A_-,-0.9454073057504502,0.01244419756671957,1.4723772102749364,-2.912971974871056,-0.09019861574306695,-0.017627825445142728,0.0,0.0,0.0,0.0,0.0,0.0,0.0,-0.8741249999999999,-0.165375,0.3024,-0.05463108,-0.08625959999999999,0.00575064
1779586834327104568,A_-,-0.9480223587497676,0.01244419756671957,1.4723772102749364,-2.912971974871056,-0.09019861574306695,-0.017627825445142728,0.0,0.0,0.0,0.0,0.0,0.0,0.0,-0.8977499999999999,-0.17482499999999998,0.278775,-0.04408824,-0.09201024,0.0047922
1779586834327104568,A_-,-0.9507940060002511,0.01244419756671957,1.4723772102749364,-2.912971974871056,-0.09019861574306695,-0.017627825445142728,0.0,0.0,0.0,0.0,0.0,0.0,0.0,-0.8977499999999999,-0.17482499999999998,0.278775,-0.04408824,-0.09201024,0.0047922
1779586834327104568,A_-,-0.9534328662502958,0.01244419756671957,1.4723772102749364,-2.912971974871056,-0.09019861574306695,-0.017627825445142728,0.0,0.0,0.0,0.0,0.0,0.0,0.0,-0.8977499999999999,-0.17482499999999998,0.278775,-0.04408824,-0.09201024,0.0047922
1779586834352105140,A_-,-0.9560747182504201,0.01244419756671957,1.4723772102749364,-2.912971974871056,-0.09019861574306695,-0.017627825445142728,0.0,0.0,0.0,0.0,0.0,0.0,0.0,-0.9260999999999999,-0.165375,0.316575,-0.047922,-0.08530115999999999,0.00862596
1779586834352105140,A_-,-0.9588257982504729,0.01244419756671957,1.4723772102749364,-2.912971974871056,-0.09019861574306695,-0.017627825445142728,0.0,0.0,0.0,0.0,0.0,0.0,0.0,-0.9260999999999999,-0.165375,0.316575,-0.047922,-0.08530115999999999,0.00862596
1779586834352105140,A_-,-0.9614890415004993,0.01244419756671957,1.4723772102749364,-2.912971974871056,-0.09019861574306695,-0.017627825445142728,0.0,0.0,0.0,0.0,0.0,0.0,0.0,-0.9260999999999999,-0.165375,0.316575,-0.047922,-0.08530115999999999,0.00862596
1779586834388237476,A_-,-0.9641531167499124,0.01244419756671957,1.4723772102749364,-2.912971974871056,-0.09019861574306695,-0.017627825445142728,0.0,0.0,0.0,0.0,0.0,0.0,0.0,-0.91665,-0.155925,0.3024,-0.05079731999999999,-0.08625959999999999,0.00575064
1779586834388237476,A_-,-0.9670929577505376,0.01244419756671957,1.4723772102749364,-2.912971974871056,-0.09019861574306695,-0.017627825445142728,0.0,0.0,0.0,0.0,0.0,0.0,0.0,-0.91665,-0.155925,0.3024,-0.05079731999999999,-0.08625959999999999,0.00575064
1779586834388237476,A_-,-0.96978893575033,0.01244419756671957,1.4723772102749364,-2.912971974871056,-0.09019861574306695,-0.017627825445142728,0.0,0.0,0.0,0.0,0.0,0.0,0.0,-0.91665,-0.155925,0.3024,-0.05079731999999999,-0.08625959999999999,0.00575064
1779586834417106866,A_-,-0.9724681785000939,0.01244419756671957,1.4723772102749364,-2.912971974871056,-0.09019861574306695,-0.017627825445142728,0.0,0.0,0.0,0.0,0.0,0.0,0.0,-0.91665,-0.189,0.27405,-0.05175576,-0.08625959999999999,0.00575064
1779586834417106866,A_-,-0.975386740000431,0.01244419756671957,1.4723772102749364,-2.912971974871056,-0.09019861574306695,-0.017627825445142728,0.0,0.0,0.0,0.0,0.0,0.0,0.0,-0.91665,-0.189,0.27405,-0.05175576,-0.08625959999999999,0.00575064
1779586834417106866,A_-,-0.9781065812503584,0.01244419756671957,1.4723772102749364,-2.912971974871056,-0.09019861574306695,-0.017627825445142728,0.0,0.0,0.0,0.0,0.0,0.0,0.0,-0.91665,-0.189,0.27405,-0.05175576,-0.08625959999999999,0.00575064
1779586834457105398,A_-,-0.9807315859998198,0.01244419756671957,1.4723772102749364,-2.912971974871056,-0.09019861574306695,-0.017627825445142728,0.0,0.0,0.0,0.0,0.0,0.0,0.0,-0.8788499999999999,-0.17482499999999998,0.31185,-0.048880440000000004,-0.07955052,0.00095844
1779586834457105398,A_-,-0.9835377360004713,0.01244419756671957,1.4723772102749364,-2.912971974871056,-0.09019861574306695,-0.017627825445142728,0.0,0.0,0.0,0.0,0.0,0.0,0.0,-0.8788499999999999,-0.17482499999999998,0.31185,-0.048880440000000004,-0.07955052,0.00095844
1779586834457105398,A_-,-0.9862259702504161,0.01244419756671957,1.4723772102749364,-2.912971974871056,-0.09019861574306695,-0.017627825445142728,0.0,0.0,0.0,0.0,0.0,0.0,0.0,-0.8788499999999999,-0.17482499999999998,0.31185,-0.048880440000000004,-0.07955052,0.00095844
1779586834492097139,A_-,-0.9888876454997444,0.01244419756671957,1.4723772102749364,-2.912971974871056,-0.09019861574306695,-0.017627825445142728,0.0,0.0,0.0,0.0,0.0,0.0,0.0,-0.8977499999999999,-0.155925,0.31185,-0.04696356,-0.09201024,0.00862596
1779586834492097139,A_-,-0.9917168587498963,0.01244419756671957,1.4723772102749364,-2.912971974871056,-0.09019861574306695,-0.017627825445142728,0.0,0.0,0.0,0.0,0.0,0.0,0.0,-0.8977499999999999,-0.155925,0.31185,-0.04696356,-0.09201024,0.00862596
1779586834492097139,A_-,-0.9943833097504466,0.01244419756671957,1.4723772102749364,-2.912971974871056,-0.09019861574306695,-0.017627825445142728,0.0,0.0,0.0,0.0,0.0,0.0,0.0,-0.8977499999999999,-0.155925,0.31185,-0.04696356,-0.09201024,0.00862596
1779586834522110223,A_-,-0.9970524489999661,0.01244419756671957,1.4723772102749364,-2.912971974871056,-0.09019861574306695,-0.017627825445142728,0.0,0.0,0.0,0.0,0.0,0.0,0.0,-0.9024749999999999,-0.1512,0.29767499999999997,-0.04696356,-0.08721804,-0.00670908
1779586834522110223,A_-,-0.9999157165002543,0.01244419756671957,1.4723772102749364,-2.912971974871056,-0.09019861574306695,-0.017627825445142728,0.0,0.0,0.0,0.0,0.0,0.0,0.0,-0.9024749999999999,-0.1512,0.29767499999999997,-0.04696356,-0.08721804,-0.00670908
1779586834522110223,A_-,-1.0025895355001921,0.01244419756671957,1.4723772102749364,-2.912971974871056,-0.09019861574306695,-0.017627825445142728,0.0,0.0,0.0,0.0,0.0,0.0,0.0,-0.9024749999999999,-0.1512,0.29767499999999997,-0.04696356,-0.08721804,-0.00670908
1779586834557156562,A_-,-1.0052615065005739,0.01244419756671957,1.4723772102749364,-2.912971974871056,-0.09019861574306695,-0.017627825445142728,0.0,0.0,0.0,0.0,0.0,0.0,0.0,-0.9071999999999999,-0.165375,0.316575,-0.04696356,-0.08338428,0.023961
1779586834557156562,A_-,-1.0080937994998749,0.01244419756671957,1.4723772102749364,-2.912971974871056,-0.09019861574306695,-0.017627825445142728,0.0,0.0,0.0,0.0,0.0,0.0,0.0,-0.9071999999999999,-0.165375,0.316575,-0.04696356,-0.08338428,0.023961
1779586834557156562,A_-,-1.0107788497498404,0.01244419756671957,1.4723772102749364,-2.912971974871056,-0.09019861574306695,-0.017627825445142728,0.0,0.0,0.0,0.0,0.0,0.0,0.0,-0.9071999999999999,-0.165375,0.316575,-0.04696356,-0.08338428,0.023961
1779586834587100505,A_-,-1.0134231820002242,0.01244419756671957,1.4723772102749364,-2.912971974871056,-0.09019861574306695,-0.017627825445142728,0.0,0.0,0.0,0.0,0.0,0.0,0.0,-0.8788499999999999,-0.1512,0.29767499999999997,-0.05463108,-0.09009336,0.00766752
1779586834587100505,A_-,-1.016253906750535,0.01244419756671957,1.4723772102749364,-2.912971974871056,-0.09019861574306695,-0.017627825445142728,0.0,0.0,0.0,0.0,0.0,0.0,0.0,-0.8788499999999999,-0.1512,0.29767499999999997,-0.05463108,-0.09009336,0.00766752
1779586834587100505,A_-,-1.0189325495002777,0.01244419756671957,1.4723772102749364,-2.912971974871056,-0.09019861574306695,-0.017627825445142728,0.0,0.0,0.0,0.0,0.0,0.0,0.0,-0.8788499999999999,-0.1512,0.29767499999999997,-0.05463108,-0.09009336,0.00766752
1779586834622090101,A_-,-1.0215787055003602,0.01244419756671957,1.4723772102749364,-2.912971974871056,-0.09019861574306695,-0.017627825445142728,0.0,0.0,0.0,0.0,0.0,0.0,0.0,-0.864675,-0.1512,0.3213,-0.04600512,-0.08242584,0.0047922
1779586834622090101,A_-,-1.0244454692501677,0.01244419756671957,1.4723772102749364,-2.912971974871056,-0.09019861574306695,-0.017627825445142728,0.0,0.0,0.0,0.0,0.0,0.0,0.0,-0.864675,-0.1512,0.3213,-0.04600512,-0.08242584,0.0047922
1779586834622090101,A_-,-1.0271469270001035,0.01244419756671957,1.4723772102749364,-2.912971974871056,-0.09019861574306695,-0.017627825445142728,0.0,0.0,0.0,0.0,0.0,0.0,0.0,-0.864675,-0.1512,0.3213,-0.04600512,-0.08242584,0.0047922
1779586834652106523,A_-,-1.0298324655004762,0.01244419756671957,1.4723772102749364,-2.912971974871056,-0.09019861574306695,-0.017627825445142728,0.0,0.0,0.0,0.0,0.0,0.0,0.0,-0.8977499999999999,-0.16065,0.29295,-0.05079731999999999,-0.08721804,0.00191688
1779586834652106523,A_-,-1.0327521469998828,0.01244419756671957,1.4723772102749364,-2.912971974871056,-0.09019861574306695,-0.017627825445142728,0.0,0.0,0.0,0.0,0.0,0.0,0.0,-0.8977499999999999,-0.16065,0.29295,-0.05079731999999999,-0.08721804,0.00191688
1779586834652106523,A_-,-1.0354594927503058,0.01244419756671957,1.4723772102749364,-2.912971974871056,-0.09019861574306695,-0.017627825445142728,0.0,0.0,0.0,0.0,0.0,0.0,0.0,-0.8977499999999999,-0.16065,0.29295,-0.05079731999999999,-0.08721804,0.00191688
1779586834687083721,A_-,-1.0381114484998761,0.01244419756671957,1.4723772102749364,-2.912971974871056,-0.09019861574306695,-0.017627825445142728,0.0,0.0,0.0,0.0,0.0,0.0,0.0,-0.9213749999999999,-0.146475,0.29767499999999997,-0.05175576,-0.08817648,0.00862596
1779586834687083721,A_-,-1.0410405377497227,0.01244419756671957,1.4723772102749364,-2.912971974871056,-0.09019861574306695,-0.017627825445142728,0.0,0.0,0.0,0.0,0.0,0.0,0.0,-0.9213749999999999,-0.146475,0.29767499999999997,-0.05175576,-0.08817648,0.00862596
1779586834687083721,A_-,-1.0438212324997949,0.01244419756671957,1.4723772102749364,-2.912971974871056,-0.09019861574306695,-0.017627825445142728,0.0,0.0,0.0,0.0,0.0,0.0,0.0,-0.9213749999999999,-0.146475,0.29767499999999997,-0.05175576,-0.08817648,0.00862596
1779586834707098245,A_-,-1.0465052990002732,0.01244419756671957,1.4723772102749364,-2.912971974871056,-0.09019861574306695,-0.017627825445142728,0.0,0.0,0.0,0.0,0.0,0.0,0.0,-0.9213749999999999,-0.155925,0.3213,-0.05175576,-0.09488556,0.0047922
1779586834707098245,A_-,-1.0494452597504278,0.01244419756671957,1.4723772102749364,-2.912971974871056,-0.09019861574306695,-0.017627825445142728,0.0,0.0,0.0,0.0,0.0,0.0,0.0,-0.9213749999999999,-0.155925,0.3213,-0.05175576,-0.09488556,0.0047922
1779586834707098245,A_-,-1.0521705007504352,0.01244419756671957,1.4723772102749364,-2.912971974871056,-0.09019861574306695,-0.017627825445142728,0.0,0.0,0.0,0.0,0.0,0.0,0.0,-0.9213749999999999,-0.155925,0.3213,-0.05175576,-0.09488556,0.0047922
1779586834752085685,A_-,-1.054870422750355,0.01244419756671957,1.4723772102749364,-2.912971974871056,-0.09019861574306695,-0.017627825445142728,0.0,0.0,0.0,0.0,0.0,0.0,0.0,-0.9213749999999999,-0.1701,0.28822499999999995,-0.04696356,-0.0910518,0.00191688
1779586834752085685,A_-,-1.0578049197501969,0.01244419756671957,1.4723772102749364,-2.912971974871056,-0.09019861574306695,-0.017627825445142728,0.0,0.0,0.0,0.0,0.0,0.0,0.0,-0.9213749999999999,-0.1701,0.28822499999999995,-0.04696356,-0.0910518,0.00191688
1779586834752085685,A_-,-1.060541520249899,0.01244419756671957,1.4723772102749364,-2.912971974871056,-0.09019861574306695,-0.017627825445142728,0.0,0.0,0.0,0.0,0.0,0.0,0.0,-0.9213749999999999,-0.1701,0.28822499999999995,-0.04696356,-0.0910518,0.00191688
1779586834787093162,A_-,-1.0632209870000224,0.01244419756671957,1.4723772102749364,-2.912971974871056,-0.09019861574306695,-0.017627825445142728,0.0,0.0,0.0,0.0,0.0,0.0,0.0,-0.8977499999999999,-0.16065,0.3213,-0.0383376,-0.08625959999999999,0.01245972
1779586834787093162,A_-,-1.0661600437497327,0.01244419756671957,1.4723772102749364,-2.912971974871056,-0.09019861574306695,-0.017627825445142728,0.0,0.0,0.0,0.0,0.0,0.0,0.0,-0.8977499999999999,-0.16065,0.3213,-0.0383376,-0.08625959999999999,0.01245972
1779586834787093162,A_-,-1.0688783169998715,0.01244419756671957,1.4723772102749364,-2.912971974871056,-0.09019861574306695,-0.017627825445142728,0.0,0.0,0.0,0.0,0.0,0.0,0.0,-0.8977499999999999,-0.16065,0.3213,-0.0383376,-0.08625959999999999,0.01245972
1779586834822074413,A_-,-1.071553896000296,0.01244419756671957,1.4723772102749364,-2.912971974871056,-0.09019861574306695,-0.017627825445142728,0.0,0.0,0.0,0.0,0.0,0.0,0.0,-0.8741249999999999,-0.184275,0.31185,-0.04983888,-0.08530115999999999,0.00670908
1779586834822074413,A_-,-1.074513327999739,0.01244419756671957,1.4723772102749364,-2.912971974871056,-0.09019861574306695,-0.017627825445142728,0.0,0.0,0.0,0.0,0.0,0.0,0.0,-0.8741249999999999,-0.184275,0.31185,-0.04983888,-0.08530115999999999,0.00670908
1779586834822074413,A_-,-1.077258264250304,0.01244419756671957,1.4723772102749364,-2.912971974871056,-0.09019861574306695,-0.017627825445142728,0.0,0.0,0.0,0.0,0.0,0.0,0.0,-0.8741249999999999,-0.184275,0.31185,-0.04983888,-0.08530115999999999,0.00670908
1779586834857089996,A_-,-1.0800128720002249,0.01244419756671957,1.4723772102749364,-2.912971974871056,-0.09019861574306695,-0.017627825445142728,0.0,0.0,0.0,0.0,0.0,0.0,0.0,-0.911925,-0.155925,0.29767499999999997,-0.047922,-0.08625959999999999,0.00095844
1779586834857089996,A_-,-1.0829316817498693,0.01244419756671957,1.4723772102749364,-2.912971974871056,-0.09019861574306695,-0.017627825445142728,0.0,0.0,0.0,0.0,0.0,0.0,0.0,-0.911925,-0.155925,0.29767499999999997,-0.047922,-0.08625959999999999,0.00095844
1779586834857089996,A_-,-1.0856698502502695,0.01244419756671957,1.4723772102749364,-2.912971974871056,-0.09019861574306695,-0.017627825445142728,0.0,0.0,0.0,0.0,0.0,0.0,0.0,-0.911925,-0.155925,0.29767499999999997,-0.047922,-0.08625959999999999,0.00095844
1779586834887093067,A_-,-1.0883537407498807,0.01244419756671957,1.4723772102749364,-2.912971974871056,-0.09019861574306695,-0.017627825445142728,0.0,0.0,0.0,0.0,0.0,0.0,0.0,-0.91665,-0.184275,0.3024,-0.048880440000000004,-0.07571676,0.00766752
1779586834887093067,A_-,-1.0915345085004446,0.01244419756671957,1.4723772102749364,-2.912971974871056,-0.09019861574306695,-0.017627825445142728,0.0,0.0,0.0,0.0,0.0,0.0,0.0,-0.91665,-0.184275,0.3024,-0.048880440000000004,-0.07571676,0.00766752
1779586834887093067,A_-,-1.0942689809999138,0.01244419756671957,1.4723772102749364,-2.912971974871056,-0.09019861574306695,-0.017627825445142728,0.0,0.0,0.0,0.0,0.0,0.0,0.0,-0.91665,-0.184275,0.3024,-0.048880440000000004,-0.07571676,0.00766752
1779586834922078847,A_-,-1.0971022180001455,0.01244419756671957,1.4723772102749364,-2.912971974871056,-0.09019861574306695,-0.017627825445142728,0.0,0.0,0.0,0.0,0.0,0.0,0.0,-0.893025,-0.155925,0.3024,-0.047922,-0.08913491999999999,0.00862596
1779586834922078847,A_-,-1.1005189447505472,0.01244419756671957,1.4723772102749364,-2.912971974871056,-0.09019861574306695,-0.017627825445142728,0.0,0.0,0.0,0.0,0.0,0.0,0.0,-0.893025,-0.155925,0.3024,-0.047922,-0.08913491999999999,0.00862596
1779586834922078847,A_-,-1.103230122250352,0.01244419756671957,1.4723772102749364,-2.912971974871056,-0.09019861574306695,-0.017627825445142728,0.0,0.0,0.0,0.0,0.0,0.0,0.0,-0.893025,-0.155925,0.3024,-0.047922,-0.08913491999999999,0.00862596
